ApexStudio/app/src/main/assets/luts/epic_dawn.cube
# ApexStudio filter: epic_dawn
LUT_3D_SIZE 17
DOMAIN_MIN 0.0 0.0 0.0
DOMAIN_MAX 1.0 1.0 1.0
0.045000 0.000000 0.000000
0.109817 0.000000 0.000000
0.179450 0.000000 0.000000
0.251025 0.000000 0.000000
0.323891 0.000000 0.000000
0.397732 0.000000 0.000000
0.472359 0.000000 0.000000
0.547647 0.000000 0.000000
0.623506 0.000000 0.000000
0.699866 0.000000 0.000000
0.776675 0.000000 0.000000
0.853890 0.000000 0.000000
0.931476 0.000000 0.000000
1.000000 0.000000 0.000000
1.000000 0.000000 0.000000
1.000000 0.000000 0.000000
1.000000 0.000000 0.000000
0.045000 0.000000 0.000000
0.109817 0.000000 0.000000
0.179450 0.000000 0.000000
0.251025 0.000000 0.000000
0.323891 0.000000 0.000000
0.397732 0.000000 0.000000
0.472359 0.000000 0.000000
0.547647 0.000000 0.000000
0.623506 0.000000 0.000000
0.699866 0.000000 0.000000
0.776675 0.000000 0.000000
0.853890 0.000000 0.000000
0.931476 0.000000 0.000000
1.000000 0.000000 0.000000
1.000000 0.000000 0.000000
1.000000 0.000000 0.000000
1.000000 0.000000 0.000000
0.045000 0.063750 0.000000
0.109817 0.063750 0.000000
0.179450 0.063750 0.000000
0.251025 0.063750 0.000000
0.323891 0.063750 0.000000
0.397732 0.063750 0.000000
0.472359 0.063750 0.000000
0.547647 0.063750 0.000000
0.623506 0.063750 0.000000
0.699866 0.063750 0.000000
0.776675 0.063750 0.000000
0.853890 0.063750 0.000000
0.931476 0.063750 0.000000
1.000000 0.063750 0.000000
1.000000 0.063750 0.000000
1.000000 0.063750 0.000000
1.000000 0.063750 0.000000
0.045000 0.129375 0.000000
0.109817 0.129375 0.000000
0.179450 0.129375 0.000000
0.251025 0.129375 0.000000
0.323891 0.129375 0.000000
0.397732 0.129375 0.000000
0.472359 0.129375 0.000000
0.547647 0.129375 0.000000
0.623506 0.129375 0.000000
0.699866 0.129375 0.000000
0.776675 0.129375 0.000000
0.853890 0.129375 0.000000
0.931476 0.129375 0.000000
1.000000 0.129375 0.000000
1.000000 0.129375 0.000000
1.000000 0.129375 0.000000
1.000000 0.129375 0.000000
0.045000 0.195000 0.000000
0.109817 0.195000 0.000000
0.179450 0.195000 0.000000
0.251025 0.195000 0.000000
0.323891 0.195000 0.000000
0.397732 0.195000 0.000000
0.472359 0.195000 0.000000
0.547647 0.195000 0.000000
0.623506 0.195000 0.000000
0.699866 0.195000 0.000000
0.776675 0.195000 0.000000
0.853890 0.195000 0.000000
0.931476 0.195000 0.000000
1.000000 0.195000 0.000000
1.000000 0.195000 0.000000
1.000000 0.195000 0.000000
1.000000 0.195000 0.000000
0.045000 0.260625 0.000000
0.109817 0.260625 0.000000
0.179450 0.260625 0.000000
0.251025 0.260625 0.000000
0.323891 0.260625 0.000000
0.397732 0.260625 0.000000
0.472359 0.260625 0.000000
0.547647 0.260625 0.000000
0.623506 0.260625 0.000000
0.699866 0.260625 0.000000
0.776675 0.260625 0.000000
0.853890 0.260625 0.000000
0.931476 0.260625 0.000000
1.000000 0.260625 0.000000
1.000000 0.260625 0.000000
1.000000 0.260625 0.000000
1.000000 0.260625 0.000000
0.045000 0.326250 0.000000
0.109817 0.326250 0.000000
0.179450 0.326250 0.000000
0.251025 0.326250 0.000000
0.323891 0.326250 0.000000
0.397732 0.326250 0.000000
0.472359 0.326250 0.000000
0.547647 0.326250 0.000000
0.623506 0.326250 0.000000
0.699866 0.326250 0.000000
0.776675 0.326250 0.000000
0.853890 0.326250 0.000000
0.931476 0.326250 0.000000
1.000000 0.326250 0.000000
1.000000 0.326250 0.000000
1.000000 0.326250 0.000000
1.000000 0.326250 0.000000
0.045000 0.391875 0.000000
0.109817 0.391875 0.000000
0.179450 0.391875 0.000000
0.251025 0.391875 0.000000
0.323891 0.391875 0.000000
0.397732 0.391875 0.000000
0.472359 0.391875 0.000000
0.547647 0.391875 0.000000
0.623506 0.391875 0.000000
0.699866 0.391875 0.000000
0.776675 0.391875 0.000000
0.853890 0.391875 0.000000
0.931476 0.391875 0.000000
1.000000 0.391875 0.000000
1.000000 0.391875 0.000000
1.000000 0.391875 0.000000
1.000000 0.391875 0.000000
0.045000 0.457500 0.000000
0.109817 0.457500 0.000000
0.179450 0.457500 0.000000
0.251025 0.457500 0.000000
0.323891 0.457500 0.000000
0.397732 0.457500 0.000000
0.472359 0.457500 0.000000
0.547647 0.457500 0.000000
0.623506 0.457500 0.000000
0.699866 0.457500 0.000000
0.776675 0.457500 0.000000
0.853890 0.457500 0.000000
0.931476 0.457500 0.000000
1.000000 0.457500 0.000000
1.000000 0.457500 0.000000
1.000000 0.457500 0.000000
1.000000 0.457500 0.000000
0.045000 0.523125 0.000000
0.109817 0.523125 0.000000
0.179450 0.523125 0.000000
0.251025 0.523125 0.000000
0.323891 0.523125 0.000000
0.397732 0.523125 0.000000
0.472359 0.523125 0.000000
0.547647 0.523125 0.000000
0.623506 0.523125 0.000000
0.699866 0.523125 0.000000
0.776675 0.523125 0.000000
0.853890 0.523125 0.000000
0.931476 0.523125 0.000000
1.000000 0.523125 0.000000
1.000000 0.523125 0.000000
1.000000 0.523125 0.000000
1.000000 0.523125 0.000000
0.045000 0.588750 0.000000
0.109817 0.588750 0.000000
0.179450 0.588750 0.000000
0.251025 0.588750 0.000000
0.323891 0.588750 0.000000
0.397732 0.588750 0.000000
0.472359 0.588750 0.000000
0.547647 0.588750 0.000000
0.623506 0.588750 0.000000
0.699866 0.588750 0.000000
0.776675 0.588750 0.000000
0.853890 0.588750 0.000000
0.931476 0.588750 0.000000
1.000000 0.588750 0.000000
1.000000 0.588750 0.000000
1.000000 0.588750 0.000000
1.000000 0.588750 0.000000
0.045000 0.654375 0.000000
0.109817 0.654375 0.000000
0.179450 0.654375 0.000000
0.251025 0.654375 0.000000
0.323891 0.654375 0.000000
0.397732 0.654375 0.000000
0.472359 0.654375 0.000000
0.547647 0.654375 0.000000
0.623506 0.654375 0.000000
0.699866 0.654375 0.000000
0.776675 0.654375 0.000000
0.853890 0.654375 0.000000
0.931476 0.654375 0.000000
1.000000 0.654375 0.000000
1.000000 0.654375 0.000000
1.000000 0.654375 0.000000
1.000000 0.654375 0.000000
0.045000 0.720000 0.000000
0.109817 0.720000 0.000000
0.179450 0.720000 0.000000
0.251025 0.720000 0.000000
0.323891 0.720000 0.000000
0.397732 0.720000 0.000000
0.472359 0.720000 0.000000
0.547647 0.720000 0.000000
0.623506 0.720000 0.000000
0.699866 0.720000 0.000000
0.776675 0.720000 0.000000
0.853890 0.720000 0.000000
0.931476 0.720000 0.000000
1.000000 0.720000 0.000000
1.000000 0.720000 0.000000
1.000000 0.720000 0.000000
1.000000 0.720000 0.000000
0.045000 0.785625 0.000000
0.109817 0.785625 0.000000
0.179450 0.785625 0.000000
0.251025 0.785625 0.000000
0.323891 0.785625 0.000000
0.397732 0.785625 0.000000
0.472359 0.785625 0.000000
0.547647 0.785625 0.000000
0.623506 0.785625 0.000000
0.699866 0.785625 0.000000
0.776675 0.785625 0.000000
0.853890 0.785625 0.000000
0.931476 0.785625 0.000000
1.000000 0.785625 0.000000
1.000000 0.785625 0.000000
1.000000 0.785625 0.000000
1.000000 0.785625 0.000000
0.045000 0.851250 0.000000
0.109817 0.851250 0.000000
0.179450 0.851250 0.000000
0.251025 0.851250 0.000000
0.323891 0.851250 0.000000
0.397732 0.851250 0.000000
0.472359 0.851250 0.000000
0.547647 0.851250 0.000000
0.623506 0.851250 0.000000
0.699866 0.851250 0.000000
0.776675 0.851250 0.000000
0.853890 0.851250 0.000000
0.931476 0.851250 0.000000
1.000000 0.851250 0.000000
1.000000 0.851250 0.000000
1.000000 0.851250 0.000000
1.000000 0.851250 0.000000
0.045000 0.916875 0.000000
0.109817 0.916875 0.000000
0.179450 0.916875 0.000000
0.251025 0.916875 0.000000
0.323891 0.916875 0.000000
0.397732 0.916875 0.000000
0.472359 0.916875 0.000000
0.547647 0.916875 0.000000
0.623506 0.916875 0.000000
0.699866 0.916875 0.000000
0.776675 0.916875 0.000000
0.853890 0.916875 0.000000
0.931476 0.916875 0.000000
1.000000 0.916875 0.000000
1.000000 0.916875 0.000000
1.000000 0.916875 0.000000
1.000000 0.916875 0.000000
0.045000 0.982500 0.000000
0.109817 0.982500 0.000000
0.179450 0.982500 0.000000
0.251025 0.982500 0.000000
0.323891 0.982500 0.000000
0.397732 0.982500 0.000000
0.472359 0.982500 0.000000
0.547647 0.982500 0.000000
0.623506 0.982500 0.000000
0.699866 0.982500 0.000000
0.776675 0.982500 0.000000
0.853890 0.982500 0.000000
0.931476 0.982500 0.000000
1.000000 0.982500 0.000000
1.000000 0.982500 0.000000
1.000000 0.982500 0.000000
1.000000 0.982500 0.000000
0.045000 0.000000 0.000000
0.109817 0.000000 0.000000
0.179450 0.000000 0.000000
0.251025 0.000000 0.000000
0.323891 0.000000 0.000000
0.397732 0.000000 0.000000
0.472359 0.000000 0.000000
0.547647 0.000000 0.000000
0.623506 0.000000 0.000000
0.699866 0.000000 0.000000
0.776675 0.000000 0.000000
0.853890 0.000000 0.000000
0.931476 0.000000 0.000000
1.000000 0.000000 0.000000
1.000000 0.000000 0.000000
1.000000 0.000000 0.000000
1.000000 0.000000 0.000000
0.045000 0.000000 0.000000
0.109817 0.000000 0.000000
0.179450 0.000000 0.000000
0.251025 0.000000 0.000000
0.323891 0.000000 0.000000
0.397732 0.000000 0.000000
0.472359 0.000000 0.000000
0.547647 0.000000 0.000000
0.623506 0.000000 0.000000
0.699866 0.000000 0.000000
0.776675 0.000000 0.000000
0.853890 0.000000 0.000000
0.931476 0.000000 0.000000
1.000000 0.000000 0.000000
1.000000 0.000000 0.000000
1.000000 0.000000 0.000000
1.000000 0.000000 0.000000
0.045000 0.063750 0.000000
0.109817 0.063750 0.000000
0.179450 0.063750 0.000000
0.251025 0.063750 0.000000
0.323891 0.063750 0.000000
0.397732 0.063750 0.000000
0.472359 0.063750 0.000000
0.547647 0.063750 0.000000
0.623506 0.063750 0.000000
0.699866 0.063750 0.000000
0.776675 0.063750 0.000000
0.853890 0.063750 0.000000
0.931476 0.063750 0.000000
1.000000 0.063750 0.000000
1.000000 0.063750 0.000000
1.000000 0.063750 0.000000
1.000000 0.063750 0.000000
0.045000 0.129375 0.000000
0.109817 0.129375 0.000000
0.179450 0.129375 0.000000
0.251025 0.129375 0.000000
0.323891 0.129375 0.000000
0.397732 0.129375 0.000000
0.472359 0.129375 0.000000
0.547647 0.129375 0.000000
0.623506 0.129375 0.000000
0.699866 0.129375 0.000000
0.776675 0.129375 0.000000
0.853890 0.129375 0.000000
0.931476 0.129375 0.000000
1.000000 0.129375 0.000000
1.000000 0.129375 0.000000
1.000000 0.129375 0.000000
1.000000 0.129375 0.000000
0.045000 0.195000 0.000000
0.109817 0.195000 0.000000
0.179450 0.195000 0.000000
0.251025 0.195000 0.000000
0.323891 0.195000 0.000000
0.397732 0.195000 0.000000
0.472359 0.195000 0.000000
0.547647 0.195000 0.000000
0.623506 0.195000 0.000000
0.699866 0.195000 0.000000
0.776675 0.195000 0.000000
0.853890 0.195000 0.000000
0.931476 0.195000 0.000000
1.000000 0.195000 0.000000
1.000000 0.195000 0.000000
1.000000 0.195000 0.000000
1.000000 0.195000 0.000000
0.045000 0.260625 0.000000
0.109817 0.260625 0.000000
0.179450 0.260625 0.000000
0.251025 0.260625 0.000000
0.323891 0.260625 0.000000
0.397732 0.260625 0.000000
0.472359 0.260625 0.000000
0.547647 0.260625 0.000000
0.623506 0.260625 0.000000
0.699866 0.260625 0.000000
0.776675 0.260625 0.000000
0.853890 0.260625 0.000000
0.931476 0.260625 0.000000
1.000000 0.260625 0.000000
1.000000 0.260625 0.000000
1.000000 0.260625 0.000000
1.000000 0.260625 0.000000
0.045000 0.326250 0.000000
0.109817 0.326250 0.000000
0.179450 0.326250 0.000000
0.251025 0.326250 0.000000
0.323891 0.326250 0.000000
0.397732 0.326250 0.000000
0.472359 0.326250 0.000000
0.547647 0.326250 0.000000
0.623506 0.326250 0.000000
0.699866 0.326250 0.000000
0.776675 0.326250 0.000000
0.853890 0.326250 0.000000
0.931476 0.326250 0.000000
1.000000 0.326250 0.000000
1.000000 0.326250 0.000000
1.000000 0.326250 0.000000
1.000000 0.326250 0.000000
0.045000 0.391875 0.000000
0.109817 0.391875 0.000000
0.179450 0.391875 0.000000
0.251025 0.391875 0.000000
0.323891 0.391875 0.000000
0.397732 0.391875 0.000000
0.472359 0.391875 0.000000
0.547647 0.391875 0.000000
0.623506 0.391875 0.000000
0.699866 0.391875 0.000000
0.776675 0.391875 0.000000
0.853890 0.391875 0.000000
0.931476 0.391875 0.000000
1.000000 0.391875 0.000000
1.000000 0.391875 0.000000
1.000000 0.391875 0.000000
1.000000 0.391875 0.000000
0.045000 0.457500 0.000000
0.109817 0.457500 0.000000
0.179450 0.457500 0.000000
0.251025 0.457500 0.000000
0.323891 0.457500 0.000000
0.397732 0.457500 0.000000
0.472359 0.457500 0.000000
0.547647 0.457500 0.000000
0.623506 0.457500 0.000000
0.699866 0.457500 0.000000
0.776675 0.457500 0.000000
0.853890 0.457500 0.000000
0.931476 0.457500 0.000000
1.000000 0.457500 0.000000
1.000000 0.457500 0.000000
1.000000 0.457500 0.000000
1.000000 0.457500 0.000000
0.045000 0.523125 0.000000
0.109817 0.523125 0.000000
0.179450 0.523125 0.000000
0.251025 0.523125 0.000000
0.323891 0.523125 0.000000
0.397732 0.523125 0.000000
0.472359 0.523125 0.000000
0.547647 0.523125 0.000000
0.623506 0.523125 0.000000
0.699866 0.523125 0.000000
0.776675 0.523125 0.000000
0.853890 0.523125 0.000000
0.931476 0.523125 0.000000
1.000000 0.523125 0.000000
1.000000 0.523125 0.000000
1.000000 0.523125 0.000000
1.000000 0.523125 0.000000
0.045000 0.588750 0.000000
0.109817 0.588750 0.000000
0.179450 0.588750 0.000000
0.251025 0.588750 0.000000
0.323891 0.588750 0.000000
0.397732 0.588750 0.000000
0.472359 0.588750 0.000000
0.547647 0.588750 0.000000
0.623506 0.588750 0.000000
0.699866 0.588750 0.000000
0.776675 0.588750 0.000000
0.853890 0.588750 0.000000
0.931476 0.588750 0.000000
1.000000 0.588750 0.000000
1.000000 0.588750 0.000000
1.000000 0.588750 0.000000
1.000000 0.588750 0.000000
0.045000 0.654375 0.000000
0.109817 0.654375 0.000000
0.179450 0.654375 0.000000
0.251025 0.654375 0.000000
0.323891 0.654375 0.000000
0.397732 0.654375 0.000000
0.472359 0.654375 0.000000
0.547647 0.654375 0.000000
0.623506 0.654375 0.000000
0.699866 0.654375 0.000000
0.776675 0.654375 0.000000
0.853890 0.654375 0.000000
0.931476 0.654375 0.000000
1.000000 0.654375 0.000000
1.000000 0.654375 0.000000
1.000000 0.654375 0.000000
1.000000 0.654375 0.000000
0.045000 0.720000 0.000000
0.109817 0.720000 0.000000
0.179450 0.720000 0.000000
0.251025 0.720000 0.000000
0.323891 0.720000 0.000000
0.397732 0.720000 0.000000
0.472359 0.720000 0.000000
0.547647 0.720000 0.000000
0.623506 0.720000 0.000000
0.699866 0.720000 0.000000
0.776675 0.720000 0.000000
0.853890 0.720000 0.000000
0.931476 0.720000 0.000000
1.000000 0.720000 0.000000
1.000000 0.720000 0.000000
1.000000 0.720000 0.000000
1.000000 0.720000 0.000000
0.045000 0.785625 0.000000
0.109817 0.785625 0.000000
0.179450 0.785625 0.000000
0.251025 0.785625 0.000000
0.323891 0.785625 0.000000
0.397732 0.785625 0.000000
0.472359 0.785625 0.000000
0.547647 0.785625 0.000000
0.623506 0.785625 0.000000
0.699866 0.785625 0.000000
0.776675 0.785625 0.000000
0.853890 0.785625 0.000000
0.931476 0.785625 0.000000
1.000000 0.785625 0.000000
1.000000 0.785625 0.000000
1.000000 0.785625 0.000000
1.000000 0.785625 0.000000
0.045000 0.851250 0.000000
0.109817 0.851250 0.000000
0.179450 0.851250 0.000000
0.251025 0.851250 0.000000
0.323891 0.851250 0.000000
0.397732 0.851250 0.000000
0.472359 0.851250 0.000000
0.547647 0.851250 0.000000
0.623506 0.851250 0.000000
0.699866 0.851250 0.000000
0.776675 0.851250 0.000000
0.853890 0.851250 0.000000
0.931476 0.851250 0.000000
1.000000 0.851250 0.000000
1.000000 0.851250 0.000000
1.000000 0.851250 0.000000
1.000000 0.851250 0.000000
0.045000 0.916875 0.000000
0.109817 0.916875 0.000000
0.179450 0.916875 0.000000
0.251025 0.916875 0.000000
0.323891 0.916875 0.000000
0.397732 0.916875 0.000000
0.472359 0.916875 0.000000
0.547647 0.916875 0.000000
0.623506 0.916875 0.000000
0.699866 0.916875 0.000000
0.776675 0.916875 0.000000
0.853890 0.916875 0.000000
0.931476 0.916875 0.000000
1.000000 0.916875 0.000000
1.000000 0.916875 0.000000
1.000000 0.916875 0.000000
1.000000 0.916875 0.000000
0.045000 0.982500 0.000000
0.109817 0.982500 0.000000
0.179450 0.982500 0.000000
0.251025 0.982500 0.000000
0.323891 0.982500 0.000000
0.397732 0.982500 0.000000
0.472359 0.982500 0.000000
0.547647 0.982500 0.000000
0.623506 0.982500 0.000000
0.699866 0.982500 0.000000
0.776675 0.982500 0.000000
0.853890 0.982500 0.000000
0.931476 0.982500 0.000000
1.000000 0.982500 0.000000
1.000000 0.982500 0.000000
1.000000 0.982500 0.000000
1.000000 0.982500 0.000000
0.045000 0.000000 0.031361
0.109817 0.000000 0.031361
0.179450 0.000000 0.031361
0.251025 0.000000 0.031361
0.323891 0.000000 0.031361
0.397732 0.000000 0.031361
0.472359 0.000000 0.031361
0.547647 0.000000 0.031361
0.623506 0.000000 0.031361
0.699866 0.000000 0.031361
0.776675 0.000000 0.031361
0.853890 0.000000 0.031361
0.931476 0.000000 0.031361
1.000000 0.000000 0.031361
1.000000 0.000000 0.031361
1.000000 0.000000 0.031361
1.000000 0.000000 0.031361
0.045000 0.000000 0.031361
0.109817 0.000000 0.031361
0.179450 0.000000 0.031361
0.251025 0.000000 0.031361
0.323891 0.000000 0.031361
0.397732 0.000000 0.031361
0.472359 0.000000 0.031361
0.547647 0.000000 0.031361
0.623506 0.000000 0.031361
0.699866 0.000000 0.031361
0.776675 0.000000 0.031361
0.853890 0.000000 0.031361
0.931476 0.000000 0.031361
1.000000 0.000000 0.031361
1.000000 0.000000 0.031361
1.000000 0.000000 0.031361
1.000000 0.000000 0.031361
0.045000 0.063750 0.031361
0.109817 0.063750 0.031361
0.179450 0.063750 0.031361
0.251025 0.063750 0.031361
0.323891 0.063750 0.031361
0.397732 0.063750 0.031361
0.472359 0.063750 0.031361
0.547647 0.063750 0.031361
0.623506 0.063750 0.031361
0.699866 0.063750 0.031361
0.776675 0.063750 0.031361
0.853890 0.063750 0.031361
0.931476 0.063750 0.031361
1.000000 0.063750 0.031361
1.000000 0.063750 0.031361
1.000000 0.063750 0.031361
1.000000 0.063750 0.031361
0.045000 0.129375 0.031361
0.109817 0.129375 0.031361
0.179450 0.129375 0.031361
0.251025 0.129375 0.031361
0.323891 0.129375 0.031361
0.397732 0.129375 0.031361
0.472359 0.129375 0.031361
0.547647 0.129375 0.031361
0.623506 0.129375 0.031361
0.699866 0.129375 0.031361
0.776675 0.129375 0.031361
0.853890 0.129375 0.031361
0.931476 0.129375 0.031361
1.000000 0.129375 0.031361
1.000000 0.129375 0.031361
1.000000 0.129375 0.031361
1.000000 0.129375 0.031361
0.045000 0.195000 0.031361
0.109817 0.195000 0.031361
0.179450 0.195000 0.031361
0.251025 0.195000 0.031361
0.323891 0.195000 0.031361
0.397732 0.195000 0.031361
0.472359 0.195000 0.031361
0.547647 0.195000 0.031361
0.623506 0.195000 0.031361
0.699866 0.195000 0.031361
0.776675 0.195000 0.031361
0.853890 0.195000 0.031361
0.931476 0.195000 0.031361
1.000000 0.195000 0.031361
1.000000 0.195000 0.031361
1.000000 0.195000 0.031361
1.000000 0.195000 0.031361
0.045000 0.260625 0.031361
0.109817 0.260625 0.031361
0.179450 0.260625 0.031361
0.251025 0.260625 0.031361
0.323891 0.260625 0.031361
0.397732 0.260625 0.031361
0.472359 0.260625 0.031361
0.547647 0.260625 0.031361
0.623506 0.260625 0.031361
0.699866 0.260625 0.031361
0.776675 0.260625 0.031361
0.853890 0.260625 0.031361
0.931476 0.260625 0.031361
1.000000 0.260625 0.031361
1.000000 0.260625 0.031361
1.000000 0.260625 0.031361
1.000000 0.260625 0.031361
0.045000 0.326250 0.031361
0.109817 0.326250 0.031361
0.179450 0.326250 0.031361
0.251025 0.326250 0.031361
0.323891 0.326250 0.031361
0.397732 0.326250 0.031361
0.472359 0.326250 0.031361
0.547647 0.326250 0.031361
0.623506 0.326250 0.031361
0.699866 0.326250 0.031361
0.776675 0.326250 0.031361
0.853890 0.326250 0.031361
0.931476 0.326250 0.031361
1.000000 0.326250 0.031361
1.000000 0.326250 0.031361
1.000000 0.326250 0.031361
1.000000 0.326250 0.031361
0.045000 0.391875 0.031361
0.109817 0.391875 0.031361
0.179450 0.391875 0.031361
0.251025 0.391875 0.031361
0.323891 0.391875 0.031361
0.397732 0.391875 0.031361
0.472359 0.391875 0.031361
0.547647 0.391875 0.031361
0.623506 0.391875 0.031361
0.699866 0.391875 0.031361
0.776675 0.391875 0.031361
0.853890 0.391875 0.031361
0.931476 0.391875 0.031361
1.000000 0.391875 0.031361
1.000000 0.391875 0.031361
1.000000 0.391875 0.031361
1.000000 0.391875 0.031361
0.045000 0.457500 0.031361
0.109817 0.457500 0.031361
0.179450 0.457500 0.031361
0.251025 0.457500 0.031361
0.323891 0.457500 0.031361
0.397732 0.457500 0.031361
0.472359 0.457500 0.031361
0.547647 0.457500 0.031361
0.623506 0.457500 0.031361
0.699866 0.457500 0.031361
0.776675 0.457500 0.031361
0.853890 0.457500 0.031361
0.931476 0.457500 0.031361
1.000000 0.457500 0.031361
1.000000 0.457500 0.031361
1.000000 0.457500 0.031361
1.000000 0.457500 0.031361
0.045000 0.523125 0.031361
0.109817 0.523125 0.031361
0.179450 0.523125 0.031361
0.251025 0.523125 0.031361
0.323891 0.523125 0.031361
0.397732 0.523125 0.031361
0.472359 0.523125 0.031361
0.547647 0.523125 0.031361
0.623506 0.523125 0.031361
0.699866 0.523125 0.031361
0.776675 0.523125 0.031361
0.853890 0.523125 0.031361
0.931476 0.523125 0.031361
1.000000 0.523125 0.031361
1.000000 0.523125 0.031361
1.000000 0.523125 0.031361
1.000000 0.523125 0.031361
0.045000 0.588750 0.031361
0.109817 0.588750 0.031361
0.179450 0.588750 0.031361
0.251025 0.588750 0.031361
0.323891 0.588750 0.031361
0.397732 0.588750 0.031361
0.472359 0.588750 0.031361
0.547647 0.588750 0.031361
0.623506 0.588750 0.031361
0.699866 0.588750 0.031361
0.776675 0.588750 0.031361
0.853890 0.588750 0.031361
0.931476 0.588750 0.031361
1.000000 0.588750 0.031361
1.000000 0.588750 0.031361
1.000000 0.588750 0.031361
1.000000 0.588750 0.031361
0.045000 0.654375 0.031361
0.109817 0.654375 0.031361
0.179450 0.654375 0.031361
0.251025 0.654375 0.031361
0.323891 0.654375 0.031361
0.397732 0.654375 0.031361
0.472359 0.654375 0.031361
0.547647 0.654375 0.031361
0.623506 0.654375 0.031361
0.699866 0.654375 0.031361
0.776675 0.654375 0.031361
0.853890 0.654375 0.031361
0.931476 0.654375 0.031361
1.000000 0.654375 0.031361
1.000000 0.654375 0.031361
1.000000 0.654375 0.031361
1.000000 0.654375 0.031361
0.045000 0.720000 0.031361
0.109817 0.720000 0.031361
0.179450 0.720000 0.031361
0.251025 0.720000 0.031361
0.323891 0.720000 0.031361
0.397732 0.720000 0.031361
0.472359 0.720000 0.031361
0.547647 0.720000 0.031361
0.623506 0.720000 0.031361
0.699866 0.720000 0.031361
0.776675 0.720000 0.031361
0.853890 0.720000 0.031361
0.931476 0.720000 0.031361
1.000000 0.720000 0.031361
1.000000 0.720000 0.031361
1.000000 0.720000 0.031361
1.000000 0.720000 0.031361
0.045000 0.785625 0.031361
0.109817 0.785625 0.031361
0.179450 0.785625 0.031361
0.251025 0.785625 0.031361
0.323891 0.785625 0.031361
0.397732 0.785625 0.031361
0.472359 0.785625 0.031361
0.547647 0.785625 0.031361
0.623506 0.785625 0.031361
0.699866 0.785625 0.031361
0.776675 0.785625 0.031361
0.853890 0.785625 0.031361
0.931476 0.785625 0.031361
1.000000 0.785625 0.031361
1.000000 0.785625 0.031361
1.000000 0.785625 0.031361
1.000000 0.785625 0.031361
0.045000 0.851250 0.031361
0.109817 0.851250 0.031361
0.179450 0.851250 0.031361
0.251025 0.851250 0.031361
0.323891 0.851250 0.031361
0.397732 0.851250 0.031361
0.472359 0.851250 0.031361
0.547647 0.851250 0.031361
0.623506 0.851250 0.031361
0.699866 0.851250 0.031361
0.776675 0.851250 0.031361
0.853890 0.851250 0.031361
0.931476 0.851250 0.031361
1.000000 0.851250 0.031361
1.000000 0.851250 0.031361
1.000000 0.851250 0.031361
1.000000 0.851250 0.031361
0.045000 0.916875 0.031361
0.109817 0.916875 0.031361
0.179450 0.916875 0.031361
0.251025 0.916875 0.031361
0.323891 0.916875 0.031361
0.397732 0.916875 0.031361
0.472359 0.916875 0.031361
0.547647 0.916875 0.031361
0.623506 0.916875 0.031361
0.699866 0.916875 0.031361
0.776675 0.916875 0.031361
0.853890 0.916875 0.031361
0.931476 0.916875 0.031361
1.000000 0.916875 0.031361
1.000000 0.916875 0.031361
1.000000 0.916875 0.031361
1.000000 0.916875 0.031361
0.045000 0.982500 0.031361
0.109817 0.982500 0.031361
0.179450 0.982500 0.031361
0.251025 0.982500 0.031361
0.323891 0.982500 0.031361
0.397732 0.982500 0.031361
0.472359 0.982500 0.031361
0.547647 0.982500 0.031361
0.623506 0.982500 0.031361
0.699866 0.982500 0.031361
0.776675 0.982500 0.031361
0.853890 0.982500 0.031361
0.931476 0.982500 0.031361
1.000000 0.982500 0.031361
1.000000 0.982500 0.031361
1.000000 0.982500 0.031361
1.000000 0.982500 0.031361
0.045000 0.000000 0.091012
0.109817 0.000000 0.091012
0.179450 0.000000 0.091012
0.251025 0.000000 0.091012
0.323891 0.000000 0.091012
0.397732 0.000000 0.091012
0.472359 0.000000 0.091012
0.547647 0.000000 0.091012
0.623506 0.000000 0.091012
0.699866 0.000000 0.091012
0.776675 0.000000 0.091012
0.853890 0.000000 0.091012
0.931476 0.000000 0.091012
1.000000 0.000000 0.091012
1.000000 0.000000 0.091012
1.000000 0.000000 0.091012
1.000000 0.000000 0.091012
0.045000 0.000000 0.091012
