ApexStudio/app/src/main/assets/luts/epic_dawn.cube
# ApexStudio filter: epic_dawn
LUT_3D_SIZE 5
DOMAIN_MIN 0.0 0.0 0.0
DOMAIN_MAX 1.0 1.0 1.0
0.045000 0.000000 0.000000
0.323891 0.000000 0.000000
0.623506 0.000000 0.000000
0.931476 0.000000 0.000000
1.000000 0.000000 0.000000
0.045000 0.195000 0.000000
0.323891 0.195000 0.000000
0.623506 0.195000 0.000000
0.931476 0.195000 0.000000
1.000000 0.195000 0.000000
0.045000 0.457500 0.000000
0.323891 0.457500 0.000000
0.623506 0.457500 0.000000
0.931476 0.457500 0.000000
1.000000 0.457500 0.000000
0.045000 0.720000 0.000000
0.323891 0.720000 0.000000
0.623506 0.720000 0.000000
0.931476 0.720000 0.000000
1.000000 0.720000 0.000000
0.045000 0.982500 0.000000
0.323891 0.982500 0.000000
0.623506 0.982500 0.000000
0.931476 0.982500 0.000000
1.000000 0.982500 0.000000
0.045000 0.000000 0.149338
0.323891 0.000000 0.149338
0.623506 0.000000 0.149338
0.931476 0.000000 0.149338
1.000000 0.000000 0.149338
0.045000 0.195000 0.149338
0.323891 0.195000 0.149338
0.623506 0.195000 0.149338
0.931476 0.195000 0.149338
1.000000 0.195000 0.149338
0.045000 0.457500 0.149338
0.323891 0.457500 0.149338
0.623506 0.457500 0.149338
0.931476 0.457500 0.149338
1.000000 0.457500 0.149338
0.045000 0.720000 0.149338
0.323891 0.720000 0.149338
0.623506 0.720000 0.149338
0.931476 0.720000 0.149338
1.000000 0.720000 0.149338
0.045000 0.982500 0.149338
0.323891 0.982500 0.149338
0.623506 0.982500 0.149338
0.931476 0.982500 0.149338
1.000000 0.982500 0.149338
0.045000 0.000000 0.375696
0.323891 0.000000 0.375696
0.623506 0.000000 0.375696
0.931476 0.000000 0.375696
1.000000 0.000000 0.375696
0.045000 0.195000 0.375696
0.323891 0.195000 0.375696
0.623506 0.195000 0.375696
0.931476 0.195000 0.375696
1.000000 0.195000 0.375696
0.045000 0.457500 0.375696
0.323891 0.457500 0.375696
0.623506 0.457500 0.375696
0.931476 0.457500 0.375696
1.000000 0.457500 0.375696
0.045000 0.720000 0.375696
0.323891 0.720000 0.375696
0.623506 0.720000 0.375696
0.931476 0.720000 0.375696
1.000000 0.720000 0.375696
0.045000 0.982500 0.375696
0.323891 0.982500 0.375696
0.623506 0.982500 0.375696
0.931476 0.982500 0.375696
1.000000 0.982500 0.375696
0.045000 0.000000 0.595792
0.323891 0.000000 0.595792
0.623506 0.000000 0.595792
0.931476 0.000000 0.595792
1.000000 0.000000 0.595792
0.045000 0.195000 0.595792
0.323891 0.195000 0.595792
0.623506 0.195000 0.595792
0.931476 0.195000 0.595792
1.000000 0.195000 0.595792
0.045000 0.457500 0.595792
0.323891 0.457500 0.595792
0.623506 0.457500 0.595792
0.931476 0.457500 0.595792
1.000000 0.457500 0.595792
0.045000 0.720000 0.595792
0.323891 0.720000 0.595792
0.623506 0.720000 0.595792
0.931476 0.720000 0.595792
1.000000 0.720000 0.595792
0.045000 0.982500 0.595792
0.323891 0.982500 0.595792
0.623506 0.982500 0.595792
0.931476 0.982500 0.595792
1.000000 0.982500 0.595792
0.045000 0.000000 0.812091
0.323891 0.000000 0.812091
0.623506 0.000000 0.812091
0.931476 0.000000 0.812091
1.000000 0.000000 0.812091
0.045000 0.195000 0.812091
0.323891 0.195000 0.812091
0.623506 0.195000 0.812091
0.931476 0.195000 0.812091
1.000000 0.195000 0.812091
0.045000 0.457500 0.812091
0.323891 0.457500 0.812091
0.623506 0.457500 0.812091
0.931476 0.457500 0.812091
1.000000 0.457500 0.812091
0.045000 0.720000 0.812091
0.323891 0.720000 0.812091
0.623506 0.720000 0.812091
0.931476 0.720000 0.812091
1.000000 0.720000 0.812091
0.045000 0.982500 0.812091
0.323891 0.982500 0.812091
0.623506 0.982500 0.812091
0.931476 0.982500 0.812091
1.000000 0.982500 0.812091
