ApexStudio/app/src/main/assets/luts/epic_dawn.cube
# ApexStudio filter: epic_dawn
LUT_3D_SIZE 9
DOMAIN_MIN 0.0 0.0 0.0
DOMAIN_MAX 1.0 1.0 1.0
0.045000 0.000000 0.000000
0.179450 0.000000 0.000000
0.323891 0.000000 0.000000
0.472359 0.000000 0.000000
0.623506 0.000000 0.000000
0.776675 0.000000 0.000000
0.931476 0.000000 0.000000
1.000000 0.000000 0.000000
1.000000 0.000000 0.000000
0.045000 0.063750 0.000000
0.179450 0.063750 0.000000
0.323891 0.063750 0.000000
0.472359 0.063750 0.000000
0.623506 0.063750 0.000000
0.776675 0.063750 0.000000
0.931476 0.063750 0.000000
1.000000 0.063750 0.000000
1.000000 0.063750 0.000000
0.045000 0.195000 0.000000
0.179450 0.195000 0.000000
0.323891 0.195000 0.000000
0.472359 0.195000 0.000000
0.623506 0.195000 0.000000
0.776675 0.195000 0.000000
0.931476 0.195000 0.000000
1.000000 0.195000 0.000000
1.000000 0.195000 0.000000
0.045000 0.326250 0.000000
0.179450 0.326250 0.000000
0.323891 0.326250 0.000000
0.472359 0.326250 0.000000
0.623506 0.326250 0.000000
0.776675 0.326250 0.000000
0.931476 0.326250 0.000000
1.000000 0.326250 0.000000
1.000000 0.326250 0.000000
0.045000 0.457500 0.000000
0.179450 0.457500 0.000000
0.323891 0.457500 0.000000
0.472359 0.457500 0.000000
0.623506 0.457500 0.000000
0.776675 0.457500 0.000000
0.931476 0.457500 0.000000
1.000000 0.457500 0.000000
1.000000 0.457500 0.000000
0.045000 0.588750 0.000000
0.179450 0.588750 0.000000
0.323891 0.588750 0.000000
0.472359 0.588750 0.000000
0.623506 0.588750 0.000000
0.776675 0.588750 0.000000
0.931476 0.588750 0.000000
1.000000 0.588750 0.000000
1.000000 0.588750 0.000000
0.045000 0.720000 0.000000
0.179450 0.720000 0.000000
0.323891 0.720000 0.000000
0.472359 0.720000 0.000000
0.623506 0.720000 0.000000
0.776675 0.720000 0.000000
0.931476 0.720000 0.000000
1.000000 0.720000 0.000000
1.000000 0.720000 0.000000
0.045000 0.851250 0.000000
0.179450 0.851250 0.000000
0.323891 0.851250 0.000000
0.472359 0.851250 0.000000
0.623506 0.851250 0.000000
0.776675 0.851250 0.000000
0.931476 0.851250 0.000000
1.000000 0.851250 0.000000
1.000000 0.851250 0.000000
0.045000 0.982500 0.000000
0.179450 0.982500 0.000000
0.323891 0.982500 0.000000
0.472359 0.982500 0.000000
0.623506 0.982500 0.000000
0.776675 0.982500 0.000000
0.931476 0.982500 0.000000
1.000000 0.982500 0.000000
1.000000 0.982500 0.000000
0.045000 0.000000 0.031361
0.179450 0.000000 0.031361
0.323891 0.000000 0.031361
0.472359 0.000000 0.031361
0.623506 0.000000 0.031361
0.776675 0.000000 0.031361
0.931476 0.000000 0.031361
1.000000 0.000000 0.031361
1.000000 0.000000 0.031361
0.045000 0.063750 0.031361
0.179450 0.063750 0.031361
0.323891 0.063750 0.031361
0.472359 0.063750 0.031361
0.623506 0.063750 0.031361
0.776675 0.063750 0.031361
0.931476 0.063750 0.031361
1.000000 0.063750 0.031361
1.000000 0.063750 0.031361
0.045000 0.195000 0.031361
0.179450 0.195000 0.031361
0.323891 0.195000 0.031361
0.472359 0.195000 0.031361
0.623506 0.195000 0.031361
0.776675 0.195000 0.031361
0.931476 0.195000 0.031361
1.000000 0.195000 0.031361
1.000000 0.195000 0.031361
0.045000 0.326250 0.031361
0.179450 0.326250 0.031361
0.323891 0.326250 0.031361
0.472359 0.326250 0.031361
0.623506 0.326250 0.031361
0.776675 0.326250 0.031361
0.931476 0.326250 0.031361
1.000000 0.326250 0.031361
1.000000 0.326250 0.031361
0.045000 0.457500 0.031361
0.179450 0.457500 0.031361
0.323891 0.457500 0.031361
0.472359 0.457500 0.031361
0.623506 0.457500 0.031361
0.776675 0.457500 0.031361
0.931476 0.457500 0.031361
1.000000 0.457500 0.031361
1.000000 0.457500 0.031361
0.045000 0.588750 0.031361
0.179450 0.588750 0.031361
0.323891 0.588750 0.031361
0.472359 0.588750 0.031361
0.623506 0.588750 0.031361
0.776675 0.588750 0.031361
0.931476 0.588750 0.031361
1.000000 0.588750 0.031361
1.000000 0.588750 0.031361
0.045000 0.720000 0.031361
0.179450 0.720000 0.031361
0.323891 0.720000 0.031361
0.472359 0.720000 0.031361
0.623506 0.720000 0.031361
0.776675 0.720000 0.031361
0.931476 0.720000 0.031361
1.000000 0.720000 0.031361
1.000000 0.720000 0.031361
0.045000 0.851250 0.031361
0.179450 0.851250 0.031361
0.323891 0.851250 0.031361
0.472359 0.851250 0.031361
0.623506 0.851250 0.031361
0.776675 0.851250 0.031361
0.931476 0.851250 0.031361
1.000000 0.851250 0.031361
1.000000 0.851250 0.031361
0.045000 0.982500 0.031361
0.179450 0.982500 0.031361
0.323891 0.982500 0.031361
0.472359 0.982500 0.031361
0.623506 0.982500 0.031361
0.776675 0.982500 0.031361
0.931476 0.982500 0.031361
1.000000 0.982500 0.031361
1.000000 0.982500 0.031361
0.045000 0.000000 0.149338
0.179450 0.000000 0.149338
0.323891 0.000000 0.149338
0.472359 0.000000 0.149338
0.623506 0.000000 0.149338
0.776675 0.000000 0.149338
0.931476 0.000000 0.149338
1.000000 0.000000 0.149338
1.000000 0.000000 0.149338
0.045000 0.063750 0.149338
0.179450 0.063750 0.149338
0.323891 0.063750 0.149338
0.472359 0.063750 0.149338
0.623506 0.063750 0.149338
0.776675 0.063750 0.149338
0.931476 0.063750 0.149338
1.000000 0.063750 0.149338
1.000000 0.063750 0.149338
0.045000 0.195000 0.149338
0.179450 0.195000 0.149338
0.323891 0.195000 0.149338
0.472359 0.195000 0.149338
0.623506 0.195000 0.149338
0.776675 0.195000 0.149338
0.931476 0.195000 0.149338
1.000000 0.195000 0.149338
1.000000 0.195000 0.149338
0.045000 0.326250 0.149338
0.179450 0.326250 0.149338
0.323891 0.326250 0.149338
0.472359 0.326250 0.149338
0.623506 0.326250 0.149338
0.776675 0.326250 0.149338
0.931476 0.326250 0.149338
1.000000 0.326250 0.149338
1.000000 0.326250 0.149338
0.045000 0.457500 0.149338
0.179450 0.457500 0.149338
0.323891 0.457500 0.149338
0.472359 0.457500 0.149338
0.623506 0.457500 0.149338
0.776675 0.457500 0.149338
0.931476 0.457500 0.149338
1.000000 0.457500 0.149338
1.000000 0.457500 0.149338
0.045000 0.588750 0.149338
0.179450 0.588750 0.149338
0.323891 0.588750 0.149338
0.472359 0.588750 0.149338
0.623506 0.588750 0.149338
0.776675 0.588750 0.149338
0.931476 0.588750 0.149338
1.000000 0.588750 0.149338
1.000000 0.588750 0.149338
0.045000 0.720000 0.149338
0.179450 0.720000 0.149338
0.323891 0.720000 0.149338
0.472359 0.720000 0.149338
0.623506 0.720000 0.149338
0.776675 0.720000 0.149338
0.931476 0.720000 0.149338
1.000000 0.720000 0.149338
1.000000 0.720000 0.149338
0.045000 0.851250 0.149338
0.179450 0.851250 0.149338
0.323891 0.851250 0.149338
0.472359 0.851250 0.149338
0.623506 0.851250 0.149338
0.776675 0.851250 0.149338
0.931476 0.851250 0.149338
1.000000 0.851250 0.149338
1.000000 0.851250 0.149338
0.045000 0.982500 0.149338
0.179450 0.982500 0.149338
0.323891 0.982500 0.149338
0.472359 0.982500 0.149338
0.623506 0.982500 0.149338
0.776675 0.982500 0.149338
0.931476 0.982500 0.149338
1.000000 0.982500 0.149338
1.000000 0.982500 0.149338
0.045000 0.000000 0.263581
0.179450 0.000000 0.263581
0.323891 0.000000 0.263581
0.472359 0.000000 0.263581
0.623506 0.000000 0.263581
0.776675 0.000000 0.263581
0.931476 0.000000 0.263581
1.000000 0.000000 0.263581
1.000000 0.000000 0.263581
0.045000 0.063750 0.263581
0.179450 0.063750 0.263581
0.323891 0.063750 0.263581
0.472359 0.063750 0.263581
0.623506 0.063750 0.263581
0.776675 0.063750 0.263581
0.931476 0.063750 0.263581
1.000000 0.063750 0.263581
1.000000 0.063750 0.263581
0.045000 0.195000 0.263581
0.179450 0.195000 0.263581
0.323891 0.195000 0.263581
0.472359 0.195000 0.263581
0.623506 0.195000 0.263581
0.776675 0.195000 0.263581
0.931476 0.195000 0.263581
1.000000 0.195000 0.263581
1.000000 0.195000 0.263581
0.045000 0.326250 0.263581
0.179450 0.326250 0.263581
0.323891 0.326250 0.263581
0.472359 0.326250 0.263581
0.623506 0.326250 0.263581
0.776675 0.326250 0.263581
0.931476 0.326250 0.263581
1.000000 0.326250 0.263581
1.000000 0.326250 0.263581
0.045000 0.457500 0.263581
0.179450 0.457500 0.263581
0.323891 0.457500 0.263581
0.472359 0.457500 0.263581
0.623506 0.457500 0.263581
0.776675 0.457500 0.263581
0.931476 0.457500 0.263581
1.000000 0.457500 0.263581
1.000000 0.457500 0.263581
0.045000 0.588750 0.263581
0.179450 0.588750 0.263581
0.323891 0.588750 0.263581
0.472359 0.588750 0.263581
0.623506 0.588750 0.263581
0.776675 0.588750 0.263581
0.931476 0.588750 0.263581
1.000000 0.588750 0.263581
1.000000 0.588750 0.263581
0.045000 0.720000 0.263581
0.179450 0.720000 0.263581
0.323891 0.720000 0.263581
0.472359 0.720000 0.263581
0.623506 0.720000 0.263581
0.776675 0.720000 0.263581
0.931476 0.720000 0.263581
1.000000 0.720000 0.263581
1.000000 0.720000 0.263581
0.045000 0.851250 0.263581
0.179450 0.851250 0.263581
0.323891 0.851250 0.263581
0.472359 0.851250 0.263581
0.623506 0.851250 0.263581
0.776675 0.851250 0.263581
0.931476 0.851250 0.263581
1.000000 0.851250 0.263581
1.000000 0.851250 0.263581
0.045000 0.982500 0.263581
0.179450 0.982500 0.263581
0.323891 0.982500 0.263581
0.472359 0.982500 0.263581
0.623506 0.982500 0.263581
0.776675 0.982500 0.263581
0.931476 0.982500 0.263581
1.000000 0.982500 0.263581
1.000000 0.982500 0.263581
0.045000 0.000000 0.375696
0.179450 0.000000 0.375696
0.323891 0.000000 0.375696
0.472359 0.000000 0.375696
0.623506 0.000000 0.375696
0.776675 0.000000 0.375696
0.931476 0.000000 0.375696
1.000000 0.000000 0.375696
1.000000 0.000000 0.375696
0.045000 0.063750 0.375696
0.179450 0.063750 0.375696
0.323891 0.063750 0.375696
0.472359 0.063750 0.375696
0.623506 0.063750 0.375696
0.776675 0.063750 0.375696
0.931476 0.063750 0.375696
1.000000 0.063750 0.375696
1.000000 0.063750 0.375696
0.045000 0.195000 0.375696
0.179450 0.195000 0.375696
0.323891 0.195000 0.375696
0.472359 0.195000 0.375696
0.623506 0.195000 0.375696
0.776675 0.195000 0.375696
0.931476 0.195000 0.375696
1.000000 0.195000 0.375696
1.000000 0.195000 0.375696
0.045000 0.326250 0.375696
0.179450 0.326250 0.375696
0.323891 0.326250 0.375696
0.472359 0.326250 0.375696
0.623506 0.326250 0.375696
0.776675 0.326250 0.375696
0.931476 0.326250 0.375696
1.000000 0.326250 0.375696
1.000000 0.326250 0.375696
0.045000 0.457500 0.375696
0.179450 0.457500 0.375696
0.323891 0.457500 0.375696
0.472359 0.457500 0.375696
0.623506 0.457500 0.375696
0.776675 0.457500 0.375696
0.931476 0.457500 0.375696
1.000000 0.457500 0.375696
1.000000 0.457500 0.375696
0.045000 0.588750 0.375696
0.179450 0.588750 0.375696
0.323891 0.588750 0.375696
0.472359 0.588750 0.375696
0.623506 0.588750 0.375696
0.776675 0.588750 0.375696
0.931476 0.588750 0.375696
1.000000 0.588750 0.375696
1.000000 0.588750 0.375696
0.045000 0.720000 0.375696
0.179450 0.720000 0.375696
0.323891 0.720000 0.375696
0.472359 0.720000 0.375696
0.623506 0.720000 0.375696
0.776675 0.720000 0.375696
0.931476 0.720000 0.375696
1.000000 0.720000 0.375696
1.000000 0.720000 0.375696
0.045000 0.851250 0.375696
0.179450 0.851250 0.375696
0.323891 0.851250 0.375696
0.472359 0.851250 0.375696
0.623506 0.851250 0.375696
0.776675 0.851250 0.375696
0.931476 0.851250 0.375696
1.000000 0.851250 0.375696
1.000000 0.851250 0.375696
0.045000 0.982500 0.375696
0.179450 0.982500 0.375696
0.323891 0.982500 0.375696
0.472359 0.982500 0.375696
0.623506 0.982500 0.375696
0.776675 0.982500 0.375696
0.931476 0.982500 0.375696
1.000000 0.982500 0.375696
1.000000 0.982500 0.375696
0.045000 0.000000 0.486318
0.179450 0.000000 0.486318
0.323891 0.000000 0.486318
0.472359 0.000000 0.486318
0.623506 0.000000 0.486318
0.776675 0.000000 0.486318
0.931476 0.000000 0.486318
1.000000 0.000000 0.486318
1.000000 0.000000 0.486318
0.045000 0.063750 0.486318
0.179450 0.063750 0.486318
0.323891 0.063750 0.486318
0.472359 0.063750 0.486318
0.623506 0.063750 0.486318
0.776675 0.063750 0.486318
0.931476 0.063750 0.486318
1.000000 0.063750 0.486318
1.000000 0.063750 0.486318
0.045000 0.195000 0.486318
0.179450 0.195000 0.486318
0.323891 0.195000 0.486318
0.472359 0.195000 0.486318
0.623506 0.195000 0.486318
0.776675 0.195000 0.486318
0.931476 0.195000 0.486318
1.000000 0.195000 0.486318
1.000000 0.195000 0.486318
0.045000 0.326250 0.486318
0.179450 0.326250 0.486318
0.323891 0.326250 0.486318
0.472359 0.326250 0.486318
0.623506 0.326250 0.486318
0.776675 0.326250 0.486318
0.931476 0.326250 0.486318
1.000000 0.326250 0.486318
1.000000 0.326250 0.486318
0.045000 0.457500 0.486318
0.179450 0.457500 0.486318
0.323891 0.457500 0.486318
0.472359 0.457500 0.486318
0.623506 0.457500 0.486318
0.776675 0.457500 0.486318
0.931476 0.457500 0.486318
1.000000 0.457500 0.486318
1.000000 0.457500 0.486318
0.045000 0.588750 0.486318
0.179450 0.588750 0.486318
0.323891 0.588750 0.486318
0.472359 0.588750 0.486318
0.623506 0.588750 0.486318
0.776675 0.588750 0.486318
0.931476 0.588750 0.486318
1.000000 0.588750 0.486318
1.000000 0.588750 0.486318
0.045000 0.720000 0.486318
0.179450 0.720000 0.486318
0.323891 0.720000 0.486318
0.472359 0.720000 0.486318
0.623506 0.720000 0.486318
0.776675 0.720000 0.486318
0.931476 0.720000 0.486318
1.000000 0.720000 0.486318
1.000000 0.720000 0.486318
0.045000 0.851250 0.486318
0.179450 0.851250 0.486318
0.323891 0.851250 0.486318
0.472359 0.851250 0.486318
0.623506 0.851250 0.486318
0.776675 0.851250 0.486318
0.931476 0.851250 0.486318
1.000000 0.851250 0.486318
1.000000 0.851250 0.486318
0.045000 0.982500 0.486318
0.179450 0.982500 0.486318
0.323891 0.982500 0.486318
0.472359 0.982500 0.486318
0.623506 0.982500 0.486318
0.776675 0.982500 0.486318
0.931476 0.982500 0.486318
1.000000 0.982500 0.486318
1.000000 0.982500 0.486318
0.045000 0.000000 0.595792
0.179450 0.000000 0.595792
0.323891 0.000000 0.595792
0.472359 0.000000 0.595792
0.623506 0.000000 0.595792
0.776675 0.000000 0.595792
0.931476 0.000000 0.595792
1.000000 0.000000 0.595792
1.000000 0.000000 0.595792
0.045000 0.063750 0.595792
0.179450 0.063750 0.595792
0.323891 0.063750 0.595792
0.472359 0.063750 0.595792
0.623506 0.063750 0.595792
0.776675 0.063750 0.595792
0.931476 0.063750 0.595792
1.000000 0.063750 0.595792
1.000000 0.063750 0.595792
0.045000 0.195000 0.595792
0.179450 0.195000 0.595792
0.323891 0.195000 0.595792
0.472359 0.195000 0.595792
0.623506 0.195000 0.595792
0.776675 0.195000 0.595792
0.931476 0.195000 0.595792
1.000000 0.195000 0.595792
1.000000 0.195000 0.595792
0.045000 0.326250 0.595792
0.179450 0.326250 0.595792
0.323891 0.326250 0.595792
0.472359 0.326250 0.595792
0.623506 0.326250 0.595792
0.776675 0.326250 0.595792
0.931476 0.326250 0.595792
1.000000 0.326250 0.595792
1.000000 0.326250 0.595792
0.045000 0.457500 0.595792
0.179450 0.457500 0.595792
0.323891 0.457500 0.595792
0.472359 0.457500 0.595792
0.623506 0.457500 0.595792
0.776675 0.457500 0.595792
0.931476 0.457500 0.595792
1.000000 0.457500 0.595792
1.000000 0.457500 0.595792
0.045000 0.588750 0.595792
0.179450 0.588750 0.595792
0.323891 0.588750 0.595792
0.472359 0.588750 0.595792
0.623506 0.588750 0.595792
0.776675 0.588750 0.595792
0.931476 0.588750 0.595792
1.000000 0.588750 0.595792
1.000000 0.588750 0.595792
0.045000 0.720000 0.595792
0.179450 0.720000 0.595792
0.323891 0.720000 0.595792
0.472359 0.720000 0.595792
0.623506 0.720000 0.595792
0.776675 0.720000 0.595792
0.931476 0.720000 0.595792
1.000000 0.720000 0.595792
1.000000 0.720000 0.595792
0.045000 0.851250 0.595792
0.179450 0.851250 0.595792
0.323891 0.851250 0.595792
0.472359 0.851250 0.595792
0.623506 0.851250 0.595792
0.776675 0.851250 0.595792
0.931476 0.851250 0.595792
1.000000 0.851250 0.595792
1.000000 0.851250 0.595792
0.045000 0.982500 0.595792
0.179450 0.982500 0.595792
0.323891 0.982500 0.595792
0.472359 0.982500 0.595792
0.623506 0.982500 0.595792
0.776675 0.982500 0.595792
0.931476 0.982500 0.595792
1.000000 0.982500 0.595792
1.000000 0.982500 0.595792
0.045000 0.000000 0.704333
0.179450 0.000000 0.704333
0.323891 0.000000 0.704333
0.472359 0.000000 0.704333
0.623506 0.000000 0.704333
0.776675 0.000000 0.704333
0.931476 0.000000 0.704333
1.000000 0.000000 0.704333
1.000000 0.000000 0.704333
0.045000 0.063750 0.704333
0.179450 0.063750 0.704333
0.323891 0.063750 0.704333
0.472359 0.063750 0.704333
0.623506 0.063750 0.704333
0.776675 0.063750 0.704333
0.931476 0.063750 0.704333
1.000000 0.063750 0.704333
1.000000 0.063750 0.704333
0.045000 0.195000 0.704333
0.179450 0.195000 0.704333
0.323891 0.195000 0.704333
0.472359 0.195000 0.704333
0.623506 0.195000 0.704333
0.776675 0.195000 0.704333
0.931476 0.195000 0.704333
1.000000 0.195000 0.704333
1.000000 0.195000 0.704333
0.045000 0.326250 0.704333
0.179450 0.326250 0.704333
0.323891 0.326250 0.704333
0.472359 0.326250 0.704333
0.623506 0.326250 0.704333
0.776675 0.326250 0.704333
0.931476 0.326250 0.704333
1.000000 0.326250 0.704333
1.000000 0.326250 0.704333
0.045000 0.457500 0.704333
0.179450 0.457500 0.704333
0.323891 0.457500 0.704333
0.472359 0.457500 0.704333
0.623506 0.457500 0.704333
0.776675 0.457500 0.704333
0.931476 0.457500 0.704333
1.000000 0.457500 0.704333
1.000000 0.457500 0.704333
0.045000 0.588750 0.704333
0.179450 0.588750 0.704333
0.323891 0.588750 0.704333
0.472359 0.588750 0.704333
0.623506 0.588750 0.704333
0.776675 0.588750 0.704333
0.931476 0.588750 0.704333
1.000000 0.588750 0.704333
1.000000 0.588750 0.704333
0.045000 0.720000 0.704333
0.179450 0.720000 0.704333
0.323891 0.720000 0.704333
0.472359 0.720000 0.704333
0.623506 0.720000 0.704333
0.776675 0.720000 0.704333
0.931476 0.720000 0.704333
1.000000 0.720000 0.704333
1.000000 0.720000 0.704333
0.045000 0.851250 0.704333
0.179450 0.851250 0.704333
0.323891 0.851250 0.704333
0.472359 0.851250 0.704333
0.623506 0.851250 0.704333
0.776675 0.851250 0.704333
0.931476 0.851250 0.704333
1.000000 0.851250 0.704333
1.000000 0.851250 0.704333
0.045000 0.982500 0.704333
0.179450 0.982500 0.704333
0.323891 0.982500 0.704333
0.472359 0.982500 0.704333
0.623506 0.982500 0.704333
0.776675 0.982500 0.704333
0.931476 0.982500 0.704333
1.000000 0.982500 0.704333
1.000000 0.982500 0.704333
0.045000 0.000000 0.812091
0.179450 0.000000 0.812091
0.323891 0.000000 0.812091
0.472359 0.000000 0.812091
0.623506 0.000000 0.812091
0.776675 0.000000 0.812091
0.931476 0.000000 0.812091
1.000000 0.000000 0.812091
1.000000 0.000000 0.812091
0.045000 0.063750 0.812091
0.179450 0.063750 0.812091
0.323891 0.063750 0.812091
0.472359 0.063750 0.812091
0.623506 0.063750 0.812091
0.776675 0.063750 0.812091
0.931476 0.063750 0.812091
1.000000 0.063750 0.812091
1.000000 0.063750 0.812091
0.045000 0.195000 0.812091
0.179450 0.195000 0.812091
0.323891 0.195000 0.812091
0.472359 0.195000 0.812091
0.623506 0.195000 0.812091
0.776675 0.195000 0.812091
0.931476 0.195000 0.812091
1.000000 0.195000 0.812091
1.000000 0.195000 0.812091
0.045000 0.326250 0.812091
0.179450 0.326250 0.812091
0.323891 0.326250 0.812091
0.472359 0.326250 0.812091
0.623506 0.326250 0.812091
0.776675 0.326250 0.812091
0.931476 0.326250 0.812091
1.000000 0.326250 0.812091
1.000000 0.326250 0.812091
0.045000 0.457500 0.812091
0.179450 0.457500 0.812091
0.323891 0.457500 0.812091
0.472359 0.457500 0.812091
0.623506 0.457500 0.812091
0.776675 0.457500 0.812091
0.931476 0.457500 0.812091
1.000000 0.457500 0.812091
1.000000 0.457500 0.812091
0.045000 0.588750 0.812091
0.179450 0.588750 0.812091
0.323891 0.588750 0.812091
0.472359 0.588750 0.812091
0.623506 0.588750 0.812091
0.776675 0.588750 0.812091
0.931476 0.588750 0.812091
1.000000 0.588750 0.812091
1.000000 0.588750 0.812091
0.045000 0.720000 0.812091
0.179450 0.720000 0.812091
0.323891 0.720000 0.812091
0.472359 0.720000 0.812091
0.623506 0.720000 0.812091
0.776675 0.720000 0.812091
0.931476 0.720000 0.812091
1.000000 0.720000 0.812091
1.000000 0.720000 0.812091
0.045000 0.851250 0.812091
0.179450 0.851250 0.812091
0.323891 0.851250 0.812091
0.472359 0.851250 0.812091
0.623506 0.851250 0.812091
0.776675 0.851250 0.812091
0.931476 0.851250 0.812091
1.000000 0.851250 0.812091
1.000000 0.851250 0.812091
0.045000 0.982500 0.812091
0.179450 0.982500 0.812091
0.323891 0.982500 0.812091
0.472359 0.982500 0.812091
0.623506 0.982500 0.812091
0.776675 0.982500 0.812091
0.931476 0.982500 0.812091
1.000000 0.982500 0.812091
1.000000 0.982500 0.812091
