ApexStudio/app/src/main/assets/luts/film_warm.cube
# ApexStudio filter: film_warm
LUT_3D_SIZE 17
DOMAIN_MIN 0.0 0.0 0.0
DOMAIN_MAX 1.0 1.0 1.0
0.022500 0.000000 0.000000
0.085000 0.000000 0.000000
0.147500 0.000000 0.000000
0.210000 0.000000 0.000000
0.272500 0.000000 0.000000
0.335000 0.000000 0.000000
0.397500 0.000000 0.000000
0.460000 0.000000 0.000000
0.522500 0.000000 0.000000
0.585000 0.000000 0.000000
0.647500 0.000000 0.000000
0.710000 0.000000 0.000000
0.772500 0.000000 0.000000
0.835000 0.000000 0.000000
0.897500 0.000000 0.000000
0.960000 0.000000 0.000000
1.000000 0.000000 0.000000
0.022500 0.055000 0.000000
0.085000 0.055000 0.000000
0.147500 0.055000 0.000000
0.210000 0.055000 0.000000
0.272500 0.055000 0.000000
0.335000 0.055000 0.000000
0.397500 0.055000 0.000000
0.460000 0.055000 0.000000
0.522500 0.055000 0.000000
0.585000 0.055000 0.000000
0.647500 0.055000 0.000000
0.710000 0.055000 0.000000
0.772500 0.055000 0.000000
0.835000 0.055000 0.000000
0.897500 0.055000 0.000000
0.960000 0.055000 0.000000
1.000000 0.055000 0.000000
0.022500 0.117500 0.000000
0.085000 0.117500 0.000000
0.147500 0.117500 0.000000
0.210000 0.117500 0.000000
0.272500 0.117500 0.000000
0.335000 0.117500 0.000000
0.397500 0.117500 0.000000
0.460000 0.117500 0.000000
0.522500 0.117500 0.000000
0.585000 0.117500 0.000000
0.647500 0.117500 0.000000
0.710000 0.117500 0.000000
0.772500 0.117500 0.000000
0.835000 0.117500 0.000000
0.897500 0.117500 0.000000
0.960000 0.117500 0.000000
1.000000 0.117500 0.000000
0.022500 0.180000 0.000000
0.085000 0.180000 0.000000
0.147500 0.180000 0.000000
0.210000 0.180000 0.000000
0.272500 0.180000 0.000000
0.335000 0.180000 0.000000
0.397500 0.180000 0.000000
0.460000 0.180000 0.000000
0.522500 0.180000 0.000000
0.585000 0.180000 0.000000
0.647500 0.180000 0.000000
0.710000 0.180000 0.000000
0.772500 0.180000 0.000000
0.835000 0.180000 0.000000
0.897500 0.180000 0.000000
0.960000 0.180000 0.000000
1.000000 0.180000 0.000000
0.022500 0.242500 0.000000
0.085000 0.242500 0.000000
0.147500 0.242500 0.000000
0.210000 0.242500 0.000000
0.272500 0.242500 0.000000
0.335000 0.242500 0.000000
0.397500 0.242500 0.000000
0.460000 0.242500 0.000000
0.522500 0.242500 0.000000
0.585000 0.242500 0.000000
0.647500 0.242500 0.000000
0.710000 0.242500 0.000000
0.772500 0.242500 0.000000
0.835000 0.242500 0.000000
0.897500 0.242500 0.000000
0.960000 0.242500 0.000000
1.000000 0.242500 0.000000
0.022500 0.305000 0.000000
0.085000 0.305000 0.000000
0.147500 0.305000 0.000000
0.210000 0.305000 0.000000
0.272500 0.305000 0.000000
0.335000 0.305000 0.000000
0.397500 0.305000 0.000000
0.460000 0.305000 0.000000
0.522500 0.305000 0.000000
0.585000 0.305000 0.000000
0.647500 0.305000 0.000000
0.710000 0.305000 0.000000
0.772500 0.305000 0.000000
0.835000 0.305000 0.000000
0.897500 0.305000 0.000000
0.960000 0.305000 0.000000
1.000000 0.305000 0.000000
0.022500 0.367500 0.000000
0.085000 0.367500 0.000000
0.147500 0.367500 0.000000
0.210000 0.367500 0.000000
0.272500 0.367500 0.000000
0.335000 0.367500 0.000000
0.397500 0.367500 0.000000
0.460000 0.367500 0.000000
0.522500 0.367500 0.000000
0.585000 0.367500 0.000000
0.647500 0.367500 0.000000
0.710000 0.367500 0.000000
0.772500 0.367500 0.000000
0.835000 0.367500 0.000000
0.897500 0.367500 0.000000
0.960000 0.367500 0.000000
1.000000 0.367500 0.000000
0.022500 0.430000 0.000000
0.085000 0.430000 0.000000
0.147500 0.430000 0.000000
0.210000 0.430000 0.000000
0.272500 0.430000 0.000000
0.335000 0.430000 0.000000
0.397500 0.430000 0.000000
0.460000 0.430000 0.000000
0.522500 0.430000 0.000000
0.585000 0.430000 0.000000
0.647500 0.430000 0.000000
0.710000 0.430000 0.000000
0.772500 0.430000 0.000000
0.835000 0.430000 0.000000
0.897500 0.430000 0.000000
0.960000 0.430000 0.000000
1.000000 0.430000 0.000000
0.022500 0.492500 0.000000
0.085000 0.492500 0.000000
0.147500 0.492500 0.000000
0.210000 0.492500 0.000000
0.272500 0.492500 0.000000
0.335000 0.492500 0.000000
0.397500 0.492500 0.000000
0.460000 0.492500 0.000000
0.522500 0.492500 0.000000
0.585000 0.492500 0.000000
0.647500 0.492500 0.000000
0.710000 0.492500 0.000000
0.772500 0.492500 0.000000
0.835000 0.492500 0.000000
0.897500 0.492500 0.000000
0.960000 0.492500 0.000000
1.000000 0.492500 0.000000
0.022500 0.555000 0.000000
0.085000 0.555000 0.000000
0.147500 0.555000 0.000000
0.210000 0.555000 0.000000
0.272500 0.555000 0.000000
0.335000 0.555000 0.000000
0.397500 0.555000 0.000000
0.460000 0.555000 0.000000
0.522500 0.555000 0.000000
0.585000 0.555000 0.000000
0.647500 0.555000 0.000000
0.710000 0.555000 0.000000
0.772500 0.555000 0.000000
0.835000 0.555000 0.000000
0.897500 0.555000 0.000000
0.960000 0.555000 0.000000
1.000000 0.555000 0.000000
0.022500 0.617500 0.000000
0.085000 0.617500 0.000000
0.147500 0.617500 0.000000
0.210000 0.617500 0.000000
0.272500 0.617500 0.000000
0.335000 0.617500 0.000000
0.397500 0.617500 0.000000
0.460000 0.617500 0.000000
0.522500 0.617500 0.000000
0.585000 0.617500 0.000000
0.647500 0.617500 0.000000
0.710000 0.617500 0.000000
0.772500 0.617500 0.000000
0.835000 0.617500 0.000000
0.897500 0.617500 0.000000
0.960000 0.617500 0.000000
1.000000 0.617500 0.000000
0.022500 0.680000 0.000000
0.085000 0.680000 0.000000
0.147500 0.680000 0.000000
0.210000 0.680000 0.000000
0.272500 0.680000 0.000000
0.335000 0.680000 0.000000
0.397500 0.680000 0.000000
0.460000 0.680000 0.000000
0.522500 0.680000 0.000000
0.585000 0.680000 0.000000
0.647500 0.680000 0.000000
0.710000 0.680000 0.000000
0.772500 0.680000 0.000000
0.835000 0.680000 0.000000
0.897500 0.680000 0.000000
0.960000 0.680000 0.000000
1.000000 0.680000 0.000000
0.022500 0.742500 0.000000
0.085000 0.742500 0.000000
0.147500 0.742500 0.000000
0.210000 0.742500 0.000000
0.272500 0.742500 0.000000
0.335000 0.742500 0.000000
0.397500 0.742500 0.000000
0.460000 0.742500 0.000000
0.522500 0.742500 0.000000
0.585000 0.742500 0.000000
0.647500 0.742500 0.000000
0.710000 0.742500 0.000000
0.772500 0.742500 0.000000
0.835000 0.742500 0.000000
0.897500 0.742500 0.000000
0.960000 0.742500 0.000000
1.000000 0.742500 0.000000
0.022500 0.805000 0.000000
0.085000 0.805000 0.000000
0.147500 0.805000 0.000000
0.210000 0.805000 0.000000
0.272500 0.805000 0.000000
0.335000 0.805000 0.000000
0.397500 0.805000 0.000000
0.460000 0.805000 0.000000
0.522500 0.805000 0.000000
0.585000 0.805000 0.000000
0.647500 0.805000 0.000000
0.710000 0.805000 0.000000
0.772500 0.805000 0.000000
0.835000 0.805000 0.000000
0.897500 0.805000 0.000000
0.960000 0.805000 0.000000
1.000000 0.805000 0.000000
0.022500 0.867500 0.000000
0.085000 0.867500 0.000000
0.147500 0.867500 0.000000
0.210000 0.867500 0.000000
0.272500 0.867500 0.000000
0.335000 0.867500 0.000000
0.397500 0.867500 0.000000
0.460000 0.867500 0.000000
0.522500 0.867500 0.000000
0.585000 0.867500 0.000000
0.647500 0.867500 0.000000
0.710000 0.867500 0.000000
0.772500 0.867500 0.000000
0.835000 0.867500 0.000000
0.897500 0.867500 0.000000
0.960000 0.867500 0.000000
1.000000 0.867500 0.000000
0.022500 0.930000 0.000000
0.085000 0.930000 0.000000
0.147500 0.930000 0.000000
0.210000 0.930000 0.000000
0.272500 0.930000 0.000000
0.335000 0.930000 0.000000
0.397500 0.930000 0.000000
0.460000 0.930000 0.000000
0.522500 0.930000 0.000000
0.585000 0.930000 0.000000
0.647500 0.930000 0.000000
0.710000 0.930000 0.000000
0.772500 0.930000 0.000000
0.835000 0.930000 0.000000
0.897500 0.930000 0.000000
0.960000 0.930000 0.000000
1.000000 0.930000 0.000000
0.022500 0.992500 0.000000
0.085000 0.992500 0.000000
0.147500 0.992500 0.000000
0.210000 0.992500 0.000000
0.272500 0.992500 0.000000
0.335000 0.992500 0.000000
0.397500 0.992500 0.000000
0.460000 0.992500 0.000000
0.522500 0.992500 0.000000
0.585000 0.992500 0.000000
0.647500 0.992500 0.000000
0.710000 0.992500 0.000000
0.772500 0.992500 0.000000
0.835000 0.992500 0.000000
0.897500 0.992500 0.000000
0.960000 0.992500 0.000000
1.000000 0.992500 0.000000
0.022500 0.000000 0.040000
0.085000 0.000000 0.040000
0.147500 0.000000 0.040000
0.210000 0.000000 0.040000
0.272500 0.000000 0.040000
0.335000 0.000000 0.040000
0.397500 0.000000 0.040000
0.460000 0.000000 0.040000
0.522500 0.000000 0.040000
0.585000 0.000000 0.040000
0.647500 0.000000 0.040000
0.710000 0.000000 0.040000
0.772500 0.000000 0.040000
0.835000 0.000000 0.040000
0.897500 0.000000 0.040000
0.960000 0.000000 0.040000
1.000000 0.000000 0.040000
0.022500 0.055000 0.040000
0.085000 0.055000 0.040000
0.147500 0.055000 0.040000
0.210000 0.055000 0.040000
0.272500 0.055000 0.040000
0.335000 0.055000 0.040000
0.397500 0.055000 0.040000
0.460000 0.055000 0.040000
0.522500 0.055000 0.040000
0.585000 0.055000 0.040000
0.647500 0.055000 0.040000
0.710000 0.055000 0.040000
0.772500 0.055000 0.040000
0.835000 0.055000 0.040000
0.897500 0.055000 0.040000
0.960000 0.055000 0.040000
1.000000 0.055000 0.040000
0.022500 0.117500 0.040000
0.085000 0.117500 0.040000
0.147500 0.117500 0.040000
0.210000 0.117500 0.040000
0.272500 0.117500 0.040000
0.335000 0.117500 0.040000
0.397500 0.117500 0.040000
0.460000 0.117500 0.040000
0.522500 0.117500 0.040000
0.585000 0.117500 0.040000
0.647500 0.117500 0.040000
0.710000 0.117500 0.040000
0.772500 0.117500 0.040000
0.835000 0.117500 0.040000
0.897500 0.117500 0.040000
0.960000 0.117500 0.040000
1.000000 0.117500 0.040000
0.022500 0.180000 0.040000
0.085000 0.180000 0.040000
0.147500 0.180000 0.040000
0.210000 0.180000 0.040000
0.272500 0.180000 0.040000
0.335000 0.180000 0.040000
0.397500 0.180000 0.040000
0.460000 0.180000 0.040000
0.522500 0.180000 0.040000
0.585000 0.180000 0.040000
0.647500 0.180000 0.040000
0.710000 0.180000 0.040000
0.772500 0.180000 0.040000
0.835000 0.180000 0.040000
0.897500 0.180000 0.040000
0.960000 0.180000 0.040000
1.000000 0.180000 0.040000
0.022500 0.242500 0.040000
0.085000 0.242500 0.040000
0.147500 0.242500 0.040000
0.210000 0.242500 0.040000
0.272500 0.242500 0.040000
0.335000 0.242500 0.040000
0.397500 0.242500 0.040000
0.460000 0.242500 0.040000
0.522500 0.242500 0.040000
0.585000 0.242500 0.040000
0.647500 0.242500 0.040000
0.710000 0.242500 0.040000
0.772500 0.242500 0.040000
0.835000 0.242500 0.040000
0.897500 0.242500 0.040000
0.960000 0.242500 0.040000
1.000000 0.242500 0.040000
0.022500 0.305000 0.040000
0.085000 0.305000 0.040000
0.147500 0.305000 0.040000
0.210000 0.305000 0.040000
0.272500 0.305000 0.040000
0.335000 0.305000 0.040000
0.397500 0.305000 0.040000
0.460000 0.305000 0.040000
0.522500 0.305000 0.040000
0.585000 0.305000 0.040000
0.647500 0.305000 0.040000
0.710000 0.305000 0.040000
0.772500 0.305000 0.040000
0.835000 0.305000 0.040000
0.897500 0.305000 0.040000
0.960000 0.305000 0.040000
1.000000 0.305000 0.040000
0.022500 0.367500 0.040000
0.085000 0.367500 0.040000
0.147500 0.367500 0.040000
0.210000 0.367500 0.040000
0.272500 0.367500 0.040000
0.335000 0.367500 0.040000
0.397500 0.367500 0.040000
0.460000 0.367500 0.040000
0.522500 0.367500 0.040000
0.585000 0.367500 0.040000
0.647500 0.367500 0.040000
0.710000 0.367500 0.040000
0.772500 0.367500 0.040000
0.835000 0.367500 0.040000
0.897500 0.367500 0.040000
0.960000 0.367500 0.040000
1.000000 0.367500 0.040000
0.022500 0.430000 0.040000
0.085000 0.430000 0.040000
0.147500 0.430000 0.040000
0.210000 0.430000 0.040000
0.272500 0.430000 0.040000
0.335000 0.430000 0.040000
0.397500 0.430000 0.040000
0.460000 0.430000 0.040000
0.522500 0.430000 0.040000
0.585000 0.430000 0.040000
0.647500 0.430000 0.040000
0.710000 0.430000 0.040000
0.772500 0.430000 0.040000
0.835000 0.430000 0.040000
0.897500 0.430000 0.040000
0.960000 0.430000 0.040000
1.000000 0.430000 0.040000
0.022500 0.492500 0.040000
0.085000 0.492500 0.040000
0.147500 0.492500 0.040000
0.210000 0.492500 0.040000
0.272500 0.492500 0.040000
0.335000 0.492500 0.040000
0.397500 0.492500 0.040000
0.460000 0.492500 0.040000
0.522500 0.492500 0.040000
0.585000 0.492500 0.040000
0.647500 0.492500 0.040000
0.710000 0.492500 0.040000
0.772500 0.492500 0.040000
0.835000 0.492500 0.040000
0.897500 0.492500 0.040000
0.960000 0.492500 0.040000
1.000000 0.492500 0.040000
0.022500 0.555000 0.040000
0.085000 0.555000 0.040000
0.147500 0.555000 0.040000
0.210000 0.555000 0.040000
0.272500 0.555000 0.040000
0.335000 0.555000 0.040000
0.397500 0.555000 0.040000
0.460000 0.555000 0.040000
0.522500 0.555000 0.040000
0.585000 0.555000 0.040000
0.647500 0.555000 0.040000
0.710000 0.555000 0.040000
0.772500 0.555000 0.040000
0.835000 0.555000 0.040000
0.897500 0.555000 0.040000
0.960000 0.555000 0.040000
1.000000 0.555000 0.040000
0.022500 0.617500 0.040000
0.085000 0.617500 0.040000
0.147500 0.617500 0.040000
0.210000 0.617500 0.040000
0.272500 0.617500 0.040000
0.335000 0.617500 0.040000
0.397500 0.617500 0.040000
0.460000 0.617500 0.040000
0.522500 0.617500 0.040000
0.585000 0.617500 0.040000
0.647500 0.617500 0.040000
0.710000 0.617500 0.040000
0.772500 0.617500 0.040000
0.835000 0.617500 0.040000
0.897500 0.617500 0.040000
0.960000 0.617500 0.040000
1.000000 0.617500 0.040000
0.022500 0.680000 0.040000
0.085000 0.680000 0.040000
0.147500 0.680000 0.040000
0.210000 0.680000 0.040000
0.272500 0.680000 0.040000
0.335000 0.680000 0.040000
0.397500 0.680000 0.040000
0.460000 0.680000 0.040000
0.522500 0.680000 0.040000
0.585000 0.680000 0.040000
0.647500 0.680000 0.040000
0.710000 0.680000 0.040000
0.772500 0.680000 0.040000
0.835000 0.680000 0.040000
0.897500 0.680000 0.040000
0.960000 0.680000 0.040000
1.000000 0.680000 0.040000
0.022500 0.742500 0.040000
0.085000 0.742500 0.040000
0.147500 0.742500 0.040000
0.210000 0.742500 0.040000
0.272500 0.742500 0.040000
0.335000 0.742500 0.040000
0.397500 0.742500 0.040000
0.460000 0.742500 0.040000
0.522500 0.742500 0.040000
0.585000 0.742500 0.040000
0.647500 0.742500 0.040000
0.710000 0.742500 0.040000
0.772500 0.742500 0.040000
0.835000 0.742500 0.040000
0.897500 0.742500 0.040000
0.960000 0.742500 0.040000
1.000000 0.742500 0.040000
0.022500 0.805000 0.040000
0.085000 0.805000 0.040000
0.147500 0.805000 0.040000
0.210000 0.805000 0.040000
0.272500 0.805000 0.040000
0.335000 0.805000 0.040000
0.397500 0.805000 0.040000
0.460000 0.805000 0.040000
0.522500 0.805000 0.040000
0.585000 0.805000 0.040000
0.647500 0.805000 0.040000
0.710000 0.805000 0.040000
0.772500 0.805000 0.040000
0.835000 0.805000 0.040000
0.897500 0.805000 0.040000
0.960000 0.805000 0.040000
1.000000 0.805000 0.040000
0.022500 0.867500 0.040000
0.085000 0.867500 0.040000
0.147500 0.867500 0.040000
0.210000 0.867500 0.040000
0.272500 0.867500 0.040000
0.335000 0.867500 0.040000
0.397500 0.867500 0.040000
0.460000 0.867500 0.040000
0.522500 0.867500 0.040000
0.585000 0.867500 0.040000
0.647500 0.867500 0.040000
0.710000 0.867500 0.040000
0.772500 0.867500 0.040000
0.835000 0.867500 0.040000
0.897500 0.867500 0.040000
0.960000 0.867500 0.040000
1.000000 0.867500 0.040000
0.022500 0.930000 0.040000
0.085000 0.930000 0.040000
0.147500 0.930000 0.040000
0.210000 0.930000 0.040000
0.272500 0.930000 0.040000
0.335000 0.930000 0.040000
0.397500 0.930000 0.040000
0.460000 0.930000 0.040000
0.522500 0.930000 0.040000
0.585000 0.930000 0.040000
0.647500 0.930000 0.040000
0.710000 0.930000 0.040000
0.772500 0.930000 0.040000
0.835000 0.930000 0.040000
0.897500 0.930000 0.040000
0.960000 0.930000 0.040000
1.000000 0.930000 0.040000
0.022500 0.992500 0.040000
0.085000 0.992500 0.040000
0.147500 0.992500 0.040000
0.210000 0.992500 0.040000
0.272500 0.992500 0.040000
0.335000 0.992500 0.040000
0.397500 0.992500 0.040000
0.460000 0.992500 0.040000
0.522500 0.992500 0.040000
0.585000 0.992500 0.040000
0.647500 0.992500 0.040000
0.710000 0.992500 0.040000
0.772500 0.992500 0.040000
0.835000 0.992500 0.040000
0.897500 0.992500 0.040000
0.960000 0.992500 0.040000
1.000000 0.992500 0.040000
0.022500 0.000000 0.102500
0.085000 0.000000 0.102500
0.147500 0.000000 0.102500
0.210000 0.000000 0.102500
0.272500 0.000000 0.102500
0.335000 0.000000 0.102500
0.397500 0.000000 0.102500
0.460000 0.000000 0.102500
0.522500 0.000000 0.102500
0.585000 0.000000 0.102500
0.647500 0.000000 0.102500
0.710000 0.000000 0.102500
0.772500 0.000000 0.102500
0.835000 0.000000 0.102500
0.897500 0.000000 0.102500
0.960000 0.000000 0.102500
1.000000 0.000000 0.102500
0.022500 0.055000 0.102500
0.085000 0.055000 0.102500
0.147500 0.055000 0.102500
0.210000 0.055000 0.102500
0.272500 0.055000 0.102500
0.335000 0.055000 0.102500
0.397500 0.055000 0.102500
0.460000 0.055000 0.102500
0.522500 0.055000 0.102500
0.585000 0.055000 0.102500
0.647500 0.055000 0.102500
0.710000 0.055000 0.102500
0.772500 0.055000 0.102500
0.835000 0.055000 0.102500
0.897500 0.055000 0.102500
0.960000 0.055000 0.102500
1.000000 0.055000 0.102500
0.022500 0.117500 0.102500
0.085000 0.117500 0.102500
0.147500 0.117500 0.102500
0.210000 0.117500 0.102500
0.272500 0.117500 0.102500
0.335000 0.117500 0.102500
0.397500 0.117500 0.102500
0.460000 0.117500 0.102500
0.522500 0.117500 0.102500
0.585000 0.117500 0.102500
0.647500 0.117500 0.102500
0.710000 0.117500 0.102500
0.772500 0.117500 0.102500
0.835000 0.117500 0.102500
0.897500 0.117500 0.102500
0.960000 0.117500 0.102500
1.000000 0.117500 0.102500
0.022500 0.180000 0.102500
0.085000 0.180000 0.102500
0.147500 0.180000 0.102500
0.210000 0.180000 0.102500
0.272500 0.180000 0.102500
0.335000 0.180000 0.102500
0.397500 0.180000 0.102500
0.460000 0.180000 0.102500
0.522500 0.180000 0.102500
0.585000 0.180000 0.102500
0.647500 0.180000 0.102500
0.710000 0.180000 0.102500
0.772500 0.180000 0.102500
0.835000 0.180000 0.102500
0.897500 0.180000 0.102500
0.960000 0.180000 0.102500
1.000000 0.180000 0.102500
0.022500 0.242500 0.102500
0.085000 0.242500 0.102500
0.147500 0.242500 0.102500
0.210000 0.242500 0.102500
0.272500 0.242500 0.102500
0.335000 0.242500 0.102500
0.397500 0.242500 0.102500
0.460000 0.242500 0.102500
0.522500 0.242500 0.102500
0.585000 0.242500 0.102500
0.647500 0.242500 0.102500
0.710000 0.242500 0.102500
0.772500 0.242500 0.102500
0.835000 0.242500 0.102500
0.897500 0.242500 0.102500
0.960000 0.242500 0.102500
1.000000 0.242500 0.102500
0.022500 0.305000 0.102500
0.085000 0.305000 0.102500
0.147500 0.305000 0.102500
0.210000 0.305000 0.102500
0.272500 0.305000 0.102500
0.335000 0.305000 0.102500
0.397500 0.305000 0.102500
0.460000 0.305000 0.102500
0.522500 0.305000 0.102500
0.585000 0.305000 0.102500
0.647500 0.305000 0.102500
0.710000 0.305000 0.102500
0.772500 0.305000 0.102500
0.835000 0.305000 0.102500
0.897500 0.305000 0.102500
0.960000 0.305000 0.102500
1.000000 0.305000 0.102500
0.022500 0.367500 0.102500
0.085000 0.367500 0.102500
0.147500 0.367500 0.102500
0.210000 0.367500 0.102500
0.272500 0.367500 0.102500
0.335000 0.367500 0.102500
0.397500 0.367500 0.102500
0.460000 0.367500 0.102500
0.522500 0.367500 0.102500
0.585000 0.367500 0.102500
0.647500 0.367500 0.102500
0.710000 0.367500 0.102500
0.772500 0.367500 0.102500
0.835000 0.367500 0.102500
0.897500 0.367500 0.102500
0.960000 0.367500 0.102500
1.000000 0.367500 0.102500
0.022500 0.430000 0.102500
0.085000 0.430000 0.102500
0.147500 0.430000 0.102500
0.210000 0.430000 0.102500
0.272500 0.430000 0.102500
0.335000 0.430000 0.102500
0.397500 0.430000 0.102500
0.460000 0.430000 0.102500
0.522500 0.430000 0.102500
0.585000 0.430000 0.102500
0.647500 0.430000 0.102500
0.710000 0.430000 0.102500
0.772500 0.430000 0.102500
0.835000 0.430000 0.102500
0.897500 0.430000 0.102500
0.960000 0.430000 0.102500
1.000000 0.430000 0.102500
0.022500 0.492500 0.102500
0.085000 0.492500 0.102500
0.147500 0.492500 0.102500
0.210000 0.492500 0.102500
0.272500 0.492500 0.102500
0.335000 0.492500 0.102500
0.397500 0.492500 0.102500
0.460000 0.492500 0.102500
0.522500 0.492500 0.102500
0.585000 0.492500 0.102500
0.647500 0.492500 0.102500
0.710000 0.492500 0.102500
0.772500 0.492500 0.102500
0.835000 0.492500 0.102500
0.897500 0.492500 0.102500
0.960000 0.492500 0.102500
1.000000 0.492500 0.102500
0.022500 0.555000 0.102500
0.085000 0.555000 0.102500
0.147500 0.555000 0.102500
0.210000 0.555000 0.102500
0.272500 0.555000 0.102500
0.335000 0.555000 0.102500
0.397500 0.555000 0.102500
0.460000 0.555000 0.102500
0.522500 0.555000 0.102500
0.585000 0.555000 0.102500
0.647500 0.555000 0.102500
0.710000 0.555000 0.102500
0.772500 0.555000 0.102500
0.835000 0.555000 0.102500
0.897500 0.555000 0.102500
0.960000 0.555000 0.102500
1.000000 0.555000 0.102500
0.022500 0.617500 0.102500
0.085000 0.617500 0.102500
0.147500 0.617500 0.102500
0.210000 0.617500 0.102500
0.272500 0.617500 0.102500
0.335000 0.617500 0.102500
0.397500 0.617500 0.102500
0.460000 0.617500 0.102500
0.522500 0.617500 0.102500
0.585000 0.617500 0.102500
0.647500 0.617500 0.102500
0.710000 0.617500 0.102500
0.772500 0.617500 0.102500
0.835000 0.617500 0.102500
0.897500 0.617500 0.102500
0.960000 0.617500 0.102500
1.000000 0.617500 0.102500
0.022500 0.680000 0.102500
0.085000 0.680000 0.102500
0.147500 0.680000 0.102500
0.210000 0.680000 0.102500
0.272500 0.680000 0.102500
0.335000 0.680000 0.102500
0.397500 0.680000 0.102500
0.460000 0.680000 0.102500
0.522500 0.680000 0.102500
0.585000 0.680000 0.102500
0.647500 0.680000 0.102500
0.710000 0.680000 0.102500
0.772500 0.680000 0.102500
0.835000 0.680000 0.102500
0.897500 0.680000 0.102500
0.960000 0.680000 0.102500
1.000000 0.680000 0.102500
0.022500 0.742500 0.102500
0.085000 0.742500 0.102500
0.147500 0.742500 0.102500
0.210000 0.742500 0.102500
0.272500 0.742500 0.102500
0.335000 0.742500 0.102500
0.397500 0.742500 0.102500
0.460000 0.742500 0.102500
0.522500 0.742500 0.102500
0.585000 0.742500 0.102500
0.647500 0.742500 0.102500
0.710000 0.742500 0.102500
0.772500 0.742500 0.102500
0.835000 0.742500 0.102500
0.897500 0.742500 0.102500
0.960000 0.742500 0.102500
1.000000 0.742500 0.102500
0.022500 0.805000 0.102500
0.085000 0.805000 0.102500
0.147500 0.805000 0.102500
0.210000 0.805000 0.102500
0.272500 0.805000 0.102500
0.335000 0.805000 0.102500
0.397500 0.805000 0.102500
0.460000 0.805000 0.102500
0.522500 0.805000 0.102500
0.585000 0.805000 0.102500
0.647500 0.805000 0.102500
0.710000 0.805000 0.102500
0.772500 0.805000 0.102500
0.835000 0.805000 0.102500
0.897500 0.805000 0.102500
0.960000 0.805000 0.102500
1.000000 0.805000 0.102500
0.022500 0.867500 0.102500
0.085000 0.867500 0.102500
0.147500 0.867500 0.102500
0.210000 0.867500 0.102500
0.272500 0.867500 0.102500
0.335000 0.867500 0.102500
0.397500 0.867500 0.102500
0.460000 0.867500 0.102500
0.522500 0.867500 0.102500
0.585000 0.867500 0.102500
0.647500 0.867500 0.102500
0.710000 0.867500 0.102500
0.772500 0.867500 0.102500
0.835000 0.867500 0.102500
0.897500 0.867500 0.102500
0.960000 0.867500 0.102500
1.000000 0.867500 0.102500
0.022500 0.930000 0.102500
0.085000 0.930000 0.102500
0.147500 0.930000 0.102500
0.210000 0.930000 0.102500
0.272500 0.930000 0.102500
0.335000 0.930000 0.102500
0.397500 0.930000 0.102500
0.460000 0.930000 0.102500
0.522500 0.930000 0.102500
0.585000 0.930000 0.102500
0.647500 0.930000 0.102500
0.710000 0.930000 0.102500
0.772500 0.930000 0.102500
0.835000 0.930000 0.102500
0.897500 0.930000 0.102500
0.960000 0.930000 0.102500
1.000000 0.930000 0.102500
0.022500 0.992500 0.102500
0.085000 0.992500 0.102500
0.147500 0.992500 0.102500
0.210000 0.992500 0.102500
0.272500 0.992500 0.102500
0.335000 0.992500 0.102500
0.397500 0.992500 0.102500
0.460000 0.992500 0.102500
0.522500 0.992500 0.102500
0.585000 0.992500 0.102500
0.647500 0.992500 0.102500
0.710000 0.992500 0.102500
0.772500 0.992500 0.102500
0.835000 0.992500 0.102500
0.897500 0.992500 0.102500
0.960000 0.992500 0.102500
1.000000 0.992500 0.102500
0.022500 0.000000 0.165000
0.085000 0.000000 0.165000
0.147500 0.000000 0.165000
0.210000 0.000000 0.165000
0.272500 0.000000 0.165000
0.335000 0.000000 0.165000
0.397500 0.000000 0.165000
0.460000 0.000000 0.165000
0.522500 0.000000 0.165000
0.585000 0.000000 0.165000
0.647500 0.000000 0.165000
0.710000 0.000000 0.165000
0.772500 0.000000 0.165000
0.835000 0.000000 0.165000
0.897500 0.000000 0.165000
0.960000 0.000000 0.165000
1.000000 0.000000 0.165000
0.022500 0.055000 0.165000
