ApexStudio/app/src/main/assets/luts/forest_green.cube
# ApexStudio filter: forest_green
LUT_3D_SIZE 17
DOMAIN_MIN 0.0 0.0 0.0
DOMAIN_MAX 1.0 1.0 1.0
0.000000 0.000000 0.000000
0.053125 0.000000 0.000000
0.106250 0.000000 0.000000
0.159375 0.000000 0.000000
0.212500 0.000000 0.000000
0.265625 0.000000 0.000000
0.318750 0.000000 0.000000
0.371875 0.000000 0.000000
0.425000 0.000000 0.000000
0.478125 0.000000 0.000000
0.531250 0.000000 0.000000
0.584375 0.000000 0.000000
0.637500 0.000000 0.000000
0.690625 0.000000 0.000000
0.743750 0.000000 0.000000
0.796875 0.000000 0.000000
0.850000 0.000000 0.000000
0.000000 0.078125 0.000000
0.053125 0.078125 0.000000
0.106250 0.078125 0.000000
0.159375 0.078125 0.000000
0.212500 0.078125 0.000000
0.265625 0.078125 0.000000
0.318750 0.078125 0.000000
0.371875 0.078125 0.000000
0.425000 0.078125 0.000000
0.478125 0.078125 0.000000
0.531250 0.078125 0.000000
0.584375 0.078125 0.000000
0.637500 0.078125 0.000000
0.690625 0.078125 0.000000
0.743750 0.078125 0.000000
0.796875 0.078125 0.000000
0.850000 0.078125 0.000000
0.000000 0.156250 0.000000
0.053125 0.156250 0.000000
0.106250 0.156250 0.000000
0.159375 0.156250 0.000000
0.212500 0.156250 0.000000
0.265625 0.156250 0.000000
0.318750 0.156250 0.000000
0.371875 0.156250 0.000000
0.425000 0.156250 0.000000
0.478125 0.156250 0.000000
0.531250 0.156250 0.000000
0.584375 0.156250 0.000000
0.637500 0.156250 0.000000
0.690625 0.156250 0.000000
0.743750 0.156250 0.000000
0.796875 0.156250 0.000000
0.850000 0.156250 0.000000
0.000000 0.234375 0.000000
0.053125 0.234375 0.000000
0.106250 0.234375 0.000000
0.159375 0.234375 0.000000
0.212500 0.234375 0.000000
0.265625 0.234375 0.000000
0.318750 0.234375 0.000000
0.371875 0.234375 0.000000
0.425000 0.234375 0.000000
0.478125 0.234375 0.000000
0.531250 0.234375 0.000000
0.584375 0.234375 0.000000
0.637500 0.234375 0.000000
0.690625 0.234375 0.000000
0.743750 0.234375 0.000000
0.796875 0.234375 0.000000
0.850000 0.234375 0.000000
0.000000 0.312500 0.000000
0.053125 0.312500 0.000000
0.106250 0.312500 0.000000
0.159375 0.312500 0.000000
0.212500 0.312500 0.000000
0.265625 0.312500 0.000000
0.318750 0.312500 0.000000
0.371875 0.312500 0.000000
0.425000 0.312500 0.000000
0.478125 0.312500 0.000000
0.531250 0.312500 0.000000
0.584375 0.312500 0.000000
0.637500 0.312500 0.000000
0.690625 0.312500 0.000000
0.743750 0.312500 0.000000
0.796875 0.312500 0.000000
0.850000 0.312500 0.000000
0.000000 0.390625 0.000000
0.053125 0.390625 0.000000
0.106250 0.390625 0.000000
0.159375 0.390625 0.000000
0.212500 0.390625 0.000000
0.265625 0.390625 0.000000
0.318750 0.390625 0.000000
0.371875 0.390625 0.000000
0.425000 0.390625 0.000000
0.478125 0.390625 0.000000
0.531250 0.390625 0.000000
0.584375 0.390625 0.000000
0.637500 0.390625 0.000000
0.690625 0.390625 0.000000
0.743750 0.390625 0.000000
0.796875 0.390625 0.000000
0.850000 0.390625 0.000000
0.000000 0.468750 0.000000
0.053125 0.468750 0.000000
0.106250 0.468750 0.000000
0.159375 0.468750 0.000000
0.212500 0.468750 0.000000
0.265625 0.468750 0.000000
0.318750 0.468750 0.000000
0.371875 0.468750 0.000000
0.425000 0.468750 0.000000
0.478125 0.468750 0.000000
0.531250 0.468750 0.000000
0.584375 0.468750 0.000000
0.637500 0.468750 0.000000
0.690625 0.468750 0.000000
0.743750 0.468750 0.000000
0.796875 0.468750 0.000000
0.850000 0.468750 0.000000
0.000000 0.546875 0.000000
0.053125 0.546875 0.000000
0.106250 0.546875 0.000000
0.159375 0.546875 0.000000
0.212500 0.546875 0.000000
0.265625 0.546875 0.000000
0.318750 0.546875 0.000000
0.371875 0.546875 0.000000
0.425000 0.546875 0.000000
0.478125 0.546875 0.000000
0.531250 0.546875 0.000000
0.584375 0.546875 0.000000
0.637500 0.546875 0.000000
0.690625 0.546875 0.000000
0.743750 0.546875 0.000000
0.796875 0.546875 0.000000
0.850000 0.546875 0.000000
0.000000 0.625000 0.000000
0.053125 0.625000 0.000000
0.106250 0.625000 0.000000
0.159375 0.625000 0.000000
0.212500 0.625000 0.000000
0.265625 0.625000 0.000000
0.318750 0.625000 0.000000
0.371875 0.625000 0.000000
0.425000 0.625000 0.000000
0.478125 0.625000 0.000000
0.531250 0.625000 0.000000
0.584375 0.625000 0.000000
0.637500 0.625000 0.000000
0.690625 0.625000 0.000000
0.743750 0.625000 0.000000
0.796875 0.625000 0.000000
0.850000 0.625000 0.000000
0.000000 0.703125 0.000000
0.053125 0.703125 0.000000
0.106250 0.703125 0.000000
0.159375 0.703125 0.000000
0.212500 0.703125 0.000000
0.265625 0.703125 0.000000
0.318750 0.703125 0.000000
0.371875 0.703125 0.000000
0.425000 0.703125 0.000000
0.478125 0.703125 0.000000
0.531250 0.703125 0.000000
0.584375 0.703125 0.000000
0.637500 0.703125 0.000000
0.690625 0.703125 0.000000
0.743750 0.703125 0.000000
0.796875 0.703125 0.000000
0.850000 0.703125 0.000000
0.000000 0.781250 0.000000
0.053125 0.781250 0.000000
0.106250 0.781250 0.000000
0.159375 0.781250 0.000000
0.212500 0.781250 0.000000
0.265625 0.781250 0.000000
0.318750 0.781250 0.000000
0.371875 0.781250 0.000000
0.425000 0.781250 0.000000
0.478125 0.781250 0.000000
0.531250 0.781250 0.000000
0.584375 0.781250 0.000000
0.637500 0.781250 0.000000
0.690625 0.781250 0.000000
0.743750 0.781250 0.000000
0.796875 0.781250 0.000000
0.850000 0.781250 0.000000
0.000000 0.859375 0.000000
0.053125 0.859375 0.000000
0.106250 0.859375 0.000000
0.159375 0.859375 0.000000
0.212500 0.859375 0.000000
0.265625 0.859375 0.000000
0.318750 0.859375 0.000000
0.371875 0.859375 0.000000
0.425000 0.859375 0.000000
0.478125 0.859375 0.000000
0.531250 0.859375 0.000000
0.584375 0.859375 0.000000
0.637500 0.859375 0.000000
0.690625 0.859375 0.000000
0.743750 0.859375 0.000000
0.796875 0.859375 0.000000
0.850000 0.859375 0.000000
0.000000 0.937500 0.000000
0.053125 0.937500 0.000000
0.106250 0.937500 0.000000
0.159375 0.937500 0.000000
0.212500 0.937500 0.000000
0.265625 0.937500 0.000000
0.318750 0.937500 0.000000
0.371875 0.937500 0.000000
0.425000 0.937500 0.000000
0.478125 0.937500 0.000000
0.531250 0.937500 0.000000
0.584375 0.937500 0.000000
0.637500 0.937500 0.000000
0.690625 0.937500 0.000000
0.743750 0.937500 0.000000
0.796875 0.937500 0.000000
0.850000 0.937500 0.000000
0.000000 1.000000 0.000000
0.053125 1.000000 0.000000
0.106250 1.000000 0.000000
0.159375 1.000000 0.000000
0.212500 1.000000 0.000000
0.265625 1.000000 0.000000
0.318750 1.000000 0.000000
0.371875 1.000000 0.000000
0.425000 1.000000 0.000000
0.478125 1.000000 0.000000
0.531250 1.000000 0.000000
0.584375 1.000000 0.000000
0.637500 1.000000 0.000000
0.690625 1.000000 0.000000
0.743750 1.000000 0.000000
0.796875 1.000000 0.000000
0.850000 1.000000 0.000000
0.000000 1.000000 0.000000
0.053125 1.000000 0.000000
0.106250 1.000000 0.000000
0.159375 1.000000 0.000000
0.212500 1.000000 0.000000
0.265625 1.000000 0.000000
0.318750 1.000000 0.000000
0.371875 1.000000 0.000000
0.425000 1.000000 0.000000
0.478125 1.000000 0.000000
0.531250 1.000000 0.000000
0.584375 1.000000 0.000000
0.637500 1.000000 0.000000
0.690625 1.000000 0.000000
0.743750 1.000000 0.000000
0.796875 1.000000 0.000000
0.850000 1.000000 0.000000
0.000000 1.000000 0.000000
0.053125 1.000000 0.000000
0.106250 1.000000 0.000000
0.159375 1.000000 0.000000
0.212500 1.000000 0.000000
0.265625 1.000000 0.000000
0.318750 1.000000 0.000000
0.371875 1.000000 0.000000
0.425000 1.000000 0.000000
0.478125 1.000000 0.000000
0.531250 1.000000 0.000000
0.584375 1.000000 0.000000
0.637500 1.000000 0.000000
0.690625 1.000000 0.000000
0.743750 1.000000 0.000000
0.796875 1.000000 0.000000
0.850000 1.000000 0.000000
0.000000 1.000000 0.000000
0.053125 1.000000 0.000000
0.106250 1.000000 0.000000
0.159375 1.000000 0.000000
0.212500 1.000000 0.000000
0.265625 1.000000 0.000000
0.318750 1.000000 0.000000
0.371875 1.000000 0.000000
0.425000 1.000000 0.000000
0.478125 1.000000 0.000000
0.531250 1.000000 0.000000
0.584375 1.000000 0.000000
0.637500 1.000000 0.000000
0.690625 1.000000 0.000000
0.743750 1.000000 0.000000
0.796875 1.000000 0.000000
0.850000 1.000000 0.000000
0.000000 0.000000 0.053125
0.053125 0.000000 0.053125
0.106250 0.000000 0.053125
0.159375 0.000000 0.053125
0.212500 0.000000 0.053125
0.265625 0.000000 0.053125
0.318750 0.000000 0.053125
0.371875 0.000000 0.053125
0.425000 0.000000 0.053125
0.478125 0.000000 0.053125
0.531250 0.000000 0.053125
0.584375 0.000000 0.053125
0.637500 0.000000 0.053125
0.690625 0.000000 0.053125
0.743750 0.000000 0.053125
0.796875 0.000000 0.053125
0.850000 0.000000 0.053125
0.000000 0.078125 0.053125
0.053125 0.078125 0.053125
0.106250 0.078125 0.053125
0.159375 0.078125 0.053125
0.212500 0.078125 0.053125
0.265625 0.078125 0.053125
0.318750 0.078125 0.053125
0.371875 0.078125 0.053125
0.425000 0.078125 0.053125
0.478125 0.078125 0.053125
0.531250 0.078125 0.053125
0.584375 0.078125 0.053125
0.637500 0.078125 0.053125
0.690625 0.078125 0.053125
0.743750 0.078125 0.053125
0.796875 0.078125 0.053125
0.850000 0.078125 0.053125
0.000000 0.156250 0.053125
0.053125 0.156250 0.053125
0.106250 0.156250 0.053125
0.159375 0.156250 0.053125
0.212500 0.156250 0.053125
0.265625 0.156250 0.053125
0.318750 0.156250 0.053125
0.371875 0.156250 0.053125
0.425000 0.156250 0.053125
0.478125 0.156250 0.053125
0.531250 0.156250 0.053125
0.584375 0.156250 0.053125
0.637500 0.156250 0.053125
0.690625 0.156250 0.053125
0.743750 0.156250 0.053125
0.796875 0.156250 0.053125
0.850000 0.156250 0.053125
0.000000 0.234375 0.053125
0.053125 0.234375 0.053125
0.106250 0.234375 0.053125
0.159375 0.234375 0.053125
0.212500 0.234375 0.053125
0.265625 0.234375 0.053125
0.318750 0.234375 0.053125
0.371875 0.234375 0.053125
0.425000 0.234375 0.053125
0.478125 0.234375 0.053125
0.531250 0.234375 0.053125
0.584375 0.234375 0.053125
0.637500 0.234375 0.053125
0.690625 0.234375 0.053125
0.743750 0.234375 0.053125
0.796875 0.234375 0.053125
0.850000 0.234375 0.053125
0.000000 0.312500 0.053125
0.053125 0.312500 0.053125
0.106250 0.312500 0.053125
0.159375 0.312500 0.053125
0.212500 0.312500 0.053125
0.265625 0.312500 0.053125
0.318750 0.312500 0.053125
0.371875 0.312500 0.053125
0.425000 0.312500 0.053125
0.478125 0.312500 0.053125
0.531250 0.312500 0.053125
0.584375 0.312500 0.053125
0.637500 0.312500 0.053125
0.690625 0.312500 0.053125
0.743750 0.312500 0.053125
0.796875 0.312500 0.053125
0.850000 0.312500 0.053125
0.000000 0.390625 0.053125
0.053125 0.390625 0.053125
0.106250 0.390625 0.053125
0.159375 0.390625 0.053125
0.212500 0.390625 0.053125
0.265625 0.390625 0.053125
0.318750 0.390625 0.053125
0.371875 0.390625 0.053125
0.425000 0.390625 0.053125
0.478125 0.390625 0.053125
0.531250 0.390625 0.053125
0.584375 0.390625 0.053125
0.637500 0.390625 0.053125
0.690625 0.390625 0.053125
0.743750 0.390625 0.053125
0.796875 0.390625 0.053125
0.850000 0.390625 0.053125
0.000000 0.468750 0.053125
0.053125 0.468750 0.053125
0.106250 0.468750 0.053125
0.159375 0.468750 0.053125
0.212500 0.468750 0.053125
0.265625 0.468750 0.053125
0.318750 0.468750 0.053125
0.371875 0.468750 0.053125
0.425000 0.468750 0.053125
0.478125 0.468750 0.053125
0.531250 0.468750 0.053125
0.584375 0.468750 0.053125
0.637500 0.468750 0.053125
0.690625 0.468750 0.053125
0.743750 0.468750 0.053125
0.796875 0.468750 0.053125
0.850000 0.468750 0.053125
0.000000 0.546875 0.053125
0.053125 0.546875 0.053125
0.106250 0.546875 0.053125
0.159375 0.546875 0.053125
0.212500 0.546875 0.053125
0.265625 0.546875 0.053125
0.318750 0.546875 0.053125
0.371875 0.546875 0.053125
0.425000 0.546875 0.053125
0.478125 0.546875 0.053125
0.531250 0.546875 0.053125
0.584375 0.546875 0.053125
0.637500 0.546875 0.053125
0.690625 0.546875 0.053125
0.743750 0.546875 0.053125
0.796875 0.546875 0.053125
0.850000 0.546875 0.053125
0.000000 0.625000 0.053125
0.053125 0.625000 0.053125
0.106250 0.625000 0.053125
0.159375 0.625000 0.053125
0.212500 0.625000 0.053125
0.265625 0.625000 0.053125
0.318750 0.625000 0.053125
0.371875 0.625000 0.053125
0.425000 0.625000 0.053125
0.478125 0.625000 0.053125
0.531250 0.625000 0.053125
0.584375 0.625000 0.053125
0.637500 0.625000 0.053125
0.690625 0.625000 0.053125
0.743750 0.625000 0.053125
0.796875 0.625000 0.053125
0.850000 0.625000 0.053125
0.000000 0.703125 0.053125
0.053125 0.703125 0.053125
0.106250 0.703125 0.053125
0.159375 0.703125 0.053125
0.212500 0.703125 0.053125
0.265625 0.703125 0.053125
0.318750 0.703125 0.053125
0.371875 0.703125 0.053125
0.425000 0.703125 0.053125
0.478125 0.703125 0.053125
0.531250 0.703125 0.053125
0.584375 0.703125 0.053125
0.637500 0.703125 0.053125
0.690625 0.703125 0.053125
0.743750 0.703125 0.053125
0.796875 0.703125 0.053125
0.850000 0.703125 0.053125
0.000000 0.781250 0.053125
0.053125 0.781250 0.053125
0.106250 0.781250 0.053125
0.159375 0.781250 0.053125
0.212500 0.781250 0.053125
0.265625 0.781250 0.053125
0.318750 0.781250 0.053125
0.371875 0.781250 0.053125
0.425000 0.781250 0.053125
0.478125 0.781250 0.053125
0.531250 0.781250 0.053125
0.584375 0.781250 0.053125
0.637500 0.781250 0.053125
0.690625 0.781250 0.053125
0.743750 0.781250 0.053125
0.796875 0.781250 0.053125
0.850000 0.781250 0.053125
0.000000 0.859375 0.053125
0.053125 0.859375 0.053125
0.106250 0.859375 0.053125
0.159375 0.859375 0.053125
0.212500 0.859375 0.053125
0.265625 0.859375 0.053125
0.318750 0.859375 0.053125
0.371875 0.859375 0.053125
0.425000 0.859375 0.053125
0.478125 0.859375 0.053125
0.531250 0.859375 0.053125
0.584375 0.859375 0.053125
0.637500 0.859375 0.053125
0.690625 0.859375 0.053125
0.743750 0.859375 0.053125
0.796875 0.859375 0.053125
0.850000 0.859375 0.053125
0.000000 0.937500 0.053125
0.053125 0.937500 0.053125
0.106250 0.937500 0.053125
0.159375 0.937500 0.053125
0.212500 0.937500 0.053125
0.265625 0.937500 0.053125
0.318750 0.937500 0.053125
0.371875 0.937500 0.053125
0.425000 0.937500 0.053125
0.478125 0.937500 0.053125
0.531250 0.937500 0.053125
0.584375 0.937500 0.053125
0.637500 0.937500 0.053125
0.690625 0.937500 0.053125
0.743750 0.937500 0.053125
0.796875 0.937500 0.053125
0.850000 0.937500 0.053125
0.000000 1.000000 0.053125
0.053125 1.000000 0.053125
0.106250 1.000000 0.053125
0.159375 1.000000 0.053125
0.212500 1.000000 0.053125
0.265625 1.000000 0.053125
0.318750 1.000000 0.053125
0.371875 1.000000 0.053125
0.425000 1.000000 0.053125
0.478125 1.000000 0.053125
0.531250 1.000000 0.053125
0.584375 1.000000 0.053125
0.637500 1.000000 0.053125
0.690625 1.000000 0.053125
0.743750 1.000000 0.053125
0.796875 1.000000 0.053125
0.850000 1.000000 0.053125
0.000000 1.000000 0.053125
0.053125 1.000000 0.053125
0.106250 1.000000 0.053125
0.159375 1.000000 0.053125
0.212500 1.000000 0.053125
0.265625 1.000000 0.053125
0.318750 1.000000 0.053125
0.371875 1.000000 0.053125
0.425000 1.000000 0.053125
0.478125 1.000000 0.053125
0.531250 1.000000 0.053125
0.584375 1.000000 0.053125
0.637500 1.000000 0.053125
0.690625 1.000000 0.053125
0.743750 1.000000 0.053125
0.796875 1.000000 0.053125
0.850000 1.000000 0.053125
0.000000 1.000000 0.053125
0.053125 1.000000 0.053125
0.106250 1.000000 0.053125
0.159375 1.000000 0.053125
0.212500 1.000000 0.053125
0.265625 1.000000 0.053125
0.318750 1.000000 0.053125
0.371875 1.000000 0.053125
0.425000 1.000000 0.053125
0.478125 1.000000 0.053125
0.531250 1.000000 0.053125
0.584375 1.000000 0.053125
0.637500 1.000000 0.053125
0.690625 1.000000 0.053125
0.743750 1.000000 0.053125
0.796875 1.000000 0.053125
0.850000 1.000000 0.053125
0.000000 1.000000 0.053125
0.053125 1.000000 0.053125
0.106250 1.000000 0.053125
0.159375 1.000000 0.053125
0.212500 1.000000 0.053125
0.265625 1.000000 0.053125
0.318750 1.000000 0.053125
0.371875 1.000000 0.053125
0.425000 1.000000 0.053125
0.478125 1.000000 0.053125
0.531250 1.000000 0.053125
0.584375 1.000000 0.053125
0.637500 1.000000 0.053125
0.690625 1.000000 0.053125
0.743750 1.000000 0.053125
0.796875 1.000000 0.053125
0.850000 1.000000 0.053125
0.000000 0.000000 0.106250
0.053125 0.000000 0.106250
0.106250 0.000000 0.106250
0.159375 0.000000 0.106250
0.212500 0.000000 0.106250
0.265625 0.000000 0.106250
0.318750 0.000000 0.106250
0.371875 0.000000 0.106250
0.425000 0.000000 0.106250
0.478125 0.000000 0.106250
0.531250 0.000000 0.106250
0.584375 0.000000 0.106250
0.637500 0.000000 0.106250
0.690625 0.000000 0.106250
0.743750 0.000000 0.106250
0.796875 0.000000 0.106250
0.850000 0.000000 0.106250
0.000000 0.078125 0.106250
0.053125 0.078125 0.106250
0.106250 0.078125 0.106250
0.159375 0.078125 0.106250
0.212500 0.078125 0.106250
0.265625 0.078125 0.106250
0.318750 0.078125 0.106250
0.371875 0.078125 0.106250
0.425000 0.078125 0.106250
0.478125 0.078125 0.106250
0.531250 0.078125 0.106250
0.584375 0.078125 0.106250
0.637500 0.078125 0.106250
0.690625 0.078125 0.106250
0.743750 0.078125 0.106250
0.796875 0.078125 0.106250
0.850000 0.078125 0.106250
0.000000 0.156250 0.106250
0.053125 0.156250 0.106250
0.106250 0.156250 0.106250
0.159375 0.156250 0.106250
0.212500 0.156250 0.106250
0.265625 0.156250 0.106250
0.318750 0.156250 0.106250
0.371875 0.156250 0.106250
0.425000 0.156250 0.106250
0.478125 0.156250 0.106250
0.531250 0.156250 0.106250
0.584375 0.156250 0.106250
0.637500 0.156250 0.106250
0.690625 0.156250 0.106250
0.743750 0.156250 0.106250
0.796875 0.156250 0.106250
0.850000 0.156250 0.106250
0.000000 0.234375 0.106250
0.053125 0.234375 0.106250
0.106250 0.234375 0.106250
0.159375 0.234375 0.106250
0.212500 0.234375 0.106250
0.265625 0.234375 0.106250
0.318750 0.234375 0.106250
0.371875 0.234375 0.106250
0.425000 0.234375 0.106250
0.478125 0.234375 0.106250
0.531250 0.234375 0.106250
0.584375 0.234375 0.106250
0.637500 0.234375 0.106250
0.690625 0.234375 0.106250
0.743750 0.234375 0.106250
0.796875 0.234375 0.106250
0.850000 0.234375 0.106250
0.000000 0.312500 0.106250
0.053125 0.312500 0.106250
0.106250 0.312500 0.106250
0.159375 0.312500 0.106250
0.212500 0.312500 0.106250
0.265625 0.312500 0.106250
0.318750 0.312500 0.106250
0.371875 0.312500 0.106250
0.425000 0.312500 0.106250
0.478125 0.312500 0.106250
0.531250 0.312500 0.106250
0.584375 0.312500 0.106250
0.637500 0.312500 0.106250
0.690625 0.312500 0.106250
0.743750 0.312500 0.106250
0.796875 0.312500 0.106250
0.850000 0.312500 0.106250
0.000000 0.390625 0.106250
0.053125 0.390625 0.106250
0.106250 0.390625 0.106250
0.159375 0.390625 0.106250
0.212500 0.390625 0.106250
0.265625 0.390625 0.106250
0.318750 0.390625 0.106250
0.371875 0.390625 0.106250
0.425000 0.390625 0.106250
0.478125 0.390625 0.106250
0.531250 0.390625 0.106250
0.584375 0.390625 0.106250
0.637500 0.390625 0.106250
0.690625 0.390625 0.106250
0.743750 0.390625 0.106250
0.796875 0.390625 0.106250
0.850000 0.390625 0.106250
0.000000 0.468750 0.106250
0.053125 0.468750 0.106250
0.106250 0.468750 0.106250
0.159375 0.468750 0.106250
0.212500 0.468750 0.106250
0.265625 0.468750 0.106250
0.318750 0.468750 0.106250
0.371875 0.468750 0.106250
0.425000 0.468750 0.106250
0.478125 0.468750 0.106250
0.531250 0.468750 0.106250
0.584375 0.468750 0.106250
0.637500 0.468750 0.106250
0.690625 0.468750 0.106250
0.743750 0.468750 0.106250
0.796875 0.468750 0.106250
0.850000 0.468750 0.106250
0.000000 0.546875 0.106250
0.053125 0.546875 0.106250
0.106250 0.546875 0.106250
0.159375 0.546875 0.106250
0.212500 0.546875 0.106250
0.265625 0.546875 0.106250
0.318750 0.546875 0.106250
0.371875 0.546875 0.106250
0.425000 0.546875 0.106250
0.478125 0.546875 0.106250
0.531250 0.546875 0.106250
0.584375 0.546875 0.106250
0.637500 0.546875 0.106250
0.690625 0.546875 0.106250
0.743750 0.546875 0.106250
0.796875 0.546875 0.106250
0.850000 0.546875 0.106250
0.000000 0.625000 0.106250
0.053125 0.625000 0.106250
0.106250 0.625000 0.106250
0.159375 0.625000 0.106250
0.212500 0.625000 0.106250
0.265625 0.625000 0.106250
0.318750 0.625000 0.106250
0.371875 0.625000 0.106250
0.425000 0.625000 0.106250
0.478125 0.625000 0.106250
0.531250 0.625000 0.106250
0.584375 0.625000 0.106250
0.637500 0.625000 0.106250
0.690625 0.625000 0.106250
0.743750 0.625000 0.106250
0.796875 0.625000 0.106250
0.850000 0.625000 0.106250
0.000000 0.703125 0.106250
0.053125 0.703125 0.106250
0.106250 0.703125 0.106250
0.159375 0.703125 0.106250
0.212500 0.703125 0.106250
0.265625 0.703125 0.106250
0.318750 0.703125 0.106250
0.371875 0.703125 0.106250
0.425000 0.703125 0.106250
0.478125 0.703125 0.106250
0.531250 0.703125 0.106250
0.584375 0.703125 0.106250
0.637500 0.703125 0.106250
0.690625 0.703125 0.106250
0.743750 0.703125 0.106250
0.796875 0.703125 0.106250
0.850000 0.703125 0.106250
0.000000 0.781250 0.106250
0.053125 0.781250 0.106250
0.106250 0.781250 0.106250
0.159375 0.781250 0.106250
0.212500 0.781250 0.106250
0.265625 0.781250 0.106250
0.318750 0.781250 0.106250
0.371875 0.781250 0.106250
0.425000 0.781250 0.106250
0.478125 0.781250 0.106250
0.531250 0.781250 0.106250
0.584375 0.781250 0.106250
0.637500 0.781250 0.106250
0.690625 0.781250 0.106250
0.743750 0.781250 0.106250
0.796875 0.781250 0.106250
0.850000 0.781250 0.106250
0.000000 0.859375 0.106250
0.053125 0.859375 0.106250
0.106250 0.859375 0.106250
0.159375 0.859375 0.106250
0.212500 0.859375 0.106250
0.265625 0.859375 0.106250
0.318750 0.859375 0.106250
0.371875 0.859375 0.106250
0.425000 0.859375 0.106250
0.478125 0.859375 0.106250
0.531250 0.859375 0.106250
0.584375 0.859375 0.106250
0.637500 0.859375 0.106250
0.690625 0.859375 0.106250
0.743750 0.859375 0.106250
0.796875 0.859375 0.106250
0.850000 0.859375 0.106250
0.000000 0.937500 0.106250
0.053125 0.937500 0.106250
0.106250 0.937500 0.106250
0.159375 0.937500 0.106250
0.212500 0.937500 0.106250
0.265625 0.937500 0.106250
0.318750 0.937500 0.106250
0.371875 0.937500 0.106250
0.425000 0.937500 0.106250
0.478125 0.937500 0.106250
0.531250 0.937500 0.106250
0.584375 0.937500 0.106250
0.637500 0.937500 0.106250
0.690625 0.937500 0.106250
0.743750 0.937500 0.106250
0.796875 0.937500 0.106250
0.850000 0.937500 0.106250
0.000000 1.000000 0.106250
0.053125 1.000000 0.106250
0.106250 1.000000 0.106250
0.159375 1.000000 0.106250
0.212500 1.000000 0.106250
0.265625 1.000000 0.106250
0.318750 1.000000 0.106250
0.371875 1.000000 0.106250
0.425000 1.000000 0.106250
0.478125 1.000000 0.106250
0.531250 1.000000 0.106250
0.584375 1.000000 0.106250
0.637500 1.000000 0.106250
0.690625 1.000000 0.106250
0.743750 1.000000 0.106250
0.796875 1.000000 0.106250
0.850000 1.000000 0.106250
0.000000 1.000000 0.106250
0.053125 1.000000 0.106250
0.106250 1.000000 0.106250
0.159375 1.000000 0.106250
0.212500 1.000000 0.106250
0.265625 1.000000 0.106250
0.318750 1.000000 0.106250
0.371875 1.000000 0.106250
0.425000 1.000000 0.106250
0.478125 1.000000 0.106250
0.531250 1.000000 0.106250
0.584375 1.000000 0.106250
0.637500 1.000000 0.106250
0.690625 1.000000 0.106250
0.743750 1.000000 0.106250
0.796875 1.000000 0.106250
0.850000 1.000000 0.106250
0.000000 1.000000 0.106250
0.053125 1.000000 0.106250
0.106250 1.000000 0.106250
0.159375 1.000000 0.106250
0.212500 1.000000 0.106250
0.265625 1.000000 0.106250
0.318750 1.000000 0.106250
0.371875 1.000000 0.106250
0.425000 1.000000 0.106250
0.478125 1.000000 0.106250
0.531250 1.000000 0.106250
0.584375 1.000000 0.106250
0.637500 1.000000 0.106250
0.690625 1.000000 0.106250
0.743750 1.000000 0.106250
0.796875 1.000000 0.106250
0.850000 1.000000 0.106250
0.000000 1.000000 0.106250
0.053125 1.000000 0.106250
0.106250 1.000000 0.106250
0.159375 1.000000 0.106250
0.212500 1.000000 0.106250
0.265625 1.000000 0.106250
0.318750 1.000000 0.106250
0.371875 1.000000 0.106250
0.425000 1.000000 0.106250
0.478125 1.000000 0.106250
0.531250 1.000000 0.106250
0.584375 1.000000 0.106250
0.637500 1.000000 0.106250
0.690625 1.000000 0.106250
0.743750 1.000000 0.106250
0.796875 1.000000 0.106250
0.850000 1.000000 0.106250
0.000000 0.000000 0.159375
0.053125 0.000000 0.159375
0.106250 0.000000 0.159375
0.159375 0.000000 0.159375
0.212500 0.000000 0.159375
0.265625 0.000000 0.159375
0.318750 0.000000 0.159375
0.371875 0.000000 0.159375
0.425000 0.000000 0.159375
0.478125 0.000000 0.159375
0.531250 0.000000 0.159375
0.584375 0.000000 0.159375
0.637500 0.000000 0.159375
0.690625 0.000000 0.159375
0.743750 0.000000 0.159375
0.796875 0.000000 0.159375
0.850000 0.000000 0.159375
0.000000 0.078125 0.159375
