ApexStudio/app/src/main/assets/luts/forest_green.cube
# ApexStudio filter: forest_green
LUT_3D_SIZE 5
DOMAIN_MIN 0.0 0.0 0.0
DOMAIN_MAX 1.0 1.0 1.0
0.000000 0.000000 0.000000
0.212500 0.000000 0.000000
0.425000 0.000000 0.000000
0.637500 0.000000 0.000000
0.850000 0.000000 0.000000
0.000000 0.312500 0.000000
0.212500 0.312500 0.000000
0.425000 0.312500 0.000000
0.637500 0.312500 0.000000
0.850000 0.312500 0.000000
0.000000 0.625000 0.000000
0.212500 0.625000 0.000000
0.425000 0.625000 0.000000
0.637500 0.625000 0.000000
0.850000 0.625000 0.000000
0.000000 0.937500 0.000000
0.212500 0.937500 0.000000
0.425000 0.937500 0.000000
0.637500 0.937500 0.000000
0.850000 0.937500 0.000000
0.000000 1.000000 0.000000
0.212500 1.000000 0.000000
0.425000 1.000000 0.000000
0.637500 1.000000 0.000000
0.850000 1.000000 0.000000
0.000000 0.000000 0.212500
0.212500 0.000000 0.212500
0.425000 0.000000 0.212500
0.637500 0.000000 0.212500
0.850000 0.000000 0.212500
0.000000 0.312500 0.212500
0.212500 0.312500 0.212500
0.425000 0.312500 0.212500
0.637500 0.312500 0.212500
0.850000 0.312500 0.212500
0.000000 0.625000 0.212500
0.212500 0.625000 0.212500
0.425000 0.625000 0.212500
0.637500 0.625000 0.212500
0.850000 0.625000 0.212500
0.000000 0.937500 0.212500
0.212500 0.937500 0.212500
0.425000 0.937500 0.212500
0.637500 0.937500 0.212500
0.850000 0.937500 0.212500
0.000000 1.000000 0.212500
0.212500 1.000000 0.212500
0.425000 1.000000 0.212500
0.637500 1.000000 0.212500
0.850000 1.000000 0.212500
0.000000 0.000000 0.425000
0.212500 0.000000 0.425000
0.425000 0.000000 0.425000
0.637500 0.000000 0.425000
0.850000 0.000000 0.425000
0.000000 0.312500 0.425000
0.212500 0.312500 0.425000
0.425000 0.312500 0.425000
0.637500 0.312500 0.425000
0.850000 0.312500 0.425000
0.000000 0.625000 0.425000
0.212500 0.625000 0.425000
0.425000 0.625000 0.425000
0.637500 0.625000 0.425000
0.850000 0.625000 0.425000
0.000000 0.937500 0.425000
0.212500 0.937500 0.425000
0.425000 0.937500 0.425000
0.637500 0.937500 0.425000
0.850000 0.937500 0.425000
0.000000 1.000000 0.425000
0.212500 1.000000 0.425000
0.425000 1.000000 0.425000
0.637500 1.000000 0.425000
0.850000 1.000000 0.425000
0.000000 0.000000 0.637500
0.212500 0.000000 0.637500
0.425000 0.000000 0.637500
0.637500 0.000000 0.637500
0.850000 0.000000 0.637500
0.000000 0.312500 0.637500
0.212500 0.312500 0.637500
0.425000 0.312500 0.637500
0.637500 0.312500 0.637500
0.850000 0.312500 0.637500
0.000000 0.625000 0.637500
0.212500 0.625000 0.637500
0.425000 0.625000 0.637500
0.637500 0.625000 0.637500
0.850000 0.625000 0.637500
0.000000 0.937500 0.637500
0.212500 0.937500 0.637500
0.425000 0.937500 0.637500
0.637500 0.937500 0.637500
0.850000 0.937500 0.637500
0.000000 1.000000 0.637500
0.212500 1.000000 0.637500
0.425000 1.000000 0.637500
0.637500 1.000000 0.637500
0.850000 1.000000 0.637500
0.000000 0.000000 0.850000
0.212500 0.000000 0.850000
0.425000 0.000000 0.850000
0.637500 0.000000 0.850000
0.850000 0.000000 0.850000
0.000000 0.312500 0.850000
0.212500 0.312500 0.850000
0.425000 0.312500 0.850000
0.637500 0.312500 0.850000
0.850000 0.312500 0.850000
0.000000 0.625000 0.850000
0.212500 0.625000 0.850000
0.425000 0.625000 0.850000
0.637500 0.625000 0.850000
0.850000 0.625000 0.850000
0.000000 0.937500 0.850000
0.212500 0.937500 0.850000
0.425000 0.937500 0.850000
0.637500 0.937500 0.850000
0.850000 0.937500 0.850000
0.000000 1.000000 0.850000
0.212500 1.000000 0.850000
0.425000 1.000000 0.850000
0.637500 1.000000 0.850000
0.850000 1.000000 0.850000
