ApexStudio/app/src/main/assets/luts/high_contrast_charcoal.cube
# ApexStudio filter: high_contrast_charcoal
LUT_3D_SIZE 9
DOMAIN_MIN 0.0 0.0 0.0
DOMAIN_MAX 1.0 1.0 1.0
0.000000 0.000000 0.000000
0.020223 0.020223 0.020223
0.095303 0.095303 0.095303
0.159402 0.159402 0.159402
0.217271 0.217271 0.217271
0.270909 0.270909 0.270909
0.321399 0.321399 0.321399
0.369415 0.369415 0.369415
0.415408 0.415408 0.415408
0.092781 0.092781 0.092781
0.157171 0.157171 0.157171
0.215225 0.215225 0.215225
0.268996 0.268996 0.268996
0.319589 0.319589 0.319589
0.367686 0.367686 0.367686
0.413748 0.413748 0.413748
0.458101 0.458101 0.458101
0.500991 0.500991 0.500991
0.213174 0.213174 0.213174
0.267080 0.267080 0.267080
0.317775 0.317775 0.317775
0.365955 0.365955 0.365955
0.412085 0.412085 0.412085
0.456496 0.456496 0.456496
0.499436 0.499436 0.499436
0.541095 0.541095 0.541095
0.581625 0.581625 0.581625
0.315958 0.315958 0.315958
0.364222 0.364222 0.364222
0.410420 0.410420 0.410420
0.454890 0.454890 0.454890
0.497880 0.497880 0.497880
0.539584 0.539584 0.539584
0.580152 0.580152 0.580152
0.619708 0.619708 0.619708
0.658353 0.658353 0.658353
0.408753 0.408753 0.408753
0.453281 0.453281 0.453281
0.496322 0.496322 0.496322
0.538070 0.538070 0.538070
0.578678 0.578678 0.578678
0.618270 0.618270 0.618270
0.656947 0.656947 0.656947
0.694794 0.694794 0.694794
0.731885 0.731885 0.731885
0.494763 0.494763 0.494763
0.536555 0.536555 0.536555
0.577203 0.577203 0.577203
0.616830 0.616830 0.616830
0.655539 0.655539 0.655539
0.693416 0.693416 0.693416
0.730533 0.730533 0.730533
0.766952 0.766952 0.766952
0.802726 0.802726 0.802726
0.575726 0.575726 0.575726
0.615389 0.615389 0.615389
0.654130 0.654130 0.654130
0.692036 0.692036 0.692036
0.729180 0.729180 0.729180
0.765624 0.765624 0.765624
0.801421 0.801421 0.801421
0.836619 0.836619 0.836619
0.871259 0.871259 0.871259
0.652720 0.652720 0.652720
0.690656 0.690656 0.690656
0.727826 0.727826 0.727826
0.764295 0.764295 0.764295
0.800115 0.800115 0.800115
0.835334 0.835334 0.835334
0.869994 0.869994 0.869994
0.904131 0.904131 0.904131
0.937778 0.937778 0.937778
0.726472 0.726472 0.726472
0.762965 0.762965 0.762965
0.798808 0.798808 0.798808
0.834049 0.834049 0.834049
0.868729 0.868729 0.868729
0.902884 0.902884 0.902884
0.936548 0.936548 0.936548
0.969750 0.969750 0.969750
1.000000 1.000000 1.000000
0.000000 0.000000 0.000000
0.050724 0.050724 0.050724
0.120676 0.120676 0.120676
0.182062 0.182062 0.182062
0.238149 0.238149 0.238149
0.290488 0.290488 0.290488
0.339970 0.339970 0.339970
0.387169 0.387169 0.387169
0.432482 0.432482 0.432482
0.118283 0.118283 0.118283
0.179910 0.179910 0.179910
0.236159 0.236159 0.236159
0.288617 0.288617 0.288617
0.338193 0.338193 0.338193
0.385468 0.385468 0.385468
0.430845 0.430845 0.430845
0.474615 0.474615 0.474615
0.516999 0.516999 0.516999
0.234164 0.234164 0.234164
0.286743 0.286743 0.286743
0.336413 0.336413 0.336413
0.383765 0.383765 0.383765
0.429206 0.429206 0.429206
0.473030 0.473030 0.473030
0.515462 0.515462 0.515462
0.556674 0.556674 0.556674
0.596806 0.596806 0.596806
0.334629 0.334629 0.334629
0.382059 0.382059 0.382059
0.427564 0.427564 0.427564
0.471444 0.471444 0.471444
0.513923 0.513923 0.513923
0.555178 0.555178 0.555178
0.595347 0.595347 0.595347
0.634545 0.634545 0.634545
0.672866 0.672866 0.672866
0.425920 0.425920 0.425920
0.469855 0.469855 0.469855
0.512383 0.512383 0.512383
0.553680 0.553680 0.553680
0.593887 0.593887 0.593887
0.633119 0.633119 0.633119
0.671471 0.671471 0.671471
0.709022 0.709022 0.709022
0.745840 0.745840 0.745840
0.510841 0.510841 0.510841
0.552181 0.552181 0.552181
0.592426 0.592426 0.592426
0.631692 0.631692 0.631692
0.670074 0.670074 0.670074
0.707654 0.707654 0.707654
0.744498 0.744498 0.744498
0.780665 0.780665 0.780665
0.816206 0.816206 0.816206
0.590963 0.590963 0.590963
0.630263 0.630263 0.630263
0.668677 0.668677 0.668677
0.706284 0.706284 0.706284
0.743154 0.743154 0.743154
0.779346 0.779346 0.779346
0.814909 0.814909 0.814909
0.849890 0.849890 0.849890
0.884327 0.884327 0.884327
0.667278 0.667278 0.667278
0.704914 0.704914 0.704914
0.741810 0.741810 0.741810
0.778026 0.778026 0.778026
0.813612 0.813612 0.813612
0.848613 0.848613 0.848613
0.883070 0.883070 0.883070
0.917016 0.917016 0.917016
0.950483 0.950483 0.950483
0.740465 0.740465 0.740465
0.776705 0.776705 0.776705
0.812313 0.812313 0.812313
0.847335 0.847335 0.847335
0.881811 0.881811 0.881811
0.915776 0.915776 0.915776
0.949260 0.949260 0.949260
0.982293 0.982293 0.982293
1.000000 1.000000 1.000000
0.000000 0.000000 0.000000
0.078766 0.078766 0.078766
0.144852 0.144852 0.144852
0.203966 0.203966 0.203966
0.258489 0.258489 0.258489
0.309655 0.309655 0.309655
0.358211 0.358211 0.358211
0.404651 0.404651 0.404651
0.449325 0.449325 0.449325
0.142565 0.142565 0.142565
0.201882 0.201882 0.201882
0.256548 0.256548 0.256548
0.307822 0.307822 0.307822
0.356464 0.356464 0.356464
0.402975 0.402975 0.402975
0.447709 0.447709 0.447709
0.490928 0.490928 0.490928
0.532831 0.532831 0.532831
0.254603 0.254603 0.254603
0.305986 0.305986 0.305986
0.354715 0.354715 0.354715
0.401297 0.401297 0.401297
0.446092 0.446092 0.446092
0.489362 0.489362 0.489362
0.531310 0.531310 0.531310
0.572096 0.572096 0.572096
0.611847 0.611847 0.611847
0.352963 0.352963 0.352963
0.399617 0.399617 0.399617
0.444472 0.444472 0.444472
0.487795 0.487795 0.487795
0.529789 0.529789 0.529789
0.570615 0.570615 0.570615
0.610401 0.610401 0.610401
0.649254 0.649254 0.649254
0.687262 0.687262 0.687262
0.442851 0.442851 0.442851
0.486226 0.486226 0.486226
0.528265 0.528265 0.528265
0.569132 0.569132 0.569132
0.608955 0.608955 0.608955
0.647841 0.647841 0.647841
0.685878 0.685878 0.685878
0.723142 0.723142 0.723142
0.759697 0.759697 0.759697
0.526740 0.526740 0.526740
0.567647 0.567647 0.567647
0.607507 0.607507 0.607507
0.646426 0.646426 0.646426
0.684493 0.684493 0.684493
0.721784 0.721784 0.721784
0.758364 0.758364 0.758364
0.794287 0.794287 0.794287
0.829602 0.829602 0.829602
0.606058 0.606058 0.606058
0.645009 0.645009 0.645009
0.683107 0.683107 0.683107
0.720425 0.720425 0.720425
0.757030 0.757030 0.757030
0.792977 0.792977 0.792977
0.828313 0.828313 0.828313
0.863082 0.863082 0.863082
0.897321 0.897321 0.897321
0.681719 0.681719 0.681719
0.719066 0.719066 0.719066
0.755696 0.755696 0.755696
0.791665 0.791665 0.791665
0.827023 0.827023 0.827023
0.861813 0.861813 0.861813
0.896071 0.896071 0.896071
0.929831 0.929831 0.929831
0.963123 0.963123 0.963123
0.754360 0.754360 0.754360
0.790353 0.790353 0.790353
0.825733 0.825733 0.825733
0.860542 0.860542 0.860542
0.894819 0.894819 0.894819
0.928597 0.928597 0.928597
0.961906 0.961906 0.961906
0.994774 0.994774 0.994774
1.000000 1.000000 1.000000
0.032080 0.032080 0.032080
0.105031 0.105031 0.105031
0.168045 0.168045 0.168045
0.225213 0.225213 0.225213
0.278345 0.278345 0.278345
0.328445 0.328445 0.328445
0.376145 0.376145 0.376145
0.421876 0.421876 0.421876
0.465949 0.465949 0.465949
0.165845 0.165845 0.165845
0.223189 0.223189 0.223189
0.276449 0.276449 0.276449
0.326647 0.326647 0.326647
0.374427 0.374427 0.374427
0.420225 0.420225 0.420225
0.464354 0.464354 0.464354
0.507050 0.507050 0.507050
0.548495 0.548495 0.548495
0.274548 0.274548 0.274548
0.324846 0.324846 0.324846
0.372707 0.372707 0.372707
0.418571 0.418571 0.418571
0.462757 0.462757 0.462757
0.505502 0.505502 0.505502
0.546990 0.546990 0.546990
0.587368 0.587368 0.587368
0.626752 0.626752 0.626752
0.370984 0.370984 0.370984
0.416915 0.416915 0.416915
0.461158 0.461158 0.461158
0.503953 0.503953 0.503953
0.545485 0.545485 0.545485
0.585900 0.585900 0.585900
0.625320 0.625320 0.625320
0.663841 0.663841 0.663841
0.701547 0.701547 0.701547
0.459558 0.459558 0.459558
0.502402 0.502402 0.502402
0.543977 0.543977 0.543977
0.584432 0.584432 0.584432
0.623886 0.623886 0.623886
0.662439 0.662439 0.662439
0.700174 0.700174 0.700174
0.737160 0.737160 0.737160
0.773459 0.773459 0.773459
0.542468 0.542468 0.542468
0.582962 0.582962 0.582962
0.622451 0.622451 0.622451
0.661036 0.661036 0.661036
0.698799 0.698799 0.698799
0.735812 0.735812 0.735812
0.772135 0.772135 0.772135
0.807821 0.807821 0.807821
0.842916 0.842916 0.842916
0.621015 0.621015 0.621015
0.659631 0.659631 0.659631
0.697423 0.697423 0.697423
0.734463 0.734463 0.734463
0.770810 0.770810 0.770810
0.806519 0.806519 0.806519
0.841634 0.841634 0.841634
0.876197 0.876197 0.876197
0.910243 0.910243 0.910243
0.696047 0.696047 0.696047
0.733113 0.733113 0.733113
0.769485 0.769485 0.769485
0.805216 0.805216 0.805216
0.840353 0.840353 0.840353
0.874935 0.874935 0.874935
0.909000 0.909000 0.909000
0.942578 0.942578 0.942578
0.975699 0.975699 0.975699
0.768158 0.768158 0.768158
0.803912 0.803912 0.803912
0.839070 0.839070 0.839070
0.873672 0.873672 0.873672
0.907755 0.907755 0.907755
0.941351 0.941351 0.941351
0.974488 0.974488 0.974488
1.000000 1.000000 1.000000
1.000000 1.000000 1.000000
0.061545 0.061545 0.061545
0.129922 0.129922 0.129922
0.190407 0.190407 0.190407
0.245881 0.245881 0.245881
0.297764 0.297764 0.297764
0.346888 0.346888 0.346888
0.393794 0.393794 0.393794
0.438861 0.438861 0.438861
0.482366 0.482366 0.482366
0.188282 0.188282 0.188282
0.243910 0.243910 0.243910
0.295908 0.295908 0.295908
0.345122 0.345122 0.345122
0.392103 0.392103 0.392103
0.437233 0.437233 0.437233
0.480791 0.480791 0.480791
0.522991 0.522991 0.522991
0.563998 0.563998 0.563998
0.294048 0.294048 0.294048
0.343354 0.343354 0.343354
0.390410 0.390410 0.390410
0.435602 0.435602 0.435602
0.479214 0.479214 0.479214
0.521460 0.521460 0.521460
0.562509 0.562509 0.562509
0.602495 0.602495 0.602495
0.641528 0.641528 0.641528
0.388713 0.388713 0.388713
0.433969 0.433969 0.433969
0.477635 0.477635 0.477635
0.519928 0.519928 0.519928
0.561019 0.561019 0.561019
0.601042 0.601042 0.601042
0.640108 0.640108 0.640108
0.678310 0.678310 0.678310
0.715723 0.715723 0.715723
0.476054 0.476054 0.476054
0.518394 0.518394 0.518394
0.559527 0.559527 0.559527
0.599587 0.599587 0.599587
0.638687 0.638687 0.638687
0.676919 0.676919 0.676919
0.714360 0.714360 0.714360
0.751078 0.751078 0.751078
0.787129 0.787129 0.787129
0.558033 0.558033 0.558033
0.598131 0.598131 0.598131
0.637264 0.637264 0.637264
0.675526 0.675526 0.675526
0.712996 0.712996 0.712996
0.749739 0.749739 0.749739
0.785814 0.785814 0.785814
0.821269 0.821269 0.821269
0.856149 0.856149 0.856149
0.635840 0.635840 0.635840
0.674133 0.674133 0.674133
0.711631 0.711631 0.711631
0.748400 0.748400 0.748400
0.784498 0.784498 0.784498
0.819975 0.819975 0.819975
0.854875 0.854875 0.854875
0.889237 0.889237 0.889237
0.923095 0.923095 0.923095
0.710264 0.710264 0.710264
0.747059 0.747059 0.747059
0.783181 0.783181 0.783181
0.818680 0.818680 0.818680
0.853601 0.853601 0.853601
0.887982 0.887982 0.887982
0.921858 0.921858 0.921858
0.955259 0.955259 0.955259
0.988212 0.988212 0.988212
0.781863 0.781863 0.781863
0.817385 0.817385 0.817385
0.852326 0.852326 0.852326
0.886726 0.886726 0.886726
0.920620 0.920620 0.920620
0.954038 0.954038 0.954038
0.987008 0.987008 0.987008
1.000000 1.000000 1.000000
1.000000 1.000000 1.000000
0.088856 0.088856 0.088856
0.153707 0.153707 0.153707
0.212053 0.212053 0.212053
0.266032 0.266032 0.266032
0.316785 0.316785 0.316785
0.365010 0.365010 0.365010
0.411177 0.411177 0.411177
0.455620 0.455620 0.455620
0.498588 0.498588 0.498588
0.209993 0.209993 0.209993
0.264109 0.264109 0.264109
0.314966 0.314966 0.314966
0.363275 0.363275 0.363275
0.409511 0.409511 0.409511
0.454013 0.454013 0.454013
0.497031 0.497031 0.497031
0.538758 0.538758 0.538758
0.579348 0.579348 0.579348
0.313143 0.313143 0.313143
0.361537 0.361537 0.361537
0.407843 0.407843 0.407843
0.452403 0.452403 0.452403
0.495472 0.495472 0.495472
0.537244 0.537244 0.537244
0.577874 0.577874 0.577874
0.617484 0.617484 0.617484
0.656179 0.656179 0.656179
0.406172 0.406172 0.406172
0.450792 0.450792 0.450792
0.493912 0.493912 0.493912
0.535729 0.535729 0.535729
0.576398 0.576398 0.576398
0.616044 0.616044 0.616044
0.654771 0.654771 0.654771
0.692663 0.692663 0.692663
0.729795 0.729795 0.729795
0.492349 0.492349 0.492349
0.534211 0.534211 0.534211
0.574920 0.574920 0.574920
0.614602 0.614602 0.614602
0.653361 0.653361 0.653361
0.691283 0.691283 0.691283
0.728442 0.728442 0.728442
0.764899 0.764899 0.764899
0.800709 0.800709 0.800709
0.573441 0.573441 0.573441
0.613159 0.613159 0.613159
0.651951 0.651951 0.651951
0.689902 0.689902 0.689902
0.727087 0.727087 0.727087
0.763569 0.763569 0.763569
0.799402 0.799402 0.799402
0.834633 0.834633 0.834633
0.869304 0.869304 0.869304
0.650539 0.650539 0.650539
0.688520 0.688520 0.688520
0.725732 0.725732 0.725732
0.762239 0.762239 0.762239
0.798095 0.798095 0.798095
0.833347 0.833347 0.833347
0.868038 0.868038 0.868038
0.902204 0.902204 0.902204
0.935877 0.935877 0.935877
0.724376 0.724376 0.724376
0.760908 0.760908 0.760908
0.796787 0.796787 0.796787
0.832061 0.832061 0.832061
0.866771 0.866771 0.866771
0.900956 0.900956 0.900956
0.934647 0.934647 0.934647
0.967874 0.967874 0.967874
1.000000 1.000000 1.000000
0.795478 0.795478 0.795478
0.830773 0.830773 0.830773
0.865504 0.865504 0.865504
0.899707 0.899707 0.899707
0.933416 0.933416 0.933416
0.966660 0.966660 0.966660
0.999465 0.999465 0.999465
1.000000 1.000000 1.000000
1.000000 1.000000 1.000000
0.114564 0.114564 0.114564
0.176570 0.176570 0.176570
0.233073 0.233073 0.233073
0.285719 0.285719 0.285719
0.335440 0.335440 0.335440
0.382835 0.382835 0.382835
0.428310 0.428310 0.428310
0.472165 0.472165 0.472165
0.514623 0.514623 0.514623
0.231070 0.231070 0.231070
0.283838 0.283838 0.283838
0.333655 0.333655 0.333655
0.381127 0.381127 0.381127
0.426668 0.426668 0.426668
0.470578 0.470578 0.470578
0.513083 0.513083 0.513083
0.554361 0.554361 0.554361
0.594551 0.594551 0.594551
0.331867 0.331867 0.331867
0.379417 0.379417 0.379417
0.425023 0.425023 0.425023
0.468988 0.468988 0.468988
0.511542 0.511542 0.511542
0.552863 0.552863 0.552863
0.593090 0.593090 0.593090
0.632341 0.632341 0.632341
0.670709 0.670709 0.670709
0.423376 0.423376 0.423376
0.467397 0.467397 0.467397
0.510000 0.510000 0.510000
0.551363 0.551363 0.551363
0.591628 0.591628 0.591628
0.630913 0.630913 0.630913
0.669312 0.669312 0.669312
0.706907 0.706907 0.706907
0.743765 0.743765 0.743765
0.508455 0.508455 0.508455
0.549861 0.549861 0.549861
0.590165 0.590165 0.590165
0.629484 0.629484 0.629484
0.667914 0.667914 0.667914
0.705537 0.705537 0.705537
0.742421 0.742421 0.742421
0.778626 0.778626 0.778626
0.814202 0.814202 0.814202
0.588700 0.588700 0.588700
0.628054 0.628054 0.628054
0.666515 0.666515 0.666515
0.704167 0.704167 0.704167
0.741077 0.741077 0.741077
0.777305 0.777305 0.777305
0.812904 0.812904 0.812904
0.847916 0.847916 0.847916
0.882383 0.882383 0.882383
0.665115 0.665115 0.665115
0.702795 0.702795 0.702795
0.739731 0.739731 0.739731
0.775984 0.775984 0.775984
0.811605 0.811605 0.811605
0.846638 0.846638 0.846638
0.881125 0.881125 0.881125
0.915099 0.915099 0.915099
0.948593 0.948593 0.948593
0.738385 0.738385 0.738385
0.774662 0.774662 0.774662
0.810305 0.810305 0.810305
0.845359 0.845359 0.845359
0.879865 0.879865 0.879865
0.913858 0.913858 0.913858
0.947369 0.947369 0.947369
0.980426 0.980426 0.980426
1.000000 1.000000 1.000000
0.809004 0.809004 0.809004
0.844079 0.844079 0.844079
0.878605 0.878605 0.878605
0.912616 0.912616 0.912616
0.946144 0.946144 0.946144
0.979218 0.979218 0.979218
1.000000 1.000000 1.000000
1.000000 1.000000 1.000000
1.000000 1.000000 1.000000
0.139012 0.139012 0.139012
0.198650 0.198650 0.198650
0.253540 0.253540 0.253540
0.304983 0.304983 0.304983
0.353760 0.353760 0.353760
0.400381 0.400381 0.400381
0.445209 0.445209 0.445209
0.488507 0.488507 0.488507
0.530481 0.530481 0.530481
0.251587 0.251587 0.251587
0.303142 0.303142 0.303142
0.352006 0.352006 0.352006
0.398700 0.398700 0.398700
0.443588 0.443588 0.443588
0.486939 0.486939 0.486939
0.528958 0.528958 0.528958
0.569806 0.569806 0.569806
0.609612 0.609612 0.609612
0.350249 0.350249 0.350249
0.397016 0.397016 0.397016
0.441965 0.441965 0.441965
0.485369 0.485369 0.485369
0.527434 0.527434 0.527434
0.568322 0.568322 0.568322
0.608165 0.608165 0.608165
0.647069 0.647069 0.647069
0.685123 0.685123 0.685123
0.440340 0.440340 0.440340
0.483797 0.483797 0.483797
0.525908 0.525908 0.525908
0.566837 0.566837 0.566837
0.606716 0.606716 0.606716
0.645653 0.645653 0.645653
0.683737 0.683737 0.683737
0.721043 0.721043 0.721043
0.757637 0.757637 0.757637
0.524381 0.524381 0.524381
0.565351 0.565351 0.565351
0.605267 0.605267 0.605267
0.644236 0.644236 0.644236
0.682350 0.682350 0.682350
0.719684 0.719684 0.719684
0.756302 0.756302 0.756302
0.792261 0.792261 0.792261
0.827610 0.827610 0.827610
0.603816 0.603816 0.603816
0.642818 0.642818 0.642818
0.680962 0.680962 0.680962
0.718323 0.718323 0.718323
0.754967 0.754967 0.754967
0.790950 0.790950 0.790950
0.826320 0.826320 0.826320
0.861120 0.861120 0.861120
0.895388 0.895388 0.895388
0.679573 0.679573 0.679573
0.716962 0.716962 0.716962
0.753631 0.753631 0.753631
0.789637 0.789637 0.789637
0.825029 0.825029 0.825029
0.859849 0.859849 0.859849
0.894137 0.894137 0.894137
0.927924 0.927924 0.927924
0.961242 0.961242 0.961242
0.752294 0.752294 0.752294
0.788324 0.788324 0.788324
0.823737 0.823737 0.823737
0.858578 0.858578 0.858578
0.892884 0.892884 0.892884
0.926690 0.926690 0.926690
0.960025 0.960025 0.960025
0.992916 0.992916 0.992916
1.000000 1.000000 1.000000
0.822445 0.822445 0.822445
0.857306 0.857306 0.857306
0.891631 0.891631 0.891631
0.925455 0.925455 0.925455
0.958806 0.958806 0.958806
0.991714 0.991714 0.991714
1.000000 1.000000 1.000000
1.000000 1.000000 1.000000
1.000000 1.000000 1.000000
0.162431 0.162431 0.162431
0.220051 0.220051 0.220051
0.273510 0.273510 0.273510
0.323863 0.323863 0.323863
0.371767 0.371767 0.371767
0.417668 0.417668 0.417668
0.461885 0.461885 0.461885
0.504657 0.504657 0.504657
0.546169 0.546169 0.546169
0.271603 0.271603 0.271603
0.322057 0.322057 0.322057
0.370043 0.370043 0.370043
0.416011 0.416011 0.416011
0.460286 0.460286 0.460286
0.503107 0.503107 0.503107
0.544663 0.544663 0.544663
0.585100 0.585100 0.585100
0.624538 0.624538 0.624538
0.368315 0.368315 0.368315
0.414352 0.414352 0.414352
0.458684 0.458684 0.458684
0.501555 0.501555 0.501555
0.543154 0.543154 0.543154
0.583630 0.583630 0.583630
0.623103 0.623103 0.623103
0.661674 0.661674 0.661674
0.699424 0.699424 0.699424
0.457080 0.457080 0.457080
0.500002 0.500002 0.500002
0.541645 0.541645 0.541645
0.582160 0.582160 0.582160
0.621668 0.621668 0.621668
0.660270 0.660270 0.660270
0.698049 0.698049 0.698049
0.735076 0.735076 0.735076
0.771413 0.771413 0.771413
0.540134 0.540134 0.540134
0.580688 0.580688 0.580688
0.620231 0.620231 0.620231
0.658865 0.658865 0.658865
0.696673 0.696673 0.696673
0.733727 0.733727 0.733727
0.770087 0.770087 0.770087
0.805808 0.805808 0.805808
0.840935 0.840935 0.840935
0.618793 0.618793 0.618793
0.657458 0.657458 0.657458
0.695295 0.695295 0.695295
0.732376 0.732376 0.732376
0.768761 0.768761 0.768761
0.804505 0.804505 0.804505
0.839653 0.839653 0.839653
0.874246 0.874246 0.874246
0.908321 0.908321 0.908321
0.693917 0.693917 0.693917
0.731024 0.731024 0.731024
0.767435 0.767435 0.767435
0.803201 0.803201 0.803201
0.838370 0.838370 0.838370
0.872983 0.872983 0.872983
0.907076 0.907076 0.907076
0.940681 0.940681 0.940681
0.973828 0.973828 0.973828
0.766107 0.766107 0.766107
0.801896 0.801896 0.801896
0.837086 0.837086 0.837086
0.871719 0.871719 0.871719
0.905831 0.905831 0.905831
0.939453 0.939453 0.939453
0.972616 0.972616 0.972616
1.000000 1.000000 1.000000
1.000000 1.000000 1.000000
0.835802 0.835802 0.835802
0.870454 0.870454 0.870454
0.904585 0.904585 0.904585
0.938225 0.938225 0.938225
0.971404 0.971404 0.971404
1.000000 1.000000 1.000000
1.000000 1.000000 1.000000
1.000000 1.000000 1.000000
1.000000 1.000000 1.000000
