ApexStudio/app/src/main/assets/luts/high_contrast_charcoal.cube
# ApexStudio filter: high_contrast_charcoal
LUT_3D_SIZE 17
DOMAIN_MIN 0.0 0.0 0.0
DOMAIN_MAX 1.0 1.0 1.0
0.000000 0.000000 0.000000
0.000000 0.000000 0.000000
0.020223 0.020223 0.020223
0.059681 0.059681 0.059681
0.095303 0.095303 0.095303
0.128321 0.128321 0.128321
0.159402 0.159402 0.159402
0.188959 0.188959 0.188959
0.217271 0.217271 0.217271
0.244538 0.244538 0.244538
0.270909 0.270909 0.270909
0.296499 0.296499 0.296499
0.321399 0.321399 0.321399
0.345684 0.345684 0.345684
0.369415 0.369415 0.369415
0.392641 0.392641 0.392641
0.415408 0.415408 0.415408
0.018671 0.018671 0.018671
0.058307 0.058307 0.058307
0.094044 0.094044 0.094044
0.127144 0.127144 0.127144
0.158287 0.158287 0.158287
0.187895 0.187895 0.187895
0.216249 0.216249 0.216249
0.243551 0.243551 0.243551
0.269953 0.269953 0.269953
0.295570 0.295570 0.295570
0.320495 0.320495 0.320495
0.344801 0.344801 0.344801
0.368551 0.368551 0.368551
0.391795 0.391795 0.391795
0.414578 0.414578 0.414578
0.436936 0.436936 0.436936
0.458902 0.458902 0.458902
0.092781 0.092781 0.092781
0.125964 0.125964 0.125964
0.157171 0.157171 0.157171
0.186829 0.186829 0.186829
0.215225 0.215225 0.215225
0.242564 0.242564 0.242564
0.268996 0.268996 0.268996
0.294640 0.294640 0.294640
0.319589 0.319589 0.319589
0.343917 0.343917 0.343917
0.367686 0.367686 0.367686
0.390949 0.390949 0.390949
0.413748 0.413748 0.413748
0.436121 0.436121 0.436121
0.458101 0.458101 0.458101
0.479716 0.479716 0.479716
0.500991 0.500991 0.500991
0.156052 0.156052 0.156052
0.185762 0.185762 0.185762
0.214200 0.214200 0.214200
0.241575 0.241575 0.241575
0.268038 0.268038 0.268038
0.293710 0.293710 0.293710
0.318683 0.318683 0.318683
0.343032 0.343032 0.343032
0.366821 0.366821 0.366821
0.390101 0.390101 0.390101
0.412917 0.412917 0.412917
0.435305 0.435305 0.435305
0.457299 0.457299 0.457299
0.478927 0.478927 0.478927
0.500214 0.500214 0.500214
0.521182 0.521182 0.521182
0.541851 0.541851 0.541851
0.213174 0.213174 0.213174
0.240585 0.240585 0.240585
0.267080 0.267080 0.267080
0.292778 0.292778 0.292778
0.317775 0.317775 0.317775
0.342147 0.342147 0.342147
0.365955 0.365955 0.365955
0.389253 0.389253 0.389253
0.412085 0.412085 0.412085
0.434488 0.434488 0.434488
0.456496 0.456496 0.456496
0.478137 0.478137 0.478137
0.499436 0.499436 0.499436
0.520416 0.520416 0.520416
0.541095 0.541095 0.541095
0.561493 0.561493 0.561493
0.581625 0.581625 0.581625
0.266120 0.266120 0.266120
0.291846 0.291846 0.291846
0.316867 0.316867 0.316867
0.341261 0.341261 0.341261
0.365089 0.365089 0.365089
0.388405 0.388405 0.388405
0.411253 0.411253 0.411253
0.433671 0.433671 0.433671
0.455693 0.455693 0.455693
0.477347 0.477347 0.477347
0.498658 0.498658 0.498658
0.519649 0.519649 0.519649
0.540340 0.540340 0.540340
0.560747 0.560747 0.560747
0.580888 0.580888 0.580888
0.600777 0.600777 0.600777
0.620427 0.620427 0.620427
0.315958 0.315958 0.315958
0.340374 0.340374 0.340374
0.364222 0.364222 0.364222
0.387555 0.387555 0.387555
0.410420 0.410420 0.410420
0.432854 0.432854 0.432854
0.454890 0.454890 0.454890
0.476557 0.476557 0.476557
0.497880 0.497880 0.497880
0.518883 0.518883 0.518883
0.539584 0.539584 0.539584
0.560001 0.560001 0.560001
0.580152 0.580152 0.580152
0.600050 0.600050 0.600050
0.619708 0.619708 0.619708
0.639139 0.639139 0.639139
0.658353 0.658353 0.658353
0.363354 0.363354 0.363354
0.386706 0.386706 0.386706
0.409587 0.409587 0.409587
0.432036 0.432036 0.432036
0.454086 0.454086 0.454086
0.475766 0.475766 0.475766
0.497102 0.497102 0.497102
0.518115 0.518115 0.518115
0.538827 0.538827 0.538827
0.559255 0.559255 0.559255
0.579415 0.579415 0.579415
0.599322 0.599322 0.599322
0.618989 0.618989 0.618989
0.638428 0.638428 0.638428
0.657650 0.657650 0.657650
0.676665 0.676665 0.676665
0.695483 0.695483 0.695483
0.408753 0.408753 0.408753
0.431217 0.431217 0.431217
0.453281 0.453281 0.453281
0.474975 0.474975 0.474975
0.496322 0.496322 0.496322
0.517348 0.517348 0.517348
0.538070 0.538070 0.538070
0.558508 0.558508 0.558508
0.578678 0.578678 0.578678
0.598594 0.598594 0.598594
0.618270 0.618270 0.618270
0.637717 0.637717 0.637717
0.656947 0.656947 0.656947
0.675969 0.675969 0.675969
0.694794 0.694794 0.694794
0.713430 0.713430 0.713430
0.731885 0.731885 0.731885
0.452476 0.452476 0.452476
0.474183 0.474183 0.474183
0.495543 0.495543 0.495543
0.516580 0.516580 0.516580
0.537313 0.537313 0.537313
0.557761 0.557761 0.557761
0.577941 0.577941 0.577941
0.597866 0.597866 0.597866
0.617550 0.617550 0.617550
0.637005 0.637005 0.637005
0.656243 0.656243 0.656243
0.675273 0.675273 0.675273
0.694105 0.694105 0.694105
0.712748 0.712748 0.712748
0.731209 0.731209 0.731209
0.749496 0.749496 0.749496
0.767616 0.767616 0.767616
0.494763 0.494763 0.494763
0.515811 0.515811 0.515811
0.536555 0.536555 0.536555
0.557014 0.557014 0.557014
0.577203 0.577203 0.577203
0.597137 0.597137 0.597137
0.616830 0.616830 0.616830
0.636293 0.636293 0.636293
0.655539 0.655539 0.655539
0.674577 0.674577 0.674577
0.693416 0.693416 0.693416
0.712065 0.712065 0.712065
0.730533 0.730533 0.730533
0.748826 0.748826 0.748826
0.766952 0.766952 0.766952
0.784917 0.784917 0.784917
0.802726 0.802726 0.802726
0.535797 0.535797 0.535797
0.556266 0.556266 0.556266
0.576465 0.576465 0.576465
0.596408 0.596408 0.596408
0.616110 0.616110 0.616110
0.635581 0.635581 0.635581
0.654835 0.654835 0.654835
0.673880 0.673880 0.673880
0.692726 0.692726 0.692726
0.711382 0.711382 0.711382
0.729856 0.729856 0.729856
0.748156 0.748156 0.748156
0.766288 0.766288 0.766288
0.784258 0.784258 0.784258
0.802074 0.802074 0.802074
0.819740 0.819740 0.819740
0.837261 0.837261 0.837261
0.575726 0.575726 0.575726
0.595679 0.595679 0.595679
0.615389 0.615389 0.615389
0.634869 0.634869 0.634869
0.654130 0.654130 0.654130
0.673183 0.673183 0.673183
0.692036 0.692036 0.692036
0.710699 0.710699 0.710699
0.729180 0.729180 0.729180
0.747486 0.747486 0.747486
0.765624 0.765624 0.765624
0.783600 0.783600 0.783600
0.801421 0.801421 0.801421
0.819092 0.819092 0.819092
0.836619 0.836619 0.836619
0.854007 0.854007 0.854007
0.871259 0.871259 0.871259
0.614668 0.614668 0.614668
0.634156 0.634156 0.634156
0.653425 0.653425 0.653425
0.672485 0.672485 0.672485
0.691346 0.691346 0.691346
0.710016 0.710016 0.710016
0.728503 0.728503 0.728503
0.746815 0.746815 0.746815
0.764959 0.764959 0.764959
0.782942 0.782942 0.782942
0.800768 0.800768 0.800768
0.818445 0.818445 0.818445
0.835977 0.835977 0.835977
0.853369 0.853369 0.853369
0.870627 0.870627 0.870627
0.887754 0.887754 0.887754
0.904755 0.904755 0.904755
0.652720 0.652720 0.652720
0.671788 0.671788 0.671788
0.690656 0.690656 0.690656
0.709332 0.709332 0.709332
0.727826 0.727826 0.727826
0.746145 0.746145 0.746145
0.764295 0.764295 0.764295
0.782283 0.782283 0.782283
0.800115 0.800115 0.800115
0.817797 0.817797 0.817797
0.835334 0.835334 0.835334
0.852732 0.852732 0.852732
0.869994 0.869994 0.869994
0.887126 0.887126 0.887126
0.904131 0.904131 0.904131
0.921014 0.921014 0.921014
0.937778 0.937778 0.937778
0.689965 0.689965 0.689965
0.708649 0.708649 0.708649
0.727149 0.727149 0.727149
0.745474 0.745474 0.745474
0.763630 0.763630 0.763630
0.781624 0.781624 0.781624
0.799462 0.799462 0.799462
0.817149 0.817149 0.817149
0.834692 0.834692 0.834692
0.852094 0.852094 0.852094
0.869362 0.869362 0.869362
0.886498 0.886498 0.886498
0.903508 0.903508 0.903508
0.920395 0.920395 0.920395
0.937163 0.937163 0.937163
0.953816 0.953816 0.953816
0.970357 0.970357 0.970357
0.726472 0.726472 0.726472
0.744803 0.744803 0.744803
0.762965 0.762965 0.762965
0.780965 0.780965 0.780965
0.798808 0.798808 0.798808
0.816501 0.816501 0.816501
0.834049 0.834049 0.834049
0.851457 0.851457 0.851457
0.868729 0.868729 0.868729
0.885870 0.885870 0.885870
0.902884 0.902884 0.902884
0.919776 0.919776 0.919776
0.936548 0.936548 0.936548
0.953205 0.953205 0.953205
0.969750 0.969750 0.969750
0.986186 0.986186 0.986186
1.000000 1.000000 1.000000
0.000000 0.000000 0.000000
0.000000 0.000000 0.000000
0.035842 0.035842 0.035842
0.073629 0.073629 0.073629
0.108155 0.108155 0.108155
0.140373 0.140373 0.140373
0.170833 0.170833 0.170833
0.199888 0.199888 0.199888
0.227781 0.227781 0.227781
0.254691 0.254691 0.254691
0.280752 0.280752 0.280752
0.306070 0.306070 0.306070
0.330728 0.330728 0.330728
0.354795 0.354795 0.354795
0.378327 0.378327 0.378327
0.401374 0.401374 0.401374
0.423975 0.423975 0.423975
0.034369 0.034369 0.034369
0.072305 0.072305 0.072305
0.106930 0.106930 0.106930
0.139222 0.139222 0.139222
0.169739 0.169739 0.169739
0.198841 0.198841 0.198841
0.226773 0.226773 0.226773
0.253717 0.253717 0.253717
0.279807 0.279807 0.279807
0.305150 0.305150 0.305150
0.329831 0.329831 0.329831
0.353919 0.353919 0.353919
0.377470 0.377470 0.377470
0.400534 0.400534 0.400534
0.423151 0.423151 0.423151
0.445356 0.445356 0.445356
0.467180 0.467180 0.467180
0.105702 0.105702 0.105702
0.138068 0.138068 0.138068
0.168644 0.168644 0.168644
0.197792 0.197792 0.197792
0.225764 0.225764 0.225764
0.252741 0.252741 0.252741
0.278861 0.278861 0.278861
0.304230 0.304230 0.304230
0.328934 0.328934 0.328934
0.353043 0.353043 0.353043
0.376613 0.376613 0.376613
0.399694 0.399694 0.399694
0.422326 0.422326 0.422326
0.444546 0.444546 0.444546
0.466384 0.466384 0.466384
0.487866 0.487866 0.487866
0.509017 0.509017 0.509017
0.167546 0.167546 0.167546
0.196742 0.196742 0.196742
0.224754 0.224754 0.224754
0.251765 0.251765 0.251765
0.277914 0.277914 0.277914
0.303309 0.303309 0.303309
0.328036 0.328036 0.328036
0.352165 0.352165 0.352165
0.375755 0.375755 0.375755
0.398853 0.398853 0.398853
0.421501 0.421501 0.421501
0.443735 0.443735 0.443735
0.465587 0.465587 0.465587
0.487082 0.487082 0.487082
0.508245 0.508245 0.508245
0.529096 0.529096 0.529096
0.549656 0.549656 0.549656
0.223742 0.223742 0.223742
0.250787 0.250787 0.250787
0.276966 0.276966 0.276966
0.302387 0.302387 0.302387
0.327138 0.327138 0.327138
0.351288 0.351288 0.351288
0.374896 0.374896 0.374896
0.398011 0.398011 0.398011
0.420675 0.420675 0.420675
0.442924 0.442924 0.442924
0.464789 0.464789 0.464789
0.486297 0.486297 0.486297
0.507472 0.507472 0.507472
0.528335 0.528335 0.528335
0.548905 0.548905 0.548905
0.569199 0.569199 0.569199
0.589233 0.589233 0.589233
0.276017 0.276017 0.276017
0.301464 0.301464 0.301464
0.326238 0.326238 0.326238
0.350409 0.350409 0.350409
0.374036 0.374036 0.374036
0.397169 0.397169 0.397169
0.419849 0.419849 0.419849
0.442113 0.442113 0.442113
0.463991 0.463991 0.463991
0.485512 0.485512 0.485512
0.506698 0.506698 0.506698
0.527572 0.527572 0.527572
0.548153 0.548153 0.548153
0.568457 0.568457 0.568457
0.588500 0.588500 0.588500
0.608297 0.608297 0.608297
0.627858 0.627858 0.627858
0.325338 0.325338 0.325338
0.349530 0.349530 0.349530
0.373176 0.373176 0.373176
0.396326 0.396326 0.396326
0.419022 0.419022 0.419022
0.441301 0.441301 0.441301
0.463193 0.463193 0.463193
0.484726 0.484726 0.484726
0.505925 0.505925 0.505925
0.526810 0.526810 0.526810
0.547401 0.547401 0.547401
0.567715 0.567715 0.567715
0.587768 0.587768 0.587768
0.607573 0.607573 0.607573
0.627143 0.627143 0.627143
0.646490 0.646490 0.646490
0.665624 0.665624 0.665624
0.372315 0.372315 0.372315
0.395483 0.395483 0.395483
0.418195 0.418195 0.418195
0.440488 0.440488 0.440488
0.462394 0.462394 0.462394
0.483940 0.483940 0.483940
0.505150 0.505150 0.505150
0.526047 0.526047 0.526047
0.546648 0.546648 0.546648
0.566972 0.566972 0.566972
0.587034 0.587034 0.587034
0.606848 0.606848 0.606848
0.626427 0.626427 0.626427
0.645782 0.645782 0.645782
0.664924 0.664924 0.664924
0.683863 0.683863 0.683863
0.702608 0.702608 0.702608
0.417367 0.417367 0.417367
0.439675 0.439675 0.439675
0.461595 0.461595 0.461595
0.483153 0.483153 0.483153
0.504376 0.504376 0.504376
0.525283 0.525283 0.525283
0.545895 0.545895 0.545895
0.566229 0.566229 0.566229
0.586301 0.586301 0.586301
0.606124 0.606124 0.606124
0.625711 0.625711 0.625711
0.645074 0.645074 0.645074
0.664223 0.664223 0.664223
0.683170 0.683170 0.683170
0.701922 0.701922 0.701922
0.720487 0.720487 0.720487
0.738875 0.738875 0.738875
0.460795 0.460795 0.460795
0.482366 0.482366 0.482366
0.503601 0.503601 0.503601
0.524519 0.524519 0.524519
0.545142 0.545142 0.545142
0.565486 0.565486 0.565486
0.585567 0.585567 0.585567
0.605398 0.605398 0.605398
0.624994 0.624994 0.624994
0.644365 0.644365 0.644365
0.663523 0.663523 0.663523
0.682476 0.682476 0.682476
0.701235 0.701235 0.701235
0.719807 0.719807 0.719807
0.738201 0.738201 0.738201
0.756424 0.756424 0.756424
0.774481 0.774481 0.774481
0.502825 0.502825 0.502825
0.523755 0.523755 0.523755
0.544388 0.544388 0.544388
0.564742 0.564742 0.564742
0.584833 0.584833 0.584833
0.604673 0.604673 0.604673
0.624277 0.624277 0.624277
0.643656 0.643656 0.643656
0.662822 0.662822 0.662822
0.681782 0.681782 0.681782
0.700548 0.700548 0.700548
0.719127 0.719127 0.719127
0.737528 0.737528 0.737528
0.755756 0.755756 0.755756
0.773820 0.773820 0.773820
0.791725 0.791725 0.791725
0.809477 0.809477 0.809477
0.543634 0.543634 0.543634
0.563998 0.563998 0.563998
0.584098 0.584098 0.584098
0.603948 0.603948 0.603948
0.623560 0.623560 0.623560
0.642947 0.642947 0.642947
0.662120 0.662120 0.662120
0.681088 0.681088 0.681088
0.699861 0.699861 0.699861
0.718447 0.718447 0.718447
0.736854 0.736854 0.736854
0.755089 0.755089 0.755089
0.773158 0.773158 0.773158
0.791069 0.791069 0.791069
0.808827 0.808827 0.808827
0.826437 0.826437 0.826437
0.843905 0.843905 0.843905
0.583363 0.583363 0.583363
0.603222 0.603222 0.603222
0.622843 0.622843 0.622843
0.642238 0.642238 0.642238
0.661418 0.661418 0.661418
0.680394 0.680394 0.680394
0.699174 0.699174 0.699174
0.717767 0.717767 0.717767
0.736180 0.736180 0.736180
0.754421 0.754421 0.754421
0.772496 0.772496 0.772496
0.790413 0.790413 0.790413
0.808176 0.808176 0.808176
0.825792 0.825792 0.825792
0.843265 0.843265 0.843265
0.860600 0.860600 0.860600
0.877803 0.877803 0.877803
0.622125 0.622125 0.622125
0.641528 0.641528 0.641528
0.660716 0.660716 0.660716
0.679699 0.679699 0.679699
0.698486 0.698486 0.698486
0.717086 0.717086 0.717086
0.735505 0.735505 0.735505
0.753753 0.753753 0.753753
0.771834 0.771834 0.771834
0.789756 0.789756 0.789756
0.807525 0.807525 0.807525
0.825146 0.825146 0.825146
0.842624 0.842624 0.842624
0.859965 0.859965 0.859965
0.877172 0.877172 0.877172
0.894250 0.894250 0.894250
0.911204 0.911204 0.911204
0.660014 0.660014 0.660014
0.679005 0.679005 0.679005
0.697799 0.697799 0.697799
0.716405 0.716405 0.716405
0.734831 0.734831 0.734831
0.753084 0.753084 0.753084
0.771172 0.771172 0.771172
0.789100 0.789100 0.789100
0.806874 0.806874 0.806874
0.824500 0.824500 0.824500
0.841984 0.841984 0.841984
0.859329 0.859329 0.859329
0.876541 0.876541 0.876541
0.893624 0.893624 0.893624
0.910582 0.910582 0.910582
0.927419 0.927419 0.927419
0.944139 0.944139 0.944139
0.697111 0.697111 0.697111
0.715723 0.715723 0.715723
0.734156 0.734156 0.734156
0.752416 0.752416 0.752416
0.770509 0.770509 0.770509
0.788443 0.788443 0.788443
0.806223 0.806223 0.806223
0.823855 0.823855 0.823855
0.841343 0.841343 0.841343
0.858694 0.858694 0.858694
0.875910 0.875910 0.875910
0.892998 0.892998 0.892998
0.909961 0.909961 0.909961
0.926802 0.926802 0.926802
0.943526 0.943526 0.943526
0.960135 0.960135 0.960135
0.976634 0.976634 0.976634
0.733481 0.733481 0.733481
0.751747 0.751747 0.751747
0.769846 0.769846 0.769846
0.787786 0.787786 0.787786
0.805571 0.805571 0.805571
0.823208 0.823208 0.823208
0.840702 0.840702 0.840702
0.858058 0.858058 0.858058
0.875279 0.875279 0.875279
0.892372 0.892372 0.892372
0.909339 0.909339 0.909339
0.926185 0.926185 0.926185
0.942913 0.942913 0.942913
0.959526 0.959526 0.959526
0.976029 0.976029 0.976029
0.992424 0.992424 0.992424
1.000000 1.000000 1.000000
0.000000 0.000000 0.000000
0.010044 0.010044 0.010044
0.050724 0.050724 0.050724
0.087113 0.087113 0.087113
0.120676 0.120676 0.120676
0.152172 0.152172 0.152172
0.182062 0.182062 0.182062
0.210649 0.210649 0.210649
0.238149 0.238149 0.238149
0.264721 0.264721 0.264721
0.290488 0.290488 0.290488
0.315545 0.315545 0.315545
0.339970 0.339970 0.339970
0.363827 0.363827 0.363827
0.387169 0.387169 0.387169
0.410041 0.410041 0.410041
0.432482 0.432482 0.432482
0.049316 0.049316 0.049316
0.085830 0.085830 0.085830
0.119481 0.119481 0.119481
0.151044 0.151044 0.151044
0.180987 0.180987 0.180987
0.209618 0.209618 0.209618
0.237155 0.237155 0.237155
0.263759 0.263759 0.263759
0.289553 0.289553 0.289553
0.314635 0.314635 0.314635
0.339082 0.339082 0.339082
0.362959 0.362959 0.362959
0.386319 0.386319 0.386319
0.409208 0.409208 0.409208
0.431664 0.431664 0.431664
0.453720 0.453720 0.453720
0.475406 0.475406 0.475406
0.118283 0.118283 0.118283
0.149914 0.149914 0.149914
0.179910 0.179910 0.179910
0.208585 0.208585 0.208585
0.236159 0.236159 0.236159
0.262795 0.262795 0.262795
0.288617 0.288617 0.288617
0.313724 0.313724 0.313724
0.338193 0.338193 0.338193
0.362090 0.362090 0.362090
0.385468 0.385468 0.385468
0.408374 0.408374 0.408374
0.430845 0.430845 0.430845
0.452915 0.452915 0.452915
0.474615 0.474615 0.474615
0.495968 0.495968 0.495968
0.516999 0.516999 0.516999
0.178831 0.178831 0.178831
0.207551 0.207551 0.207551
0.235162 0.235162 0.235162
0.261830 0.261830 0.261830
0.287680 0.287680 0.287680
0.312812 0.312812 0.312812
0.337303 0.337303 0.337303
0.361220 0.361220 0.361220
0.384617 0.384617 0.384617
0.407539 0.407539 0.407539
0.430025 0.430025 0.430025
0.452110 0.452110 0.452110
0.473823 0.473823 0.473823
0.495188 0.495188 0.495188
0.516230 0.516230 0.516230
0.536969 0.536969 0.536969
0.557422 0.557422 0.557422
0.234164 0.234164 0.234164
0.260864 0.260864 0.260864
0.286743 0.286743 0.286743
0.311899 0.311899 0.311899
0.336413 0.336413 0.336413
0.360350 0.360350 0.360350
0.383765 0.383765 0.383765
0.406704 0.406704 0.406704
0.429206 0.429206 0.429206
0.451305 0.451305 0.451305
0.473030 0.473030 0.473030
0.494408 0.494408 0.494408
0.515462 0.515462 0.515462
0.536211 0.536211 0.536211
0.556674 0.556674 0.556674
0.576867 0.576867 0.576867
0.596806 0.596806 0.596806
0.285804 0.285804 0.285804
0.310985 0.310985 0.310985
0.335521 0.335521 0.335521
0.359479 0.359479 0.359479
0.382912 0.382912 0.382912
0.405868 0.405868 0.405868
0.428385 0.428385 0.428385
0.450498 0.450498 0.450498
0.472237 0.472237 0.472237
0.493628 0.493628 0.493628
0.514693 0.514693 0.514693
0.535453 0.535453 0.535453
0.555926 0.555926 0.555926
0.576129 0.576129 0.576129
0.596077 0.596077 0.596077
0.615782 0.615782 0.615782
0.635258 0.635258 0.635258
0.334629 0.334629 0.334629
0.358607 0.358607 0.358607
0.382059 0.382059 0.382059
0.405031 0.405031 0.405031
0.427564 0.427564 0.427564
0.449692 0.449692 0.449692
0.471444 0.471444 0.471444
0.492847 0.492847 0.492847
0.513923 0.513923 0.513923
0.534694 0.534694 0.534694
0.555178 0.555178 0.555178
0.575390 0.575390 0.575390
0.595347 0.595347 0.595347
0.615061 0.615061 0.615061
0.634545 0.634545 0.634545
0.653810 0.653810 0.653810
0.672866 0.672866 0.672866
0.381205 0.381205 0.381205
0.404194 0.404194 0.404194
0.426742 0.426742 0.426742
0.448884 0.448884 0.448884
0.470650 0.470650 0.470650
0.492065 0.492065 0.492065
0.513153 0.513153 0.513153
0.533935 0.533935 0.533935
0.554429 0.554429 0.554429
0.574651 0.574651 0.574651
0.594617 0.594617 0.594617
0.614340 0.614340 0.614340
0.633832 0.633832 0.633832
0.653105 0.653105 0.653105
0.672168 0.672168 0.672168
0.691032 0.691032 0.691032
0.709705 0.709705 0.709705
0.425920 0.425920 0.425920
0.448077 0.448077 0.448077
0.469855 0.469855 0.469855
0.491283 0.491283 0.491283
0.512383 0.512383 0.512383
0.533176 0.533176 0.533176
0.553680 0.553680 0.553680
0.573912 0.573912 0.573912
0.593887 0.593887 0.593887
0.613619 0.613619 0.613619
0.633119 0.633119 0.633119
0.652400 0.652400 0.652400
0.671471 0.671471 0.671471
0.690342 0.690342 0.690342
0.709022 0.709022 0.709022
0.727518 0.727518 0.727518
0.745840 0.745840 0.745840
0.469061 0.469061 0.469061
0.490501 0.490501 0.490501
0.511612 0.511612 0.511612
0.532416 0.532416 0.532416
0.552931 0.552931 0.552931
0.573172 0.573172 0.573172
0.593157 0.593157 0.593157
0.612897 0.612897 0.612897
0.632406 0.632406 0.632406
0.651694 0.651694 0.651694
0.670773 0.670773 0.670773
0.689651 0.689651 0.689651
0.708338 0.708338 0.708338
0.726841 0.726841 0.726841
0.745169 0.745169 0.745169
0.763328 0.763328 0.763328
0.781324 0.781324 0.781324
0.510841 0.510841 0.510841
0.531656 0.531656 0.531656
0.552181 0.552181 0.552181
0.572432 0.572432 0.572432
0.592426 0.592426 0.592426
0.612175 0.612175 0.612175
0.631692 0.631692 0.631692
0.650988 0.650988 0.650988
0.670074 0.670074 0.670074
0.688960 0.688960 0.688960
0.707654 0.707654 0.707654
0.726164 0.726164 0.726164
0.744498 0.744498 0.744498
0.762662 0.762662 0.762662
0.780665 0.780665 0.780665
0.798511 0.798511 0.798511
0.816206 0.816206 0.816206
0.551431 0.551431 0.551431
0.571692 0.571692 0.571692
0.591695 0.591695 0.591695
0.611452 0.611452 0.611452
0.630978 0.630978 0.630978
0.650282 0.650282 0.650282
0.669376 0.669376 0.669376
0.688268 0.688268 0.688268
0.706969 0.706969 0.706969
0.725486 0.725486 0.725486
0.743826 0.743826 0.743826
0.761997 0.761997 0.761997
0.780005 0.780005 0.780005
0.797857 0.797857 0.797857
0.815558 0.815558 0.815558
0.833114 0.833114 0.833114
0.850529 0.850529 0.850529
0.590963 0.590963 0.590963
0.610730 0.610730 0.610730
0.630263 0.630263 0.630263
0.649576 0.649576 0.649576
0.668677 0.668677 0.668677
0.687577 0.687577 0.687577
0.706284 0.706284 0.706284
0.724808 0.724808 0.724808
0.743154 0.743154 0.743154
0.761332 0.761332 0.761332
0.779346 0.779346 0.779346
0.797203 0.797203 0.797203
0.814909 0.814909 0.814909
0.832470 0.832470 0.832470
0.849890 0.849890 0.849890
0.867174 0.867174 0.867174
0.884327 0.884327 0.884327
0.629549 0.629549 0.629549
0.648869 0.648869 0.648869
0.667978 0.667978 0.667978
0.686885 0.686885 0.686885
0.705599 0.705599 0.705599
0.724129 0.724129 0.724129
0.742482 0.742482 0.742482
0.760666 0.760666 0.760666
0.778686 0.778686 0.778686
0.796549 0.796549 0.796549
0.814261 0.814261 0.814261
0.831827 0.831827 0.831827
0.849252 0.849252 0.849252
0.866541 0.866541 0.866541
0.883699 0.883699 0.883699
0.900729 0.900729 0.900729
0.917636 0.917636 0.917636
0.667278 0.667278 0.667278
0.686193 0.686193 0.686193
0.704914 0.704914 0.704914
0.723451 0.723451 0.723451
0.741810 0.741810 0.741810
0.760000 0.760000 0.760000
0.778026 0.778026 0.778026
0.795894 0.795894 0.795894
0.813612 0.813612 0.813612
0.831183 0.831183 0.831183
0.848613 0.848613 0.848613
0.865907 0.865907 0.865907
0.883070 0.883070 0.883070
0.900104 0.900104 0.900104
0.917016 0.917016 0.917016
0.933808 0.933808 0.933808
0.950483 0.950483 0.950483
0.704229 0.704229 0.704229
0.722772 0.722772 0.722772
0.741138 0.741138 0.741138
0.759333 0.759333 0.759333
0.777365 0.777365 0.777365
0.795240 0.795240 0.795240
0.812963 0.812963 0.812963
0.830539 0.830539 0.830539
0.847974 0.847974 0.847974
0.865273 0.865273 0.865273
0.882440 0.882440 0.882440
0.899480 0.899480 0.899480
0.916396 0.916396 0.916396
0.933192 0.933192 0.933192
0.949872 0.949872 0.949872
0.966439 0.966439 0.966439
0.982896 0.982896 0.982896
0.740465 0.740465 0.740465
0.758667 0.758667 0.758667
0.776705 0.776705 0.776705
0.794585 0.794585 0.794585
0.812313 0.812313 0.812313
0.829895 0.829895 0.829895
0.847335 0.847335 0.847335
0.864639 0.864639 0.864639
0.881811 0.881811 0.881811
0.898855 0.898855 0.898855
0.915776 0.915776 0.915776
0.932576 0.932576 0.932576
0.949260 0.949260 0.949260
0.965831 0.965831 0.965831
0.982293 0.982293 0.982293
0.998648 0.998648 0.998648
1.000000 1.000000 1.000000
0.000000 0.000000 0.000000
0.026211 0.026211 0.026211
0.065001 0.065001 0.065001
0.100192 0.100192 0.100192
0.132899 0.132899 0.132899
0.163739 0.163739 0.163739
0.193102 0.193102 0.193102
0.221253 0.221253 0.221253
0.248382 0.248382 0.248382
0.274635 0.274635 0.274635
0.300120 0.300120 0.300120
0.324928 0.324928 0.324928
0.349130 0.349130 0.349130
0.372785 0.372785 0.372785
0.395943 0.395943 0.395943
0.418646 0.418646 0.418646
0.440932 0.440932 0.440932
0.063647 0.063647 0.063647
