ApexStudio/app/src/main/assets/luts/high_contrast_charcoal.cube
# ApexStudio filter: high_contrast_charcoal
LUT_3D_SIZE 5
DOMAIN_MIN 0.0 0.0 0.0
DOMAIN_MAX 1.0 1.0 1.0
0.000000 0.000000 0.000000
0.095303 0.095303 0.095303
0.217271 0.217271 0.217271
0.321399 0.321399 0.321399
0.415408 0.415408 0.415408
0.213174 0.213174 0.213174
0.317775 0.317775 0.317775
0.412085 0.412085 0.412085
0.499436 0.499436 0.499436
0.581625 0.581625 0.581625
0.408753 0.408753 0.408753
0.496322 0.496322 0.496322
0.578678 0.578678 0.578678
0.656947 0.656947 0.656947
0.731885 0.731885 0.731885
0.575726 0.575726 0.575726
0.654130 0.654130 0.654130
0.729180 0.729180 0.729180
0.801421 0.801421 0.801421
0.871259 0.871259 0.871259
0.726472 0.726472 0.726472
0.798808 0.798808 0.798808
0.868729 0.868729 0.868729
0.936548 0.936548 0.936548
1.000000 1.000000 1.000000
0.000000 0.000000 0.000000
0.144852 0.144852 0.144852
0.258489 0.258489 0.258489
0.358211 0.358211 0.358211
0.449325 0.449325 0.449325
0.254603 0.254603 0.254603
0.354715 0.354715 0.354715
0.446092 0.446092 0.446092
0.531310 0.531310 0.531310
0.611847 0.611847 0.611847
0.442851 0.442851 0.442851
0.528265 0.528265 0.528265
0.608955 0.608955 0.608955
0.685878 0.685878 0.685878
0.759697 0.759697 0.759697
0.606058 0.606058 0.606058
0.683107 0.683107 0.683107
0.757030 0.757030 0.757030
0.828313 0.828313 0.828313
0.897321 0.897321 0.897321
0.754360 0.754360 0.754360
0.825733 0.825733 0.825733
0.894819 0.894819 0.894819
0.961906 0.961906 0.961906
1.000000 1.000000 1.000000
0.061545 0.061545 0.061545
0.190407 0.190407 0.190407
0.297764 0.297764 0.297764
0.393794 0.393794 0.393794
0.482366 0.482366 0.482366
0.294048 0.294048 0.294048
0.390410 0.390410 0.390410
0.479214 0.479214 0.479214
0.562509 0.562509 0.562509
0.641528 0.641528 0.641528
0.476054 0.476054 0.476054
0.559527 0.559527 0.559527
0.638687 0.638687 0.638687
0.714360 0.714360 0.714360
0.787129 0.787129 0.787129
0.635840 0.635840 0.635840
0.711631 0.711631 0.711631
0.784498 0.784498 0.784498
0.854875 0.854875 0.854875
0.923095 0.923095 0.923095
0.781863 0.781863 0.781863
0.852326 0.852326 0.852326
0.920620 0.920620 0.920620
0.987008 0.987008 0.987008
1.000000 1.000000 1.000000
0.114564 0.114564 0.114564
0.233073 0.233073 0.233073
0.335440 0.335440 0.335440
0.428310 0.428310 0.428310
0.514623 0.514623 0.514623
0.331867 0.331867 0.331867
0.425023 0.425023 0.425023
0.511542 0.511542 0.511542
0.593090 0.593090 0.593090
0.670709 0.670709 0.670709
0.508455 0.508455 0.508455
0.590165 0.590165 0.590165
0.667914 0.667914 0.667914
0.742421 0.742421 0.742421
0.814202 0.814202 0.814202
0.665115 0.665115 0.665115
0.739731 0.739731 0.739731
0.811605 0.811605 0.811605
0.881125 0.881125 0.881125
0.948593 0.948593 0.948593
0.809004 0.809004 0.809004
0.878605 0.878605 0.878605
0.946144 0.946144 0.946144
1.000000 1.000000 1.000000
1.000000 1.000000 1.000000
0.162431 0.162431 0.162431
0.273510 0.273510 0.273510
0.371767 0.371767 0.371767
0.461885 0.461885 0.461885
0.546169 0.546169 0.546169
0.368315 0.368315 0.368315
0.458684 0.458684 0.458684
0.543154 0.543154 0.543154
0.623103 0.623103 0.623103
0.699424 0.699424 0.699424
0.540134 0.540134 0.540134
0.620231 0.620231 0.620231
0.696673 0.696673 0.696673
0.770087 0.770087 0.770087
0.840935 0.840935 0.840935
0.693917 0.693917 0.693917
0.767435 0.767435 0.767435
0.838370 0.838370 0.838370
0.907076 0.907076 0.907076
0.973828 0.973828 0.973828
0.835802 0.835802 0.835802
0.904585 0.904585 0.904585
0.971404 0.971404 0.971404
1.000000 1.000000 1.000000
1.000000 1.000000 1.000000
