ApexStudio/app/src/main/assets/luts/kodak_35mm.cube
# ApexStudio filter: kodak_35mm
LUT_3D_SIZE 9
DOMAIN_MIN 0.0 0.0 0.0
DOMAIN_MAX 1.0 1.0 1.0
0.023208 0.000000 0.000000
0.168259 0.000000 0.000000
0.313310 0.000000 0.000000
0.458361 0.000000 0.000000
0.603412 0.000000 0.000000
0.748463 0.000000 0.000000
0.893514 0.000000 0.000000
1.000000 0.000000 0.000000
1.000000 0.000000 0.000000
0.013343 0.118041 0.000000
0.158394 0.112154 0.000000
0.303445 0.106268 0.000000
0.448496 0.100381 0.000000
0.593547 0.094494 0.000000
0.738598 0.088608 0.000000
0.883649 0.082721 0.000000
1.000000 0.076835 0.000000
1.000000 0.074132 0.000000
0.002745 0.245865 0.000000
0.147795 0.239978 0.000000
0.292846 0.234092 0.000000
0.437897 0.228205 0.000000
0.582948 0.222318 0.000000
0.727999 0.216432 0.000000
0.873050 0.210545 0.000000
1.000000 0.204659 0.000000
1.000000 0.201957 0.000000
0.000000 0.377253 0.000000
0.136902 0.371367 0.000000
0.281953 0.365480 0.000000
0.427003 0.359594 0.000000
0.572054 0.353707 0.000000
0.717105 0.347820 0.000000
0.862156 0.341934 0.000000
1.000000 0.336047 0.000000
1.000000 0.333345 0.000000
0.000000 0.511012 0.000000
0.125811 0.505125 0.000000
0.270862 0.499238 0.000000
0.415913 0.493352 0.000000
0.560964 0.487465 0.000000
0.706015 0.481579 0.000000
0.851066 0.475692 0.000000
0.996117 0.469806 0.000000
1.000000 0.467103 0.000000
0.000000 0.646560 0.000000
0.114572 0.640673 0.000000
0.259623 0.634787 0.000000
0.404674 0.628900 0.000000
0.549725 0.623014 0.000000
0.694776 0.617127 0.000000
0.839827 0.611240 0.000000
0.984878 0.605354 0.000000
1.000000 0.602652 0.000000
0.000000 0.783552 0.000000
0.103214 0.777666 0.000000
0.248265 0.771779 0.000000
0.393316 0.765892 0.000000
0.538367 0.760006 0.000000
0.683418 0.754119 0.000000
0.828469 0.748233 0.000000
0.973520 0.742346 0.000000
1.000000 0.739644 0.000000
0.000000 0.921757 0.000000
0.091755 0.915870 0.000000
0.236806 0.909984 0.000000
0.381857 0.904097 0.000000
0.526908 0.898211 0.000000
0.671959 0.892324 0.000000
0.817010 0.886437 0.000000
0.962061 0.880551 0.000000
1.000000 0.877849 0.000000
0.000000 1.000000 0.000000
0.080209 1.000000 0.000000
0.225260 1.000000 0.000000
0.370311 1.000000 0.000000
0.515362 1.000000 0.000000
0.660413 1.000000 0.000000
0.805464 1.000000 0.000000
0.950515 1.000000 0.000000
1.000000 1.000000 0.000000
0.021655 0.000000 0.101934
0.166706 0.000000 0.096048
0.311757 0.000000 0.090161
0.456808 0.000000 0.084274
0.601859 0.000000 0.078388
0.746910 0.000000 0.072501
0.891961 0.000000 0.066615
1.000000 0.000000 0.060728
1.000000 0.000000 0.058026
0.011790 0.116488 0.092069
0.156841 0.110601 0.086182
0.301892 0.104715 0.080296
0.446943 0.098828 0.074409
0.591994 0.092942 0.068523
0.737045 0.087055 0.062636
0.882096 0.081168 0.056750
1.000000 0.075282 0.050863
1.000000 0.072580 0.048161
0.001192 0.244312 0.081471
0.146243 0.238425 0.075584
0.291294 0.232539 0.069697
0.436345 0.226652 0.063811
0.581395 0.220766 0.057924
0.726446 0.214879 0.052038
0.871497 0.208993 0.046151
1.000000 0.203106 0.040265
1.000000 0.200404 0.037562
0.000000 0.375700 0.070577
0.135349 0.369814 0.064690
0.280400 0.363927 0.058804
0.425451 0.358041 0.052917
0.570502 0.352154 0.047030
0.715553 0.346268 0.041144
0.860603 0.340381 0.035257
1.000000 0.334495 0.029371
1.000000 0.331792 0.026669
0.000000 0.509459 0.059486
0.124258 0.503572 0.053600
0.269309 0.497686 0.047713
0.414360 0.491799 0.041827
0.559411 0.485912 0.035940
0.704462 0.480026 0.030054
0.849513 0.474139 0.024167
0.994564 0.468253 0.018280
1.000000 0.465551 0.015578
0.000000 0.645007 0.048248
0.113020 0.639121 0.042361
0.258071 0.633234 0.036474
0.403122 0.627347 0.030588
0.548172 0.621461 0.024701
0.693223 0.615574 0.018815
0.838274 0.609688 0.012928
0.983325 0.603801 0.007042
1.000000 0.601099 0.004339
0.000000 0.781999 0.036889
0.101661 0.776113 0.031002
0.246712 0.770226 0.025116
0.391763 0.764340 0.019229
0.536814 0.758453 0.013343
0.681865 0.752566 0.007456
0.826916 0.746680 0.001570
0.971967 0.740793 0.000000
1.000000 0.738091 0.000000
0.000000 0.920204 0.025430
0.090202 0.914317 0.019543
0.235253 0.908431 0.013657
0.380304 0.902544 0.007770
0.525355 0.896658 0.001884
0.670406 0.890771 0.000000
0.815457 0.884885 0.000000
0.960508 0.878998 0.000000
1.000000 0.876296 0.000000
0.000000 1.000000 0.013884
0.078656 1.000000 0.007998
0.223707 1.000000 0.002111
0.368758 1.000000 0.000000
0.513809 1.000000 0.000000
0.658860 1.000000 0.000000
0.803911 1.000000 0.000000
0.948962 1.000000 0.000000
1.000000 1.000000 0.000000
0.019534 0.000000 0.242508
0.164584 0.000000 0.236622
0.309635 0.000000 0.230735
0.454686 0.000000 0.224848
0.599737 0.000000 0.218962
0.744788 0.000000 0.213075
0.889839 0.000000 0.207189
1.000000 0.000000 0.201302
1.000000 0.000000 0.198600
0.009668 0.114366 0.232643
0.154719 0.108479 0.226756
0.299770 0.102593 0.220870
0.444821 0.096706 0.214983
0.589872 0.090820 0.209097
0.734923 0.084933 0.203210
0.879974 0.079047 0.197324
1.000000 0.073160 0.191437
1.000000 0.070458 0.188735
0.000000 0.242190 0.222045
0.144121 0.236304 0.216158
0.289172 0.230417 0.210271
0.434223 0.224530 0.204385
0.579274 0.218644 0.198498
0.724325 0.212757 0.192612
0.869376 0.206871 0.186725
1.000000 0.200984 0.180839
1.000000 0.198282 0.178136
0.000000 0.373579 0.211151
0.133227 0.367692 0.205264
0.278278 0.361806 0.199378
0.423329 0.355919 0.193491
0.568380 0.350032 0.187604
0.713431 0.344146 0.181718
0.858482 0.338259 0.175831
1.000000 0.332373 0.169945
1.000000 0.329670 0.167242
0.000000 0.507337 0.200060
0.122137 0.501450 0.194174
0.267188 0.495564 0.188287
0.412238 0.489677 0.182401
0.557289 0.483791 0.176514
0.702340 0.477904 0.170627
0.847391 0.472017 0.164741
0.992442 0.466131 0.158854
1.000000 0.463429 0.156152
0.000000 0.642885 0.188821
0.110898 0.636999 0.182935
0.255949 0.631112 0.177048
0.401000 0.625226 0.171162
0.546051 0.619339 0.165275
0.691102 0.613452 0.159389
0.836152 0.607566 0.153502
0.981203 0.601679 0.147616
1.000000 0.598977 0.144913
0.000000 0.779877 0.177463
0.099539 0.773991 0.171576
0.244590 0.768104 0.165690
0.389641 0.762218 0.159803
0.534692 0.756331 0.153917
0.679743 0.750445 0.148030
0.824794 0.744558 0.142144
0.969845 0.738672 0.136257
1.000000 0.735969 0.133555
0.000000 0.918082 0.166004
0.088080 0.912196 0.160117
0.233131 0.906309 0.154231
0.378182 0.900423 0.148344
0.523233 0.894536 0.142458
0.668284 0.888649 0.136571
0.813335 0.882763 0.130685
0.958386 0.876876 0.124798
1.000000 0.874174 0.122096
0.000000 1.000000 0.154458
0.076534 1.000000 0.148572
0.221585 1.000000 0.142685
0.366636 1.000000 0.136798
0.511687 1.000000 0.130912
0.656738 1.000000 0.125025
0.801789 1.000000 0.119139
0.946840 1.000000 0.113252
1.000000 1.000000 0.110550
0.017475 0.000000 0.378877
0.162526 0.000000 0.372991
0.307577 0.000000 0.367104
0.452628 0.000000 0.361218
0.597679 0.000000 0.355331
0.742730 0.000000 0.349445
0.887781 0.000000 0.343558
1.000000 0.000000 0.337671
1.000000 0.000000 0.334969
0.007610 0.112308 0.369012
0.152661 0.106421 0.363126
0.297712 0.100535 0.357239
0.442763 0.094648 0.351352
0.587814 0.088761 0.345466
0.732865 0.082875 0.339579
0.877916 0.076988 0.333693
1.000000 0.071102 0.327806
1.000000 0.068399 0.325104
0.000000 0.240132 0.358414
0.142062 0.234245 0.352527
0.287113 0.228359 0.346641
0.432164 0.222472 0.340754
0.577215 0.216585 0.334867
0.722266 0.210699 0.328981
0.867317 0.204812 0.323094
1.000000 0.198926 0.317208
1.000000 0.196224 0.314506
0.000000 0.371520 0.347520
0.131169 0.365634 0.341633
0.276220 0.359747 0.335747
0.421270 0.353861 0.329860
0.566321 0.347974 0.323974
0.711372 0.342087 0.318087
0.856423 0.336201 0.312200
1.000000 0.330314 0.306314
1.000000 0.327612 0.303612
0.000000 0.505279 0.336429
0.120078 0.499392 0.330543
0.265129 0.493505 0.324656
0.410180 0.487619 0.318770
0.555231 0.481732 0.312883
0.700282 0.475846 0.306997
0.845333 0.469959 0.301110
0.990384 0.464073 0.295224
1.000000 0.461370 0.292521
0.000000 0.640827 0.325191
0.108839 0.634940 0.319304
0.253890 0.629054 0.313418
0.398941 0.623167 0.307531
0.543992 0.617281 0.301644
0.689043 0.611394 0.295758
0.834094 0.605508 0.289871
0.979145 0.599621 0.283985
1.000000 0.596919 0.281283
0.000000 0.777819 0.313832
0.097481 0.771933 0.307946
0.242532 0.766046 0.302059
0.387583 0.760159 0.296173
0.532634 0.754273 0.290286
0.677685 0.748386 0.284399
0.822736 0.742500 0.278513
0.967787 0.736613 0.272626
1.000000 0.733911 0.269924
0.000000 0.916024 0.302373
0.086022 0.910137 0.296487
0.231073 0.904251 0.290600
0.376124 0.898364 0.284713
0.521175 0.892478 0.278827
0.666226 0.886591 0.272940
0.811277 0.880704 0.267054
0.956328 0.874818 0.261167
1.000000 0.872116 0.258465
0.000000 1.000000 0.290827
0.074476 1.000000 0.284941
0.219527 1.000000 0.279054
0.364578 1.000000 0.273168
0.509629 1.000000 0.267281
0.654680 1.000000 0.261395
0.799731 1.000000 0.255508
0.944782 1.000000 0.249621
1.000000 1.000000 0.246919
0.015454 0.000000 0.512785
0.160505 0.000000 0.506898
0.305556 0.000000 0.501012
0.450607 0.000000 0.495125
0.595658 0.000000 0.489239
0.740709 0.000000 0.483352
0.885760 0.000000 0.477466
1.000000 0.000000 0.471579
1.000000 0.000000 0.468877
0.005589 0.110286 0.502920
0.150640 0.104400 0.497033
0.295691 0.098513 0.491147
0.440742 0.092627 0.485260
0.585792 0.086740 0.479373
0.730843 0.080854 0.473487
0.875894 0.074967 0.467600
1.000000 0.069081 0.461714
1.000000 0.066378 0.459011
0.000000 0.238111 0.492321
0.140041 0.232224 0.486435
0.285092 0.226337 0.480548
0.430143 0.220451 0.474662
0.575194 0.214564 0.468775
0.720245 0.208678 0.462888
0.865296 0.202791 0.457002
1.000000 0.196905 0.451115
1.000000 0.194202 0.448413
0.000000 0.369499 0.481427
0.129147 0.363613 0.475541
0.274198 0.357726 0.469654
0.419249 0.351839 0.463768
0.564300 0.345953 0.457881
0.709351 0.340066 0.451995
0.854402 0.334180 0.446108
0.999453 0.328293 0.440221
1.000000 0.325591 0.437519
0.000000 0.503257 0.470337
0.118057 0.497371 0.464450
0.263108 0.491484 0.458564
0.408159 0.485598 0.452677
0.553210 0.479711 0.446791
0.698261 0.473824 0.440904
0.843312 0.467938 0.435018
0.988363 0.462051 0.429131
1.000000 0.459349 0.426429
0.000000 0.638806 0.459098
0.106818 0.632919 0.453212
0.251869 0.627033 0.447325
0.396920 0.621146 0.441439
0.541971 0.615259 0.435552
0.687022 0.609373 0.429665
0.832073 0.603486 0.423779
0.977124 0.597600 0.417892
1.000000 0.594898 0.415190
0.000000 0.775798 0.447740
0.095460 0.769911 0.441853
0.240511 0.764025 0.435967
0.385562 0.758138 0.430080
0.530613 0.752252 0.424193
0.675663 0.746365 0.418307
0.820714 0.740479 0.412420
0.965765 0.734592 0.406534
1.000000 0.731890 0.403832
0.000000 0.914003 0.436281
0.084001 0.908116 0.430394
0.229052 0.902230 0.424508
0.374103 0.896343 0.418621
0.519154 0.890456 0.412734
0.664204 0.884570 0.406848
0.809255 0.878683 0.400961
0.954306 0.872797 0.395075
1.000000 0.870095 0.392373
0.000000 1.000000 0.424735
0.072455 1.000000 0.418848
0.217506 1.000000 0.412962
0.362557 1.000000 0.407075
0.507608 1.000000 0.401189
0.652659 1.000000 0.395302
0.797710 1.000000 0.389416
0.942761 1.000000 0.383529
1.000000 1.000000 0.380827
0.013459 0.000000 0.644949
0.158510 0.000000 0.639062
0.303561 0.000000 0.633175
0.448612 0.000000 0.627289
0.593663 0.000000 0.621402
0.738714 0.000000 0.615516
0.883765 0.000000 0.609629
1.000000 0.000000 0.603743
1.000000 0.000000 0.601040
0.003594 0.108292 0.635083
0.148645 0.102405 0.629197
0.293696 0.096518 0.623310
0.438747 0.090632 0.617424
0.583798 0.084745 0.611537
0.728849 0.078859 0.605651
0.873899 0.072972 0.599764
1.000000 0.067086 0.593877
1.000000 0.064383 0.591175
0.000000 0.236116 0.624485
0.138046 0.230229 0.618598
0.283097 0.224343 0.612712
0.428148 0.218456 0.606825
0.573199 0.212569 0.600939
0.718250 0.206683 0.595052
0.863301 0.200796 0.589166
1.000000 0.194910 0.583279
1.000000 0.192207 0.580577
0.000000 0.367504 0.613591
0.127153 0.361618 0.607705
0.272203 0.355731 0.601818
0.417254 0.349845 0.595931
0.562305 0.343958 0.590045
0.707356 0.338071 0.584158
0.852407 0.332185 0.578272
0.997458 0.326298 0.572385
1.000000 0.323596 0.569683
0.000000 0.501262 0.602501
0.116062 0.495376 0.596614
0.261113 0.489489 0.590728
0.406164 0.483603 0.584841
0.551215 0.477716 0.578955
0.696266 0.471830 0.573068
0.841317 0.465943 0.567181
0.986368 0.460056 0.561295
1.000000 0.457354 0.558593
0.000000 0.636811 0.591262
0.104823 0.630924 0.585375
0.249874 0.625038 0.579489
0.394925 0.619151 0.573602
0.539976 0.613265 0.567716
0.685027 0.607378 0.561829
0.830078 0.601491 0.555943
0.975129 0.595605 0.550056
1.000000 0.592903 0.547354
0.000000 0.773803 0.579903
0.093465 0.767916 0.574017
0.238516 0.762030 0.568130
0.383567 0.756143 0.562244
0.528618 0.750257 0.556357
0.673669 0.744370 0.550471
0.818720 0.738484 0.544584
0.963770 0.732597 0.538698
1.000000 0.729895 0.535995
0.000000 0.912008 0.568444
0.082006 0.906121 0.562558
0.227057 0.900235 0.556671
0.372108 0.894348 0.550785
0.517159 0.888462 0.544898
0.662210 0.882575 0.539012
0.807261 0.876688 0.533125
0.952311 0.870802 0.527238
1.000000 0.868100 0.524536
0.000000 1.000000 0.556899
0.070460 1.000000 0.551012
0.215511 1.000000 0.545125
0.360562 1.000000 0.539239
0.505613 1.000000 0.533352
0.650664 1.000000 0.527466
0.795715 1.000000 0.521579
0.940766 1.000000 0.515693
1.000000 1.000000 0.512990
0.011485 0.000000 0.775764
0.156535 0.000000 0.769877
0.301586 0.000000 0.763991
0.446637 0.000000 0.758104
0.591688 0.000000 0.752218
0.736739 0.000000 0.746331
0.881790 0.000000 0.740444
1.000000 0.000000 0.734558
1.000000 0.000000 0.731856
0.001619 0.106317 0.765899
0.146670 0.100430 0.760012
0.291721 0.094544 0.754125
0.436772 0.088657 0.748239
0.581823 0.082771 0.742352
0.726874 0.076884 0.736466
0.871925 0.070998 0.730579
1.000000 0.065111 0.724693
1.000000 0.062409 0.721990
0.000000 0.234141 0.755300
0.136072 0.228255 0.749414
0.281123 0.222368 0.743527
0.426174 0.216481 0.737641
0.571225 0.210595 0.731754
0.716276 0.204708 0.725867
0.861327 0.198822 0.719981
1.000000 0.192935 0.714094
1.000000 0.190233 0.711392
0.000000 0.365530 0.744406
0.125178 0.359643 0.738520
0.270229 0.353757 0.732633
0.415280 0.347870 0.726747
0.560331 0.341983 0.720860
0.705382 0.336097 0.714974
0.850433 0.330210 0.709087
0.995484 0.324324 0.703200
1.000000 0.321622 0.700498
0.000000 0.499288 0.733316
0.114088 0.493401 0.727429
0.259139 0.487515 0.721543
0.404190 0.481628 0.715656
0.549240 0.475742 0.709770
0.694291 0.469855 0.703883
0.839342 0.463969 0.697997
0.984393 0.458082 0.692110
1.000000 0.455380 0.689408
0.000000 0.634836 0.722077
0.102849 0.628950 0.716191
0.247900 0.623063 0.710304
0.392951 0.617177 0.704417
0.538002 0.611290 0.698531
0.683053 0.605403 0.692644
0.828104 0.599517 0.686758
0.973154 0.593630 0.680871
1.000000 0.590928 0.678169
0.000000 0.771829 0.710719
0.091490 0.765942 0.704832
0.236541 0.760055 0.698946
0.381592 0.754169 0.693059
0.526643 0.748282 0.687172
0.671694 0.742396 0.681286
0.816745 0.736509 0.675399
0.961796 0.730623 0.669513
1.000000 0.727920 0.666811
0.000000 0.910033 0.699260
0.080031 0.904147 0.693373
0.225082 0.898260 0.687486
0.370133 0.892374 0.681600
0.515184 0.886487 0.675713
0.660235 0.880600 0.669827
0.805286 0.874714 0.663940
0.950337 0.868827 0.658054
1.000000 0.866125 0.655351
0.000000 1.000000 0.687714
0.068485 1.000000 0.681827
0.213536 1.000000 0.675941
0.358587 1.000000 0.670054
0.503638 1.000000 0.664168
0.648689 1.000000 0.658281
0.793740 1.000000 0.652394
0.938791 1.000000 0.646508
1.000000 1.000000 0.643806
0.009527 0.000000 0.905481
0.154578 0.000000 0.899594
0.299628 0.000000 0.893708
0.444679 0.000000 0.887821
0.589730 0.000000 0.881935
0.734781 0.000000 0.876048
0.879832 0.000000 0.870162
1.000000 0.000000 0.864275
1.000000 0.000000 0.861573
0.000000 0.104359 0.895616
0.144712 0.098473 0.889729
0.289763 0.092586 0.883843
0.434814 0.086699 0.877956
0.579865 0.080813 0.872070
0.724916 0.074926 0.866183
0.869967 0.069040 0.860296
1.000000 0.063153 0.854410
1.000000 0.060451 0.851708
0.000000 0.232183 0.885017
0.134114 0.226297 0.879131
0.279165 0.220410 0.873244
0.424216 0.214523 0.867358
0.569267 0.208637 0.861471
0.714318 0.202750 0.855585
0.859369 0.196864 0.849698
1.000000 0.190977 0.843812
1.000000 0.188275 0.841109
0.000000 0.363572 0.874124
0.123220 0.357685 0.868237
0.268271 0.351799 0.862350
0.413322 0.345912 0.856464
0.558373 0.340025 0.850577
0.703424 0.334139 0.844691
0.848475 0.328252 0.838804
0.993526 0.322366 0.832918
1.000000 0.319664 0.830215
0.000000 0.497330 0.863033
0.112130 0.491443 0.857147
0.257181 0.485557 0.851260
0.402232 0.479670 0.845374
0.547282 0.473784 0.839487
0.692333 0.467897 0.833600
0.837384 0.462011 0.827714
0.982435 0.456124 0.821827
1.000000 0.453422 0.819125
0.000000 0.632878 0.851794
0.100891 0.626992 0.845908
0.245942 0.621105 0.840021
0.390993 0.615219 0.834135
0.536044 0.609332 0.828248
0.681095 0.603446 0.822362
0.826146 0.597559 0.816475
0.971197 0.591672 0.810588
1.000000 0.588970 0.807886
0.000000 0.769871 0.840436
0.089532 0.763984 0.834549
0.234583 0.758097 0.828663
0.379634 0.752211 0.822776
0.524685 0.746324 0.816890
0.669736 0.740438 0.811003
0.814787 0.734551 0.805117
0.959838 0.728665 0.799230
1.000000 0.725962 0.796528
0.000000 0.908075 0.828977
0.078073 0.902189 0.823090
0.223124 0.896302 0.817204
0.368175 0.890416 0.811317
0.513226 0.884529 0.805431
0.658277 0.878642 0.799544
0.803328 0.872756 0.793657
0.948379 0.866869 0.787771
1.000000 0.864167 0.785069
0.000000 1.000000 0.817431
0.066528 1.000000 0.811544
0.211578 1.000000 0.805658
0.356629 1.000000 0.799771
0.501680 1.000000 0.793885
0.646731 1.000000 0.787998
0.791782 1.000000 0.782112
0.936833 1.000000 0.776225
1.000000 1.000000 0.773523
0.007583 0.000000 1.000000
0.152634 0.000000 1.000000
0.297684 0.000000 1.000000
0.442735 0.000000 1.000000
0.587786 0.000000 1.000000
0.732837 0.000000 1.000000
0.877888 0.000000 0.998954
1.000000 0.000000 0.993067
1.000000 0.000000 0.990365
0.000000 0.102415 1.000000
0.142768 0.096529 1.000000
0.287819 0.090642 1.000000
0.432870 0.084755 1.000000
0.577921 0.078869 1.000000
0.722972 0.072982 0.994975
0.868023 0.067096 0.989089
1.000000 0.061209 0.983202
1.000000 0.058507 0.980500
0.000000 0.230239 1.000000
0.132170 0.224353 1.000000
0.277221 0.218466 1.000000
0.422272 0.212579 0.996150
0.567323 0.206693 0.990264
0.712374 0.200806 0.984377
0.857425 0.194920 0.978490
1.000000 0.189033 0.972604
1.000000 0.186331 0.969902
0.000000 0.361628 1.000000
0.121276 0.355741 0.997029
0.266327 0.349855 0.991143
0.411378 0.343968 0.985256
0.556429 0.338081 0.979370
0.701480 0.332195 0.973483
0.846531 0.326308 0.967596
0.991582 0.320422 0.961710
1.000000 0.317720 0.959008
0.000000 0.495386 0.991826
0.110186 0.489499 0.985939
0.255237 0.483613 0.980052
0.400288 0.477726 0.974166
0.545339 0.471840 0.968279
0.690389 0.465953 0.962393
0.835440 0.460067 0.956506
0.980491 0.454180 0.950620
1.000000 0.451478 0.947917
0.000000 0.630934 0.980587
0.098947 0.625048 0.974700
0.243998 0.619161 0.968814
0.389049 0.613275 0.962927
0.534100 0.607388 0.957040
0.679151 0.601502 0.951154
0.824202 0.595615 0.945267
0.969253 0.589728 0.939381
1.000000 0.587026 0.936679
0.000000 0.767927 0.969228
0.087588 0.762040 0.963342
0.232639 0.756153 0.957455
0.377690 0.750267 0.951569
0.522741 0.744380 0.945682
0.667792 0.738494 0.939795
0.812843 0.732607 0.933909
0.957894 0.726721 0.928022
1.000000 0.724018 0.925320
0.000000 0.906131 0.957769
0.076129 0.900245 0.951883
0.221180 0.894358 0.945996
0.366231 0.888472 0.940109
0.511282 0.882585 0.934223
0.656333 0.876699 0.928336
0.801384 0.870812 0.922450
0.946435 0.864925 0.916563
1.000000 0.862223 0.913861
0.000000 1.000000 0.946223
0.064584 1.000000 0.940337
0.209634 1.000000 0.934450
0.354685 1.000000 0.928564
0.499736 1.000000 0.922677
0.644787 1.000000 0.916791
0.789838 1.000000 0.910904
0.934889 1.000000 0.905017
1.000000 1.000000 0.902315
