ApexStudio/app/src/main/assets/luts/kodak_35mm.cube
# ApexStudio filter: kodak_35mm
LUT_3D_SIZE 17
DOMAIN_MIN 0.0 0.0 0.0
DOMAIN_MAX 1.0 1.0 1.0
0.023208 0.000000 0.000000
0.095734 0.000000 0.000000
0.168259 0.000000 0.000000
0.240785 0.000000 0.000000
0.313310 0.000000 0.000000
0.385835 0.000000 0.000000
0.458361 0.000000 0.000000
0.530886 0.000000 0.000000
0.603412 0.000000 0.000000
0.675937 0.000000 0.000000
0.748463 0.000000 0.000000
0.820988 0.000000 0.000000
0.893514 0.000000 0.000000
0.966039 0.000000 0.000000
1.000000 0.000000 0.000000
1.000000 0.000000 0.000000
1.000000 0.000000 0.000000
0.018452 0.056418 0.000000
0.090978 0.053475 0.000000
0.163503 0.050532 0.000000
0.236029 0.047588 0.000000
0.308554 0.044645 0.000000
0.381080 0.041702 0.000000
0.453605 0.038758 0.000000
0.526131 0.035815 0.000000
0.598656 0.032872 0.000000
0.671181 0.029929 0.000000
0.743707 0.026985 0.000000
0.816232 0.024042 0.000000
0.888758 0.021099 0.000000
0.961283 0.018156 0.000000
1.000000 0.015212 0.000000
1.000000 0.012510 0.000000
1.000000 0.012510 0.000000
0.013343 0.118041 0.000000
0.085868 0.115097 0.000000
0.158394 0.112154 0.000000
0.230919 0.109211 0.000000
0.303445 0.106268 0.000000
0.375970 0.103324 0.000000
0.448496 0.100381 0.000000
0.521021 0.097438 0.000000
0.593547 0.094494 0.000000
0.666072 0.091551 0.000000
0.738598 0.088608 0.000000
0.811123 0.085665 0.000000
0.883649 0.082721 0.000000
0.956174 0.079778 0.000000
1.000000 0.076835 0.000000
1.000000 0.074132 0.000000
1.000000 0.074132 0.000000
0.008091 0.181381 0.000000
0.080617 0.178438 0.000000
0.153142 0.175495 0.000000
0.225667 0.172552 0.000000
0.298193 0.169608 0.000000
0.370718 0.166665 0.000000
0.443244 0.163722 0.000000
0.515769 0.160779 0.000000
0.588295 0.157835 0.000000
0.660820 0.154892 0.000000
0.733346 0.151949 0.000000
0.805871 0.149005 0.000000
0.878397 0.146062 0.000000
0.950922 0.143119 0.000000
1.000000 0.140176 0.000000
1.000000 0.137473 0.000000
1.000000 0.137473 0.000000
0.002745 0.245865 0.000000
0.075270 0.242921 0.000000
0.147795 0.239978 0.000000
0.220321 0.237035 0.000000
0.292846 0.234092 0.000000
0.365372 0.231148 0.000000
0.437897 0.228205 0.000000
0.510423 0.225262 0.000000
0.582948 0.222318 0.000000
0.655474 0.219375 0.000000
0.727999 0.216432 0.000000
0.800525 0.213489 0.000000
0.873050 0.210545 0.000000
0.945576 0.207602 0.000000
1.000000 0.204659 0.000000
1.000000 0.201957 0.000000
1.000000 0.201957 0.000000
0.000000 0.311211 0.000000
0.069852 0.308268 0.000000
0.142377 0.305324 0.000000
0.214903 0.302381 0.000000
0.287428 0.299438 0.000000
0.359954 0.296495 0.000000
0.432479 0.293551 0.000000
0.505005 0.290608 0.000000
0.577530 0.287665 0.000000
0.650056 0.284721 0.000000
0.722581 0.281778 0.000000
0.795107 0.278835 0.000000
0.867632 0.275892 0.000000
0.940158 0.272948 0.000000
1.000000 0.270005 0.000000
1.000000 0.267303 0.000000
1.000000 0.267303 0.000000
0.000000 0.377253 0.000000
0.064376 0.374310 0.000000
0.136902 0.371367 0.000000
0.209427 0.368423 0.000000
0.281953 0.365480 0.000000
0.354478 0.362537 0.000000
0.427003 0.359594 0.000000
0.499529 0.356650 0.000000
0.572054 0.353707 0.000000
0.644580 0.350764 0.000000
0.717105 0.347820 0.000000
0.789631 0.344877 0.000000
0.862156 0.341934 0.000000
0.934682 0.338991 0.000000
1.000000 0.336047 0.000000
1.000000 0.333345 0.000000
1.000000 0.333345 0.000000
0.000000 0.443880 0.000000
0.058852 0.440937 0.000000
0.131377 0.437994 0.000000
0.203903 0.435050 0.000000
0.276428 0.432107 0.000000
0.348954 0.429164 0.000000
0.421479 0.426220 0.000000
0.494005 0.423277 0.000000
0.566530 0.420334 0.000000
0.639056 0.417391 0.000000
0.711581 0.414447 0.000000
0.784107 0.411504 0.000000
0.856632 0.408561 0.000000
0.929157 0.405617 0.000000
1.000000 0.402674 0.000000
1.000000 0.399972 0.000000
1.000000 0.399972 0.000000
0.000000 0.511012 0.000000
0.053286 0.508068 0.000000
0.125811 0.505125 0.000000
0.198337 0.502182 0.000000
0.270862 0.499238 0.000000
0.343388 0.496295 0.000000
0.415913 0.493352 0.000000
0.488439 0.490409 0.000000
0.560964 0.487465 0.000000
0.633490 0.484522 0.000000
0.706015 0.481579 0.000000
0.778540 0.478635 0.000000
0.851066 0.475692 0.000000
0.923591 0.472749 0.000000
0.996117 0.469806 0.000000
1.000000 0.467103 0.000000
1.000000 0.467103 0.000000
0.000000 0.578587 0.000000
0.047683 0.575644 0.000000
0.120208 0.572701 0.000000
0.192734 0.569757 0.000000
0.265259 0.566814 0.000000
0.337785 0.563871 0.000000
0.410310 0.560927 0.000000
0.482836 0.557984 0.000000
0.555361 0.555041 0.000000
0.627887 0.552098 0.000000
0.700412 0.549154 0.000000
0.772938 0.546211 0.000000
0.845463 0.543268 0.000000
0.917988 0.540324 0.000000
0.990514 0.537381 0.000000
1.000000 0.534679 0.000000
1.000000 0.534679 0.000000
0.000000 0.646560 0.000000
0.042047 0.643617 0.000000
0.114572 0.640673 0.000000
0.187098 0.637730 0.000000
0.259623 0.634787 0.000000
0.332149 0.631843 0.000000
0.404674 0.628900 0.000000
0.477200 0.625957 0.000000
0.549725 0.623014 0.000000
0.622251 0.620070 0.000000
0.694776 0.617127 0.000000
0.767302 0.614184 0.000000
0.839827 0.611240 0.000000
0.912353 0.608297 0.000000
0.984878 0.605354 0.000000
1.000000 0.602652 0.000000
1.000000 0.602652 0.000000
0.000000 0.714892 0.000000
0.036381 0.711949 0.000000
0.108907 0.709005 0.000000
0.181432 0.706062 0.000000
0.253958 0.703119 0.000000
0.326483 0.700176 0.000000
0.399009 0.697232 0.000000
0.471534 0.694289 0.000000
0.544060 0.691346 0.000000
0.616585 0.688402 0.000000
0.689111 0.685459 0.000000
0.761636 0.682516 0.000000
0.834161 0.679573 0.000000
0.906687 0.676629 0.000000
0.979212 0.673686 0.000000
1.000000 0.670984 0.000000
1.000000 0.670984 0.000000
0.000000 0.783552 0.000000
0.030688 0.780609 0.000000
0.103214 0.777666 0.000000
0.175739 0.774722 0.000000
0.248265 0.771779 0.000000
0.320790 0.768836 0.000000
0.393316 0.765892 0.000000
0.465841 0.762949 0.000000
0.538367 0.760006 0.000000
0.610892 0.757063 0.000000
0.683418 0.754119 0.000000
0.755943 0.751176 0.000000
0.828469 0.748233 0.000000
0.900994 0.745289 0.000000
0.973520 0.742346 0.000000
1.000000 0.739644 0.000000
1.000000 0.739644 0.000000
0.000000 0.852514 0.000000
0.024971 0.849571 0.000000
0.097496 0.846628 0.000000
0.170021 0.843685 0.000000
0.242547 0.840741 0.000000
0.315072 0.837798 0.000000
0.387598 0.834855 0.000000
0.460123 0.831912 0.000000
0.532649 0.828968 0.000000
0.605174 0.826025 0.000000
0.677700 0.823082 0.000000
0.750225 0.820138 0.000000
0.822751 0.817195 0.000000
0.895276 0.814252 0.000000
0.967802 0.811309 0.000000
1.000000 0.808606 0.000000
1.000000 0.808606 0.000000
0.000000 0.921757 0.000000
0.019229 0.918814 0.000000
0.091755 0.915870 0.000000
0.164280 0.912927 0.000000
0.236806 0.909984 0.000000
0.309331 0.907040 0.000000
0.381857 0.904097 0.000000
0.454382 0.901154 0.000000
0.526908 0.898211 0.000000
0.599433 0.895267 0.000000
0.671959 0.892324 0.000000
0.744484 0.889381 0.000000
0.817010 0.886437 0.000000
0.889535 0.883494 0.000000
0.962061 0.880551 0.000000
1.000000 0.877849 0.000000
1.000000 0.877849 0.000000
0.000000 0.991260 0.000000
0.013467 0.988317 0.000000
0.085992 0.985374 0.000000
0.158518 0.982430 0.000000
0.231043 0.979487 0.000000
0.303569 0.976544 0.000000
0.376094 0.973601 0.000000
0.448619 0.970657 0.000000
0.521145 0.967714 0.000000
0.593670 0.964771 0.000000
0.666196 0.961827 0.000000
0.738721 0.958884 0.000000
0.811247 0.955941 0.000000
0.883772 0.952998 0.000000
0.956298 0.950054 0.000000
1.000000 0.947352 0.000000
1.000000 0.947352 0.000000
0.000000 1.000000 0.000000
0.007684 1.000000 0.000000
0.080209 1.000000 0.000000
0.152735 1.000000 0.000000
0.225260 1.000000 0.000000
0.297785 1.000000 0.000000
0.370311 1.000000 0.000000
0.442836 1.000000 0.000000
0.515362 1.000000 0.000000
0.587887 1.000000 0.000000
0.660413 1.000000 0.000000
0.732938 1.000000 0.000000
0.805464 1.000000 0.000000
0.877989 1.000000 0.000000
0.950515 1.000000 0.000000
1.000000 1.000000 0.000000
1.000000 1.000000 0.000000
0.022770 0.000000 0.028069
0.095296 0.000000 0.025126
0.167821 0.000000 0.022183
0.240347 0.000000 0.019239
0.312872 0.000000 0.016296
0.385398 0.000000 0.013353
0.457923 0.000000 0.010410
0.530449 0.000000 0.007466
0.602974 0.000000 0.004523
0.675499 0.000000 0.001580
0.748025 0.000000 0.000000
0.820550 0.000000 0.000000
0.893076 0.000000 0.000000
0.965601 0.000000 0.000000
1.000000 0.000000 0.000000
1.000000 0.000000 0.000000
1.000000 0.000000 0.000000
0.018014 0.055980 0.023313
0.090540 0.053037 0.020370
0.163065 0.050094 0.017427
0.235591 0.047150 0.014484
0.308116 0.044207 0.011540
0.380642 0.041264 0.008597
0.453167 0.038321 0.005654
0.525693 0.035377 0.002710
0.598218 0.032434 0.000000
0.670744 0.029491 0.000000
0.743269 0.026547 0.000000
0.815794 0.023604 0.000000
0.888320 0.020661 0.000000
0.960845 0.017718 0.000000
1.000000 0.014774 0.000000
1.000000 0.012072 0.000000
1.000000 0.012072 0.000000
0.012905 0.117603 0.018204
0.085430 0.114659 0.015261
0.157956 0.111716 0.012317
0.230481 0.108773 0.009374
0.303007 0.105830 0.006431
0.375532 0.102886 0.003488
0.448058 0.099943 0.000544
0.520583 0.097000 0.000000
0.593109 0.094056 0.000000
0.665634 0.091113 0.000000
0.738160 0.088170 0.000000
0.810685 0.085227 0.000000
0.883211 0.082283 0.000000
0.955736 0.079340 0.000000
1.000000 0.076397 0.000000
1.000000 0.073695 0.000000
1.000000 0.073695 0.000000
0.007653 0.180944 0.012952
0.080179 0.178000 0.010009
0.152704 0.175057 0.007066
0.225230 0.172114 0.004122
0.297755 0.169170 0.001179
0.370281 0.166227 0.000000
0.442806 0.163284 0.000000
0.515331 0.160341 0.000000
0.587857 0.157397 0.000000
0.660382 0.154454 0.000000
0.732908 0.151511 0.000000
0.805433 0.148567 0.000000
0.877959 0.145624 0.000000
0.950484 0.142681 0.000000
1.000000 0.139738 0.000000
1.000000 0.137035 0.000000
1.000000 0.137035 0.000000
0.002307 0.245427 0.007606
0.074832 0.242484 0.004662
0.147358 0.239540 0.001719
0.219883 0.236597 0.000000
0.292409 0.233654 0.000000
0.364934 0.230710 0.000000
0.437459 0.227767 0.000000
0.509985 0.224824 0.000000
0.582510 0.221881 0.000000
0.655036 0.218937 0.000000
0.727561 0.215994 0.000000
0.800087 0.213051 0.000000
0.872612 0.210107 0.000000
0.945138 0.207164 0.000000
1.000000 0.204221 0.000000
1.000000 0.201519 0.000000
1.000000 0.201519 0.000000
0.000000 0.310773 0.002188
0.069414 0.307830 0.000000
0.141940 0.304887 0.000000
0.214465 0.301943 0.000000
0.286990 0.299000 0.000000
0.359516 0.296057 0.000000
0.432041 0.293113 0.000000
0.504567 0.290170 0.000000
0.577092 0.287227 0.000000
0.649618 0.284284 0.000000
0.722143 0.281340 0.000000
0.794669 0.278397 0.000000
0.867194 0.275454 0.000000
0.939720 0.272510 0.000000
1.000000 0.269567 0.000000
1.000000 0.266865 0.000000
1.000000 0.266865 0.000000
0.000000 0.376815 0.000000
0.063938 0.373872 0.000000
0.136464 0.370929 0.000000
0.208989 0.367986 0.000000
0.281515 0.365042 0.000000
0.354040 0.362099 0.000000
0.426566 0.359156 0.000000
0.499091 0.356212 0.000000
0.571617 0.353269 0.000000
0.644142 0.350326 0.000000
0.716667 0.347383 0.000000
0.789193 0.344439 0.000000
0.861718 0.341496 0.000000
0.934244 0.338553 0.000000
1.000000 0.335609 0.000000
1.000000 0.332907 0.000000
1.000000 0.332907 0.000000
0.000000 0.443442 0.000000
0.058414 0.440499 0.000000
0.130939 0.437556 0.000000
0.203465 0.434612 0.000000
0.275990 0.431669 0.000000
0.348516 0.428726 0.000000
0.421041 0.425783 0.000000
0.493567 0.422839 0.000000
0.566092 0.419896 0.000000
0.638618 0.416953 0.000000
0.711143 0.414009 0.000000
0.783669 0.411066 0.000000
0.856194 0.408123 0.000000
0.928720 0.405180 0.000000
1.000000 0.402236 0.000000
1.000000 0.399534 0.000000
1.000000 0.399534 0.000000
0.000000 0.510574 0.000000
0.052848 0.507630 0.000000
0.125373 0.504687 0.000000
0.197899 0.501744 0.000000
0.270424 0.498800 0.000000
0.342950 0.495857 0.000000
0.415475 0.492914 0.000000
0.488001 0.489971 0.000000
0.560526 0.487027 0.000000
0.633052 0.484084 0.000000
0.705577 0.481141 0.000000
0.778103 0.478198 0.000000
0.850628 0.475254 0.000000
0.923154 0.472311 0.000000
0.995679 0.469368 0.000000
1.000000 0.466665 0.000000
1.000000 0.466665 0.000000
0.000000 0.578149 0.000000
0.047245 0.575206 0.000000
0.119770 0.572263 0.000000
0.192296 0.569319 0.000000
0.264821 0.566376 0.000000
0.337347 0.563433 0.000000
0.409872 0.560490 0.000000
0.482398 0.557546 0.000000
0.554923 0.554603 0.000000
0.627449 0.551660 0.000000
0.699974 0.548716 0.000000
0.772500 0.545773 0.000000
0.845025 0.542830 0.000000
0.917551 0.539887 0.000000
0.990076 0.536943 0.000000
1.000000 0.534241 0.000000
1.000000 0.534241 0.000000
0.000000 0.646122 0.000000
0.041609 0.643179 0.000000
0.114135 0.640235 0.000000
0.186660 0.637292 0.000000
0.259185 0.634349 0.000000
0.331711 0.631406 0.000000
0.404236 0.628462 0.000000
0.476762 0.625519 0.000000
0.549287 0.622576 0.000000
0.621813 0.619632 0.000000
0.694338 0.616689 0.000000
0.766864 0.613746 0.000000
0.839389 0.610803 0.000000
0.911915 0.607859 0.000000
0.984440 0.604916 0.000000
1.000000 0.602214 0.000000
1.000000 0.602214 0.000000
0.000000 0.714454 0.000000
0.035943 0.711511 0.000000
0.108469 0.708567 0.000000
0.180994 0.705624 0.000000
0.253520 0.702681 0.000000
0.326045 0.699738 0.000000
0.398571 0.696794 0.000000
0.471096 0.693851 0.000000
0.543622 0.690908 0.000000
0.616147 0.687964 0.000000
0.688673 0.685021 0.000000
0.761198 0.682078 0.000000
0.833724 0.679135 0.000000
0.906249 0.676191 0.000000
0.978775 0.673248 0.000000
1.000000 0.670546 0.000000
1.000000 0.670546 0.000000
0.000000 0.783114 0.000000
0.030251 0.780171 0.000000
0.102776 0.777228 0.000000
0.175302 0.774284 0.000000
0.247827 0.771341 0.000000
0.320352 0.768398 0.000000
0.392878 0.765455 0.000000
0.465403 0.762511 0.000000
0.537929 0.759568 0.000000
0.610454 0.756625 0.000000
0.682980 0.753681 0.000000
0.755505 0.750738 0.000000
0.828031 0.747795 0.000000
0.900556 0.744852 0.000000
0.973082 0.741908 0.000000
1.000000 0.739206 0.000000
1.000000 0.739206 0.000000
0.000000 0.852077 0.000000
0.024533 0.849133 0.000000
0.097058 0.846190 0.000000
0.169584 0.843247 0.000000
0.242109 0.840303 0.000000
0.314635 0.837360 0.000000
0.387160 0.834417 0.000000
0.459685 0.831474 0.000000
0.532211 0.828530 0.000000
0.604736 0.825587 0.000000
0.677262 0.822644 0.000000
0.749787 0.819700 0.000000
0.822313 0.816757 0.000000
0.894838 0.813814 0.000000
0.967364 0.810871 0.000000
1.000000 0.808168 0.000000
1.000000 0.808168 0.000000
0.000000 0.921319 0.000000
0.018792 0.918376 0.000000
0.091317 0.915432 0.000000
0.163842 0.912489 0.000000
0.236368 0.909546 0.000000
0.308893 0.906603 0.000000
0.381419 0.903659 0.000000
0.453944 0.900716 0.000000
0.526470 0.897773 0.000000
0.598995 0.894829 0.000000
0.671521 0.891886 0.000000
0.744046 0.888943 0.000000
0.816572 0.886000 0.000000
0.889097 0.883056 0.000000
0.961623 0.880113 0.000000
1.000000 0.877411 0.000000
1.000000 0.877411 0.000000
0.000000 0.990822 0.000000
0.013029 0.987879 0.000000
0.085554 0.984936 0.000000
0.158080 0.981993 0.000000
0.230605 0.979049 0.000000
0.303131 0.976106 0.000000
0.375656 0.973163 0.000000
0.448182 0.970219 0.000000
0.520707 0.967276 0.000000
0.593233 0.964333 0.000000
0.665758 0.961390 0.000000
0.738283 0.958446 0.000000
0.810809 0.955503 0.000000
0.883334 0.952560 0.000000
0.955860 0.949616 0.000000
1.000000 0.946914 0.000000
1.000000 0.946914 0.000000
0.000000 1.000000 0.000000
0.007246 1.000000 0.000000
0.079771 1.000000 0.000000
0.152297 1.000000 0.000000
0.224822 1.000000 0.000000
0.297348 1.000000 0.000000
0.369873 1.000000 0.000000
0.442399 1.000000 0.000000
0.514924 1.000000 0.000000
0.587449 1.000000 0.000000
0.659975 1.000000 0.000000
0.732500 1.000000 0.000000
0.805026 1.000000 0.000000
0.877551 1.000000 0.000000
0.950077 1.000000 0.000000
1.000000 1.000000 0.000000
1.000000 1.000000 0.000000
0.021655 0.000000 0.101934
0.094181 0.000000 0.098991
0.166706 0.000000 0.096048
0.239232 0.000000 0.093104
0.311757 0.000000 0.090161
0.384283 0.000000 0.087218
0.456808 0.000000 0.084274
0.529334 0.000000 0.081331
0.601859 0.000000 0.078388
0.674385 0.000000 0.075445
0.746910 0.000000 0.072501
0.819435 0.000000 0.069558
0.891961 0.000000 0.066615
0.964486 0.000000 0.063672
1.000000 0.000000 0.060728
1.000000 0.000000 0.058026
1.000000 0.000000 0.058026
0.016899 0.054865 0.097178
0.089425 0.051922 0.094235
0.161950 0.048979 0.091292
0.234476 0.046036 0.088348
0.307001 0.043092 0.085405
0.379527 0.040149 0.082462
0.452052 0.037206 0.079519
0.524578 0.034262 0.076575
0.597103 0.031319 0.073632
0.669629 0.028376 0.070689
0.742154 0.025433 0.067745
0.814680 0.022489 0.064802
0.887205 0.019546 0.061859
0.959731 0.016603 0.058916
1.000000 0.013659 0.055972
1.000000 0.010957 0.053270
1.000000 0.010957 0.053270
0.011790 0.116488 0.092069
0.084316 0.113545 0.089126
0.156841 0.110601 0.086182
0.229366 0.107658 0.083239
0.301892 0.104715 0.080296
0.374417 0.101771 0.077353
0.446943 0.098828 0.074409
0.519468 0.095885 0.071466
0.591994 0.092942 0.068523
0.664519 0.089998 0.065579
0.737045 0.087055 0.062636
0.809570 0.084112 0.059693
0.882096 0.081168 0.056750
0.954621 0.078225 0.053806
1.000000 0.075282 0.050863
1.000000 0.072580 0.048161
1.000000 0.072580 0.048161
0.006538 0.179829 0.086817
0.079064 0.176885 0.083874
0.151589 0.173942 0.080931
0.224115 0.170999 0.077987
0.296640 0.168056 0.075044
0.369166 0.165112 0.072101
0.441691 0.162169 0.069157
0.514217 0.159226 0.066214
0.586742 0.156282 0.063271
0.659267 0.153339 0.060328
0.731793 0.150396 0.057384
0.804318 0.147453 0.054441
0.876844 0.144509 0.051498
0.949369 0.141566 0.048554
1.000000 0.138623 0.045611
1.000000 0.135921 0.042909
1.000000 0.135921 0.042909
0.001192 0.244312 0.081471
0.073717 0.241369 0.078527
0.146243 0.238425 0.075584
0.218768 0.235482 0.072641
0.291294 0.232539 0.069697
0.363819 0.229595 0.066754
0.436345 0.226652 0.063811
0.508870 0.223709 0.060868
0.581395 0.220766 0.057924
0.653921 0.217822 0.054981
0.726446 0.214879 0.052038
0.798972 0.211936 0.049094
0.871497 0.208993 0.046151
0.944023 0.206049 0.043208
1.000000 0.203106 0.040265
1.000000 0.200404 0.037562
1.000000 0.200404 0.037562
0.000000 0.309658 0.076052
0.068299 0.306715 0.073109
0.140825 0.303772 0.070166
0.213350 0.300828 0.067223
0.285876 0.297885 0.064279
0.358401 0.294942 0.061336
0.430926 0.291998 0.058393
0.503452 0.289055 0.055450
0.575977 0.286112 0.052506
0.648503 0.283169 0.049563
0.721028 0.280225 0.046620
0.793554 0.277282 0.043676
0.866079 0.274339 0.040733
0.938605 0.271395 0.037790
1.000000 0.268452 0.034847
1.000000 0.265750 0.032144
1.000000 0.265750 0.032144
0.000000 0.375700 0.070577
0.062823 0.372757 0.067633
0.135349 0.369814 0.064690
0.207874 0.366871 0.061747
0.280400 0.363927 0.058804
0.352925 0.360984 0.055860
0.425451 0.358041 0.052917
0.497976 0.355097 0.049974
0.570502 0.352154 0.047030
0.643027 0.349211 0.044087
0.715553 0.346268 0.041144
0.788078 0.343324 0.038201
0.860603 0.340381 0.035257
0.933129 0.337438 0.032314
1.000000 0.334495 0.029371
1.000000 0.331792 0.026669
1.000000 0.331792 0.026669
0.000000 0.442327 0.065052
0.057299 0.439384 0.062109
0.129825 0.436441 0.059166
0.202350 0.433497 0.056223
0.274875 0.430554 0.053279
0.347401 0.427611 0.050336
0.419926 0.424668 0.047393
0.492452 0.421724 0.044449
0.564977 0.418781 0.041506
0.637503 0.415838 0.038563
0.710028 0.412895 0.035620
0.782554 0.409951 0.032676
0.855079 0.407008 0.029733
0.927605 0.404065 0.026790
1.000000 0.401121 0.023846
1.000000 0.398419 0.021144
1.000000 0.398419 0.021144
0.000000 0.509459 0.059486
0.051733 0.506515 0.056543
0.124258 0.503572 0.053600
0.196784 0.500629 0.050656
0.269309 0.497686 0.047713
0.341835 0.494742 0.044770
0.414360 0.491799 0.041827
0.486886 0.488856 0.038883
0.559411 0.485912 0.035940
0.631937 0.482969 0.032997
0.704462 0.480026 0.030054
0.776988 0.477083 0.027110
0.849513 0.474139 0.024167
0.922039 0.471196 0.021224
0.994564 0.468253 0.018280
1.000000 0.465551 0.015578
1.000000 0.465551 0.015578
0.000000 0.577034 0.053883
0.046130 0.574091 0.050940
0.118655 0.571148 0.047997
0.191181 0.568204 0.045054
0.263706 0.565261 0.042110
0.336232 0.562318 0.039167
0.408757 0.559375 0.036224
0.481283 0.556431 0.033280
0.553808 0.553488 0.030337
0.626334 0.550545 0.027394
0.698859 0.547601 0.024451
0.771385 0.544658 0.021507
0.843910 0.541715 0.018564
0.916436 0.538772 0.015621
0.988961 0.535828 0.012677
1.000000 0.533126 0.009975
1.000000 0.533126 0.009975
0.000000 0.645007 0.048248
0.040494 0.642064 0.045304
0.113020 0.639121 0.042361
0.185545 0.636177 0.039418
0.258071 0.633234 0.036474
0.330596 0.630291 0.033531
0.403122 0.627347 0.030588
0.475647 0.624404 0.027645
0.548172 0.621461 0.024701
0.620698 0.618518 0.021758
0.693223 0.615574 0.018815
0.765749 0.612631 0.015871
0.838274 0.609688 0.012928
0.910800 0.606744 0.009985
0.983325 0.603801 0.007042
1.000000 0.601099 0.004339
1.000000 0.601099 0.004339
0.000000 0.713339 0.042582
0.034829 0.710396 0.039639
0.107354 0.707453 0.036695
0.179879 0.704509 0.033752
0.252405 0.701566 0.030809
0.324930 0.698623 0.027865
0.397456 0.695679 0.024922
0.469981 0.692736 0.021979
0.542507 0.689793 0.019036
0.615032 0.686850 0.016092
0.687558 0.683906 0.013149
0.760083 0.680963 0.010206
0.832609 0.678020 0.007263
0.905134 0.675076 0.004319
0.977660 0.672133 0.001376
1.000000 0.669431 0.000000
1.000000 0.669431 0.000000
0.000000 0.781999 0.036889
0.029136 0.779056 0.033946
0.101661 0.776113 0.031002
0.174187 0.773169 0.028059
0.246712 0.770226 0.025116
0.319238 0.767283 0.022173
0.391763 0.764340 0.019229
0.464288 0.761396 0.016286
0.536814 0.758453 0.013343
0.609339 0.755510 0.010399
0.681865 0.752566 0.007456
0.754390 0.749623 0.004513
0.826916 0.746680 0.001570
0.899441 0.743737 0.000000
0.971967 0.740793 0.000000
1.000000 0.738091 0.000000
1.000000 0.738091 0.000000
0.000000 0.850962 0.031171
0.023418 0.848018 0.028228
0.095943 0.845075 0.025285
0.168469 0.842132 0.022341
0.240994 0.839189 0.019398
0.313520 0.836245 0.016455
0.386045 0.833302 0.013511
0.458571 0.830359 0.010568
0.531096 0.827415 0.007625
0.603621 0.824472 0.004682
0.676147 0.821529 0.001738
0.748672 0.818586 0.000000
0.821198 0.815642 0.000000
0.893723 0.812699 0.000000
0.966249 0.809756 0.000000
1.000000 0.807054 0.000000
1.000000 0.807054 0.000000
0.000000 0.920204 0.025430
0.017677 0.917261 0.022487
0.090202 0.914317 0.019543
0.162728 0.911374 0.016600
0.235253 0.908431 0.013657
0.307778 0.905488 0.010714
0.380304 0.902544 0.007770
0.452829 0.899601 0.004827
0.525355 0.896658 0.001884
0.597880 0.893715 0.000000
0.670406 0.890771 0.000000
0.742931 0.887828 0.000000
0.815457 0.884885 0.000000
0.887982 0.881941 0.000000
0.960508 0.878998 0.000000
1.000000 0.876296 0.000000
1.000000 0.876296 0.000000
0.000000 0.989707 0.019667
0.011914 0.986764 0.016724
0.084439 0.983821 0.013781
0.156965 0.980878 0.010837
0.229490 0.977934 0.007894
0.302016 0.974991 0.004951
0.374541 0.972048 0.002008
0.447067 0.969104 0.000000
0.519592 0.966161 0.000000
0.592118 0.963218 0.000000
0.664643 0.960275 0.000000
0.737169 0.957331 0.000000
0.809694 0.954388 0.000000
0.882219 0.951445 0.000000
0.954745 0.948502 0.000000
1.000000 0.945799 0.000000
1.000000 0.945799 0.000000
0.000000 1.000000 0.013884
0.006131 1.000000 0.010941
0.078656 1.000000 0.007998
0.151182 1.000000 0.005054
0.223707 1.000000 0.002111
0.296233 1.000000 0.000000
0.368758 1.000000 0.000000
0.441284 1.000000 0.000000
0.513809 1.000000 0.000000
0.586335 1.000000 0.000000
0.658860 1.000000 0.000000
0.731385 1.000000 0.000000
0.803911 1.000000 0.000000
0.876436 1.000000 0.000000
0.948962 1.000000 0.000000
1.000000 1.000000 0.000000
1.000000 1.000000 0.000000
0.020583 0.000000 0.172954
0.093109 0.000000 0.170010
0.165634 0.000000 0.167067
0.238160 0.000000 0.164124
0.310685 0.000000 0.161181
0.383211 0.000000 0.158237
0.455736 0.000000 0.155294
0.528262 0.000000 0.152351
0.600787 0.000000 0.149407
0.673313 0.000000 0.146464
0.745838 0.000000 0.143521
0.818364 0.000000 0.140578
0.890889 0.000000 0.137634
0.963414 0.000000 0.134691
1.000000 0.000000 0.131748
1.000000 0.000000 0.129046
1.000000 0.000000 0.129046
0.015827 0.053793 0.168198
