ApexStudio/app/src/main/assets/luts/kodak_35mm.cube
# ApexStudio filter: kodak_35mm
LUT_3D_SIZE 5
DOMAIN_MIN 0.0 0.0 0.0
DOMAIN_MAX 1.0 1.0 1.0
0.023208 0.000000 0.000000
0.313310 0.000000 0.000000
0.603412 0.000000 0.000000
0.893514 0.000000 0.000000
1.000000 0.000000 0.000000
0.002745 0.245865 0.000000
0.292846 0.234092 0.000000
0.582948 0.222318 0.000000
0.873050 0.210545 0.000000
1.000000 0.201957 0.000000
0.000000 0.511012 0.000000
0.270862 0.499238 0.000000
0.560964 0.487465 0.000000
0.851066 0.475692 0.000000
1.000000 0.467103 0.000000
0.000000 0.783552 0.000000
0.248265 0.771779 0.000000
0.538367 0.760006 0.000000
0.828469 0.748233 0.000000
1.000000 0.739644 0.000000
0.000000 1.000000 0.000000
0.225260 1.000000 0.000000
0.515362 1.000000 0.000000
0.805464 1.000000 0.000000
1.000000 1.000000 0.000000
0.019534 0.000000 0.242508
0.309635 0.000000 0.230735
0.599737 0.000000 0.218962
0.889839 0.000000 0.207189
1.000000 0.000000 0.198600
0.000000 0.242190 0.222045
0.289172 0.230417 0.210271
0.579274 0.218644 0.198498
0.869376 0.206871 0.186725
1.000000 0.198282 0.178136
0.000000 0.507337 0.200060
0.267188 0.495564 0.188287
0.557289 0.483791 0.176514
0.847391 0.472017 0.164741
1.000000 0.463429 0.156152
0.000000 0.779877 0.177463
0.244590 0.768104 0.165690
0.534692 0.756331 0.153917
0.824794 0.744558 0.142144
1.000000 0.735969 0.133555
0.000000 1.000000 0.154458
0.221585 1.000000 0.142685
0.511687 1.000000 0.130912
0.801789 1.000000 0.119139
1.000000 1.000000 0.110550
0.015454 0.000000 0.512785
0.305556 0.000000 0.501012
0.595658 0.000000 0.489239
0.885760 0.000000 0.477466
1.000000 0.000000 0.468877
0.000000 0.238111 0.492321
0.285092 0.226337 0.480548
0.575194 0.214564 0.468775
0.865296 0.202791 0.457002
1.000000 0.194202 0.448413
0.000000 0.503257 0.470337
0.263108 0.491484 0.458564
0.553210 0.479711 0.446791
0.843312 0.467938 0.435018
1.000000 0.459349 0.426429
0.000000 0.775798 0.447740
0.240511 0.764025 0.435967
0.530613 0.752252 0.424193
0.820714 0.740479 0.412420
1.000000 0.731890 0.403832
0.000000 1.000000 0.424735
0.217506 1.000000 0.412962
0.507608 1.000000 0.401189
0.797710 1.000000 0.389416
1.000000 1.000000 0.380827
0.011485 0.000000 0.775764
0.301586 0.000000 0.763991
0.591688 0.000000 0.752218
0.881790 0.000000 0.740444
1.000000 0.000000 0.731856
0.000000 0.234141 0.755300
0.281123 0.222368 0.743527
0.571225 0.210595 0.731754
0.861327 0.198822 0.719981
1.000000 0.190233 0.711392
0.000000 0.499288 0.733316
0.259139 0.487515 0.721543
0.549240 0.475742 0.709770
0.839342 0.463969 0.697997
1.000000 0.455380 0.689408
0.000000 0.771829 0.710719
0.236541 0.760055 0.698946
0.526643 0.748282 0.687172
0.816745 0.736509 0.675399
1.000000 0.727920 0.666811
0.000000 1.000000 0.687714
0.213536 1.000000 0.675941
0.503638 1.000000 0.664168
0.793740 1.000000 0.652394
1.000000 1.000000 0.643806
0.007583 0.000000 1.000000
0.297684 0.000000 1.000000
0.587786 0.000000 1.000000
0.877888 0.000000 0.998954
1.000000 0.000000 0.990365
0.000000 0.230239 1.000000
0.277221 0.218466 1.000000
0.567323 0.206693 0.990264
0.857425 0.194920 0.978490
1.000000 0.186331 0.969902
0.000000 0.495386 0.991826
0.255237 0.483613 0.980052
0.545339 0.471840 0.968279
0.835440 0.460067 0.956506
1.000000 0.451478 0.947917
0.000000 0.767927 0.969228
0.232639 0.756153 0.957455
0.522741 0.744380 0.945682
0.812843 0.732607 0.933909
1.000000 0.724018 0.925320
0.000000 1.000000 0.946223
0.209634 1.000000 0.934450
0.499736 1.000000 0.922677
0.789838 1.000000 0.910904
1.000000 1.000000 0.902315
