ApexStudio/app/src/main/assets/luts/midnight_dark.cube
# ApexStudio filter: midnight_dark
LUT_3D_SIZE 17
DOMAIN_MIN 0.0 0.0 0.0
DOMAIN_MAX 1.0 1.0 1.0
0.000000 0.000000 0.000000
0.000000 0.000000 0.000000
0.007150 0.000230 0.000230
0.076189 0.002450 0.002450
0.138246 0.004445 0.004445
0.197534 0.006352 0.006352
0.255065 0.008201 0.008201
0.311315 0.010010 0.010010
0.366560 0.011786 0.011786
0.420981 0.013536 0.013536
0.474706 0.015264 0.015264
0.527828 0.016972 0.016972
0.580420 0.018663 0.018663
0.632538 0.020339 0.020339
0.684231 0.022001 0.022001
0.735535 0.023650 0.023650
0.786483 0.025289 0.025289
0.000000 0.000000 0.000000
0.000000 0.000000 0.000000
0.007150 0.000230 0.000230
0.076189 0.002450 0.002450
0.138246 0.004445 0.004445
0.197534 0.006352 0.006352
0.255065 0.008201 0.008201
0.311315 0.010010 0.010010
0.366560 0.011786 0.011786
0.420981 0.013536 0.013536
0.474706 0.015264 0.015264
0.527828 0.016972 0.016972
0.580420 0.018663 0.018663
0.632538 0.020339 0.020339
0.684231 0.022001 0.022001
0.735535 0.023650 0.023650
0.786483 0.025289 0.025289
0.003327 0.054332 0.003327
0.003327 0.054332 0.003327
0.010477 0.054562 0.003557
0.079515 0.056782 0.005776
0.141573 0.058777 0.007772
0.200861 0.060683 0.009678
0.258392 0.062533 0.011528
0.314641 0.064342 0.013337
0.369887 0.066118 0.015113
0.424308 0.067868 0.016863
0.478033 0.069595 0.018590
0.531155 0.071304 0.020298
0.583746 0.072995 0.021989
0.635865 0.074670 0.023665
0.687557 0.076333 0.025327
0.738862 0.077982 0.026977
0.789810 0.079620 0.028615
0.007342 0.119914 0.007342
0.007342 0.119914 0.007342
0.014492 0.120144 0.007572
0.083531 0.122363 0.009792
0.145589 0.124359 0.011787
0.204876 0.126265 0.013694
0.262407 0.128115 0.015544
0.318657 0.129924 0.017352
0.373902 0.131700 0.019129
0.428323 0.133450 0.020878
0.482048 0.135177 0.022606
0.535170 0.136885 0.024314
0.587762 0.138576 0.026005
0.639881 0.140252 0.027681
0.691573 0.141914 0.029343
0.742877 0.143564 0.030993
0.793826 0.145202 0.032631
0.011137 0.181892 0.011137
0.011137 0.181892 0.011137
0.018287 0.182122 0.011367
0.087326 0.184342 0.013587
0.149383 0.186338 0.015582
0.208671 0.188244 0.017489
0.266202 0.190094 0.019338
0.322452 0.191902 0.021147
0.377697 0.193679 0.022923
0.432118 0.195429 0.024673
0.485843 0.197156 0.026401
0.538965 0.198864 0.028109
0.591557 0.200555 0.029800
0.643675 0.202231 0.031476
0.695368 0.203893 0.033138
0.746672 0.205543 0.034787
0.797620 0.207181 0.036426
0.014804 0.241784 0.014804
0.014804 0.241784 0.014804
0.021954 0.242014 0.015034
0.090993 0.244234 0.017254
0.153051 0.246229 0.019249
0.212338 0.248135 0.021156
0.269869 0.249985 0.023005
0.326119 0.251794 0.024814
0.381364 0.253570 0.026590
0.435785 0.255320 0.028340
0.489510 0.257047 0.030068
0.542632 0.258756 0.031776
0.595224 0.260447 0.033467
0.647343 0.262122 0.035143
0.699035 0.263785 0.036805
0.750339 0.265434 0.038455
0.801288 0.267072 0.040093
0.018382 0.300211 0.018382
0.018382 0.300211 0.018382
0.025532 0.300441 0.018611
0.094570 0.302661 0.020831
0.156628 0.304656 0.022827
0.215916 0.306562 0.024733
0.273447 0.308412 0.026583
0.329696 0.310221 0.028392
0.384941 0.311997 0.030168
0.439363 0.313747 0.031918
0.493088 0.315475 0.033645
0.546210 0.317183 0.035353
0.598801 0.318874 0.037044
0.650920 0.320549 0.038720
0.702612 0.322212 0.040382
0.753916 0.323861 0.042032
0.804865 0.325499 0.043670
0.021890 0.357514 0.021890
0.021890 0.357514 0.021890
0.029040 0.357744 0.022120
0.098079 0.359964 0.024340
0.160137 0.361960 0.026335
0.219424 0.363866 0.028242
0.276955 0.365716 0.030092
0.333205 0.367524 0.031900
0.388450 0.369301 0.033677
0.442871 0.371051 0.035426
0.496596 0.372778 0.037154
0.549718 0.374486 0.038862
0.602310 0.376177 0.040553
0.654429 0.377853 0.042229
0.706121 0.379515 0.043891
0.757425 0.381165 0.045541
0.808374 0.382803 0.047179
0.025343 0.413910 0.025343
0.025343 0.413910 0.025343
0.032493 0.414140 0.025573
0.101532 0.416360 0.027793
0.163590 0.418355 0.029788
0.222877 0.420261 0.031695
0.280408 0.422111 0.033545
0.336658 0.423920 0.035353
0.391903 0.425696 0.037130
0.446325 0.427446 0.038879
0.500049 0.429173 0.040607
0.553171 0.430882 0.042315
0.605763 0.432573 0.044006
0.657882 0.434248 0.045682
0.709574 0.435911 0.047344
0.760878 0.437560 0.048994
0.811827 0.439198 0.050632
0.028750 0.469544 0.028750
0.028750 0.469544 0.028750
0.035900 0.469774 0.028980
0.104938 0.471994 0.031199
0.166996 0.473990 0.033195
0.226284 0.475896 0.035101
0.283815 0.477746 0.036951
0.340064 0.479554 0.038760
0.395310 0.481331 0.040536
0.449731 0.483081 0.042286
0.503456 0.484808 0.044013
0.556578 0.486516 0.045721
0.609169 0.488207 0.047412
0.661288 0.489883 0.049088
0.712980 0.491545 0.050750
0.764284 0.493195 0.052400
0.815233 0.494833 0.054038
0.032116 0.524526 0.032116
0.032116 0.524526 0.032116
0.039266 0.524756 0.032346
0.108305 0.526975 0.034566
0.170362 0.528971 0.036561
0.229650 0.530877 0.038468
0.287181 0.532727 0.040317
0.343431 0.534536 0.042126
0.398676 0.536312 0.043902
0.453097 0.538062 0.045652
0.506822 0.539789 0.047380
0.559944 0.541498 0.049088
0.612536 0.543189 0.050779
0.664654 0.544864 0.052455
0.716347 0.546526 0.054117
0.767651 0.548176 0.055766
0.818599 0.549814 0.057405
0.035447 0.578936 0.035447
0.035447 0.578936 0.035447
0.042598 0.579165 0.035677
0.111636 0.581385 0.037897
0.173694 0.583381 0.039893
0.232982 0.585287 0.041799
0.290513 0.587137 0.043649
0.346762 0.588946 0.045458
0.402007 0.590722 0.047234
0.456429 0.592472 0.048984
0.510154 0.594199 0.050711
0.563276 0.595907 0.052419
0.615867 0.597598 0.054110
0.667986 0.599274 0.055786
0.719678 0.600936 0.057448
0.770982 0.602586 0.059098
0.821931 0.604224 0.060736
0.038748 0.632838 0.038748
0.038748 0.632838 0.038748
0.045898 0.633068 0.038978
0.114937 0.635288 0.041198
0.176994 0.637283 0.043193
0.236282 0.639189 0.045099
0.293813 0.641039 0.046949
0.350063 0.642848 0.048758
0.405308 0.644624 0.050534
0.459729 0.646374 0.052284
0.513454 0.648102 0.054012
0.566576 0.649810 0.055720
0.619168 0.651501 0.057411
0.671286 0.653177 0.059087
0.722979 0.654839 0.060749
0.774283 0.656488 0.062398
0.825231 0.658127 0.064036
0.042020 0.686284 0.042020
0.042020 0.686284 0.042020
0.049170 0.686514 0.042250
0.118209 0.688734 0.044470
0.180267 0.690730 0.046466
0.239555 0.692636 0.048372
0.297085 0.694486 0.050222
0.353335 0.696294 0.052030
0.408580 0.698071 0.053807
0.463002 0.699821 0.055557
0.516726 0.701548 0.057284
0.569848 0.703256 0.058992
0.622440 0.704947 0.060683
0.674559 0.706623 0.062359
0.726251 0.708285 0.064021
0.777555 0.709935 0.065671
0.828504 0.711573 0.067309
0.045267 0.739318 0.045267
0.045267 0.739318 0.045267
0.052418 0.739547 0.045497
0.121456 0.741767 0.047717
0.183514 0.743763 0.049713
0.242802 0.745669 0.051619
0.300333 0.747519 0.053469
0.356582 0.749328 0.055277
0.411827 0.751104 0.057054
0.466249 0.752854 0.058804
0.519974 0.754581 0.060531
0.573096 0.756289 0.062239
0.625687 0.757980 0.063930
0.677806 0.759656 0.065606
0.729498 0.761318 0.067268
0.780802 0.762968 0.068918
0.831751 0.764606 0.070556
0.048491 0.791972 0.048491
0.048491 0.791972 0.048491
0.055642 0.792202 0.048721
0.124680 0.794422 0.050941
0.186738 0.796418 0.052937
0.246026 0.798324 0.054843
0.303557 0.800174 0.056693
0.359806 0.801982 0.058501
0.415051 0.803759 0.060278
0.469473 0.805509 0.062028
0.523198 0.807236 0.063755
0.576320 0.808944 0.065463
0.628911 0.810635 0.067154
0.681030 0.812311 0.068830
0.732722 0.813973 0.070492
0.784026 0.815623 0.072142
0.834975 0.817261 0.073780
0.051694 0.844279 0.051694
0.051694 0.844279 0.051694
0.058844 0.844509 0.051924
0.127883 0.846729 0.054144
0.189941 0.848725 0.056139
0.249228 0.850631 0.058046
0.306759 0.852481 0.059896
0.363009 0.854289 0.061704
0.418254 0.856066 0.063481
0.472675 0.857816 0.065230
0.526400 0.859543 0.066958
0.579522 0.861251 0.068666
0.632114 0.862942 0.070357
0.684233 0.864618 0.072033
0.735925 0.866280 0.073695
0.787229 0.867930 0.075345
0.838178 0.869568 0.076983
0.001131 0.001131 0.090422
0.001131 0.001131 0.090422
0.008281 0.001361 0.090652
0.077320 0.003581 0.092872
0.139377 0.005576 0.094868
0.198665 0.007483 0.096774
0.256196 0.009332 0.098624
0.312446 0.011141 0.100432
0.367691 0.012917 0.102209
0.422112 0.014667 0.103959
0.475837 0.016395 0.105686
0.528959 0.018103 0.107394
0.581551 0.019794 0.109085
0.633669 0.021470 0.110761
0.685362 0.023132 0.112423
0.736666 0.024781 0.114073
0.787614 0.026420 0.115711
0.001131 0.001131 0.090422
0.001131 0.001131 0.090422
0.008281 0.001361 0.090652
0.077320 0.003581 0.092872
0.139377 0.005576 0.094868
0.198665 0.007483 0.096774
0.256196 0.009332 0.098624
0.312446 0.011141 0.100432
0.367691 0.012917 0.102209
0.422112 0.014667 0.103959
0.475837 0.016395 0.105686
0.528959 0.018103 0.107394
0.581551 0.019794 0.109085
0.633669 0.021470 0.110761
0.685362 0.023132 0.112423
0.736666 0.024781 0.114073
0.787614 0.026420 0.115711
0.004458 0.055463 0.093749
0.004458 0.055463 0.093749
0.011608 0.055693 0.093979
0.080646 0.057913 0.096199
0.142704 0.059908 0.098194
0.201992 0.061814 0.100101
0.259523 0.063664 0.101950
0.315772 0.065473 0.103759
0.371018 0.067249 0.105535
0.425439 0.068999 0.107285
0.479164 0.070727 0.109013
0.532286 0.072435 0.110721
0.584877 0.074126 0.112412
0.636996 0.075801 0.114088
0.688688 0.077464 0.115750
0.739993 0.079113 0.117399
0.790941 0.080751 0.119038
0.008473 0.121045 0.097764
0.008473 0.121045 0.097764
0.015623 0.121275 0.097994
0.084662 0.123494 0.100214
0.146720 0.125490 0.102210
0.206007 0.127396 0.104116
0.263538 0.129246 0.105966
0.319788 0.131055 0.107775
0.375033 0.132831 0.109551
0.429455 0.134581 0.111301
0.483179 0.136308 0.113028
0.536301 0.138016 0.114736
0.588893 0.139707 0.116427
0.641012 0.141383 0.118103
0.692704 0.143045 0.119765
0.744008 0.144695 0.121415
0.794957 0.146333 0.123053
0.012268 0.183023 0.101559
0.012268 0.183023 0.101559
0.019418 0.183253 0.101789
0.088457 0.185473 0.104009
0.150514 0.187469 0.106005
0.209802 0.189375 0.107911
0.267333 0.191225 0.109761
0.323583 0.193033 0.111569
0.378828 0.194810 0.113346
0.433249 0.196560 0.115096
0.486974 0.198287 0.116823
0.540096 0.199995 0.118531
0.592688 0.201686 0.120222
0.644807 0.203362 0.121898
0.696499 0.205024 0.123560
0.747803 0.206674 0.125210
0.798751 0.208312 0.126848
0.015935 0.242915 0.105226
0.015935 0.242915 0.105226
0.023085 0.243145 0.105456
0.092124 0.245365 0.107676
0.154182 0.247360 0.109672
0.213469 0.249266 0.111578
0.271000 0.251116 0.113428
0.327250 0.252925 0.115236
0.382495 0.254701 0.117013
0.436916 0.256451 0.118763
0.490641 0.258179 0.120490
0.543763 0.259887 0.122198
0.596355 0.261578 0.123889
0.648474 0.263253 0.125565
0.700166 0.264916 0.127227
0.751470 0.266565 0.128877
0.802419 0.268203 0.130515
0.019513 0.301342 0.108804
0.019513 0.301342 0.108804
0.026663 0.301572 0.109034
0.095701 0.303792 0.111254
0.157759 0.305787 0.113249
0.217047 0.307693 0.115155
0.274578 0.309543 0.117005
0.330827 0.311352 0.118814
0.386072 0.313128 0.120590
0.440494 0.314878 0.122340
0.494219 0.316606 0.124068
0.547341 0.318314 0.125776
0.599932 0.320005 0.127467
0.652051 0.321680 0.129143
0.703743 0.323343 0.130805
0.755047 0.324992 0.132454
0.805996 0.326630 0.134092
0.023021 0.358646 0.112312
0.023021 0.358646 0.112312
0.030171 0.358875 0.112542
0.099210 0.361095 0.114762
0.161268 0.363091 0.116758
0.220555 0.364997 0.118664
0.278086 0.366847 0.120514
0.334336 0.368656 0.122323
0.389581 0.370432 0.124099
0.444003 0.372182 0.125849
0.497727 0.373909 0.127576
0.550849 0.375617 0.129284
0.603441 0.377308 0.130975
0.655560 0.378984 0.132651
0.707252 0.380646 0.134313
0.758556 0.382296 0.135963
0.809505 0.383934 0.137601
0.026474 0.415041 0.115766
0.026474 0.415041 0.115766
0.033624 0.415271 0.115995
0.102663 0.417491 0.118215
0.164721 0.419486 0.120211
0.224008 0.421392 0.122117
0.281539 0.423242 0.123967
0.337789 0.425051 0.125776
0.393034 0.426827 0.127552
0.447456 0.428577 0.129302
0.501180 0.430304 0.131029
0.554302 0.432013 0.132737
0.606894 0.433704 0.134428
0.659013 0.435379 0.136104
0.710705 0.437042 0.137766
0.762009 0.438691 0.139416
0.812958 0.440329 0.141054
0.029881 0.470675 0.119172
0.029881 0.470675 0.119172
0.037031 0.470905 0.119402
0.106069 0.473125 0.121622
0.168127 0.475121 0.123617
0.227415 0.477027 0.125523
0.284946 0.478877 0.127373
0.341195 0.480685 0.129182
0.396441 0.482462 0.130958
0.450862 0.484212 0.132708
0.504587 0.485939 0.134436
0.557709 0.487647 0.136144
0.610300 0.489338 0.137835
0.662419 0.491014 0.139511
0.714111 0.492676 0.141173
0.765416 0.494326 0.142822
0.816364 0.495964 0.144461
0.033247 0.525657 0.122538
0.033247 0.525657 0.122538
0.040397 0.525887 0.122768
0.109436 0.528107 0.124988
0.171493 0.530102 0.126984
0.230781 0.532008 0.128890
0.288312 0.533858 0.130740
0.344562 0.535667 0.132548
0.399807 0.537443 0.134325
0.454228 0.539193 0.136075
0.507953 0.540920 0.137802
0.561075 0.542629 0.139510
0.613667 0.544320 0.141201
0.665786 0.545995 0.142877
0.717478 0.547657 0.144539
0.768782 0.549307 0.146189
0.819730 0.550945 0.147827
0.036579 0.580067 0.125870
0.036579 0.580067 0.125870
0.043729 0.580296 0.126100
0.112767 0.582516 0.128320
0.174825 0.584512 0.130315
0.234113 0.586418 0.132221
0.291644 0.588268 0.134071
0.347893 0.590077 0.135880
0.403138 0.591853 0.137656
0.457560 0.593603 0.139406
0.511285 0.595330 0.141134
0.564407 0.597038 0.142842
0.616998 0.598729 0.144533
0.669117 0.600405 0.146208
0.720809 0.602067 0.147871
0.772113 0.603717 0.149520
0.823062 0.605355 0.151158
0.039879 0.633969 0.129170
0.039879 0.633969 0.129170
0.047029 0.634199 0.129400
0.116068 0.636419 0.131620
0.178125 0.638414 0.133615
0.237413 0.640320 0.135522
0.294944 0.642170 0.137372
0.351194 0.643979 0.139180
0.406439 0.645755 0.140957
0.460860 0.647505 0.142706
0.514585 0.649233 0.144434
0.567707 0.650941 0.146142
0.620299 0.652632 0.147833
0.672417 0.654308 0.149509
0.724110 0.655970 0.151171
0.775414 0.657619 0.152821
0.826362 0.659258 0.154459
0.043151 0.687416 0.132443
0.043151 0.687416 0.132443
0.050301 0.687645 0.132673
0.119340 0.689865 0.134892
0.181398 0.691861 0.136888
0.240686 0.693767 0.138794
0.298216 0.695617 0.140644
0.354466 0.697426 0.142453
0.409711 0.699202 0.144229
0.464133 0.700952 0.145979
0.517857 0.702679 0.147706
0.570979 0.704387 0.149414
0.623571 0.706078 0.151105
0.675690 0.707754 0.152781
0.727382 0.709416 0.154443
0.778686 0.711066 0.156093
0.829635 0.712704 0.157731
0.046399 0.740449 0.135690
0.046399 0.740449 0.135690
0.053549 0.740678 0.135920
0.122587 0.742898 0.138140
0.184645 0.744894 0.140135
0.243933 0.746800 0.142041
0.301464 0.748650 0.143891
0.357713 0.750459 0.145700
0.412958 0.752235 0.147476
0.467380 0.753985 0.149226
0.521105 0.755712 0.150954
0.574227 0.757420 0.152662
0.626818 0.759111 0.154353
0.678937 0.760787 0.156028
0.730629 0.762449 0.157691
0.781933 0.764099 0.159340
0.832882 0.765737 0.160978
0.049623 0.793103 0.138914
0.049623 0.793103 0.138914
0.056773 0.793333 0.139144
0.125811 0.795553 0.141364
0.187869 0.797549 0.143359
0.247157 0.799455 0.145265
0.304688 0.801305 0.147115
0.360937 0.803114 0.148924
0.416182 0.804890 0.150700
0.470604 0.806640 0.152450
0.524329 0.808367 0.154178
0.577451 0.810075 0.155886
0.630042 0.811766 0.157577
0.682161 0.813442 0.159252
0.733853 0.815104 0.160915
0.785157 0.816754 0.162564
0.836106 0.818392 0.164202
0.052825 0.845410 0.142117
0.052825 0.845410 0.142117
0.059975 0.845640 0.142346
0.129014 0.847860 0.144566
0.191072 0.849856 0.146562
0.250359 0.851762 0.148468
0.307890 0.853612 0.150318
0.364140 0.855420 0.152127
0.419385 0.857197 0.153903
0.473807 0.858947 0.155653
0.527531 0.860674 0.157380
0.580653 0.862382 0.159088
0.633245 0.864073 0.160779
0.685364 0.865749 0.162455
0.737056 0.867411 0.164117
0.788360 0.869061 0.165767
0.839309 0.870699 0.167405
0.002015 0.002015 0.161114
0.002015 0.002015 0.161114
0.009165 0.002245 0.161344
0.078204 0.004465 0.163564
0.140262 0.006460 0.165559
0.199549 0.008367 0.167466
0.257080 0.010217 0.169316
0.313330 0.012025 0.171124
0.368575 0.013802 0.172901
0.422997 0.015551 0.174651
0.476721 0.017279 0.176378
0.529843 0.018987 0.178086
0.582435 0.020678 0.179777
0.634554 0.022354 0.181453
0.686246 0.024016 0.183115
0.737550 0.025666 0.184765
0.788499 0.027304 0.186403
0.002015 0.002015 0.161114
0.002015 0.002015 0.161114
0.009165 0.002245 0.161344
0.078204 0.004465 0.163564
0.140262 0.006460 0.165559
0.199549 0.008367 0.167466
0.257080 0.010217 0.169316
0.313330 0.012025 0.171124
0.368575 0.013802 0.172901
0.422997 0.015551 0.174651
0.476721 0.017279 0.176378
0.529843 0.018987 0.178086
0.582435 0.020678 0.179777
0.634554 0.022354 0.181453
0.686246 0.024016 0.183115
0.737550 0.025666 0.184765
0.788499 0.027304 0.186403
0.005342 0.056347 0.164441
0.005342 0.056347 0.164441
0.012492 0.056577 0.164671
0.081531 0.058797 0.166891
0.143588 0.060792 0.168886
0.202876 0.062699 0.170792
0.260407 0.064548 0.172642
0.316657 0.066357 0.174451
0.371902 0.068133 0.176227
0.426323 0.069883 0.177977
0.480048 0.071611 0.179705
0.533170 0.073319 0.181413
0.585762 0.075010 0.183104
0.637880 0.076686 0.184780
0.689573 0.078348 0.186442
0.740877 0.079997 0.188091
0.791825 0.081636 0.189730
0.009357 0.121929 0.168456
0.009357 0.121929 0.168456
0.016508 0.122159 0.168686
0.085546 0.124379 0.170906
0.147604 0.126374 0.172902
0.206892 0.128280 0.174808
0.264422 0.130130 0.176658
0.320672 0.131939 0.178466
0.375917 0.133715 0.180243
0.430339 0.135465 0.181993
0.484063 0.137193 0.183720
0.537185 0.138901 0.185428
0.589777 0.140592 0.187119
0.641896 0.142268 0.188795
0.693588 0.143930 0.190457
0.744892 0.145579 0.192107
0.795841 0.147217 0.193745
0.013152 0.183908 0.172251
0.013152 0.183908 0.172251
0.020302 0.184138 0.172481
0.089341 0.186357 0.174701
0.151399 0.188353 0.176696
0.210687 0.190259 0.178603
0.268217 0.192109 0.180453
0.324467 0.193918 0.182261
0.379712 0.195694 0.184038
0.434134 0.197444 0.185788
0.487858 0.199171 0.187515
0.540980 0.200879 0.189223
0.593572 0.202570 0.190914
0.645691 0.204246 0.192590
0.697383 0.205908 0.194252
0.748687 0.207558 0.195902
0.799636 0.209196 0.197540
0.016819 0.243799 0.175918
0.016819 0.243799 0.175918
0.023970 0.244029 0.176148
0.093008 0.246249 0.178368
0.155066 0.248244 0.180364
0.214354 0.250151 0.182270
0.271884 0.252000 0.184120
0.328134 0.253809 0.185928
0.383379 0.255585 0.187705
0.437801 0.257335 0.189455
0.491525 0.259063 0.191182
0.544647 0.260771 0.192890
0.597239 0.262462 0.194581
0.649358 0.264138 0.196257
0.701050 0.265800 0.197919
0.752354 0.267449 0.199569
0.803303 0.269088 0.201207
0.020397 0.302226 0.179496
0.020397 0.302226 0.179496
0.027547 0.302456 0.179726
0.096585 0.304676 0.181946
0.158643 0.306671 0.183941
0.217931 0.308578 0.185847
0.275462 0.310427 0.187697
0.331711 0.312236 0.189506
0.386957 0.314012 0.191282
0.441378 0.315762 0.193032
0.495103 0.317490 0.194760
0.548225 0.319198 0.196468
0.600817 0.320889 0.198159
0.652935 0.322565 0.199834
0.704627 0.324227 0.201497
0.755932 0.325876 0.203146
0.806880 0.327515 0.204784
0.023905 0.359530 0.183004
0.023905 0.359530 0.183004
0.031056 0.359760 0.183234
0.100094 0.361980 0.185454
0.162152 0.363975 0.187450
0.221440 0.365881 0.189356
0.278970 0.367731 0.191206
0.335220 0.369540 0.193014
0.390465 0.371316 0.194791
0.444887 0.373066 0.196541
0.498611 0.374793 0.198268
0.551733 0.376502 0.199976
0.604325 0.378193 0.201667
0.656444 0.379868 0.203343
0.708136 0.381530 0.205005
0.759440 0.383180 0.206655
0.810389 0.384818 0.208293
0.027358 0.415925 0.186457
0.027358 0.415925 0.186457
0.034509 0.416155 0.186687
0.103547 0.418375 0.188907
0.165605 0.420370 0.190903
0.224893 0.422277 0.192809
0.282423 0.424126 0.194659
0.338673 0.425935 0.196467
0.393918 0.427711 0.198244
0.448340 0.429461 0.199994
0.502064 0.431189 0.201721
0.555186 0.432897 0.203429
0.607778 0.434588 0.205120
0.659897 0.436264 0.206796
0.711589 0.437926 0.208458
0.762893 0.439575 0.210108
0.813842 0.441214 0.211746
0.030765 0.471560 0.189864
0.030765 0.471560 0.189864
0.037915 0.471790 0.190094
0.106954 0.474009 0.192314
0.169011 0.476005 0.194309
0.228299 0.477911 0.196215
0.285830 0.479761 0.198065
0.342080 0.481570 0.199874
0.397325 0.483346 0.201650
0.451746 0.485096 0.203400
0.505471 0.486823 0.205128
0.558593 0.488531 0.206836
0.611185 0.490222 0.208527
0.663303 0.491898 0.210203
0.714996 0.493560 0.211865
0.766300 0.495210 0.213514
0.817248 0.496848 0.215152
0.034131 0.526541 0.193230
0.034131 0.526541 0.193230
0.041281 0.526771 0.193460
0.110320 0.528991 0.195680
0.172378 0.530986 0.197676
0.231666 0.532892 0.199582
0.289196 0.534742 0.201432
0.345446 0.536551 0.203240
0.400691 0.538327 0.205017
0.455113 0.540077 0.206767
0.508837 0.541805 0.208494
0.561959 0.543513 0.210202
0.614551 0.545204 0.211893
0.666670 0.546880 0.213569
0.718362 0.548542 0.215231
0.769666 0.550191 0.216881
0.820615 0.551830 0.218519
0.037463 0.580951 0.196562
0.037463 0.580951 0.196562
0.044613 0.581181 0.196792
0.113651 0.583401 0.199012
0.175709 0.585396 0.201007
0.234997 0.587302 0.202913
0.292528 0.589152 0.204763
0.348777 0.590961 0.206572
0.404023 0.592737 0.208348
0.458444 0.594487 0.210098
0.512169 0.596215 0.211825
0.565291 0.597923 0.213534
0.617882 0.599614 0.215225
0.670001 0.601289 0.216900
0.721693 0.602952 0.218563
0.772998 0.604601 0.220212
0.823946 0.606239 0.221850
0.040763 0.634853 0.199862
0.040763 0.634853 0.199862
0.047913 0.635083 0.200092
0.116952 0.637303 0.202312
0.179010 0.639298 0.204307
0.238297 0.641205 0.206214
0.295828 0.643055 0.208064
0.352078 0.644863 0.209872
0.407323 0.646640 0.211649
0.461744 0.648389 0.213398
0.515469 0.650117 0.215126
0.568591 0.651825 0.216834
0.621183 0.653516 0.218525
0.673302 0.655192 0.220201
0.724994 0.656854 0.221863
0.776298 0.658504 0.223513
0.827247 0.660142 0.225151
0.044036 0.688300 0.203135
0.044036 0.688300 0.203135
0.051186 0.688530 0.203365
0.120224 0.690750 0.205584
0.182282 0.692745 0.207580
0.241570 0.694651 0.209486
0.299101 0.696501 0.211336
0.355350 0.698310 0.213145
0.410595 0.700086 0.214921
0.465017 0.701836 0.216671
0.518742 0.703563 0.218398
0.571864 0.705272 0.220106
0.624455 0.706963 0.221797
0.676574 0.708638 0.223473
0.728266 0.710300 0.225135
0.779570 0.711950 0.226785
0.830519 0.713588 0.228423
0.047283 0.741333 0.206382
0.047283 0.741333 0.206382
0.054433 0.741563 0.206612
0.123471 0.743783 0.208832
0.185529 0.745778 0.210827
0.244817 0.747684 0.212733
0.302348 0.749534 0.214583
0.358597 0.751343 0.216392
0.413843 0.753119 0.218168
0.468264 0.754869 0.219918
0.521989 0.756596 0.221645
0.575111 0.758305 0.223354
0.627702 0.759996 0.225045
0.679821 0.761671 0.226720
0.731513 0.763334 0.228383
0.782818 0.764983 0.230032
0.833766 0.766621 0.231670
0.050507 0.793988 0.209606
0.050507 0.793988 0.209606
0.057657 0.794218 0.209836
0.126695 0.796437 0.212056
0.188753 0.798433 0.214051
0.248041 0.800339 0.215957
0.305572 0.802189 0.217807
0.361821 0.803998 0.219616
0.417067 0.805774 0.221392
0.471488 0.807524 0.223142
0.525213 0.809251 0.224869
0.578335 0.810960 0.226578
0.630926 0.812651 0.228269
0.683045 0.814326 0.229944
0.734737 0.815988 0.231607
0.786042 0.817638 0.233256
0.836990 0.819276 0.234894
0.053709 0.846295 0.212808
0.053709 0.846295 0.212808
0.060860 0.846525 0.213038
0.129898 0.848744 0.215258
0.191956 0.850740 0.217254
0.251244 0.852646 0.219160
0.308774 0.854496 0.221010
0.365024 0.856305 0.222818
0.420269 0.858081 0.224595
0.474691 0.859831 0.226345
0.528415 0.861558 0.228072
0.581537 0.863266 0.229780
0.634129 0.864957 0.231471
0.686248 0.866633 0.233147
0.737940 0.868295 0.234809
0.789244 0.869945 0.236459
0.840193 0.871583 0.238097
0.002825 0.002825 0.225879
0.002825 0.002825 0.225879
0.009975 0.003055 0.226109
0.079014 0.005275 0.228329
0.141072 0.007271 0.230325
0.200360 0.009177 0.232231
0.257890 0.011027 0.234081
0.314140 0.012835 0.235889
0.369385 0.014612 0.237666
0.423807 0.016362 0.239416
0.477531 0.018089 0.241143
0.530653 0.019797 0.242851
0.583245 0.021488 0.244542
0.635364 0.023164 0.246218
0.687056 0.024826 0.247880
0.738360 0.026476 0.249530
0.789309 0.028114 0.251168
0.002825 0.002825 0.225879
