ApexStudio/app/src/main/assets/luts/midnight_dark.cube
# ApexStudio filter: midnight_dark
LUT_3D_SIZE 5
DOMAIN_MIN 0.0 0.0 0.0
DOMAIN_MAX 1.0 1.0 1.0
0.000000 0.000000 0.000000
0.138246 0.004445 0.004445
0.366560 0.011786 0.011786
0.580420 0.018663 0.018663
0.786483 0.025289 0.025289
0.011137 0.181892 0.011137
0.149383 0.186338 0.015582
0.377697 0.193679 0.022923
0.591557 0.200555 0.029800
0.797620 0.207181 0.036426
0.025343 0.413910 0.025343
0.163590 0.418355 0.029788
0.391903 0.425696 0.037130
0.605763 0.432573 0.044006
0.811827 0.439198 0.050632
0.038748 0.632838 0.038748
0.176994 0.637283 0.043193
0.405308 0.644624 0.050534
0.619168 0.651501 0.057411
0.825231 0.658127 0.064036
0.051694 0.844279 0.051694
0.189941 0.848725 0.056139
0.418254 0.856066 0.063481
0.632114 0.862942 0.070357
0.838178 0.869568 0.076983
0.003591 0.003591 0.287073
0.141837 0.008036 0.291518
0.370151 0.015377 0.298859
0.584011 0.022254 0.305736
0.790074 0.028879 0.312362
0.014728 0.185483 0.298210
0.152974 0.189928 0.302655
0.381288 0.197269 0.309996
0.595148 0.204146 0.316873
0.801211 0.210772 0.323499
0.028934 0.417501 0.312416
0.167180 0.421946 0.316861
0.395494 0.429287 0.324203
0.609354 0.436163 0.331079
0.815417 0.442789 0.337705
0.042339 0.636429 0.325821
0.180585 0.640874 0.330266
0.408899 0.648215 0.337607
0.622758 0.655092 0.344484
0.828822 0.661717 0.351109
0.055285 0.847870 0.338767
0.193531 0.852315 0.343212
0.421845 0.859657 0.350554
0.635705 0.866533 0.357430
0.841768 0.873159 0.364056
0.006398 0.006398 0.511506
0.144644 0.010843 0.515951
0.372958 0.018184 0.523292
0.586818 0.025061 0.530169
0.792881 0.031687 0.536795
0.017535 0.188290 0.522643
0.155781 0.192736 0.527088
0.384095 0.200077 0.534429
0.597955 0.206953 0.541306
0.804018 0.213579 0.547932
0.031741 0.420308 0.536849
0.169988 0.424753 0.541294
0.398301 0.432094 0.548635
0.612161 0.438971 0.555512
0.818225 0.445596 0.562138
0.045146 0.639236 0.550254
0.183392 0.643681 0.554699
0.411706 0.651022 0.562040
0.625566 0.657899 0.568917
0.831629 0.664525 0.575542
0.058092 0.850677 0.563200
0.196339 0.855123 0.567645
0.424652 0.862464 0.574986
0.638512 0.869340 0.581863
0.844576 0.875966 0.588489
0.008970 0.008970 0.717123
0.147216 0.013415 0.721568
0.375530 0.020756 0.728909
0.589390 0.027633 0.735785
0.795453 0.034259 0.742411
0.020107 0.190862 0.728260
0.158353 0.195307 0.732705
0.386667 0.202649 0.740046
0.600527 0.209525 0.746922
0.806590 0.216151 0.753548
0.034313 0.422880 0.742466
0.172560 0.427325 0.746911
0.400873 0.434666 0.754252
0.614733 0.441543 0.761129
0.820797 0.448168 0.767754
0.047718 0.641808 0.755870
0.185964 0.646253 0.760316
0.414278 0.653594 0.767657
0.628138 0.660471 0.774533
0.834201 0.667096 0.781159
0.060664 0.853249 0.768817
0.198910 0.857694 0.773262
0.427224 0.865036 0.780603
0.641084 0.871912 0.787480
0.847147 0.878538 0.794105
0.011400 0.011400 0.911400
0.149646 0.015845 0.915845
0.377960 0.023186 0.923186
0.591820 0.030063 0.930063
0.797883 0.036689 0.936689
0.022537 0.193292 0.922537
0.160783 0.197738 0.926982
0.389097 0.205079 0.934323
0.602957 0.211955 0.941200
0.809020 0.218581 0.947826
0.036743 0.425310 0.936743
0.174990 0.429755 0.941188
0.403303 0.437096 0.948530
0.617163 0.443973 0.955406
0.823227 0.450598 0.962032
0.050148 0.644238 0.950148
0.188394 0.648683 0.954593
0.416708 0.656024 0.961934
0.630568 0.662901 0.968811
0.836631 0.669527 0.975436
0.063094 0.855679 0.963094
0.201341 0.860125 0.967539
0.429654 0.867466 0.974881
0.643514 0.874342 0.981757
0.849578 0.880968 0.988383
