ApexStudio/app/src/main/assets/luts/midnight_dark.cube
# ApexStudio filter: midnight_dark
LUT_3D_SIZE 9
DOMAIN_MIN 0.0 0.0 0.0
DOMAIN_MAX 1.0 1.0 1.0
0.000000 0.000000 0.000000
0.007150 0.000230 0.000230
0.138246 0.004445 0.004445
0.255065 0.008201 0.008201
0.366560 0.011786 0.011786
0.474706 0.015264 0.015264
0.580420 0.018663 0.018663
0.684231 0.022001 0.022001
0.786483 0.025289 0.025289
0.003327 0.054332 0.003327
0.010477 0.054562 0.003557
0.141573 0.058777 0.007772
0.258392 0.062533 0.011528
0.369887 0.066118 0.015113
0.478033 0.069595 0.018590
0.583746 0.072995 0.021989
0.687557 0.076333 0.025327
0.789810 0.079620 0.028615
0.011137 0.181892 0.011137
0.018287 0.182122 0.011367
0.149383 0.186338 0.015582
0.266202 0.190094 0.019338
0.377697 0.193679 0.022923
0.485843 0.197156 0.026401
0.591557 0.200555 0.029800
0.695368 0.203893 0.033138
0.797620 0.207181 0.036426
0.018382 0.300211 0.018382
0.025532 0.300441 0.018611
0.156628 0.304656 0.022827
0.273447 0.308412 0.026583
0.384941 0.311997 0.030168
0.493088 0.315475 0.033645
0.598801 0.318874 0.037044
0.702612 0.322212 0.040382
0.804865 0.325499 0.043670
0.025343 0.413910 0.025343
0.032493 0.414140 0.025573
0.163590 0.418355 0.029788
0.280408 0.422111 0.033545
0.391903 0.425696 0.037130
0.500049 0.429173 0.040607
0.605763 0.432573 0.044006
0.709574 0.435911 0.047344
0.811827 0.439198 0.050632
0.032116 0.524526 0.032116
0.039266 0.524756 0.032346
0.170362 0.528971 0.036561
0.287181 0.532727 0.040317
0.398676 0.536312 0.043902
0.506822 0.539789 0.047380
0.612536 0.543189 0.050779
0.716347 0.546526 0.054117
0.818599 0.549814 0.057405
0.038748 0.632838 0.038748
0.045898 0.633068 0.038978
0.176994 0.637283 0.043193
0.293813 0.641039 0.046949
0.405308 0.644624 0.050534
0.513454 0.648102 0.054012
0.619168 0.651501 0.057411
0.722979 0.654839 0.060749
0.825231 0.658127 0.064036
0.045267 0.739318 0.045267
0.052418 0.739547 0.045497
0.183514 0.743763 0.049713
0.300333 0.747519 0.053469
0.411827 0.751104 0.057054
0.519974 0.754581 0.060531
0.625687 0.757980 0.063930
0.729498 0.761318 0.067268
0.831751 0.764606 0.070556
0.051694 0.844279 0.051694
0.058844 0.844509 0.051924
0.189941 0.848725 0.056139
0.306759 0.852481 0.059896
0.418254 0.856066 0.063481
0.526400 0.859543 0.066958
0.632114 0.862942 0.070357
0.735925 0.866280 0.073695
0.838178 0.869568 0.076983
0.002015 0.002015 0.161114
0.009165 0.002245 0.161344
0.140262 0.006460 0.165559
0.257080 0.010217 0.169316
0.368575 0.013802 0.172901
0.476721 0.017279 0.176378
0.582435 0.020678 0.179777
0.686246 0.024016 0.183115
0.788499 0.027304 0.186403
0.005342 0.056347 0.164441
0.012492 0.056577 0.164671
0.143588 0.060792 0.168886
0.260407 0.064548 0.172642
0.371902 0.068133 0.176227
0.480048 0.071611 0.179705
0.585762 0.075010 0.183104
0.689573 0.078348 0.186442
0.791825 0.081636 0.189730
0.013152 0.183908 0.172251
0.020302 0.184138 0.172481
0.151399 0.188353 0.176696
0.268217 0.192109 0.180453
0.379712 0.195694 0.184038
0.487858 0.199171 0.187515
0.593572 0.202570 0.190914
0.697383 0.205908 0.194252
0.799636 0.209196 0.197540
0.020397 0.302226 0.179496
0.027547 0.302456 0.179726
0.158643 0.306671 0.183941
0.275462 0.310427 0.187697
0.386957 0.314012 0.191282
0.495103 0.317490 0.194760
0.600817 0.320889 0.198159
0.704627 0.324227 0.201497
0.806880 0.327515 0.204784
0.027358 0.415925 0.186457
0.034509 0.416155 0.186687
0.165605 0.420370 0.190903
0.282423 0.424126 0.194659
0.393918 0.427711 0.198244
0.502064 0.431189 0.201721
0.607778 0.434588 0.205120
0.711589 0.437926 0.208458
0.813842 0.441214 0.211746
0.034131 0.526541 0.193230
0.041281 0.526771 0.193460
0.172378 0.530986 0.197676
0.289196 0.534742 0.201432
0.400691 0.538327 0.205017
0.508837 0.541805 0.208494
0.614551 0.545204 0.211893
0.718362 0.548542 0.215231
0.820615 0.551830 0.218519
0.040763 0.634853 0.199862
0.047913 0.635083 0.200092
0.179010 0.639298 0.204307
0.295828 0.643055 0.208064
0.407323 0.646640 0.211649
0.515469 0.650117 0.215126
0.621183 0.653516 0.218525
0.724994 0.656854 0.221863
0.827247 0.660142 0.225151
0.047283 0.741333 0.206382
0.054433 0.741563 0.206612
0.185529 0.745778 0.210827
0.302348 0.749534 0.214583
0.413843 0.753119 0.218168
0.521989 0.756596 0.221645
0.627702 0.759996 0.225045
0.731513 0.763334 0.228383
0.833766 0.766621 0.231670
0.053709 0.846295 0.212808
0.060860 0.846525 0.213038
0.191956 0.850740 0.217254
0.308774 0.854496 0.221010
0.420269 0.858081 0.224595
0.528415 0.861558 0.228072
0.634129 0.864957 0.231471
0.737940 0.868295 0.234809
0.840193 0.871583 0.238097
0.003591 0.003591 0.287073
0.010741 0.003821 0.287303
0.141837 0.008036 0.291518
0.258656 0.011792 0.295274
0.370151 0.015377 0.298859
0.478297 0.018854 0.302337
0.584011 0.022254 0.305736
0.687821 0.025592 0.309074
0.790074 0.028879 0.312362
0.006917 0.057923 0.290400
0.014068 0.058152 0.290630
0.145164 0.062368 0.294845
0.261982 0.066124 0.298601
0.373477 0.069709 0.302186
0.481623 0.073186 0.305663
0.587337 0.076585 0.309062
0.691148 0.079923 0.312400
0.793401 0.083211 0.315688
0.014728 0.185483 0.298210
0.021878 0.185713 0.298440
0.152974 0.189928 0.302655
0.269793 0.193684 0.306411
0.381288 0.197269 0.309996
0.489434 0.200747 0.313474
0.595148 0.204146 0.316873
0.698958 0.207484 0.320211
0.801211 0.210772 0.323499
0.021972 0.303802 0.305455
0.029122 0.304032 0.305684
0.160219 0.308247 0.309900
0.277037 0.312003 0.313656
0.388532 0.315588 0.317241
0.496678 0.319065 0.320718
0.602392 0.322464 0.324117
0.706203 0.325802 0.327455
0.808456 0.329090 0.330743
0.028934 0.417501 0.312416
0.036084 0.417730 0.312646
0.167180 0.421946 0.316861
0.283999 0.425702 0.320618
0.395494 0.429287 0.324203
0.503640 0.432764 0.327680
0.609354 0.436163 0.331079
0.713165 0.439501 0.334417
0.815417 0.442789 0.337705
0.035707 0.528116 0.319189
0.042857 0.528346 0.319419
0.173953 0.532562 0.323634
0.290772 0.536318 0.327390
0.402267 0.539903 0.330975
0.510413 0.543380 0.334453
0.616127 0.546779 0.337852
0.719937 0.550117 0.341190
0.822190 0.553405 0.344478
0.042339 0.636429 0.325821
0.049489 0.636659 0.326051
0.180585 0.640874 0.330266
0.297404 0.644630 0.334022
0.408899 0.648215 0.337607
0.517045 0.651692 0.341085
0.622758 0.655092 0.344484
0.726569 0.658429 0.347822
0.828822 0.661717 0.351109
0.048858 0.742908 0.332340
0.056008 0.743138 0.332570
0.187105 0.747353 0.336786
0.303923 0.751110 0.340542
0.415418 0.754695 0.344127
0.523564 0.758172 0.347604
0.629278 0.761571 0.351003
0.733089 0.764909 0.354341
0.835342 0.768197 0.357629
0.055285 0.847870 0.338767
0.062435 0.848100 0.338997
0.193531 0.852315 0.343212
0.310350 0.856072 0.346969
0.421845 0.859657 0.350554
0.529991 0.863134 0.354031
0.635705 0.866533 0.357430
0.739516 0.869871 0.360768
0.841768 0.873159 0.364056
0.005034 0.005034 0.402471
0.012184 0.005264 0.402701
0.143281 0.009479 0.406917
0.260099 0.013236 0.410673
0.371594 0.016821 0.414258
0.479740 0.020298 0.417735
0.585454 0.023697 0.421134
0.689265 0.027035 0.424472
0.791518 0.030323 0.427760
0.008361 0.059366 0.405798
0.015511 0.059596 0.406028
0.146607 0.063811 0.410243
0.263426 0.067567 0.413999
0.374921 0.071152 0.417584
0.483067 0.074630 0.421062
0.588781 0.078029 0.424461
0.692592 0.081367 0.427799
0.794844 0.084655 0.431087
0.016171 0.186927 0.413608
0.023321 0.187156 0.413838
0.154418 0.191372 0.418054
0.271236 0.195128 0.421810
0.382731 0.198713 0.425395
0.490877 0.202190 0.428872
0.596591 0.205589 0.432271
0.700402 0.208927 0.435609
0.802655 0.212215 0.438897
0.023416 0.305245 0.420853
0.030566 0.305475 0.421083
0.161662 0.309690 0.425298
0.278481 0.313446 0.429054
0.389976 0.317031 0.432639
0.498122 0.320509 0.436117
0.603835 0.323908 0.439516
0.707646 0.327246 0.442854
0.809899 0.330534 0.446142
0.030377 0.418944 0.427815
0.037528 0.419174 0.428045
0.168624 0.423389 0.432260
0.285442 0.427145 0.436016
0.396937 0.430730 0.439601
0.505083 0.434208 0.443078
0.610797 0.437607 0.446477
0.714608 0.440945 0.449815
0.816861 0.444233 0.453103
0.037150 0.529560 0.434588
0.044300 0.529790 0.434817
0.175397 0.534005 0.439033
0.292215 0.537761 0.442789
0.403710 0.541346 0.446374
0.511856 0.544824 0.449851
0.617570 0.548223 0.453250
0.721381 0.551561 0.456588
0.823634 0.554849 0.459876
0.043782 0.637872 0.441219
0.050932 0.638102 0.441449
0.182028 0.642317 0.445665
0.298847 0.646074 0.449421
0.410342 0.649659 0.453006
0.518488 0.653136 0.456483
0.624202 0.656535 0.459882
0.728013 0.659873 0.463220
0.830265 0.663161 0.466508
0.050302 0.744352 0.447739
0.057452 0.744582 0.447969
0.188548 0.748797 0.452184
0.305367 0.752553 0.455940
0.416862 0.756138 0.459525
0.525008 0.759615 0.463003
0.630721 0.763015 0.466402
0.734532 0.766352 0.469740
0.836785 0.769640 0.473028
0.056728 0.849314 0.454166
0.063879 0.849543 0.454396
0.194975 0.853759 0.458611
0.311793 0.857515 0.462367
0.423288 0.861100 0.465952
0.531434 0.864577 0.469429
0.637148 0.867976 0.472828
0.740959 0.871314 0.476166
0.843212 0.874602 0.479454
0.006398 0.006398 0.511506
0.013548 0.006628 0.511736
0.144644 0.010843 0.515951
0.261463 0.014599 0.519707
0.372958 0.018184 0.523292
0.481104 0.021662 0.526770
0.586818 0.025061 0.530169
0.690629 0.028399 0.533507
0.792881 0.031687 0.536795
0.009725 0.060730 0.514833
0.016875 0.060960 0.515063
0.147971 0.065175 0.519278
0.264790 0.068931 0.523034
0.376285 0.072516 0.526619
0.484431 0.075994 0.530096
0.590144 0.079393 0.533495
0.693955 0.082731 0.536833
0.796208 0.086018 0.540121
0.017535 0.188290 0.522643
0.024685 0.188520 0.522873
0.155781 0.192736 0.527088
0.272600 0.196492 0.530844
0.384095 0.200077 0.534429
0.492241 0.203554 0.537907
0.597955 0.206953 0.541306
0.701766 0.210291 0.544644
0.804018 0.213579 0.547932
0.024780 0.306609 0.529887
0.031930 0.306839 0.530117
0.163026 0.311054 0.534333
0.279845 0.314810 0.538089
0.391339 0.318395 0.541674
0.499486 0.321873 0.545151
0.605199 0.325272 0.548550
0.709010 0.328610 0.551888
0.811263 0.331897 0.555176
0.031741 0.420308 0.536849
0.038891 0.420538 0.537079
0.169988 0.424753 0.541294
0.286806 0.428509 0.545050
0.398301 0.432094 0.548635
0.506447 0.435572 0.552113
0.612161 0.438971 0.555512
0.715972 0.442309 0.558850
0.818225 0.445596 0.562138
0.038514 0.530924 0.543622
0.045664 0.531154 0.543852
0.176760 0.535369 0.548067
0.293579 0.539125 0.551823
0.405074 0.542710 0.555408
0.513220 0.546187 0.558886
0.618934 0.549587 0.562285
0.722745 0.552925 0.565623
0.824997 0.556212 0.568911
0.045146 0.639236 0.550254
0.052296 0.639466 0.550484
0.183392 0.643681 0.554699
0.300211 0.647437 0.558455
0.411706 0.651022 0.562040
0.519852 0.654500 0.565518
0.625566 0.657899 0.568917
0.729377 0.661237 0.572255
0.831629 0.664525 0.575542
0.051666 0.745716 0.556773
0.058816 0.745945 0.557003
0.189912 0.750161 0.561219
0.306731 0.753917 0.564975
0.418225 0.757502 0.568560
0.526372 0.760979 0.572037
0.632085 0.764378 0.575436
0.735896 0.767716 0.578774
0.838149 0.771004 0.582062
0.058092 0.850677 0.563200
0.065242 0.850907 0.563430
0.196339 0.855123 0.567645
0.313157 0.858879 0.571401
0.424652 0.862464 0.574986
0.532798 0.865941 0.578464
0.638512 0.869340 0.581863
0.742323 0.872678 0.585201
0.844576 0.875966 0.588489
0.007706 0.007706 0.616040
0.014856 0.007935 0.616270
0.145952 0.012151 0.620485
0.262771 0.015907 0.624242
0.374265 0.019492 0.627827
0.482412 0.022969 0.631304
0.588125 0.026368 0.634703
0.691936 0.029706 0.638041
0.794189 0.032994 0.641329
0.011032 0.062037 0.619367
0.018182 0.062267 0.619597
0.149279 0.066483 0.623812
0.266097 0.070239 0.627568
0.377592 0.073824 0.631153
0.485738 0.077301 0.634631
0.591452 0.080700 0.638030
0.695263 0.084038 0.641368
0.797516 0.087326 0.644655
0.018843 0.189598 0.627177
0.025993 0.189828 0.627407
0.157089 0.194043 0.631622
0.273908 0.197799 0.635379
0.385403 0.201384 0.638964
0.493549 0.204862 0.642441
0.599262 0.208261 0.645840
0.703073 0.211599 0.649178
0.805326 0.214887 0.652466
0.026087 0.307916 0.634422
0.033237 0.308146 0.634652
0.164333 0.312362 0.638867
0.281152 0.316118 0.642623
0.392647 0.319703 0.646208
0.500793 0.323180 0.649685
0.606507 0.326579 0.653085
0.710318 0.329917 0.656422
0.812570 0.333205 0.659710
0.033049 0.421615 0.641383
0.040199 0.421845 0.641613
0.171295 0.426061 0.645829
0.288114 0.429817 0.649585
0.399609 0.433402 0.653170
0.507755 0.436879 0.656647
0.613468 0.440278 0.660046
0.717279 0.443616 0.663384
0.819532 0.446904 0.666672
0.039822 0.532231 0.648156
0.046972 0.532461 0.648386
0.178068 0.536676 0.652601
0.294887 0.540433 0.656358
0.406382 0.544018 0.659943
0.514528 0.547495 0.663420
0.620241 0.550894 0.666819
0.724052 0.554232 0.670157
0.826305 0.557520 0.673445
0.046453 0.640544 0.654788
0.053604 0.640773 0.655018
0.184700 0.644989 0.659233
0.301518 0.648745 0.662989
0.413013 0.652330 0.666574
0.521159 0.655807 0.670052
0.626873 0.659206 0.673451
0.730684 0.662544 0.676789
0.832937 0.665832 0.680077
0.052973 0.747023 0.661308
0.060123 0.747253 0.661538
0.191219 0.751468 0.665753
0.308038 0.755224 0.669509
0.419533 0.758809 0.673094
0.527679 0.762287 0.676571
0.633393 0.765686 0.679970
0.737204 0.769024 0.683308
0.839456 0.772312 0.686596
0.059400 0.851985 0.667734
0.066550 0.852215 0.667964
0.197646 0.856430 0.672180
0.314465 0.860186 0.675936
0.425960 0.863771 0.679521
0.534106 0.867249 0.682998
0.639819 0.870648 0.686397
0.743630 0.873986 0.689735
0.845883 0.877274 0.693023
0.008970 0.008970 0.717123
0.016120 0.009200 0.717353
0.147216 0.013415 0.721568
0.264035 0.017171 0.725324
0.375530 0.020756 0.728909
0.483676 0.024234 0.732386
0.589390 0.027633 0.735785
0.693201 0.030971 0.739123
0.795453 0.034259 0.742411
0.012297 0.063302 0.720449
0.019447 0.063532 0.720679
0.150543 0.067747 0.724894
0.267362 0.071503 0.728651
0.378856 0.075088 0.732236
0.487003 0.078565 0.735713
0.592716 0.081965 0.739112
0.696527 0.085302 0.742450
0.798780 0.088590 0.745738
0.020107 0.190862 0.728260
0.027257 0.191092 0.728490
0.158353 0.195307 0.732705
0.275172 0.199064 0.736461
0.386667 0.202649 0.740046
0.494813 0.206126 0.743523
0.600527 0.209525 0.746922
0.704338 0.212863 0.750260
0.806590 0.216151 0.753548
0.027351 0.309181 0.735504
0.034502 0.309411 0.735734
0.165598 0.313626 0.739949
0.282417 0.317382 0.743705
0.393911 0.320967 0.747290
0.502057 0.324444 0.750768
0.607771 0.327844 0.754167
0.711582 0.331182 0.757505
0.813835 0.334469 0.760793
0.034313 0.422880 0.742466
0.041463 0.423110 0.742696
0.172560 0.427325 0.746911
0.289378 0.431081 0.750667
0.400873 0.434666 0.754252
0.509019 0.438143 0.757729
0.614733 0.441543 0.761129
0.718544 0.444880 0.764467
0.820797 0.448168 0.767754
0.041086 0.533496 0.749239
0.048236 0.533726 0.749469
0.179332 0.537941 0.753684
0.296151 0.541697 0.757440
0.407646 0.545282 0.761025
0.515792 0.548759 0.764502
0.621506 0.552158 0.767901
0.725317 0.555496 0.771239
0.827569 0.558784 0.774527
0.047718 0.641808 0.755870
0.054868 0.642038 0.756100
0.185964 0.646253 0.760316
0.302783 0.650009 0.764072
0.414278 0.653594 0.767657
0.522424 0.657072 0.771134
0.628138 0.660471 0.774533
0.731948 0.663809 0.777871
0.834201 0.667096 0.781159
0.054237 0.748287 0.762390
0.061388 0.748517 0.762620
0.192484 0.752733 0.766835
0.309302 0.756489 0.770591
0.420797 0.760074 0.774176
0.528943 0.763551 0.777654
0.634657 0.766950 0.781053
0.738468 0.770288 0.784391
0.840721 0.773576 0.787679
0.060664 0.853249 0.768817
0.067814 0.853479 0.769047
0.198910 0.857694 0.773262
0.315729 0.861451 0.777018
0.427224 0.865036 0.780603
0.535370 0.868513 0.784080
0.641084 0.871912 0.787480
0.744895 0.875250 0.790818
0.847147 0.878538 0.794105
0.010199 0.010199 0.815422
0.017350 0.010429 0.815652
0.148446 0.014645 0.819867
0.265265 0.018401 0.823623
0.376759 0.021986 0.827208
0.484906 0.025463 0.830686
0.590619 0.028862 0.834085
0.694430 0.032200 0.837423
0.796683 0.035488 0.840711
0.013526 0.064531 0.818749
0.020676 0.064761 0.818979
0.151773 0.068976 0.823194
0.268591 0.072733 0.826950
0.380086 0.076318 0.830535
0.488232 0.079795 0.834012
0.593946 0.083194 0.837411
0.697757 0.086532 0.840749
0.800010 0.089820 0.844037
0.021337 0.192092 0.826559
0.028487 0.192322 0.826789
0.159583 0.196537 0.831004
0.276402 0.200293 0.834760
0.387896 0.203878 0.838345
0.496043 0.207356 0.841823
0.601756 0.210755 0.845222
0.705567 0.214093 0.848560
0.807820 0.217380 0.851848
0.028581 0.310410 0.833803
0.035731 0.310640 0.834033
0.166827 0.314855 0.838249
0.283646 0.318612 0.842005
0.395141 0.322197 0.845590
0.503287 0.325674 0.849067
0.609001 0.329073 0.852466
0.712812 0.332411 0.855804
0.815064 0.335699 0.859092
0.035543 0.424109 0.840765
0.042693 0.424339 0.840995
0.173789 0.428554 0.845210
0.290608 0.432311 0.848966
0.402103 0.435896 0.852551
0.510249 0.439373 0.856029
0.615962 0.442772 0.859428
0.719773 0.446110 0.862766
0.822026 0.449398 0.866054
0.042316 0.534725 0.847538
0.049466 0.534955 0.847768
0.180562 0.539170 0.851983
0.297381 0.542927 0.855739
0.408875 0.546512 0.859324
0.517022 0.549989 0.862802
0.622735 0.553388 0.866201
0.726546 0.556726 0.869539
0.828799 0.560014 0.872827
0.048947 0.643037 0.854170
0.056097 0.643267 0.854400
0.187194 0.647483 0.858615
0.304012 0.651239 0.862371
0.415507 0.654824 0.865956
0.523653 0.658301 0.869434
0.629367 0.661700 0.872833
0.733178 0.665038 0.876171
0.835431 0.668326 0.879458
0.055467 0.749517 0.860689
0.062617 0.749747 0.860919
0.193713 0.753962 0.865135
0.310532 0.757718 0.868891
0.422027 0.761303 0.872476
0.530173 0.764781 0.875953
0.635887 0.768180 0.879352
0.739698 0.771518 0.882690
0.841950 0.774806 0.885978
0.061894 0.854479 0.867116
0.069044 0.854709 0.867346
0.200140 0.858924 0.871561
0.316959 0.862680 0.875317
0.428454 0.866265 0.878902
0.536600 0.869743 0.882380
0.642313 0.873142 0.885779
0.746124 0.876480 0.889117
0.848377 0.879767 0.892405
0.011400 0.011400 0.911400
0.018550 0.011630 0.911630
0.149646 0.015845 0.915845
0.266465 0.019601 0.919601
0.377960 0.023186 0.923186
0.486106 0.026664 0.926664
0.591820 0.030063 0.930063
0.695631 0.033401 0.933401
0.797883 0.036689 0.936689
0.014727 0.065732 0.914727
0.021877 0.065962 0.914957
0.152973 0.070177 0.919172
0.269792 0.073933 0.922928
0.381287 0.077518 0.926513
0.489433 0.080995 0.929990
0.595146 0.084395 0.933389
0.698957 0.087733 0.936727
0.801210 0.091020 0.940015
0.022537 0.193292 0.922537
0.029687 0.193522 0.922767
0.160783 0.197738 0.926982
0.277602 0.201494 0.930738
0.389097 0.205079 0.934323
0.497243 0.208556 0.937801
0.602957 0.211955 0.941200
0.706768 0.215293 0.944538
0.809020 0.218581 0.947826
0.029782 0.311611 0.929782
0.036932 0.311841 0.930011
0.168028 0.316056 0.934227
0.284847 0.319812 0.937983
0.396341 0.323397 0.941568
0.504488 0.326875 0.945045
0.610201 0.330274 0.948444
0.714012 0.333612 0.951782
0.816265 0.336899 0.955070
0.036743 0.425310 0.936743
0.043893 0.425540 0.936973
0.174990 0.429755 0.941188
0.291808 0.433511 0.944945
0.403303 0.437096 0.948530
0.511449 0.440573 0.952007
0.617163 0.443973 0.955406
0.720974 0.447311 0.958744
0.823227 0.450598 0.962032
0.043516 0.535926 0.943516
0.050666 0.536156 0.943746
0.181762 0.540371 0.947961
0.298581 0.544127 0.951717
0.410076 0.547712 0.955302
0.518222 0.551189 0.958780
0.623936 0.554589 0.962179
0.727747 0.557926 0.965517
0.829999 0.561214 0.968805
0.050148 0.644238 0.950148
0.057298 0.644468 0.950378
0.188394 0.648683 0.954593
0.305213 0.652439 0.958349
0.416708 0.656024 0.961934
0.524854 0.659502 0.965412
0.630568 0.662901 0.968811
0.734379 0.666239 0.972149
0.836631 0.669527 0.975436
0.056667 0.750718 0.956667
0.063818 0.750947 0.956897
0.194914 0.755163 0.961113
0.311733 0.758919 0.964869
0.423227 0.762504 0.968454
0.531374 0.765981 0.971931
0.637087 0.769380 0.975330
0.740898 0.772718 0.978668
0.843151 0.776006 0.981956
0.063094 0.855679 0.963094
0.070244 0.855909 0.963324
0.201341 0.860125 0.967539
0.318159 0.863881 0.971296
0.429654 0.867466 0.974881
0.537800 0.870943 0.978358
0.643514 0.874342 0.981757
0.747325 0.877680 0.985095
0.849578 0.880968 0.988383
