ApexStudio/app/src/main/assets/luts/moody_blockbuster.cube
# ApexStudio filter: moody_blockbuster
LUT_3D_SIZE 5
DOMAIN_MIN 0.0 0.0 0.0
DOMAIN_MAX 1.0 1.0 1.0
0.000000 0.000000 0.048652
0.252485 0.000000 0.029842
0.576225 0.000000 0.005849
0.881701 0.000000 0.000000
1.000000 0.000000 0.000000
0.000000 0.275921 0.005213
0.209046 0.257111 0.000000
0.532786 0.233118 0.000000
0.838262 0.210478 0.000000
1.000000 0.188612 0.000000
0.000000 0.557346 0.000000
0.164950 0.538536 0.000000
0.488690 0.514542 0.000000
0.794167 0.491902 0.000000
1.000000 0.470036 0.000000
0.000000 0.831520 0.000000
0.121991 0.812710 0.000000
0.445731 0.788717 0.000000
0.751207 0.766077 0.000000
1.000000 0.744211 0.000000
0.000000 1.000000 0.000000
0.079741 1.000000 0.000000
0.403481 1.000000 0.000000
0.708957 1.000000 0.000000
1.000000 1.000000 0.000000
0.000000 0.000000 0.320781
0.245132 0.000000 0.301971
0.568872 0.000000 0.277978
0.874349 0.000000 0.255337
1.000000 0.000000 0.233472
0.000000 0.268569 0.277342
0.201693 0.249759 0.258532
0.525433 0.225765 0.234538
0.830910 0.203125 0.211898
1.000000 0.181259 0.190033
0.000000 0.549993 0.233247
0.157598 0.531183 0.214437
0.481338 0.507190 0.190443
0.786814 0.484550 0.167803
1.000000 0.462684 0.145937
0.000000 0.824168 0.190287
0.114638 0.805358 0.171477
0.438378 0.781364 0.147483
0.743855 0.758724 0.124843
1.000000 0.736858 0.102978
0.000000 1.000000 0.148037
0.072388 1.000000 0.129227
0.396128 1.000000 0.105233
0.701605 1.000000 0.082593
0.996635 1.000000 0.060728
0.000000 0.000000 0.607163
0.237395 0.000000 0.588353
0.561135 0.000000 0.564359
0.866611 0.000000 0.541719
1.000000 0.000000 0.519853
0.000000 0.260831 0.563724
0.193956 0.242021 0.544914
0.517696 0.218028 0.520920
0.823172 0.195388 0.498280
1.000000 0.173522 0.476414
0.000000 0.542256 0.519628
0.149860 0.523446 0.500818
0.473600 0.499452 0.476825
0.779077 0.476812 0.454185
1.000000 0.454946 0.432319
0.000000 0.816430 0.476669
0.106901 0.797620 0.457859
0.430641 0.773627 0.433865
0.736117 0.750987 0.411225
1.000000 0.729121 0.389359
0.000000 1.000000 0.434419
0.064651 1.000000 0.415609
0.388391 1.000000 0.391615
0.693867 1.000000 0.368975
0.988897 0.998768 0.347109
0.000000 0.000000 0.900735
0.229463 0.000000 0.881925
0.553203 0.000000 0.857931
0.858679 0.000000 0.835291
1.000000 0.000000 0.813426
0.000000 0.252899 0.857296
0.186024 0.234089 0.838486
0.509764 0.210096 0.814492
0.815240 0.187456 0.791852
1.000000 0.165590 0.769986
0.000000 0.534324 0.813200
0.141928 0.515514 0.794390
0.465668 0.491520 0.770397
0.771145 0.468880 0.747757
1.000000 0.447014 0.725891
0.000000 0.808498 0.770241
0.098969 0.789688 0.751431
0.422709 0.765695 0.727437
0.728185 0.743055 0.704797
1.000000 0.721189 0.682931
0.000000 1.000000 0.727991
0.056719 1.000000 0.709181
0.380459 1.000000 0.685187
0.685935 1.000000 0.662547
0.980965 0.990836 0.640681
0.000000 0.000000 1.000000
0.221397 0.000000 1.000000
0.545137 0.000000 1.000000
0.850614 0.000000 1.000000
1.000000 0.000000 1.000000
0.000000 0.244834 1.000000
0.177958 0.226024 1.000000
0.501698 0.202030 1.000000
0.807175 0.179390 1.000000
1.000000 0.157524 1.000000
0.000000 0.526258 1.000000
0.133863 0.507448 1.000000
0.457603 0.483455 1.000000
0.763079 0.460815 1.000000
1.000000 0.438949 1.000000
0.000000 0.800433 1.000000
0.090903 0.781623 1.000000
0.414643 0.757629 1.000000
0.720120 0.734989 1.000000
1.000000 0.713123 0.981453
0.000000 1.000000 1.000000
0.048653 1.000000 1.000000
0.372393 1.000000 0.983709
0.677870 1.000000 0.961069
0.972900 0.982770 0.939203
