ApexStudio/app/src/main/assets/luts/moody_blockbuster.cube
# ApexStudio filter: moody_blockbuster
LUT_3D_SIZE 17
DOMAIN_MIN 0.0 0.0 0.0
DOMAIN_MAX 1.0 1.0 1.0
0.000000 0.000000 0.048652
0.000000 0.000000 0.048652
0.074496 0.000000 0.043034
0.166004 0.000000 0.036252
0.252485 0.000000 0.029842
0.336053 0.000000 0.023649
0.417578 0.000000 0.017606
0.497535 0.000000 0.011681
0.576225 0.000000 0.005849
0.653853 0.000000 0.000095
0.730570 0.000000 0.000000
0.806490 0.000000 0.000000
0.881701 0.000000 0.000000
0.956277 0.000000 0.000000
1.000000 0.000000 0.000000
1.000000 0.000000 0.000000
1.000000 0.000000 0.000000
0.000000 0.054203 0.039953
0.000000 0.054203 0.039953
0.065797 0.048585 0.034335
0.157305 0.041803 0.027553
0.243786 0.035393 0.021143
0.327354 0.029200 0.014950
0.408879 0.023157 0.008908
0.488836 0.017232 0.002982
0.567526 0.011400 0.000000
0.645155 0.005646 0.000000
0.721872 0.000000 0.000000
0.797791 0.000000 0.000000
0.873003 0.000000 0.000000
0.947578 0.000000 0.000000
1.000000 0.000000 0.000000
1.000000 0.000000 0.000000
1.000000 0.000000 0.000000
0.000000 0.130065 0.028067
0.000000 0.130065 0.028067
0.053911 0.124446 0.022448
0.145419 0.117664 0.015666
0.231899 0.111255 0.009257
0.315468 0.105061 0.003063
0.396992 0.099019 0.000000
0.476950 0.093093 0.000000
0.555640 0.087261 0.000000
0.633268 0.081508 0.000000
0.709985 0.075822 0.000000
0.785905 0.070195 0.000000
0.861116 0.064621 0.000000
0.935691 0.059094 0.000000
1.000000 0.053610 0.000000
1.000000 0.048165 0.000000
1.000000 0.042755 0.000000
0.000000 0.203657 0.016536
0.000000 0.203657 0.016536
0.042380 0.198039 0.010917
0.133888 0.191257 0.004135
0.220368 0.184847 0.000000
0.303937 0.178654 0.000000
0.385461 0.172612 0.000000
0.465419 0.166686 0.000000
0.544109 0.160854 0.000000
0.621737 0.155100 0.000000
0.698454 0.149414 0.000000
0.774374 0.143788 0.000000
0.849585 0.138214 0.000000
0.924160 0.132687 0.000000
0.998159 0.127202 0.000000
1.000000 0.121757 0.000000
1.000000 0.116348 0.000000
0.000000 0.275921 0.005213
0.000000 0.275921 0.005213
0.031057 0.270303 0.000000
0.122565 0.263521 0.000000
0.209046 0.257111 0.000000
0.292614 0.250918 0.000000
0.374139 0.244876 0.000000
0.454096 0.238950 0.000000
0.532786 0.233118 0.000000
0.610414 0.227364 0.000000
0.687131 0.221679 0.000000
0.763051 0.216052 0.000000
0.838262 0.210478 0.000000
0.912838 0.204951 0.000000
0.986836 0.199466 0.000000
1.000000 0.194021 0.000000
1.000000 0.188612 0.000000
0.000000 0.347244 0.000000
0.000000 0.347244 0.000000
0.019882 0.341626 0.000000
0.111390 0.334844 0.000000
0.197870 0.328434 0.000000
0.281438 0.322241 0.000000
0.362963 0.316199 0.000000
0.442921 0.310273 0.000000
0.521611 0.304441 0.000000
0.599239 0.298687 0.000000
0.675956 0.293002 0.000000
0.751875 0.287375 0.000000
0.827087 0.281801 0.000000
0.901662 0.276274 0.000000
0.975661 0.270789 0.000000
1.000000 0.265344 0.000000
1.000000 0.259935 0.000000
0.000000 0.417840 0.000000
0.000000 0.417840 0.000000
0.008820 0.412221 0.000000
0.100328 0.405439 0.000000
0.186809 0.399030 0.000000
0.270377 0.392836 0.000000
0.351902 0.386794 0.000000
0.431859 0.380868 0.000000
0.510549 0.375036 0.000000
0.588178 0.369283 0.000000
0.664895 0.363597 0.000000
0.740814 0.357970 0.000000
0.816026 0.352396 0.000000
0.890601 0.346869 0.000000
0.964599 0.341385 0.000000
1.000000 0.335939 0.000000
1.000000 0.330530 0.000000
0.000000 0.487842 0.000000
0.000000 0.487842 0.000000
0.000000 0.482224 0.000000
0.089360 0.475442 0.000000
0.175841 0.469032 0.000000
0.259409 0.462839 0.000000
0.340933 0.456797 0.000000
0.420891 0.450871 0.000000
0.499581 0.445039 0.000000
0.577209 0.439285 0.000000
0.653926 0.433600 0.000000
0.729846 0.427973 0.000000
0.805057 0.422399 0.000000
0.879632 0.416872 0.000000
0.953631 0.411387 0.000000
1.000000 0.405942 0.000000
1.000000 0.400533 0.000000
0.000000 0.557346 0.000000
0.000000 0.557346 0.000000
0.000000 0.551727 0.000000
0.078470 0.544945 0.000000
0.164950 0.538536 0.000000
0.248518 0.532342 0.000000
0.330043 0.526300 0.000000
0.410001 0.520374 0.000000
0.488690 0.514542 0.000000
0.566319 0.508789 0.000000
0.643036 0.503103 0.000000
0.718955 0.497476 0.000000
0.794167 0.491902 0.000000
0.868742 0.486375 0.000000
0.942741 0.480891 0.000000
1.000000 0.475446 0.000000
1.000000 0.470036 0.000000
0.000000 0.626419 0.000000
0.000000 0.626419 0.000000
0.000000 0.620800 0.000000
0.067647 0.614018 0.000000
0.154127 0.607609 0.000000
0.237696 0.601415 0.000000
0.319220 0.595373 0.000000
0.399178 0.589447 0.000000
0.477868 0.583615 0.000000
0.555496 0.577862 0.000000
0.632213 0.572176 0.000000
0.708133 0.566549 0.000000
0.783344 0.560975 0.000000
0.857919 0.555448 0.000000
0.931918 0.549964 0.000000
1.000000 0.544518 0.000000
1.000000 0.539109 0.000000
0.000000 0.695113 0.000000
0.000000 0.695113 0.000000
0.000000 0.689494 0.000000
0.056883 0.682712 0.000000
0.143364 0.676303 0.000000
0.226932 0.670109 0.000000
0.308457 0.664067 0.000000
0.388414 0.658141 0.000000
0.467104 0.652309 0.000000
0.544733 0.646556 0.000000
0.621450 0.640870 0.000000
0.697369 0.635243 0.000000
0.772581 0.629669 0.000000
0.847156 0.624142 0.000000
0.921154 0.618657 0.000000
0.994625 0.613212 0.000000
1.000000 0.607803 0.000000
0.000000 0.763469 0.000000
0.000000 0.763469 0.000000
0.000000 0.757850 0.000000
0.046173 0.751068 0.000000
0.132654 0.744659 0.000000
0.216222 0.738465 0.000000
0.297747 0.732423 0.000000
0.377704 0.726497 0.000000
0.456394 0.720665 0.000000
0.534022 0.714912 0.000000
0.610739 0.709226 0.000000
0.686659 0.703599 0.000000
0.761870 0.698025 0.000000
0.836446 0.692498 0.000000
0.910444 0.687014 0.000000
0.983915 0.681569 0.000000
1.000000 0.676159 0.000000
0.000000 0.831520 0.000000
0.000000 0.831520 0.000000
0.000000 0.825902 0.000000
0.035510 0.819120 0.000000
0.121991 0.812710 0.000000
0.205559 0.806517 0.000000
0.287084 0.800475 0.000000
0.367041 0.794549 0.000000
0.445731 0.788717 0.000000
0.523359 0.782963 0.000000
0.600076 0.777278 0.000000
0.675996 0.771651 0.000000
0.751207 0.766077 0.000000
0.825783 0.760550 0.000000
0.899781 0.755065 0.000000
0.973252 0.749620 0.000000
1.000000 0.744211 0.000000
0.000000 0.899295 0.000000
0.000000 0.899295 0.000000
0.000000 0.893676 0.000000
0.024891 0.886894 0.000000
0.111371 0.880485 0.000000
0.194940 0.874291 0.000000
0.276464 0.868249 0.000000
0.356422 0.862323 0.000000
0.435112 0.856491 0.000000
0.512740 0.850738 0.000000
0.589457 0.845052 0.000000
0.665377 0.839425 0.000000
0.740588 0.833851 0.000000
0.815163 0.828324 0.000000
0.889162 0.822840 0.000000
0.962633 0.817395 0.000000
1.000000 0.811985 0.000000
0.000000 0.966815 0.000000
0.000000 0.966815 0.000000
0.000000 0.961196 0.000000
0.014311 0.954414 0.000000
0.100792 0.948005 0.000000
0.184360 0.941811 0.000000
0.265885 0.935769 0.000000
0.345842 0.929843 0.000000
0.424532 0.924011 0.000000
0.502161 0.918258 0.000000
0.578878 0.912572 0.000000
0.654797 0.906946 0.000000
0.730009 0.901371 0.000000
0.804584 0.895844 0.000000
0.878582 0.890360 0.000000
0.952053 0.884915 0.000000
1.000000 0.879506 0.000000
0.000000 1.000000 0.000000
0.000000 1.000000 0.000000
0.000000 1.000000 0.000000
0.003769 1.000000 0.000000
0.090249 1.000000 0.000000
0.173817 1.000000 0.000000
0.255342 1.000000 0.000000
0.335300 0.997129 0.000000
0.413989 0.991297 0.000000
0.491618 0.985543 0.000000
0.568335 0.979858 0.000000
0.644254 0.974231 0.000000
0.719466 0.968657 0.000000
0.794041 0.963130 0.000000
0.868040 0.957645 0.000000
0.941510 0.952200 0.000000
1.000000 0.946791 0.000000
0.000000 1.000000 0.000000
0.000000 1.000000 0.000000
0.000000 1.000000 0.000000
0.000000 1.000000 0.000000
0.079741 1.000000 0.000000
0.163309 1.000000 0.000000
0.244834 1.000000 0.000000
0.324791 1.000000 0.000000
0.403481 1.000000 0.000000
0.481109 1.000000 0.000000
0.557826 1.000000 0.000000
0.633746 1.000000 0.000000
0.708957 1.000000 0.000000
0.783533 1.000000 0.000000
0.857531 1.000000 0.000000
0.931002 1.000000 0.000000
1.000000 1.000000 0.000000
0.000000 0.000000 0.114241
0.000000 0.000000 0.114241
0.072724 0.000000 0.108622
0.164232 0.000000 0.101840
0.250713 0.000000 0.095431
0.334281 0.000000 0.089237
0.415806 0.000000 0.083195
0.495763 0.000000 0.077269
0.574453 0.000000 0.071437
0.652081 0.000000 0.065684
0.728798 0.000000 0.059998
0.804718 0.000000 0.054371
0.879929 0.000000 0.048797
0.954505 0.000000 0.043270
1.000000 0.000000 0.037786
1.000000 0.000000 0.032340
1.000000 0.000000 0.026931
0.000000 0.052431 0.105542
0.000000 0.052431 0.105542
0.064025 0.046812 0.099923
0.155533 0.040030 0.093141
0.242014 0.033621 0.086732
0.325582 0.027427 0.080538
0.407107 0.021385 0.074496
0.487064 0.015459 0.068570
0.565754 0.009627 0.062738
0.643382 0.003874 0.056985
0.720099 0.000000 0.051299
0.796019 0.000000 0.045672
0.871230 0.000000 0.040098
0.945806 0.000000 0.034571
1.000000 0.000000 0.029087
1.000000 0.000000 0.023642
1.000000 0.000000 0.018232
0.000000 0.128293 0.093655
0.000000 0.128293 0.093655
0.052139 0.122674 0.088037
0.143647 0.115892 0.081255
0.230127 0.109483 0.074845
0.313695 0.103289 0.068652
0.395220 0.097247 0.062610
0.475178 0.091321 0.056684
0.553868 0.085489 0.050852
0.631496 0.079736 0.045098
0.708213 0.074050 0.039412
0.784132 0.068423 0.033786
0.859344 0.062849 0.028212
0.933919 0.057322 0.022685
1.000000 0.051838 0.017200
1.000000 0.046392 0.011755
1.000000 0.040983 0.006346
0.000000 0.201885 0.082124
0.000000 0.201885 0.082124
0.040608 0.196267 0.076506
0.132116 0.189485 0.069724
0.218596 0.183075 0.063314
0.302165 0.176882 0.057121
0.383689 0.170839 0.051079
0.463647 0.164914 0.045153
0.542337 0.159082 0.039321
0.619965 0.153328 0.033567
0.696682 0.147642 0.027882
0.772601 0.142016 0.022255
0.847813 0.136441 0.016681
0.922388 0.130914 0.011154
0.996387 0.125430 0.005669
1.000000 0.119985 0.000224
1.000000 0.114576 0.000000
0.000000 0.274149 0.070802
0.000000 0.274149 0.070802
0.029285 0.268531 0.065183
0.120793 0.261749 0.058401
0.207274 0.255339 0.051992
0.290842 0.249146 0.045798
0.372367 0.243104 0.039756
0.452324 0.237178 0.033830
0.531014 0.231346 0.027998
0.608642 0.225592 0.022245
0.685359 0.219906 0.016559
0.761279 0.214280 0.010932
0.836490 0.208706 0.005358
0.911066 0.203178 0.000000
0.985064 0.197694 0.000000
1.000000 0.192249 0.000000
1.000000 0.186840 0.000000
0.000000 0.345472 0.059626
0.000000 0.345472 0.059626
0.018110 0.339854 0.054008
0.109618 0.333072 0.047226
0.196098 0.326662 0.040816
0.279666 0.320469 0.034623
0.361191 0.314427 0.028580
0.441149 0.308501 0.022655
0.519838 0.302669 0.016823
0.597467 0.296915 0.011069
0.674184 0.291229 0.005383
0.750103 0.285603 0.000000
0.825315 0.280029 0.000000
0.899890 0.274501 0.000000
0.973889 0.269017 0.000000
1.000000 0.263572 0.000000
1.000000 0.258163 0.000000
0.000000 0.416067 0.048565
0.000000 0.416067 0.048565
0.007048 0.410449 0.042946
0.098556 0.403667 0.036164
0.185037 0.397257 0.029755
0.268605 0.391064 0.023561
0.350130 0.385022 0.017519
0.430087 0.379096 0.011593
0.508777 0.373264 0.005761
0.586405 0.367510 0.000008
0.663122 0.361825 0.000000
0.739042 0.356198 0.000000
0.814253 0.350624 0.000000
0.888829 0.345097 0.000000
0.962827 0.339612 0.000000
1.000000 0.334167 0.000000
1.000000 0.328758 0.000000
0.000000 0.486070 0.037596
0.000000 0.486070 0.037596
0.000000 0.480452 0.031978
0.087588 0.473670 0.025196
0.174068 0.467260 0.018786
0.257637 0.461067 0.012593
0.339161 0.455025 0.006551
0.419119 0.449099 0.000625
0.497809 0.443267 0.000000
0.575437 0.437513 0.000000
0.652154 0.431827 0.000000
0.728074 0.426201 0.000000
0.803285 0.420627 0.000000
0.877860 0.415099 0.000000
0.951859 0.409615 0.000000
1.000000 0.404170 0.000000
1.000000 0.398761 0.000000
0.000000 0.555574 0.026706
0.000000 0.555574 0.026706
0.000000 0.549955 0.021087
0.076698 0.543173 0.014305
0.163178 0.536764 0.007896
0.246746 0.530570 0.001703
0.328271 0.524528 0.000000
0.408228 0.518602 0.000000
0.486918 0.512770 0.000000
0.564547 0.507017 0.000000
0.641264 0.501331 0.000000
0.717183 0.495704 0.000000
0.792395 0.490130 0.000000
0.866970 0.484603 0.000000
0.940969 0.479119 0.000000
1.000000 0.473674 0.000000
1.000000 0.468264 0.000000
0.000000 0.624647 0.015883
0.000000 0.624647 0.015883
0.000000 0.619028 0.010265
0.065875 0.612246 0.003483
0.152355 0.605836 0.000000
0.235924 0.599643 0.000000
0.317448 0.593601 0.000000
0.397406 0.587675 0.000000
0.476096 0.581843 0.000000
0.553724 0.576089 0.000000
0.630441 0.570404 0.000000
0.706360 0.564777 0.000000
0.781572 0.559203 0.000000
0.856147 0.553676 0.000000
0.930146 0.548191 0.000000
1.000000 0.542746 0.000000
1.000000 0.537337 0.000000
0.000000 0.693340 0.005120
0.000000 0.693340 0.005120
0.000000 0.687722 0.000000
0.055111 0.680940 0.000000
0.141592 0.674530 0.000000
0.225160 0.668337 0.000000
0.306685 0.662295 0.000000
0.386642 0.656369 0.000000
0.465332 0.650537 0.000000
0.542961 0.644783 0.000000
0.619678 0.639098 0.000000
0.695597 0.633471 0.000000
0.770809 0.627897 0.000000
0.845384 0.622370 0.000000
0.919382 0.616885 0.000000
0.992853 0.611440 0.000000
1.000000 0.606031 0.000000
0.000000 0.761697 0.000000
0.000000 0.761697 0.000000
0.000000 0.756078 0.000000
0.044401 0.749296 0.000000
0.130881 0.742887 0.000000
0.214450 0.736693 0.000000
0.295974 0.730651 0.000000
0.375932 0.724725 0.000000
0.454622 0.718893 0.000000
0.532250 0.713140 0.000000
0.608967 0.707454 0.000000
0.684887 0.701827 0.000000
0.760098 0.696253 0.000000
0.834673 0.690726 0.000000
0.908672 0.685242 0.000000
0.982143 0.679796 0.000000
1.000000 0.674387 0.000000
0.000000 0.829748 0.000000
0.000000 0.829748 0.000000
0.000000 0.824130 0.000000
0.033738 0.817348 0.000000
0.120219 0.810938 0.000000
0.203787 0.804745 0.000000
0.285312 0.798703 0.000000
0.365269 0.792777 0.000000
0.443959 0.786945 0.000000
0.521587 0.781191 0.000000
0.598304 0.775506 0.000000
0.674224 0.769879 0.000000
0.749435 0.764305 0.000000
0.824011 0.758778 0.000000
0.898009 0.753293 0.000000
0.971480 0.747848 0.000000
1.000000 0.742439 0.000000
0.000000 0.897523 0.000000
0.000000 0.897523 0.000000
0.000000 0.891904 0.000000
0.023119 0.885122 0.000000
0.109599 0.878713 0.000000
0.193167 0.872519 0.000000
0.274692 0.866477 0.000000
0.354650 0.860551 0.000000
0.433340 0.854719 0.000000
0.510968 0.848966 0.000000
0.587685 0.843280 0.000000
0.663604 0.837653 0.000000
0.738816 0.832079 0.000000
0.813391 0.826552 0.000000
0.887390 0.821068 0.000000
0.960861 0.815623 0.000000
1.000000 0.810213 0.000000
0.000000 0.965043 0.000000
0.000000 0.965043 0.000000
0.000000 0.959424 0.000000
0.012539 0.952642 0.000000
0.099020 0.946233 0.000000
0.182588 0.940039 0.000000
0.264113 0.933997 0.000000
0.344070 0.928071 0.000000
0.422760 0.922239 0.000000
0.500388 0.916486 0.000000
0.577105 0.910800 0.000000
0.653025 0.905173 0.000000
0.728236 0.899599 0.000000
0.802812 0.894072 0.000000
0.876810 0.888588 0.000000
0.950281 0.883143 0.000000
1.000000 0.877733 0.000000
0.000000 1.000000 0.000000
0.000000 1.000000 0.000000
0.000000 1.000000 0.000000
0.001997 1.000000 0.000000
0.088477 1.000000 0.000000
0.172045 1.000000 0.000000
0.253570 1.000000 0.000000
0.333527 0.995357 0.000000
0.412217 0.989525 0.000000
0.489846 0.983771 0.000000
0.566563 0.978085 0.000000
0.642482 0.972459 0.000000
0.717694 0.966885 0.000000
0.792269 0.961358 0.000000
0.866268 0.955873 0.000000
0.939738 0.950428 0.000000
1.000000 0.945019 0.000000
0.000000 1.000000 0.000000
0.000000 1.000000 0.000000
0.000000 1.000000 0.000000
0.000000 1.000000 0.000000
0.077969 1.000000 0.000000
0.161537 1.000000 0.000000
0.243062 1.000000 0.000000
0.323019 1.000000 0.000000
0.401709 1.000000 0.000000
0.479337 1.000000 0.000000
0.556054 1.000000 0.000000
0.631974 1.000000 0.000000
0.707185 1.000000 0.000000
0.781761 1.000000 0.000000
0.855759 1.000000 0.000000
0.929230 1.000000 0.000000
1.000000 1.000000 0.000000
0.000000 0.000000 0.181889
0.000000 0.000000 0.181889
0.070896 0.000000 0.176270
0.162404 0.000000 0.169488
0.248885 0.000000 0.163079
0.332453 0.000000 0.156885
0.413978 0.000000 0.150843
0.493935 0.000000 0.144917
0.572625 0.000000 0.139085
0.650254 0.000000 0.133332
0.726971 0.000000 0.127646
0.802890 0.000000 0.122019
0.878102 0.000000 0.116445
0.952677 0.000000 0.110918
1.000000 0.000000 0.105434
1.000000 0.000000 0.099988
1.000000 0.000000 0.094579
0.000000 0.050603 0.173190
0.000000 0.050603 0.173190
0.062197 0.044985 0.167571
0.153706 0.038203 0.160789
0.240186 0.031793 0.154380
0.323754 0.025600 0.148186
0.405279 0.019558 0.142144
0.485236 0.013632 0.136218
0.563926 0.007800 0.130386
0.641555 0.002046 0.124633
0.718272 0.000000 0.118947
0.794191 0.000000 0.113320
0.869403 0.000000 0.107746
0.943978 0.000000 0.102219
1.000000 0.000000 0.096735
1.000000 0.000000 0.091289
1.000000 0.000000 0.085880
0.000000 0.126465 0.161303
0.000000 0.126465 0.161303
0.050311 0.120846 0.155685
0.141819 0.114064 0.148903
0.228300 0.107655 0.142493
0.311868 0.101461 0.136300
0.393393 0.095419 0.130258
0.473350 0.089493 0.124332
0.552040 0.083661 0.118500
0.629668 0.077908 0.112746
0.706385 0.072222 0.107060
0.782305 0.066595 0.101434
0.857516 0.061021 0.095860
0.932092 0.055494 0.090332
1.000000 0.050010 0.084848
1.000000 0.044565 0.079403
1.000000 0.039155 0.073994
0.000000 0.200057 0.149772
0.000000 0.200057 0.149772
0.038780 0.194439 0.144154
0.130288 0.187657 0.137372
0.216769 0.181247 0.130962
0.300337 0.175054 0.124769
0.381862 0.169012 0.118727
0.461819 0.163086 0.112801
0.540509 0.157254 0.106969
0.618137 0.151500 0.101215
0.694854 0.145815 0.095529
0.770774 0.140188 0.089903
0.845985 0.134614 0.084329
0.920561 0.129087 0.078802
0.994559 0.123602 0.073317
1.000000 0.118157 0.067872
1.000000 0.112748 0.062463
0.000000 0.272322 0.138449
0.000000 0.272322 0.138449
0.027457 0.266703 0.132831
0.118965 0.259921 0.126049
0.205446 0.253511 0.119639
0.289014 0.247318 0.113446
0.370539 0.241276 0.107404
0.450496 0.235350 0.101478
0.529186 0.229518 0.095646
0.606814 0.223764 0.089892
0.683531 0.218079 0.084207
0.759451 0.212452 0.078580
0.834662 0.206878 0.073006
0.909238 0.201351 0.067479
0.983236 0.195866 0.061994
1.000000 0.190421 0.056549
1.000000 0.185012 0.051140
0.000000 0.343644 0.127274
0.000000 0.343644 0.127274
0.016282 0.338026 0.121656
0.107790 0.331244 0.114874
0.194270 0.324834 0.108464
0.277839 0.318641 0.102271
0.359363 0.312599 0.096228
0.439321 0.306673 0.090302
0.518011 0.300841 0.084470
0.595639 0.295087 0.078717
0.672356 0.289402 0.073031
0.748276 0.283775 0.067405
0.823487 0.278201 0.061830
0.898062 0.272674 0.056303
0.972061 0.267189 0.050819
1.000000 0.261744 0.045374
1.000000 0.256335 0.039965
0.000000 0.414240 0.116213
0.000000 0.414240 0.116213
0.005220 0.408621 0.110594
0.096729 0.401839 0.103812
0.183209 0.395430 0.097403
0.266777 0.389236 0.091209
0.348302 0.383194 0.085167
0.428259 0.377268 0.079241
0.506949 0.371436 0.073409
0.584578 0.365683 0.067656
0.661295 0.359997 0.061970
0.737214 0.354370 0.056343
0.812426 0.348796 0.050769
0.887001 0.343269 0.045242
0.961000 0.337785 0.039758
1.000000 0.332339 0.034313
1.000000 0.326930 0.028903
0.000000 0.484242 0.105244
0.000000 0.484242 0.105244
0.000000 0.478624 0.099626
0.085760 0.471842 0.092844
0.172241 0.465432 0.086434
0.255809 0.459239 0.080241
0.337334 0.453197 0.074199
0.417291 0.447271 0.068273
0.495981 0.441439 0.062441
0.573609 0.435685 0.056687
0.650326 0.430000 0.051002
0.726246 0.424373 0.045375
0.801457 0.418799 0.039801
0.876033 0.413272 0.034274
0.950031 0.407787 0.028789
1.000000 0.402342 0.023344
1.000000 0.396933 0.017935
0.000000 0.553746 0.094354
0.000000 0.553746 0.094354
0.000000 0.548127 0.088735
0.074870 0.541345 0.081953
0.161350 0.534936 0.075544
0.244919 0.528742 0.069350
0.326443 0.522700 0.063308
0.406401 0.516774 0.057382
0.485091 0.510942 0.051550
0.562719 0.505189 0.045797
0.639436 0.499503 0.040111
0.715355 0.493877 0.034485
0.790567 0.488302 0.028910
0.865142 0.482775 0.023383
0.939141 0.477291 0.017899
1.000000 0.471846 0.012454
1.000000 0.466437 0.007045
0.000000 0.622819 0.083531
0.000000 0.622819 0.083531
0.000000 0.617200 0.077913
0.064047 0.610418 0.071131
0.150528 0.604009 0.064721
0.234096 0.597815 0.058528
0.315621 0.591773 0.052486
0.395578 0.585847 0.046560
0.474268 0.580015 0.040728
0.551896 0.574262 0.034974
0.628613 0.568576 0.029288
0.704533 0.562949 0.023662
0.779744 0.557375 0.018088
0.854320 0.551848 0.012561
0.928318 0.546364 0.007076
1.000000 0.540918 0.001631
1.000000 0.535509 0.000000
0.000000 0.691513 0.072768
0.000000 0.691513 0.072768
0.000000 0.685894 0.067149
0.053284 0.679112 0.060367
0.139764 0.672703 0.053958
0.223332 0.666509 0.047764
0.304857 0.660467 0.041722
0.384815 0.654541 0.035796
0.463504 0.648709 0.029964
0.541133 0.642956 0.024211
0.617850 0.637270 0.018525
0.693769 0.631643 0.012898
0.768981 0.626069 0.007324
0.843556 0.620542 0.001797
0.917555 0.615058 0.000000
0.991025 0.609612 0.000000
1.000000 0.604203 0.000000
0.000000 0.759869 0.062057
0.000000 0.759869 0.062057
0.000000 0.754250 0.056439
0.042573 0.747468 0.049657
0.129054 0.741059 0.043247
0.212622 0.734865 0.037054
0.294147 0.728823 0.031012
0.374104 0.722897 0.025086
0.452794 0.717065 0.019254
0.530422 0.711312 0.013500
0.607139 0.705626 0.007815
0.683059 0.699999 0.002188
0.758270 0.694425 0.000000
0.832846 0.688898 0.000000
0.906844 0.683414 0.000000
0.980315 0.677969 0.000000
1.000000 0.672559 0.000000
0.000000 0.827921 0.051395
0.000000 0.827921 0.051395
0.000000 0.822302 0.045776
0.031910 0.815520 0.038994
0.118391 0.809111 0.032585
0.201959 0.802917 0.026391
0.283484 0.796875 0.020349
0.363441 0.790949 0.014423
0.442131 0.785117 0.008591
0.519760 0.779364 0.002838
0.596477 0.773678 0.000000
0.672396 0.768051 0.000000
0.747607 0.762477 0.000000
0.822183 0.756950 0.000000
0.896181 0.751466 0.000000
0.969652 0.746020 0.000000
1.000000 0.740611 0.000000
0.000000 0.895695 0.040775
0.000000 0.895695 0.040775
0.000000 0.890076 0.035157
0.021291 0.883294 0.028375
0.107772 0.876885 0.021965
0.191340 0.870691 0.015772
0.272865 0.864649 0.009730
0.352822 0.858723 0.003804
0.431512 0.852891 0.000000
0.509140 0.847138 0.000000
0.585857 0.841452 0.000000
0.661777 0.835826 0.000000
0.736988 0.830251 0.000000
0.811564 0.824724 0.000000
0.885562 0.819240 0.000000
0.959033 0.813795 0.000000
1.000000 0.808386 0.000000
0.000000 0.963215 0.030196
0.000000 0.963215 0.030196
0.000000 0.957597 0.024577
0.010712 0.950815 0.017795
0.097192 0.944405 0.011386
0.180760 0.938212 0.005192
0.262285 0.932170 0.000000
0.342242 0.926244 0.000000
0.420932 0.920412 0.000000
0.498561 0.914658 0.000000
0.575278 0.908972 0.000000
0.651197 0.903346 0.000000
0.726409 0.897772 0.000000
0.800984 0.892244 0.000000
0.874982 0.886760 0.000000
0.948453 0.881315 0.000000
1.000000 0.875906 0.000000
0.000000 1.000000 0.019653
0.000000 1.000000 0.019653
0.000000 1.000000 0.014034
0.000169 1.000000 0.007252
0.086649 1.000000 0.000843
0.170218 1.000000 0.000000
0.251742 0.999455 0.000000
0.331700 0.993529 0.000000
0.410390 0.987697 0.000000
0.488018 0.981944 0.000000
0.564735 0.976258 0.000000
0.640654 0.970631 0.000000
0.715866 0.965057 0.000000
0.790441 0.959530 0.000000
0.864440 0.954045 0.000000
0.937911 0.948600 0.000000
1.000000 0.943191 0.000000
0.000000 1.000000 0.009145
0.000000 1.000000 0.009145
0.000000 1.000000 0.003526
0.000000 1.000000 0.000000
0.076141 1.000000 0.000000
0.159709 1.000000 0.000000
0.241234 1.000000 0.000000
0.321191 1.000000 0.000000
0.399881 1.000000 0.000000
0.477509 1.000000 0.000000
0.554226 1.000000 0.000000
0.630146 1.000000 0.000000
0.705357 1.000000 0.000000
0.779933 1.000000 0.000000
0.853931 1.000000 0.000000
0.927402 1.000000 0.000000
1.000000 1.000000 0.000000
0.000000 0.000000 0.250848
0.000000 0.000000 0.250848
0.069033 0.000000 0.245230
0.160541 0.000000 0.238448
0.247022 0.000000 0.232038
0.330590 0.000000 0.225845
0.412115 0.000000 0.219803
0.492072 0.000000 0.213877
0.570762 0.000000 0.208045
0.648390 0.000000 0.202291
0.725107 0.000000 0.196606
0.801027 0.000000 0.190979
0.876238 0.000000 0.185405
0.950814 0.000000 0.179878
1.000000 0.000000 0.174393
1.000000 0.000000 0.168948
1.000000 0.000000 0.163539
0.000000 0.048740 0.242150
