ApexStudio/app/src/main/assets/luts/moody_blockbuster.cube
# ApexStudio filter: moody_blockbuster
LUT_3D_SIZE 9
DOMAIN_MIN 0.0 0.0 0.0
DOMAIN_MAX 1.0 1.0 1.0
0.000000 0.000000 0.048652
0.074496 0.000000 0.043034
0.252485 0.000000 0.029842
0.417578 0.000000 0.017606
0.576225 0.000000 0.005849
0.730570 0.000000 0.000000
0.881701 0.000000 0.000000
1.000000 0.000000 0.000000
1.000000 0.000000 0.000000
0.000000 0.130065 0.028067
0.053911 0.124446 0.022448
0.231899 0.111255 0.009257
0.396992 0.099019 0.000000
0.555640 0.087261 0.000000
0.709985 0.075822 0.000000
0.861116 0.064621 0.000000
1.000000 0.053610 0.000000
1.000000 0.042755 0.000000
0.000000 0.275921 0.005213
0.031057 0.270303 0.000000
0.209046 0.257111 0.000000
0.374139 0.244876 0.000000
0.532786 0.233118 0.000000
0.687131 0.221679 0.000000
0.838262 0.210478 0.000000
0.986836 0.199466 0.000000
1.000000 0.188612 0.000000
0.000000 0.417840 0.000000
0.008820 0.412221 0.000000
0.186809 0.399030 0.000000
0.351902 0.386794 0.000000
0.510549 0.375036 0.000000
0.664895 0.363597 0.000000
0.816026 0.352396 0.000000
0.964599 0.341385 0.000000
1.000000 0.330530 0.000000
0.000000 0.557346 0.000000
0.000000 0.551727 0.000000
0.164950 0.538536 0.000000
0.330043 0.526300 0.000000
0.488690 0.514542 0.000000
0.643036 0.503103 0.000000
0.794167 0.491902 0.000000
0.942741 0.480891 0.000000
1.000000 0.470036 0.000000
0.000000 0.695113 0.000000
0.000000 0.689494 0.000000
0.143364 0.676303 0.000000
0.308457 0.664067 0.000000
0.467104 0.652309 0.000000
0.621450 0.640870 0.000000
0.772581 0.629669 0.000000
0.921154 0.618657 0.000000
1.000000 0.607803 0.000000
0.000000 0.831520 0.000000
0.000000 0.825902 0.000000
0.121991 0.812710 0.000000
0.287084 0.800475 0.000000
0.445731 0.788717 0.000000
0.600076 0.777278 0.000000
0.751207 0.766077 0.000000
0.899781 0.755065 0.000000
1.000000 0.744211 0.000000
0.000000 0.966815 0.000000
0.000000 0.961196 0.000000
0.100792 0.948005 0.000000
0.265885 0.935769 0.000000
0.424532 0.924011 0.000000
0.578878 0.912572 0.000000
0.730009 0.901371 0.000000
0.878582 0.890360 0.000000
1.000000 0.879506 0.000000
0.000000 1.000000 0.000000
0.000000 1.000000 0.000000
0.079741 1.000000 0.000000
0.244834 1.000000 0.000000
0.403481 1.000000 0.000000
0.557826 1.000000 0.000000
0.708957 1.000000 0.000000
0.857531 1.000000 0.000000
1.000000 1.000000 0.000000
0.000000 0.000000 0.181889
0.070896 0.000000 0.176270
0.248885 0.000000 0.163079
0.413978 0.000000 0.150843
0.572625 0.000000 0.139085
0.726971 0.000000 0.127646
0.878102 0.000000 0.116445
1.000000 0.000000 0.105434
1.000000 0.000000 0.094579
0.000000 0.126465 0.161303
0.050311 0.120846 0.155685
0.228300 0.107655 0.142493
0.393393 0.095419 0.130258
0.552040 0.083661 0.118500
0.706385 0.072222 0.107060
0.857516 0.061021 0.095860
1.000000 0.050010 0.084848
1.000000 0.039155 0.073994
0.000000 0.272322 0.138449
0.027457 0.266703 0.132831
0.205446 0.253511 0.119639
0.370539 0.241276 0.107404
0.529186 0.229518 0.095646
0.683531 0.218079 0.084207
0.834662 0.206878 0.073006
0.983236 0.195866 0.061994
1.000000 0.185012 0.051140
0.000000 0.414240 0.116213
0.005220 0.408621 0.110594
0.183209 0.395430 0.097403
0.348302 0.383194 0.085167
0.506949 0.371436 0.073409
0.661295 0.359997 0.061970
0.812426 0.348796 0.050769
0.961000 0.337785 0.039758
1.000000 0.326930 0.028903
0.000000 0.553746 0.094354
0.000000 0.548127 0.088735
0.161350 0.534936 0.075544
0.326443 0.522700 0.063308
0.485091 0.510942 0.051550
0.639436 0.499503 0.040111
0.790567 0.488302 0.028910
0.939141 0.477291 0.017899
1.000000 0.466437 0.007045
0.000000 0.691513 0.072768
0.000000 0.685894 0.067149
0.139764 0.672703 0.053958
0.304857 0.660467 0.041722
0.463504 0.648709 0.029964
0.617850 0.637270 0.018525
0.768981 0.626069 0.007324
0.917555 0.615058 0.000000
1.000000 0.604203 0.000000
0.000000 0.827921 0.051395
0.000000 0.822302 0.045776
0.118391 0.809111 0.032585
0.283484 0.796875 0.020349
0.442131 0.785117 0.008591
0.596477 0.773678 0.000000
0.747607 0.762477 0.000000
0.896181 0.751466 0.000000
1.000000 0.740611 0.000000
0.000000 0.963215 0.030196
0.000000 0.957597 0.024577
0.097192 0.944405 0.011386
0.262285 0.932170 0.000000
0.420932 0.920412 0.000000
0.575278 0.908972 0.000000
0.726409 0.897772 0.000000
0.874982 0.886760 0.000000
1.000000 0.875906 0.000000
0.000000 1.000000 0.009145
0.000000 1.000000 0.003526
0.076141 1.000000 0.000000
0.241234 1.000000 0.000000
0.399881 1.000000 0.000000
0.554226 1.000000 0.000000
0.705357 1.000000 0.000000
0.853931 1.000000 0.000000
1.000000 1.000000 0.000000
0.000000 0.000000 0.320781
0.067144 0.000000 0.315163
0.245132 0.000000 0.301971
0.410225 0.000000 0.289735
0.568872 0.000000 0.277978
0.723218 0.000000 0.266538
0.874349 0.000000 0.255337
1.000000 0.000000 0.244326
1.000000 0.000000 0.233472
0.000000 0.122712 0.300196
0.046558 0.117094 0.294577
0.224547 0.103902 0.281386
0.389640 0.091667 0.269150
0.548287 0.079909 0.257392
0.702633 0.068469 0.245953
0.853763 0.057269 0.234752
1.000000 0.046257 0.223741
1.000000 0.035403 0.212886
0.000000 0.268569 0.277342
0.023704 0.262950 0.271723
0.201693 0.249759 0.258532
0.366786 0.237523 0.246296
0.525433 0.225765 0.234538
0.679779 0.214326 0.223099
0.830910 0.203125 0.211898
0.979484 0.192114 0.200887
1.000000 0.181259 0.190033
0.000000 0.410487 0.255105
0.001468 0.404868 0.249487
0.179456 0.391677 0.236295
0.344549 0.379441 0.224060
0.503197 0.367683 0.212302
0.657542 0.356244 0.200863
0.808673 0.345043 0.189662
0.957247 0.334032 0.178650
1.000000 0.323178 0.167796
0.000000 0.549993 0.233247
0.000000 0.544375 0.227628
0.157598 0.531183 0.214437
0.322691 0.518948 0.202201
0.481338 0.507190 0.190443
0.635683 0.495751 0.179004
0.786814 0.484550 0.167803
0.935388 0.473538 0.156792
1.000000 0.462684 0.145937
0.000000 0.687760 0.211660
0.000000 0.682141 0.206042
0.136012 0.668950 0.192850
0.301105 0.656714 0.180615
0.459752 0.644956 0.168857
0.614097 0.633517 0.157418
0.765228 0.622316 0.146217
0.913802 0.611305 0.135205
1.000000 0.600451 0.124351
0.000000 0.824168 0.190287
0.000000 0.818549 0.184669
0.114638 0.805358 0.171477
0.279731 0.793122 0.159241
0.438378 0.781364 0.147483
0.592724 0.769925 0.136044
0.743855 0.758724 0.124843
0.892429 0.747713 0.113832
1.000000 0.736858 0.102978
0.000000 0.959463 0.169088
0.000000 0.953844 0.163470
0.093439 0.940653 0.150278
0.258532 0.928417 0.138043
0.417180 0.916659 0.126285
0.571525 0.905220 0.114846
0.722656 0.894019 0.103645
0.871230 0.883007 0.092633
1.000000 0.872153 0.081779
0.000000 1.000000 0.148037
0.000000 1.000000 0.142418
0.072388 1.000000 0.129227
0.237481 1.000000 0.116991
0.396128 1.000000 0.105233
0.550474 1.000000 0.093794
0.701605 1.000000 0.082593
0.850179 1.000000 0.071582
0.996635 1.000000 0.060728
0.000000 0.000000 0.462848
0.063305 0.000000 0.457229
0.241294 0.000000 0.444038
0.406387 0.000000 0.431802
0.565034 0.000000 0.420044
0.719379 0.000000 0.408605
0.870510 0.000000 0.397404
1.000000 0.000000 0.386393
1.000000 0.000000 0.375538
0.000000 0.118874 0.442262
0.042720 0.113255 0.436644
0.220709 0.100064 0.423452
0.385801 0.087828 0.411217
0.544449 0.076070 0.399459
0.698794 0.064631 0.388019
0.849925 0.053430 0.376819
0.998499 0.042419 0.365807
1.000000 0.031564 0.354953
0.000000 0.264730 0.419409
0.019866 0.259112 0.413790
0.197855 0.245920 0.400598
0.362948 0.233685 0.388363
0.521595 0.221927 0.376605
0.675940 0.210488 0.365166
0.827071 0.199287 0.353965
0.975645 0.188275 0.342953
1.000000 0.177421 0.332099
0.000000 0.406649 0.397172
0.000000 0.401030 0.391553
0.175618 0.387839 0.378362
0.340711 0.375603 0.366126
0.499358 0.363845 0.354368
0.653704 0.352406 0.342929
0.804835 0.341205 0.331728
0.953408 0.330194 0.320717
1.000000 0.319339 0.309862
0.000000 0.546155 0.375313
0.000000 0.540536 0.369694
0.153759 0.527345 0.356503
0.318852 0.515109 0.344267
0.477499 0.503351 0.332509
0.631845 0.491912 0.321070
0.782976 0.480711 0.309869
0.931550 0.469700 0.298858
1.000000 0.458845 0.288004
0.000000 0.683922 0.353727
0.000000 0.678303 0.348108
0.132173 0.665112 0.334917
0.297266 0.652876 0.322681
0.455913 0.641118 0.310923
0.610259 0.629679 0.299484
0.761390 0.618478 0.288283
0.909964 0.607467 0.277272
1.000000 0.596612 0.266417
0.000000 0.820330 0.332354
0.000000 0.814711 0.326735
0.110800 0.801520 0.313544
0.275893 0.789284 0.301308
0.434540 0.777526 0.289550
0.588885 0.766087 0.278111
0.740016 0.754886 0.266910
0.888590 0.743874 0.255899
1.000000 0.733020 0.245044
0.000000 0.955624 0.311155
0.000000 0.950006 0.305536
0.089601 0.936814 0.292345
0.254694 0.924578 0.280109
0.413341 0.912820 0.268351
0.567687 0.901381 0.256912
0.718818 0.890180 0.245711
0.867391 0.879169 0.234700
1.000000 0.868315 0.223845
0.000000 1.000000 0.290104
0.000000 1.000000 0.284485
0.068550 1.000000 0.271293
0.233643 1.000000 0.259058
0.392290 1.000000 0.247300
0.546635 1.000000 0.235861
0.697766 1.000000 0.224660
0.846340 1.000000 0.213648
0.992796 1.000000 0.202794
0.000000 0.000000 0.607163
0.059406 0.000000 0.601544
0.237395 0.000000 0.588353
0.402488 0.000000 0.576117
0.561135 0.000000 0.564359
0.715480 0.000000 0.552920
0.866611 0.000000 0.541719
1.000000 0.000000 0.530708
1.000000 0.000000 0.519853
0.000000 0.114975 0.586577
0.038821 0.109356 0.580959
0.216809 0.096165 0.567767
0.381902 0.083929 0.555532
0.540550 0.072171 0.543774
0.694895 0.060732 0.532335
0.846026 0.049531 0.521134
0.994600 0.038520 0.510122
1.000000 0.027665 0.499268
0.000000 0.260831 0.563724
0.015967 0.255213 0.558105
0.193956 0.242021 0.544914
0.359049 0.229786 0.532678
0.517696 0.218028 0.520920
0.672041 0.206588 0.509481
0.823172 0.195388 0.498280
0.971746 0.184376 0.487269
1.000000 0.173522 0.476414
0.000000 0.402749 0.541487
0.000000 0.397131 0.535868
0.171719 0.383939 0.522677
0.336812 0.371704 0.510441
0.495459 0.359946 0.498683
0.649804 0.348507 0.487244
0.800935 0.337306 0.476043
0.949509 0.326294 0.465032
1.000000 0.315440 0.454177
0.000000 0.542256 0.519628
0.000000 0.536637 0.514010
0.149860 0.523446 0.500818
0.314953 0.511210 0.488583
0.473600 0.499452 0.476825
0.627946 0.488013 0.465385
0.779077 0.476812 0.454185
0.927651 0.465801 0.443173
1.000000 0.454946 0.432319
0.000000 0.680022 0.498042
0.000000 0.674404 0.492423
0.128274 0.661212 0.479232
0.293367 0.648977 0.466996
0.452014 0.637219 0.455238
0.606360 0.625780 0.443799
0.757491 0.614579 0.432598
0.906064 0.603567 0.421587
1.000000 0.592713 0.410733
0.000000 0.816430 0.476669
0.000000 0.810812 0.471050
0.106901 0.797620 0.457859
0.271994 0.785385 0.445623
0.430641 0.773627 0.433865
0.584986 0.762188 0.422426
0.736117 0.750987 0.411225
0.884691 0.739975 0.400214
1.000000 0.729121 0.389359
0.000000 0.951725 0.455470
0.000000 0.946106 0.449851
0.085702 0.932915 0.436660
0.250795 0.920679 0.424424
0.409442 0.908921 0.412666
0.563787 0.897482 0.401227
0.714918 0.886281 0.390026
0.863492 0.875270 0.379015
1.000000 0.864415 0.368160
0.000000 1.000000 0.434419
0.000000 1.000000 0.428800
0.064651 1.000000 0.415609
0.229744 1.000000 0.403373
0.388391 1.000000 0.391615
0.542736 1.000000 0.380176
0.693867 1.000000 0.368975
0.842441 1.000000 0.357964
0.988897 0.998768 0.347109
0.000000 0.000000 0.753230
0.055460 0.000000 0.747611
0.233448 0.000000 0.734420
0.398541 0.000000 0.722184
0.557188 0.000000 0.710426
0.711534 0.000000 0.698987
0.862665 0.000000 0.687786
1.000000 0.000000 0.676774
1.000000 0.000000 0.665920
0.000000 0.111028 0.732644
0.034874 0.105410 0.727026
0.212863 0.092218 0.713834
0.377956 0.079982 0.701598
0.536603 0.068225 0.689841
0.690948 0.056785 0.678401
0.842079 0.045584 0.667200
0.990653 0.034573 0.656189
1.000000 0.023719 0.645335
0.000000 0.256885 0.709790
0.012020 0.251266 0.704172
0.190009 0.238075 0.690980
0.355102 0.225839 0.678745
0.513749 0.214081 0.666987
0.668095 0.202642 0.655548
0.819226 0.191441 0.644347
0.967799 0.180430 0.633335
1.000000 0.169575 0.622481
0.000000 0.398803 0.687554
0.000000 0.393184 0.681935
0.167772 0.379993 0.668744
0.332865 0.367757 0.656508
0.491513 0.355999 0.644750
0.645858 0.344560 0.633311
0.796989 0.333359 0.622110
0.945563 0.322348 0.611099
1.000000 0.311493 0.600244
0.000000 0.538309 0.665695
0.000000 0.532691 0.660076
0.145914 0.519499 0.646885
0.311007 0.507264 0.634649
0.469654 0.495506 0.622891
0.623999 0.484066 0.611452
0.775130 0.472866 0.600251
0.923704 0.461854 0.589240
1.000000 0.451000 0.578385
0.000000 0.676076 0.644109
0.000000 0.670457 0.638490
0.124327 0.657266 0.625299
0.289420 0.645030 0.613063
0.448068 0.633272 0.601305
0.602413 0.621833 0.589866
0.753544 0.610632 0.578665
0.902118 0.599621 0.567654
1.000000 0.588766 0.556799
0.000000 0.812484 0.622736
0.000000 0.806865 0.617117
0.102954 0.793674 0.603925
0.268047 0.781438 0.591690
0.426694 0.769680 0.579932
0.581040 0.758241 0.568493
0.732171 0.747040 0.557292
0.880745 0.736029 0.546280
1.000000 0.725174 0.535426
0.000000 0.947778 0.601537
0.000000 0.942160 0.595918
0.081755 0.928968 0.582727
0.246848 0.916733 0.570491
0.405495 0.904975 0.558733
0.559841 0.893536 0.547294
0.710972 0.882335 0.536093
0.859546 0.871323 0.525082
1.000000 0.860469 0.514227
0.000000 1.000000 0.580485
0.000000 1.000000 0.574867
0.060704 1.000000 0.561675
0.225797 1.000000 0.549440
0.384444 1.000000 0.537682
0.538790 1.000000 0.526243
0.689921 1.000000 0.515042
0.838494 1.000000 0.504030
0.984951 0.994821 0.493176
0.000000 0.000000 0.900735
0.051474 0.000000 0.895116
0.229463 0.000000 0.881925
0.394556 0.000000 0.869689
0.553203 0.000000 0.857931
0.707548 0.000000 0.846492
0.858679 0.000000 0.835291
1.000000 0.000000 0.824280
1.000000 0.000000 0.813426
0.000000 0.107043 0.880150
0.030889 0.101424 0.874531
0.208877 0.088233 0.861340
0.373970 0.075997 0.849104
0.532618 0.064239 0.837346
0.686963 0.052800 0.825907
0.838094 0.041599 0.814706
0.986668 0.030588 0.803695
1.000000 0.019733 0.792840
0.000000 0.252899 0.857296
0.008035 0.247281 0.851677
0.186024 0.234089 0.838486
0.351117 0.221854 0.826250
0.509764 0.210096 0.814492
0.664109 0.198657 0.803053
0.815240 0.187456 0.791852
0.963814 0.176444 0.780841
1.000000 0.165590 0.769986
0.000000 0.394818 0.835059
0.000000 0.389199 0.829441
0.163787 0.376008 0.816249
0.328880 0.363772 0.804014
0.487527 0.352014 0.792256
0.641873 0.340575 0.780816
0.793004 0.329374 0.769616
0.941577 0.318363 0.758604
1.000000 0.307508 0.747750
0.000000 0.534324 0.813200
0.000000 0.528705 0.807582
0.141928 0.515514 0.794390
0.307021 0.503278 0.782155
0.465668 0.491520 0.770397
0.620014 0.480081 0.758958
0.771145 0.468880 0.747757
0.919719 0.457869 0.736745
1.000000 0.447014 0.725891
0.000000 0.672091 0.791614
0.000000 0.666472 0.785996
0.120342 0.653281 0.772804
0.285435 0.641045 0.760569
0.444082 0.629287 0.748811
0.598428 0.617848 0.737371
0.749559 0.606647 0.726171
0.898132 0.595635 0.715159
1.000000 0.584781 0.704305
0.000000 0.808498 0.770241
0.000000 0.802880 0.764622
0.098969 0.789688 0.751431
0.264062 0.777453 0.739195
0.422709 0.765695 0.727437
0.577054 0.754256 0.715998
0.728185 0.743055 0.704797
0.876759 0.732043 0.693786
1.000000 0.721189 0.682931
0.000000 0.943793 0.749042
0.000000 0.938174 0.743424
0.077770 0.924983 0.730232
0.242863 0.912747 0.717996
0.401510 0.900989 0.706238
0.555856 0.889550 0.694799
0.706987 0.878349 0.683598
0.855560 0.867338 0.672587
1.000000 0.856484 0.661733
0.000000 1.000000 0.727991
0.000000 1.000000 0.722372
0.056719 1.000000 0.709181
0.221812 1.000000 0.696945
0.380459 1.000000 0.685187
0.534804 1.000000 0.673748
0.685935 1.000000 0.662547
0.834509 1.000000 0.651536
0.980965 0.990836 0.640681
0.000000 0.000000 1.000000
0.047456 0.000000 1.000000
0.225444 0.000000 1.000000
0.390537 0.000000 1.000000
0.549185 0.000000 1.000000
0.703530 0.000000 0.995221
0.854661 0.000000 0.984020
1.000000 0.000000 0.973008
1.000000 0.000000 0.962154
0.000000 0.103024 1.000000
0.026870 0.097406 1.000000
0.204859 0.084214 1.000000
0.369952 0.071979 0.997832
0.528599 0.060221 0.986074
0.682945 0.048782 0.974635
0.834076 0.037581 0.963434
0.982649 0.026569 0.952423
1.000000 0.015715 0.941569
0.000000 0.248881 1.000000
0.004017 0.243262 1.000000
0.182005 0.230071 0.987214
0.347098 0.217835 0.974979
0.505745 0.206077 0.963221
0.660091 0.194638 0.951782
0.811222 0.183437 0.940581
0.959796 0.172426 0.929569
1.000000 0.161571 0.918715
0.000000 0.390799 0.983788
0.000000 0.385181 0.978169
0.159769 0.371989 0.964978
0.324862 0.359753 0.952742
0.483509 0.347996 0.940984
0.637854 0.336556 0.929545
0.788985 0.325355 0.918344
0.937559 0.314344 0.907333
1.000000 0.303490 0.896478
0.000000 0.530305 0.961929
0.000000 0.524687 0.956310
0.137910 0.511495 0.943119
0.303003 0.499260 0.930883
0.461650 0.487502 0.919125
0.615995 0.476063 0.907686
0.767126 0.464862 0.896485
0.915700 0.453850 0.885474
1.000000 0.442996 0.874619
0.000000 0.668072 0.940343
0.000000 0.662454 0.934724
0.116324 0.649262 0.921533
0.281417 0.637026 0.909297
0.440064 0.625268 0.897539
0.594409 0.613829 0.886100
0.745540 0.602628 0.874899
0.894114 0.591617 0.863888
1.000000 0.580763 0.853033
0.000000 0.804480 0.918969
0.000000 0.798861 0.913351
0.094950 0.785670 0.900159
0.260043 0.773434 0.887924
0.418691 0.761676 0.876166
0.573036 0.750237 0.864727
0.724167 0.739036 0.853526
0.872741 0.728025 0.842514
1.000000 0.717171 0.831660
0.000000 0.939775 0.897771
0.000000 0.934156 0.892152
0.073752 0.920965 0.878961
0.238844 0.908729 0.866725
0.397492 0.896971 0.854967
0.551837 0.885532 0.843528
0.702968 0.874331 0.832327
0.851542 0.863320 0.821315
0.997998 0.852465 0.810461
0.000000 1.000000 0.876719
0.000000 1.000000 0.871101
0.052700 1.000000 0.857909
0.217793 1.000000 0.845674
0.376440 1.000000 0.833916
0.530786 1.000000 0.822477
0.681917 1.000000 0.811276
0.830491 0.997672 0.800264
0.976947 0.986818 0.789410
0.000000 0.000000 1.000000
0.043409 0.000000 1.000000
0.221397 0.000000 1.000000
0.386490 0.000000 1.000000
0.545137 0.000000 1.000000
0.699483 0.000000 1.000000
0.850614 0.000000 1.000000
0.999188 0.000000 1.000000
1.000000 0.000000 1.000000
0.000000 0.098977 1.000000
0.022823 0.093359 1.000000
0.200812 0.080167 1.000000
0.365905 0.067931 1.000000
0.524552 0.056174 1.000000
0.678897 0.044734 1.000000
0.830028 0.033534 1.000000
0.978602 0.022522 1.000000
1.000000 0.011668 1.000000
0.000000 0.244834 1.000000
0.000000 0.239215 1.000000
0.177958 0.226024 1.000000
0.343051 0.213788 1.000000
0.501698 0.202030 1.000000
0.656044 0.190591 1.000000
0.807175 0.179390 1.000000
0.955748 0.168379 1.000000
1.000000 0.157524 1.000000
0.000000 0.386752 1.000000
0.000000 0.381133 1.000000
0.155721 0.367942 1.000000
0.320814 0.355706 1.000000
0.479462 0.343948 1.000000
0.633807 0.332509 1.000000
0.784938 0.321308 1.000000
0.933512 0.310297 1.000000
1.000000 0.299442 1.000000
0.000000 0.526258 1.000000
0.000000 0.520640 1.000000
0.133863 0.507448 1.000000
0.298956 0.495213 1.000000
0.457603 0.483455 1.000000
0.611948 0.472016 1.000000
0.763079 0.460815 1.000000
0.911653 0.449803 1.000000
1.000000 0.438949 1.000000
0.000000 0.664025 1.000000
0.000000 0.658406 1.000000
0.112276 0.645215 1.000000
0.277369 0.632979 1.000000
0.436017 0.621221 1.000000
0.590362 0.609782 1.000000
0.741493 0.598581 1.000000
0.890067 0.587570 1.000000
1.000000 0.576715 1.000000
0.000000 0.800433 1.000000
0.000000 0.794814 1.000000
0.090903 0.781623 1.000000
0.255996 0.769387 1.000000
0.414643 0.757629 1.000000
0.568989 0.746190 1.000000
0.720120 0.734989 1.000000
0.868694 0.723978 0.992308
1.000000 0.713123 0.981453
0.000000 0.935727 1.000000
0.000000 0.930109 1.000000
0.069704 0.916917 1.000000
0.234797 0.904682 1.000000
0.393445 0.892924 1.000000
0.547790 0.881485 0.993321
0.698921 0.870284 0.982120
0.847495 0.859272 0.971109
0.993951 0.848418 0.960254
0.000000 1.000000 1.000000
0.000000 1.000000 1.000000
0.048653 1.000000 1.000000
0.213746 1.000000 0.995467
0.372393 1.000000 0.983709
0.526739 1.000000 0.972270
0.677870 1.000000 0.961069
0.826443 0.993625 0.950057
0.972900 0.982770 0.939203
