ApexStudio/app/src/main/assets/luts/neon_purple.cube
# ApexStudio filter: neon_purple
LUT_3D_SIZE 9
DOMAIN_MIN 0.0 0.0 0.0
DOMAIN_MAX 1.0 1.0 1.0
0.116470 0.000000 0.176470
0.258995 0.000000 0.168995
0.401520 0.000000 0.161520
0.544045 0.000000 0.154045
0.686570 0.000000 0.146570
0.829095 0.000000 0.139095
0.971620 0.000000 0.131620
1.000000 0.000000 0.124145
1.000000 0.000000 0.116670
0.101795 0.071795 0.161795
0.244320 0.064320 0.154320
0.386845 0.056845 0.146845
0.529370 0.049370 0.139370
0.671895 0.041895 0.131895
0.814420 0.034420 0.124420
0.956945 0.026945 0.116945
1.000000 0.019470 0.109470
1.000000 0.011995 0.101995
0.087120 0.207120 0.147120
0.229645 0.199645 0.139645
0.372170 0.192170 0.132170
0.514695 0.184695 0.124695
0.657220 0.177220 0.117220
0.799745 0.169745 0.109745
0.942270 0.162270 0.102270
1.000000 0.154795 0.094795
1.000000 0.147320 0.087320
0.072445 0.342445 0.132445
0.214970 0.334970 0.124970
0.357495 0.327495 0.117495
0.500020 0.320020 0.110020
0.642545 0.312545 0.102545
0.785070 0.305070 0.095070
0.927595 0.297595 0.087595
1.000000 0.290120 0.080120
1.000000 0.282645 0.072645
0.057770 0.477770 0.117770
0.200295 0.470295 0.110295
0.342820 0.462820 0.102820
0.485345 0.455345 0.095345
0.627870 0.447870 0.087870
0.770395 0.440395 0.080395
0.912920 0.432920 0.072920
1.000000 0.425445 0.065445
1.000000 0.417970 0.057970
0.043095 0.613095 0.103095
0.185620 0.605620 0.095620
0.328145 0.598145 0.088145
0.470670 0.590670 0.080670
0.613195 0.583195 0.073195
0.755720 0.575720 0.065720
0.898245 0.568245 0.058245
1.000000 0.560770 0.050770
1.000000 0.553295 0.043295
0.028420 0.748420 0.088420
0.170945 0.740945 0.080945
0.313470 0.733470 0.073470
0.455995 0.725995 0.065995
0.598520 0.718520 0.058520
0.741045 0.711045 0.051045
0.883570 0.703570 0.043570
1.000000 0.696095 0.036095
1.000000 0.688620 0.028620
0.013745 0.883745 0.073745
0.156270 0.876270 0.066270
0.298795 0.868795 0.058795
0.441320 0.861320 0.051320
0.583845 0.853845 0.043845
0.726370 0.846370 0.036370
0.868895 0.838895 0.028895
1.000000 0.831420 0.021420
1.000000 0.823945 0.013945
0.000000 1.000000 0.059070
0.141595 1.000000 0.051595
0.284120 1.000000 0.044120
0.426645 0.996645 0.036645
0.569170 0.989170 0.029170
0.711695 0.981695 0.021695
0.854220 0.974220 0.014220
0.996745 0.966745 0.006745
1.000000 0.959270 0.000000
0.113620 0.000000 0.323620
0.256145 0.000000 0.316145
0.398670 0.000000 0.308670
0.541195 0.000000 0.301195
0.683720 0.000000 0.293720
0.826245 0.000000 0.286245
0.968770 0.000000 0.278770
1.000000 0.000000 0.271295
1.000000 0.000000 0.263820
0.098945 0.068945 0.308945
0.241470 0.061470 0.301470
0.383995 0.053995 0.293995
0.526520 0.046520 0.286520
0.669045 0.039045 0.279045
0.811570 0.031570 0.271570
0.954095 0.024095 0.264095
1.000000 0.016620 0.256620
1.000000 0.009145 0.249145
0.084270 0.204270 0.294270
0.226795 0.196795 0.286795
0.369320 0.189320 0.279320
0.511845 0.181845 0.271845
0.654370 0.174370 0.264370
0.796895 0.166895 0.256895
0.939420 0.159420 0.249420
1.000000 0.151945 0.241945
1.000000 0.144470 0.234470
0.069595 0.339595 0.279595
0.212120 0.332120 0.272120
0.354645 0.324645 0.264645
0.497170 0.317170 0.257170
0.639695 0.309695 0.249695
0.782220 0.302220 0.242220
0.924745 0.294745 0.234745
1.000000 0.287270 0.227270
1.000000 0.279795 0.219795
0.054920 0.474920 0.264920
0.197445 0.467445 0.257445
0.339970 0.459970 0.249970
0.482495 0.452495 0.242495
0.625020 0.445020 0.235020
0.767545 0.437545 0.227545
0.910070 0.430070 0.220070
1.000000 0.422595 0.212595
1.000000 0.415120 0.205120
0.040245 0.610245 0.250245
0.182770 0.602770 0.242770
0.325295 0.595295 0.235295
0.467820 0.587820 0.227820
0.610345 0.580345 0.220345
0.752870 0.572870 0.212870
0.895395 0.565395 0.205395
1.000000 0.557920 0.197920
1.000000 0.550445 0.190445
0.025570 0.745570 0.235570
0.168095 0.738095 0.228095
0.310620 0.730620 0.220620
0.453145 0.723145 0.213145
0.595670 0.715670 0.205670
0.738195 0.708195 0.198195
0.880720 0.700720 0.190720
1.000000 0.693245 0.183245
1.000000 0.685770 0.175770
0.010895 0.880895 0.220895
0.153420 0.873420 0.213420
0.295945 0.865945 0.205945
0.438470 0.858470 0.198470
0.580995 0.850995 0.190995
0.723520 0.843520 0.183520
0.866045 0.836045 0.176045
1.000000 0.828570 0.168570
1.000000 0.821095 0.161095
0.000000 1.000000 0.206220
0.138745 1.000000 0.198745
0.281270 1.000000 0.191270
0.423795 0.993795 0.183795
0.566320 0.986320 0.176320
0.708845 0.978845 0.168845
0.851370 0.971370 0.161370
0.993895 0.963895 0.153895
1.000000 0.956420 0.146420
0.110770 0.000000 0.470770
0.253295 0.000000 0.463295
0.395820 0.000000 0.455820
0.538345 0.000000 0.448345
0.680870 0.000000 0.440870
0.823395 0.000000 0.433395
0.965920 0.000000 0.425920
1.000000 0.000000 0.418445
1.000000 0.000000 0.410970
0.096095 0.066095 0.456095
0.238620 0.058620 0.448620
0.381145 0.051145 0.441145
0.523670 0.043670 0.433670
0.666195 0.036195 0.426195
0.808720 0.028720 0.418720
0.951245 0.021245 0.411245
1.000000 0.013770 0.403770
1.000000 0.006295 0.396295
0.081420 0.201420 0.441420
0.223945 0.193945 0.433945
0.366470 0.186470 0.426470
0.508995 0.178995 0.418995
0.651520 0.171520 0.411520
0.794045 0.164045 0.404045
0.936570 0.156570 0.396570
1.000000 0.149095 0.389095
1.000000 0.141620 0.381620
0.066745 0.336745 0.426745
0.209270 0.329270 0.419270
0.351795 0.321795 0.411795
0.494320 0.314320 0.404320
0.636845 0.306845 0.396845
0.779370 0.299370 0.389370
0.921895 0.291895 0.381895
1.000000 0.284420 0.374420
1.000000 0.276945 0.366945
0.052070 0.472070 0.412070
0.194595 0.464595 0.404595
0.337120 0.457120 0.397120
0.479645 0.449645 0.389645
0.622170 0.442170 0.382170
0.764695 0.434695 0.374695
0.907220 0.427220 0.367220
1.000000 0.419745 0.359745
1.000000 0.412270 0.352270
0.037395 0.607395 0.397395
0.179920 0.599920 0.389920
0.322445 0.592445 0.382445
0.464970 0.584970 0.374970
0.607495 0.577495 0.367495
0.750020 0.570020 0.360020
0.892545 0.562545 0.352545
1.000000 0.555070 0.345070
1.000000 0.547595 0.337595
0.022720 0.742720 0.382720
0.165245 0.735245 0.375245
0.307770 0.727770 0.367770
0.450295 0.720295 0.360295
0.592820 0.712820 0.352820
0.735345 0.705345 0.345345
0.877870 0.697870 0.337870
1.000000 0.690395 0.330395
1.000000 0.682920 0.322920
0.008045 0.878045 0.368045
0.150570 0.870570 0.360570
0.293095 0.863095 0.353095
0.435620 0.855620 0.345620
0.578145 0.848145 0.338145
0.720670 0.840670 0.330670
0.863195 0.833195 0.323195
1.000000 0.825720 0.315720
1.000000 0.818245 0.308245
0.000000 1.000000 0.353370
0.135895 1.000000 0.345895
0.278420 0.998420 0.338420
0.420945 0.990945 0.330945
0.563470 0.983470 0.323470
0.705995 0.975995 0.315995
0.848520 0.968520 0.308520
0.991045 0.961045 0.301045
1.000000 0.953570 0.293570
0.107920 0.000000 0.617920
0.250445 0.000000 0.610445
0.392970 0.000000 0.602970
0.535495 0.000000 0.595495
0.678020 0.000000 0.588020
0.820545 0.000000 0.580545
0.963070 0.000000 0.573070
1.000000 0.000000 0.565595
1.000000 0.000000 0.558120
0.093245 0.063245 0.603245
0.235770 0.055770 0.595770
0.378295 0.048295 0.588295
0.520820 0.040820 0.580820
0.663345 0.033345 0.573345
0.805870 0.025870 0.565870
0.948395 0.018395 0.558395
1.000000 0.010920 0.550920
1.000000 0.003445 0.543445
0.078570 0.198570 0.588570
0.221095 0.191095 0.581095
0.363620 0.183620 0.573620
0.506145 0.176145 0.566145
0.648670 0.168670 0.558670
0.791195 0.161195 0.551195
0.933720 0.153720 0.543720
1.000000 0.146245 0.536245
1.000000 0.138770 0.528770
0.063895 0.333895 0.573895
0.206420 0.326420 0.566420
0.348945 0.318945 0.558945
0.491470 0.311470 0.551470
0.633995 0.303995 0.543995
0.776520 0.296520 0.536520
0.919045 0.289045 0.529045
1.000000 0.281570 0.521570
1.000000 0.274095 0.514095
0.049220 0.469220 0.559220
0.191745 0.461745 0.551745
0.334270 0.454270 0.544270
0.476795 0.446795 0.536795
0.619320 0.439320 0.529320
0.761845 0.431845 0.521845
0.904370 0.424370 0.514370
1.000000 0.416895 0.506895
1.000000 0.409420 0.499420
0.034545 0.604545 0.544545
0.177070 0.597070 0.537070
0.319595 0.589595 0.529595
0.462120 0.582120 0.522120
0.604645 0.574645 0.514645
0.747170 0.567170 0.507170
0.889695 0.559695 0.499695
1.000000 0.552220 0.492220
1.000000 0.544745 0.484745
0.019870 0.739870 0.529870
0.162395 0.732395 0.522395
0.304920 0.724920 0.514920
0.447445 0.717445 0.507445
0.589970 0.709970 0.499970
0.732495 0.702495 0.492495
0.875020 0.695020 0.485020
1.000000 0.687545 0.477545
1.000000 0.680070 0.470070
0.005195 0.875195 0.515195
0.147720 0.867720 0.507720
0.290245 0.860245 0.500245
0.432770 0.852770 0.492770
0.575295 0.845295 0.485295
0.717820 0.837820 0.477820
0.860345 0.830345 0.470345
1.000000 0.822870 0.462870
1.000000 0.815395 0.455395
0.000000 1.000000 0.500520
0.133045 1.000000 0.493045
0.275570 0.995570 0.485570
0.418095 0.988095 0.478095
0.560620 0.980620 0.470620
0.703145 0.973145 0.463145
0.845670 0.965670 0.455670
0.988195 0.958195 0.448195
1.000000 0.950720 0.440720
0.105070 0.000000 0.765070
0.247595 0.000000 0.757595
0.390120 0.000000 0.750120
0.532645 0.000000 0.742645
0.675170 0.000000 0.735170
0.817695 0.000000 0.727695
0.960220 0.000000 0.720220
1.000000 0.000000 0.712745
1.000000 0.000000 0.705270
0.090395 0.060395 0.750395
0.232920 0.052920 0.742920
0.375445 0.045445 0.735445
0.517970 0.037970 0.727970
0.660495 0.030495 0.720495
0.803020 0.023020 0.713020
0.945545 0.015545 0.705545
1.000000 0.008070 0.698070
1.000000 0.000595 0.690595
0.075720 0.195720 0.735720
0.218245 0.188245 0.728245
0.360770 0.180770 0.720770
0.503295 0.173295 0.713295
0.645820 0.165820 0.705820
0.788345 0.158345 0.698345
0.930870 0.150870 0.690870
1.000000 0.143395 0.683395
1.000000 0.135920 0.675920
0.061045 0.331045 0.721045
0.203570 0.323570 0.713570
0.346095 0.316095 0.706095
0.488620 0.308620 0.698620
0.631145 0.301145 0.691145
0.773670 0.293670 0.683670
0.916195 0.286195 0.676195
1.000000 0.278720 0.668720
1.000000 0.271245 0.661245
0.046370 0.466370 0.706370
0.188895 0.458895 0.698895
0.331420 0.451420 0.691420
0.473945 0.443945 0.683945
0.616470 0.436470 0.676470
0.758995 0.428995 0.668995
0.901520 0.421520 0.661520
1.000000 0.414045 0.654045
1.000000 0.406570 0.646570
0.031695 0.601695 0.691695
0.174220 0.594220 0.684220
0.316745 0.586745 0.676745
0.459270 0.579270 0.669270
0.601795 0.571795 0.661795
0.744320 0.564320 0.654320
0.886845 0.556845 0.646845
1.000000 0.549370 0.639370
1.000000 0.541895 0.631895
0.017020 0.737020 0.677020
0.159545 0.729545 0.669545
0.302070 0.722070 0.662070
0.444595 0.714595 0.654595
0.587120 0.707120 0.647120
0.729645 0.699645 0.639645
0.872170 0.692170 0.632170
1.000000 0.684695 0.624695
1.000000 0.677220 0.617220
0.002345 0.872345 0.662345
0.144870 0.864870 0.654870
0.287395 0.857395 0.647395
0.429920 0.849920 0.639920
0.572445 0.842445 0.632445
0.714970 0.834970 0.624970
0.857495 0.827495 0.617495
1.000000 0.820020 0.610020
1.000000 0.812545 0.602545
0.000000 1.000000 0.647670
0.130195 1.000000 0.640195
0.272720 0.992720 0.632720
0.415245 0.985245 0.625245
0.557770 0.977770 0.617770
0.700295 0.970295 0.610295
0.842820 0.962820 0.602820
0.985345 0.955345 0.595345
1.000000 0.947870 0.587870
0.102220 0.000000 0.912220
0.244745 0.000000 0.904745
0.387270 0.000000 0.897270
0.529795 0.000000 0.889795
0.672320 0.000000 0.882320
0.814845 0.000000 0.874845
0.957370 0.000000 0.867370
1.000000 0.000000 0.859895
1.000000 0.000000 0.852420
0.087545 0.057545 0.897545
0.230070 0.050070 0.890070
0.372595 0.042595 0.882595
0.515120 0.035120 0.875120
0.657645 0.027645 0.867645
0.800170 0.020170 0.860170
0.942695 0.012695 0.852695
1.000000 0.005220 0.845220
1.000000 0.000000 0.837745
0.072870 0.192870 0.882870
0.215395 0.185395 0.875395
0.357920 0.177920 0.867920
0.500445 0.170445 0.860445
0.642970 0.162970 0.852970
0.785495 0.155495 0.845495
0.928020 0.148020 0.838020
1.000000 0.140545 0.830545
1.000000 0.133070 0.823070
0.058195 0.328195 0.868195
0.200720 0.320720 0.860720
0.343245 0.313245 0.853245
0.485770 0.305770 0.845770
0.628295 0.298295 0.838295
0.770820 0.290820 0.830820
0.913345 0.283345 0.823345
1.000000 0.275870 0.815870
1.000000 0.268395 0.808395
0.043520 0.463520 0.853520
0.186045 0.456045 0.846045
0.328570 0.448570 0.838570
0.471095 0.441095 0.831095
0.613620 0.433620 0.823620
0.756145 0.426145 0.816145
0.898670 0.418670 0.808670
1.000000 0.411195 0.801195
1.000000 0.403720 0.793720
0.028845 0.598845 0.838845
0.171370 0.591370 0.831370
0.313895 0.583895 0.823895
0.456420 0.576420 0.816420
0.598945 0.568945 0.808945
0.741470 0.561470 0.801470
0.883995 0.553995 0.793995
1.000000 0.546520 0.786520
1.000000 0.539045 0.779045
0.014170 0.734170 0.824170
0.156695 0.726695 0.816695
0.299220 0.719220 0.809220
0.441745 0.711745 0.801745
0.584270 0.704270 0.794270
0.726795 0.696795 0.786795
0.869320 0.689320 0.779320
1.000000 0.681845 0.771845
1.000000 0.674370 0.764370
0.000000 0.869495 0.809495
0.142020 0.862020 0.802020
0.284545 0.854545 0.794545
0.427070 0.847070 0.787070
0.569595 0.839595 0.779595
0.712120 0.832120 0.772120
0.854645 0.824645 0.764645
0.997170 0.817170 0.757170
1.000000 0.809695 0.749695
0.000000 1.000000 0.794820
0.127345 0.997345 0.787345
0.269870 0.989870 0.779870
0.412395 0.982395 0.772395
0.554920 0.974920 0.764920
0.697445 0.967445 0.757445
0.839970 0.959970 0.749970
0.982495 0.952495 0.742495
1.000000 0.945020 0.735020
0.099370 0.000000 1.000000
0.241895 0.000000 1.000000
0.384420 0.000000 1.000000
0.526945 0.000000 1.000000
0.669470 0.000000 1.000000
0.811995 0.000000 1.000000
0.954520 0.000000 1.000000
1.000000 0.000000 1.000000
1.000000 0.000000 0.999570
0.084695 0.054695 1.000000
0.227220 0.047220 1.000000
0.369745 0.039745 1.000000
0.512270 0.032270 1.000000
0.654795 0.024795 1.000000
0.797320 0.017320 1.000000
0.939845 0.009845 0.999845
1.000000 0.002370 0.992370
1.000000 0.000000 0.984895
0.070020 0.190020 1.000000
0.212545 0.182545 1.000000
0.355070 0.175070 1.000000
0.497595 0.167595 1.000000
0.640120 0.160120 1.000000
0.782645 0.152645 0.992645
0.925170 0.145170 0.985170
1.000000 0.137695 0.977695
1.000000 0.130220 0.970220
0.055345 0.325345 1.000000
0.197870 0.317870 1.000000
0.340395 0.310395 1.000000
0.482920 0.302920 0.992920
0.625445 0.295445 0.985445
0.767970 0.287970 0.977970
0.910495 0.280495 0.970495
1.000000 0.273020 0.963020
1.000000 0.265545 0.955545
0.040670 0.460670 1.000000
0.183195 0.453195 0.993195
0.325720 0.445720 0.985720
0.468245 0.438245 0.978245
0.610770 0.430770 0.970770
0.753295 0.423295 0.963295
0.895820 0.415820 0.955820
1.000000 0.408345 0.948345
1.000000 0.400870 0.940870
0.025995 0.595995 0.985995
0.168520 0.588520 0.978520
0.311045 0.581045 0.971045
0.453570 0.573570 0.963570
0.596095 0.566095 0.956095
0.738620 0.558620 0.948620
0.881145 0.551145 0.941145
1.000000 0.543670 0.933670
1.000000 0.536195 0.926195
0.011320 0.731320 0.971320
0.153845 0.723845 0.963845
0.296370 0.716370 0.956370
0.438895 0.708895 0.948895
0.581420 0.701420 0.941420
0.723945 0.693945 0.933945
0.866470 0.686470 0.926470
1.000000 0.678995 0.918995
1.000000 0.671520 0.911520
0.000000 0.866645 0.956645
0.139170 0.859170 0.949170
0.281695 0.851695 0.941695
0.424220 0.844220 0.934220
0.566745 0.836745 0.926745
0.709270 0.829270 0.919270
0.851795 0.821795 0.911795
0.994320 0.814320 0.904320
1.000000 0.806845 0.896845
0.000000 1.000000 0.941970
0.124495 0.994495 0.934495
0.267020 0.987020 0.927020
0.409545 0.979545 0.919545
0.552070 0.972070 0.912070
0.694595 0.964595 0.904595
0.837120 0.957120 0.897120
0.979645 0.949645 0.889645
1.000000 0.942170 0.882170
0.096520 0.000000 1.000000
0.239045 0.000000 1.000000
0.381570 0.000000 1.000000
0.524095 0.000000 1.000000
0.666620 0.000000 1.000000
0.809145 0.000000 1.000000
0.951670 0.000000 1.000000
1.000000 0.000000 1.000000
1.000000 0.000000 1.000000
0.081845 0.051845 1.000000
0.224370 0.044370 1.000000
0.366895 0.036895 1.000000
0.509420 0.029420 1.000000
0.651945 0.021945 1.000000
0.794470 0.014470 1.000000
0.936995 0.006995 1.000000
1.000000 0.000000 1.000000
1.000000 0.000000 1.000000
0.067170 0.187170 1.000000
0.209695 0.179695 1.000000
0.352220 0.172220 1.000000
0.494745 0.164745 1.000000
0.637270 0.157270 1.000000
0.779795 0.149795 1.000000
0.922320 0.142320 1.000000
1.000000 0.134845 1.000000
1.000000 0.127370 1.000000
0.052495 0.322495 1.000000
0.195020 0.315020 1.000000
0.337545 0.307545 1.000000
0.480070 0.300070 1.000000
0.622595 0.292595 1.000000
0.765120 0.285120 1.000000
0.907645 0.277645 1.000000
1.000000 0.270170 1.000000
1.000000 0.262695 1.000000
0.037820 0.457820 1.000000
0.180345 0.450345 1.000000
0.322870 0.442870 1.000000
0.465395 0.435395 1.000000
0.607920 0.427920 1.000000
0.750445 0.420445 1.000000
0.892970 0.412970 1.000000
1.000000 0.405495 1.000000
1.000000 0.398020 1.000000
0.023145 0.593145 1.000000
0.165670 0.585670 1.000000
0.308195 0.578195 1.000000
0.450720 0.570720 1.000000
0.593245 0.563245 1.000000
0.735770 0.555770 1.000000
0.878295 0.548295 1.000000
1.000000 0.540820 1.000000
1.000000 0.533345 1.000000
0.008470 0.728470 1.000000
0.150995 0.720995 1.000000
0.293520 0.713520 1.000000
0.436045 0.706045 1.000000
0.578570 0.698570 1.000000
0.721095 0.691095 1.000000
0.863620 0.683620 1.000000
1.000000 0.676145 1.000000
1.000000 0.668670 1.000000
0.000000 0.863795 1.000000
0.136320 0.856320 1.000000
0.278845 0.848845 1.000000
0.421370 0.841370 1.000000
0.563895 0.833895 1.000000
0.706420 0.826420 1.000000
0.848945 0.818945 1.000000
0.991470 0.811470 1.000000
1.000000 0.803995 1.000000
0.000000 0.999120 1.000000
0.121645 0.991645 1.000000
0.264170 0.984170 1.000000
0.406695 0.976695 1.000000
0.549220 0.969220 1.000000
0.691745 0.961745 1.000000
0.834270 0.954270 1.000000
0.976795 0.946795 1.000000
1.000000 0.939320 1.000000
0.093670 0.000000 1.000000
0.236195 0.000000 1.000000
0.378720 0.000000 1.000000
0.521245 0.000000 1.000000
0.663770 0.000000 1.000000
0.806295 0.000000 1.000000
0.948820 0.000000 1.000000
1.000000 0.000000 1.000000
1.000000 0.000000 1.000000
0.078995 0.048995 1.000000
0.221520 0.041520 1.000000
0.364045 0.034045 1.000000
0.506570 0.026570 1.000000
0.649095 0.019095 1.000000
0.791620 0.011620 1.000000
0.934145 0.004145 1.000000
1.000000 0.000000 1.000000
1.000000 0.000000 1.000000
0.064320 0.184320 1.000000
0.206845 0.176845 1.000000
0.349370 0.169370 1.000000
0.491895 0.161895 1.000000
0.634420 0.154420 1.000000
0.776945 0.146945 1.000000
0.919470 0.139470 1.000000
1.000000 0.131995 1.000000
1.000000 0.124520 1.000000
0.049645 0.319645 1.000000
0.192170 0.312170 1.000000
0.334695 0.304695 1.000000
0.477220 0.297220 1.000000
0.619745 0.289745 1.000000
0.762270 0.282270 1.000000
0.904795 0.274795 1.000000
1.000000 0.267320 1.000000
1.000000 0.259845 1.000000
0.034970 0.454970 1.000000
0.177495 0.447495 1.000000
0.320020 0.440020 1.000000
0.462545 0.432545 1.000000
0.605070 0.425070 1.000000
0.747595 0.417595 1.000000
0.890120 0.410120 1.000000
1.000000 0.402645 1.000000
1.000000 0.395170 1.000000
0.020295 0.590295 1.000000
0.162820 0.582820 1.000000
0.305345 0.575345 1.000000
0.447870 0.567870 1.000000
0.590395 0.560395 1.000000
0.732920 0.552920 1.000000
0.875445 0.545445 1.000000
1.000000 0.537970 1.000000
1.000000 0.530495 1.000000
0.005620 0.725620 1.000000
0.148145 0.718145 1.000000
0.290670 0.710670 1.000000
0.433195 0.703195 1.000000
0.575720 0.695720 1.000000
0.718245 0.688245 1.000000
0.860770 0.680770 1.000000
1.000000 0.673295 1.000000
1.000000 0.665820 1.000000
0.000000 0.860945 1.000000
0.133470 0.853470 1.000000
0.275995 0.845995 1.000000
0.418520 0.838520 1.000000
0.561045 0.831045 1.000000
0.703570 0.823570 1.000000
0.846095 0.816095 1.000000
0.988620 0.808620 1.000000
1.000000 0.801145 1.000000
0.000000 0.996270 1.000000
0.118795 0.988795 1.000000
0.261320 0.981320 1.000000
0.403845 0.973845 1.000000
0.546370 0.966370 1.000000
0.688895 0.958895 1.000000
0.831420 0.951420 1.000000
0.973945 0.943945 1.000000
1.000000 0.936470 1.000000
