ApexStudio/app/src/main/assets/luts/neon_purple.cube
# ApexStudio filter: neon_purple
LUT_3D_SIZE 5
DOMAIN_MIN 0.0 0.0 0.0
DOMAIN_MAX 1.0 1.0 1.0
0.116470 0.000000 0.176470
0.401520 0.000000 0.161520
0.686570 0.000000 0.146570
0.971620 0.000000 0.131620
1.000000 0.000000 0.116670
0.087120 0.207120 0.147120
0.372170 0.192170 0.132170
0.657220 0.177220 0.117220
0.942270 0.162270 0.102270
1.000000 0.147320 0.087320
0.057770 0.477770 0.117770
0.342820 0.462820 0.102820
0.627870 0.447870 0.087870
0.912920 0.432920 0.072920
1.000000 0.417970 0.057970
0.028420 0.748420 0.088420
0.313470 0.733470 0.073470
0.598520 0.718520 0.058520
0.883570 0.703570 0.043570
1.000000 0.688620 0.028620
0.000000 1.000000 0.059070
0.284120 1.000000 0.044120
0.569170 0.989170 0.029170
0.854220 0.974220 0.014220
1.000000 0.959270 0.000000
0.110770 0.000000 0.470770
0.395820 0.000000 0.455820
0.680870 0.000000 0.440870
0.965920 0.000000 0.425920
1.000000 0.000000 0.410970
0.081420 0.201420 0.441420
0.366470 0.186470 0.426470
0.651520 0.171520 0.411520
0.936570 0.156570 0.396570
1.000000 0.141620 0.381620
0.052070 0.472070 0.412070
0.337120 0.457120 0.397120
0.622170 0.442170 0.382170
0.907220 0.427220 0.367220
1.000000 0.412270 0.352270
0.022720 0.742720 0.382720
0.307770 0.727770 0.367770
0.592820 0.712820 0.352820
0.877870 0.697870 0.337870
1.000000 0.682920 0.322920
0.000000 1.000000 0.353370
0.278420 0.998420 0.338420
0.563470 0.983470 0.323470
0.848520 0.968520 0.308520
1.000000 0.953570 0.293570
0.105070 0.000000 0.765070
0.390120 0.000000 0.750120
0.675170 0.000000 0.735170
0.960220 0.000000 0.720220
1.000000 0.000000 0.705270
0.075720 0.195720 0.735720
0.360770 0.180770 0.720770
0.645820 0.165820 0.705820
0.930870 0.150870 0.690870
1.000000 0.135920 0.675920
0.046370 0.466370 0.706370
0.331420 0.451420 0.691420
0.616470 0.436470 0.676470
0.901520 0.421520 0.661520
1.000000 0.406570 0.646570
0.017020 0.737020 0.677020
0.302070 0.722070 0.662070
0.587120 0.707120 0.647120
0.872170 0.692170 0.632170
1.000000 0.677220 0.617220
0.000000 1.000000 0.647670
0.272720 0.992720 0.632720
0.557770 0.977770 0.617770
0.842820 0.962820 0.602820
1.000000 0.947870 0.587870
0.099370 0.000000 1.000000
0.384420 0.000000 1.000000
0.669470 0.000000 1.000000
0.954520 0.000000 1.000000
1.000000 0.000000 0.999570
0.070020 0.190020 1.000000
0.355070 0.175070 1.000000
0.640120 0.160120 1.000000
0.925170 0.145170 0.985170
1.000000 0.130220 0.970220
0.040670 0.460670 1.000000
0.325720 0.445720 0.985720
0.610770 0.430770 0.970770
0.895820 0.415820 0.955820
1.000000 0.400870 0.940870
0.011320 0.731320 0.971320
0.296370 0.716370 0.956370
0.581420 0.701420 0.941420
0.866470 0.686470 0.926470
1.000000 0.671520 0.911520
0.000000 1.000000 0.941970
0.267020 0.987020 0.927020
0.552070 0.972070 0.912070
0.837120 0.957120 0.897120
1.000000 0.942170 0.882170
0.093670 0.000000 1.000000
0.378720 0.000000 1.000000
0.663770 0.000000 1.000000
0.948820 0.000000 1.000000
1.000000 0.000000 1.000000
0.064320 0.184320 1.000000
0.349370 0.169370 1.000000
0.634420 0.154420 1.000000
0.919470 0.139470 1.000000
1.000000 0.124520 1.000000
0.034970 0.454970 1.000000
0.320020 0.440020 1.000000
0.605070 0.425070 1.000000
0.890120 0.410120 1.000000
1.000000 0.395170 1.000000
0.005620 0.725620 1.000000
0.290670 0.710670 1.000000
0.575720 0.695720 1.000000
0.860770 0.680770 1.000000
1.000000 0.665820 1.000000
0.000000 0.996270 1.000000
0.261320 0.981320 1.000000
0.546370 0.966370 1.000000
0.831420 0.951420 1.000000
1.000000 0.936470 1.000000
