ApexStudio/app/src/main/assets/luts/neon_purple.cube
# ApexStudio filter: neon_purple
LUT_3D_SIZE 17
DOMAIN_MIN 0.0 0.0 0.0
DOMAIN_MAX 1.0 1.0 1.0
0.116470 0.000000 0.176470
0.187732 0.000000 0.172732
0.258995 0.000000 0.168995
0.330257 0.000000 0.165258
0.401520 0.000000 0.161520
0.472782 0.000000 0.157782
0.544045 0.000000 0.154045
0.615307 0.000000 0.150307
0.686570 0.000000 0.146570
0.757832 0.000000 0.142833
0.829095 0.000000 0.139095
0.900357 0.000000 0.135358
0.971620 0.000000 0.131620
1.000000 0.000000 0.127883
1.000000 0.000000 0.124145
1.000000 0.000000 0.120408
1.000000 0.000000 0.116670
0.109133 0.004132 0.169132
0.180395 0.000395 0.165395
0.251657 0.000000 0.161658
0.322920 0.000000 0.157920
0.394182 0.000000 0.154183
0.465445 0.000000 0.150445
0.536708 0.000000 0.146707
0.607970 0.000000 0.142970
0.679232 0.000000 0.139232
0.750495 0.000000 0.135495
0.821757 0.000000 0.131757
0.893020 0.000000 0.128020
0.964282 0.000000 0.124282
1.000000 0.000000 0.120545
1.000000 0.000000 0.116808
1.000000 0.000000 0.113070
1.000000 0.000000 0.109332
0.101795 0.071795 0.161795
0.173058 0.068057 0.158057
0.244320 0.064320 0.154320
0.315582 0.060582 0.150583
0.386845 0.056845 0.146845
0.458107 0.053108 0.143107
0.529370 0.049370 0.139370
0.600632 0.045633 0.135632
0.671895 0.041895 0.131895
0.743157 0.038158 0.128158
0.814420 0.034420 0.124420
0.885682 0.030683 0.120682
0.956945 0.026945 0.116945
1.000000 0.023208 0.113208
1.000000 0.019470 0.109470
1.000000 0.015733 0.105733
1.000000 0.011995 0.101995
0.094457 0.139458 0.154457
0.165720 0.135720 0.150720
0.236982 0.131983 0.146982
0.308245 0.128245 0.143245
0.379507 0.124508 0.139508
0.450770 0.120770 0.135770
0.522032 0.117033 0.132032
0.593295 0.113295 0.128295
0.664557 0.109558 0.124558
0.735820 0.105820 0.120820
0.807082 0.102083 0.117083
0.878345 0.098345 0.113345
0.949607 0.094608 0.109607
1.000000 0.090870 0.105870
1.000000 0.087133 0.102133
1.000000 0.083395 0.098395
1.000000 0.079657 0.094658
0.087120 0.207120 0.147120
0.158383 0.203383 0.143382
0.229645 0.199645 0.139645
0.300907 0.195908 0.135908
0.372170 0.192170 0.132170
0.443433 0.188433 0.128433
0.514695 0.184695 0.124695
0.585957 0.180958 0.120957
0.657220 0.177220 0.117220
0.728482 0.173483 0.113483
0.799745 0.169745 0.109745
0.871007 0.166008 0.106008
0.942270 0.162270 0.102270
1.000000 0.158533 0.098532
1.000000 0.154795 0.094795
1.000000 0.151058 0.091057
1.000000 0.147320 0.087320
0.079783 0.274783 0.139783
0.151045 0.271045 0.136045
0.222308 0.267308 0.132307
0.293570 0.263570 0.128570
0.364833 0.259833 0.124833
0.436095 0.256095 0.121095
0.507357 0.252358 0.117358
0.578620 0.248620 0.113620
0.649882 0.244883 0.109883
0.721145 0.241145 0.106145
0.792407 0.237408 0.102407
0.863670 0.233670 0.098670
0.934932 0.229933 0.094932
1.000000 0.226195 0.091195
1.000000 0.222458 0.087458
1.000000 0.218720 0.083720
1.000000 0.214983 0.079983
0.072445 0.342445 0.132445
0.143708 0.338707 0.128708
0.214970 0.334970 0.124970
0.286233 0.331233 0.121232
0.357495 0.327495 0.117495
0.428757 0.323758 0.113757
0.500020 0.320020 0.110020
0.571282 0.316283 0.106283
0.642545 0.312545 0.102545
0.713807 0.308808 0.098808
0.785070 0.305070 0.095070
0.856332 0.301333 0.091332
0.927595 0.297595 0.087595
0.998857 0.293857 0.083858
1.000000 0.290120 0.080120
1.000000 0.286382 0.076383
1.000000 0.282645 0.072645
0.065108 0.410108 0.125108
0.136370 0.406370 0.121370
0.207632 0.402633 0.117633
0.278895 0.398895 0.113895
0.350157 0.395157 0.110158
0.421420 0.391420 0.106420
0.492682 0.387683 0.102683
0.563945 0.383945 0.098945
0.635207 0.380208 0.095208
0.706470 0.376470 0.091470
0.777732 0.372733 0.087733
0.848995 0.368995 0.083995
0.920257 0.365258 0.080258
0.991520 0.361520 0.076520
1.000000 0.357783 0.072783
1.000000 0.354045 0.069045
1.000000 0.350307 0.065308
0.057770 0.477770 0.117770
0.129033 0.474032 0.114033
0.200295 0.470295 0.110295
0.271558 0.466558 0.106558
0.342820 0.462820 0.102820
0.414082 0.459083 0.099083
0.485345 0.455345 0.095345
0.556607 0.451607 0.091607
0.627870 0.447870 0.087870
0.699132 0.444133 0.084133
0.770395 0.440395 0.080395
0.841657 0.436658 0.076658
0.912920 0.432920 0.072920
0.984182 0.429183 0.069183
1.000000 0.425445 0.065445
1.000000 0.421708 0.061708
1.000000 0.417970 0.057970
0.050433 0.545432 0.110433
0.121695 0.541695 0.106695
0.192958 0.537957 0.102958
0.264220 0.534220 0.099220
0.335482 0.530482 0.095483
0.406745 0.526745 0.091745
0.478007 0.523007 0.088008
0.549270 0.519270 0.084270
0.620532 0.515532 0.080533
0.691795 0.511795 0.076795
0.763057 0.508057 0.073058
0.834320 0.504320 0.069320
0.905582 0.500582 0.065583
0.976845 0.496845 0.061845
1.000000 0.493107 0.058108
1.000000 0.489370 0.054370
1.000000 0.485632 0.050633
0.043095 0.613095 0.103095
0.114358 0.609357 0.099358
0.185620 0.605620 0.095620
0.256883 0.601882 0.091882
0.328145 0.598145 0.088145
0.399407 0.594407 0.084408
0.470670 0.590670 0.080670
0.541933 0.586932 0.076933
0.613195 0.583195 0.073195
0.684457 0.579457 0.069458
0.755720 0.575720 0.065720
0.826982 0.571982 0.061983
0.898245 0.568245 0.058245
0.969507 0.564507 0.054508
1.000000 0.560770 0.050770
1.000000 0.557032 0.047033
1.000000 0.553295 0.043295
0.035758 0.680757 0.095757
0.107020 0.677020 0.092020
0.178283 0.673283 0.088283
0.249545 0.669545 0.084545
0.320808 0.665807 0.080808
0.392070 0.662070 0.077070
0.463332 0.658332 0.073333
0.534595 0.654595 0.069595
0.605857 0.650857 0.065858
0.677120 0.647120 0.062120
0.748382 0.643382 0.058383
0.819645 0.639645 0.054645
0.890907 0.635907 0.050908
0.962170 0.632170 0.047170
1.000000 0.628432 0.043433
1.000000 0.624695 0.039695
1.000000 0.620957 0.035958
0.028420 0.748420 0.088420
0.099683 0.744682 0.084683
0.170945 0.740945 0.080945
0.242208 0.737208 0.077208
0.313470 0.733470 0.073470
0.384733 0.729732 0.069733
0.455995 0.725995 0.065995
0.527258 0.722257 0.062258
0.598520 0.718520 0.058520
0.669782 0.714782 0.054783
0.741045 0.711045 0.051045
0.812307 0.707307 0.047308
0.883570 0.703570 0.043570
0.954832 0.699832 0.039833
1.000000 0.696095 0.036095
1.000000 0.692357 0.032358
1.000000 0.688620 0.028620
0.021083 0.816082 0.081083
0.092345 0.812345 0.077345
0.163607 0.808607 0.073608
0.234870 0.804870 0.069870
0.306132 0.801132 0.066133
0.377395 0.797395 0.062395
0.448657 0.793657 0.058658
0.519920 0.789920 0.054920
0.591182 0.786183 0.051183
0.662445 0.782445 0.047445
0.733707 0.778707 0.043708
0.804970 0.774970 0.039970
0.876232 0.771232 0.036233
0.947495 0.767495 0.032495
1.000000 0.763757 0.028758
1.000000 0.760020 0.025020
1.000000 0.756282 0.021283
0.013745 0.883745 0.073745
0.085008 0.880007 0.070008
0.156270 0.876270 0.066270
0.227532 0.872532 0.062533
0.298795 0.868795 0.058795
0.370057 0.865057 0.055058
0.441320 0.861320 0.051320
0.512582 0.857582 0.047583
0.583845 0.853845 0.043845
0.655107 0.850107 0.040108
0.726370 0.846370 0.036370
0.797632 0.842633 0.032633
0.868895 0.838895 0.028895
0.940157 0.835157 0.025158
1.000000 0.831420 0.021420
1.000000 0.827682 0.017683
1.000000 0.823945 0.013945
0.006408 0.951407 0.066408
0.077670 0.947670 0.062670
0.148933 0.943932 0.058933
0.220195 0.940195 0.055195
0.291457 0.936457 0.051458
0.362720 0.932720 0.047720
0.433982 0.928982 0.043983
0.505245 0.925245 0.040245
0.576507 0.921507 0.036508
0.647770 0.917770 0.032770
0.719032 0.914032 0.029033
0.790295 0.910295 0.025295
0.861557 0.906557 0.021558
0.932820 0.902820 0.017820
1.000000 0.899082 0.014082
1.000000 0.895345 0.010345
1.000000 0.891607 0.006608
0.000000 1.000000 0.059070
0.070333 1.000000 0.055333
0.141595 1.000000 0.051595
0.212857 1.000000 0.047858
0.284120 1.000000 0.044120
0.355382 1.000000 0.040383
0.426645 0.996645 0.036645
0.497907 0.992907 0.032908
0.569170 0.989170 0.029170
0.640432 0.985432 0.025433
0.711695 0.981695 0.021695
0.782957 0.977957 0.017958
0.854220 0.974220 0.014220
0.925482 0.970482 0.010483
0.996745 0.966745 0.006745
1.000000 0.963007 0.003008
1.000000 0.959270 0.000000
0.115045 0.000000 0.250045
0.186308 0.000000 0.246308
0.257570 0.000000 0.242570
0.328832 0.000000 0.238833
0.400095 0.000000 0.235095
0.471357 0.000000 0.231357
0.542620 0.000000 0.227620
0.613882 0.000000 0.223882
0.685145 0.000000 0.220145
0.756407 0.000000 0.216408
0.827670 0.000000 0.212670
0.898932 0.000000 0.208932
0.970195 0.000000 0.205195
1.000000 0.000000 0.201458
1.000000 0.000000 0.197720
1.000000 0.000000 0.193983
1.000000 0.000000 0.190245
0.107708 0.002708 0.242707
0.178970 0.000000 0.238970
0.250232 0.000000 0.235232
0.321495 0.000000 0.231495
0.392757 0.000000 0.227758
0.464020 0.000000 0.224020
0.535282 0.000000 0.220282
0.606545 0.000000 0.216545
0.677808 0.000000 0.212808
0.749070 0.000000 0.209070
0.820332 0.000000 0.205333
0.891595 0.000000 0.201595
0.962857 0.000000 0.197858
1.000000 0.000000 0.194120
1.000000 0.000000 0.190383
1.000000 0.000000 0.186645
1.000000 0.000000 0.182908
0.100370 0.070370 0.235370
0.171633 0.066633 0.231632
0.242895 0.062895 0.227895
0.314157 0.059158 0.224158
0.385420 0.055420 0.220420
0.456682 0.051683 0.216683
0.527945 0.047945 0.212945
0.599207 0.044208 0.209207
0.670470 0.040470 0.205470
0.741732 0.036733 0.201733
0.812995 0.032995 0.197995
0.884257 0.029258 0.194257
0.955520 0.025520 0.190520
1.000000 0.021783 0.186783
1.000000 0.018045 0.183045
1.000000 0.014308 0.179308
1.000000 0.010570 0.175570
0.093033 0.138033 0.228032
0.164295 0.134295 0.224295
0.235558 0.130558 0.220557
0.306820 0.126820 0.216820
0.378082 0.123083 0.213083
0.449345 0.119345 0.209345
0.520607 0.115608 0.205607
0.591870 0.111870 0.201870
0.663132 0.108133 0.198132
0.734395 0.104395 0.194395
0.805657 0.100658 0.190658
0.876920 0.096920 0.186920
0.948182 0.093183 0.183182
1.000000 0.089445 0.179445
1.000000 0.085708 0.175707
1.000000 0.081970 0.171970
1.000000 0.078233 0.168233
0.085695 0.205695 0.220695
0.156957 0.201958 0.216957
0.228220 0.198220 0.213220
0.299482 0.194483 0.209482
0.370745 0.190745 0.205745
0.442007 0.187008 0.202008
0.513270 0.183270 0.198270
0.584532 0.179533 0.194532
0.655795 0.175795 0.190795
0.727057 0.172058 0.187058
0.798320 0.168320 0.183320
0.869582 0.164583 0.179583
0.940845 0.160845 0.175845
1.000000 0.157108 0.172108
1.000000 0.153370 0.168370
1.000000 0.149633 0.164633
1.000000 0.145895 0.160895
0.078358 0.273358 0.213358
0.149620 0.269620 0.209620
0.220883 0.265883 0.205882
0.292145 0.262145 0.202145
0.363407 0.258408 0.198408
0.434670 0.254670 0.194670
0.505933 0.250933 0.190933
0.577195 0.247195 0.187195
0.648457 0.243458 0.183458
0.719720 0.239720 0.179720
0.790982 0.235983 0.175983
0.862245 0.232245 0.172245
0.933507 0.228508 0.168508
1.000000 0.224770 0.164770
1.000000 0.221033 0.161032
1.000000 0.217295 0.157295
1.000000 0.213558 0.153558
0.071020 0.341020 0.206020
0.142283 0.337282 0.202282
0.213545 0.333545 0.198545
0.284807 0.329808 0.194808
0.356070 0.326070 0.191070
0.427332 0.322333 0.187332
0.498595 0.318595 0.183595
0.569858 0.314858 0.179858
0.641120 0.311120 0.176120
0.712382 0.307383 0.172382
0.783645 0.303645 0.168645
0.854907 0.299907 0.164907
0.926170 0.296170 0.161170
0.997432 0.292432 0.157432
1.000000 0.288695 0.153695
1.000000 0.284957 0.149958
1.000000 0.281220 0.146220
0.063683 0.408683 0.198682
0.134945 0.404945 0.194945
0.206208 0.401207 0.191208
0.277470 0.397470 0.187470
0.348733 0.393733 0.183732
0.419995 0.389995 0.179995
0.491257 0.386258 0.176258
0.562520 0.382520 0.172520
0.633782 0.378783 0.168783
0.705045 0.375045 0.165045
0.776307 0.371308 0.161307
0.847570 0.367570 0.157570
0.918832 0.363833 0.153833
0.990095 0.360095 0.150095
1.000000 0.356357 0.146358
1.000000 0.352620 0.142620
1.000000 0.348882 0.138883
0.056345 0.476345 0.191345
0.127608 0.472608 0.187608
0.198870 0.468870 0.183870
0.270132 0.465133 0.180133
0.341395 0.461395 0.176395
0.412657 0.457657 0.172658
0.483920 0.453920 0.168920
0.555183 0.450183 0.165183
0.626445 0.446445 0.161445
0.697707 0.442708 0.157708
0.768970 0.438970 0.153970
0.840232 0.435233 0.150233
0.911495 0.431495 0.146495
0.982757 0.427758 0.142758
1.000000 0.424020 0.139020
1.000000 0.420283 0.135283
1.000000 0.416545 0.131545
0.049007 0.544007 0.184008
0.120270 0.540270 0.180270
0.191533 0.536532 0.176533
0.262795 0.532795 0.172795
0.334058 0.529057 0.169058
0.405320 0.525320 0.165320
0.476582 0.521582 0.161582
0.547845 0.517845 0.157845
0.619107 0.514107 0.154108
0.690370 0.510370 0.150370
0.761632 0.506632 0.146632
0.832895 0.502895 0.142895
0.904157 0.499157 0.139158
0.975420 0.495420 0.135420
1.000000 0.491682 0.131683
1.000000 0.487945 0.127945
1.000000 0.484207 0.124208
0.041670 0.611670 0.176670
0.112933 0.607932 0.172933
0.184195 0.604195 0.169195
0.255458 0.600457 0.165458
0.326720 0.596720 0.161720
0.397983 0.592982 0.157982
0.469245 0.589245 0.154245
0.540508 0.585507 0.150508
0.611770 0.581770 0.146770
0.683032 0.578032 0.143033
0.754295 0.574295 0.139295
0.825557 0.570557 0.135558
0.896820 0.566820 0.131820
0.968082 0.563082 0.128083
1.000000 0.559345 0.124345
1.000000 0.555607 0.120608
1.000000 0.551870 0.116870
0.034332 0.679332 0.169332
0.105595 0.675595 0.165595
0.176858 0.671857 0.161857
0.248120 0.668120 0.158120
0.319383 0.664382 0.154383
0.390645 0.660645 0.150645
0.461907 0.656907 0.146908
0.533170 0.653170 0.143170
0.604432 0.649432 0.139433
0.675695 0.645695 0.135695
0.746957 0.641957 0.131958
0.818220 0.638220 0.128220
0.889482 0.634482 0.124483
0.960745 0.630745 0.120745
1.000000 0.627007 0.117008
1.000000 0.623270 0.113270
1.000000 0.619532 0.109533
0.026995 0.746995 0.161995
0.098258 0.743257 0.158257
0.169520 0.739520 0.154520
0.240783 0.735783 0.150783
0.312045 0.732045 0.147045
0.383308 0.728307 0.143308
0.454570 0.724570 0.139570
0.525833 0.720832 0.135833
0.597095 0.717095 0.132095
0.668357 0.713357 0.128358
0.739620 0.709620 0.124620
0.810882 0.705882 0.120883
0.882145 0.702145 0.117145
0.953407 0.698407 0.113408
1.000000 0.694670 0.109670
1.000000 0.690932 0.105933
1.000000 0.687195 0.102195
0.019657 0.814657 0.154658
0.090920 0.810920 0.150920
0.162182 0.807182 0.147183
0.233445 0.803445 0.143445
0.304707 0.799707 0.139708
0.375970 0.795970 0.135970
0.447232 0.792232 0.132233
0.518495 0.788495 0.128495
0.589757 0.784757 0.124758
0.661020 0.781020 0.121020
0.732282 0.777282 0.117283
0.803545 0.773545 0.113545
0.874807 0.769807 0.109808
0.946070 0.766070 0.106070
1.000000 0.762332 0.102333
1.000000 0.758595 0.098595
1.000000 0.754857 0.094858
0.012320 0.882320 0.147320
0.083583 0.878582 0.143583
0.154845 0.874845 0.139845
0.226107 0.871107 0.136108
0.297370 0.867370 0.132370
0.368632 0.863632 0.128633
0.439895 0.859895 0.124895
0.511157 0.856157 0.121158
0.582420 0.852420 0.117420
0.653682 0.848682 0.113683
0.724945 0.844945 0.109945
0.796207 0.841207 0.106208
0.867470 0.837470 0.102470
0.938732 0.833732 0.098733
1.000000 0.829995 0.094995
1.000000 0.826257 0.091257
1.000000 0.822520 0.087520
0.004983 0.949982 0.139983
0.076245 0.946245 0.136245
0.147508 0.942507 0.132508
0.218770 0.938770 0.128770
0.290032 0.935032 0.125032
0.361295 0.931295 0.121295
0.432557 0.927557 0.117558
0.503820 0.923820 0.113820
0.575082 0.920082 0.110083
0.646345 0.916345 0.106345
0.717607 0.912607 0.102608
0.788870 0.908870 0.098870
0.860132 0.905132 0.095133
0.931395 0.901395 0.091395
1.000000 0.897657 0.087658
1.000000 0.893920 0.083920
1.000000 0.890182 0.080183
0.000000 1.000000 0.132645
0.068908 1.000000 0.128908
0.140170 1.000000 0.125170
0.211433 1.000000 0.121433
0.282695 1.000000 0.117695
0.353957 0.998957 0.113958
0.425220 0.995220 0.110220
0.496482 0.991482 0.106483
0.567745 0.987745 0.102745
0.639007 0.984007 0.099008
0.710270 0.980270 0.095270
0.781532 0.976532 0.091533
0.852795 0.972795 0.087795
0.924057 0.969057 0.084058
0.995320 0.965320 0.080320
1.000000 0.961582 0.076582
1.000000 0.957845 0.072845
0.113620 0.000000 0.323620
0.184883 0.000000 0.319883
0.256145 0.000000 0.316145
0.327407 0.000000 0.312408
0.398670 0.000000 0.308670
0.469932 0.000000 0.304933
0.541195 0.000000 0.301195
0.612457 0.000000 0.297458
0.683720 0.000000 0.293720
0.754983 0.000000 0.289983
0.826245 0.000000 0.286245
0.897507 0.000000 0.282508
0.968770 0.000000 0.278770
1.000000 0.000000 0.275033
1.000000 0.000000 0.271295
1.000000 0.000000 0.267558
1.000000 0.000000 0.263820
0.106283 0.001283 0.316283
0.177545 0.000000 0.312545
0.248808 0.000000 0.308808
0.320070 0.000000 0.305070
0.391332 0.000000 0.301333
0.462595 0.000000 0.297595
0.533857 0.000000 0.293857
0.605120 0.000000 0.290120
0.676382 0.000000 0.286383
0.747645 0.000000 0.282645
0.818907 0.000000 0.278908
0.890170 0.000000 0.275170
0.961432 0.000000 0.271433
1.000000 0.000000 0.267695
1.000000 0.000000 0.263958
1.000000 0.000000 0.260220
1.000000 0.000000 0.256483
0.098945 0.068945 0.308945
0.170208 0.065208 0.305208
0.241470 0.061470 0.301470
0.312732 0.057733 0.297733
0.383995 0.053995 0.293995
0.455257 0.050258 0.290258
0.526520 0.046520 0.286520
0.597782 0.042783 0.282783
0.669045 0.039045 0.279045
0.740307 0.035308 0.275308
0.811570 0.031570 0.271570
0.882832 0.027833 0.267833
0.954095 0.024095 0.264095
1.000000 0.020358 0.260358
1.000000 0.016620 0.256620
1.000000 0.012883 0.252883
1.000000 0.009145 0.249145
0.091608 0.136608 0.301608
0.162870 0.132870 0.297870
0.234133 0.129133 0.294133
0.305395 0.125395 0.290395
0.376657 0.121658 0.286658
0.447920 0.117920 0.282920
0.519182 0.114183 0.279183
0.590445 0.110445 0.275445
0.661707 0.106708 0.271708
0.732970 0.102970 0.267970
0.804232 0.099233 0.264233
0.875495 0.095495 0.260495
0.946757 0.091758 0.256758
1.000000 0.088020 0.253020
1.000000 0.084283 0.249283
1.000000 0.080545 0.245545
1.000000 0.076808 0.241808
0.084270 0.204270 0.294270
0.155533 0.200533 0.290533
0.226795 0.196795 0.286795
0.298057 0.193058 0.283058
0.369320 0.189320 0.279320
0.440582 0.185583 0.275583
0.511845 0.181845 0.271845
0.583107 0.178108 0.268108
0.654370 0.174370 0.264370
0.725632 0.170633 0.260633
0.796895 0.166895 0.256895
0.868157 0.163158 0.253158
0.939420 0.159420 0.249420
1.000000 0.155683 0.245683
1.000000 0.151945 0.241945
1.000000 0.148208 0.238208
1.000000 0.144470 0.234470
0.076933 0.271933 0.286933
0.148195 0.268195 0.283195
0.219457 0.264458 0.279458
0.290720 0.260720 0.275720
0.361982 0.256983 0.271983
0.433245 0.253245 0.268245
0.504507 0.249508 0.264508
0.575770 0.245770 0.260770
0.647032 0.242033 0.257033
0.718295 0.238295 0.253295
0.789557 0.234558 0.249558
0.860820 0.230820 0.245820
0.932082 0.227083 0.242083
1.000000 0.223345 0.238345
1.000000 0.219608 0.234608
1.000000 0.215870 0.230870
1.000000 0.212133 0.227133
0.069595 0.339595 0.279595
0.140857 0.335858 0.275858
0.212120 0.332120 0.272120
0.283382 0.328383 0.268383
0.354645 0.324645 0.264645
0.425907 0.320908 0.260908
0.497170 0.317170 0.257170
0.568433 0.313433 0.253433
0.639695 0.309695 0.249695
0.710957 0.305957 0.245958
0.782220 0.302220 0.242220
0.853482 0.298482 0.238483
0.924745 0.294745 0.234745
0.996007 0.291008 0.231008
1.000000 0.287270 0.227270
1.000000 0.283533 0.223533
1.000000 0.279795 0.219795
0.062258 0.407257 0.272258
0.133520 0.403520 0.268520
0.204783 0.399783 0.264783
0.276045 0.396045 0.261045
0.347307 0.392308 0.257308
0.418570 0.388570 0.253570
0.489833 0.384833 0.249833
0.561095 0.381095 0.246095
0.632358 0.377358 0.242358
0.703620 0.373620 0.238620
0.774882 0.369883 0.234883
0.846145 0.366145 0.231145
0.917407 0.362407 0.227408
0.988670 0.358670 0.223670
1.000000 0.354933 0.219933
1.000000 0.351195 0.216195
1.000000 0.347458 0.212458
0.054920 0.474920 0.264920
0.126183 0.471183 0.261183
0.197445 0.467445 0.257445
0.268707 0.463707 0.253708
0.339970 0.459970 0.249970
0.411233 0.456233 0.246233
0.482495 0.452495 0.242495
0.553758 0.448758 0.238758
0.625020 0.445020 0.235020
0.696282 0.441283 0.231283
0.767545 0.437545 0.227545
0.838807 0.433808 0.223808
0.910070 0.430070 0.220070
0.981332 0.426333 0.216333
1.000000 0.422595 0.212595
1.000000 0.418857 0.208858
1.000000 0.415120 0.205120
0.047583 0.542582 0.257583
0.118845 0.538845 0.253845
0.190108 0.535107 0.250108
0.261370 0.531370 0.246370
0.332632 0.527632 0.242633
0.403895 0.523895 0.238895
0.475158 0.520157 0.235158
0.546420 0.516420 0.231420
0.617683 0.512682 0.227683
0.688945 0.508945 0.223945
0.760207 0.505207 0.220208
0.831470 0.501470 0.216470
0.902732 0.497732 0.212733
0.973995 0.493995 0.208995
1.000000 0.490258 0.205258
1.000000 0.486520 0.201520
1.000000 0.482782 0.197783
0.040245 0.610245 0.250245
0.111507 0.606507 0.246508
0.182770 0.602770 0.242770
0.254032 0.599032 0.239033
0.325295 0.595295 0.235295
0.396558 0.591557 0.231558
0.467820 0.587820 0.227820
0.539083 0.584082 0.224083
0.610345 0.580345 0.220345
0.681607 0.576607 0.216608
0.752870 0.572870 0.212870
0.824132 0.569132 0.209133
0.895395 0.565395 0.205395
0.966657 0.561657 0.201658
1.000000 0.557920 0.197920
1.000000 0.554183 0.194183
1.000000 0.550445 0.190445
0.032908 0.677907 0.242908
0.104170 0.674170 0.239170
0.175433 0.670432 0.235433
0.246695 0.666695 0.231695
0.317958 0.662957 0.227958
0.389220 0.659220 0.224220
0.460483 0.655482 0.220483
0.531745 0.651745 0.216745
0.603008 0.648007 0.213008
0.674270 0.644270 0.209270
0.745532 0.640532 0.205533
0.816795 0.636795 0.201795
0.888057 0.633057 0.198058
0.959320 0.629320 0.194320
1.000000 0.625582 0.190583
1.000000 0.621845 0.186845
1.000000 0.618107 0.183108
0.025570 0.745570 0.235570
0.096832 0.741832 0.231833
0.168095 0.738095 0.228095
0.239358 0.734357 0.224358
0.310620 0.730620 0.220620
0.381883 0.726882 0.216883
0.453145 0.723145 0.213145
0.524408 0.719407 0.209408
0.595670 0.715670 0.205670
0.666933 0.711932 0.201933
0.738195 0.708195 0.198195
0.809457 0.704457 0.194458
0.880720 0.700720 0.190720
0.951982 0.696982 0.186983
1.000000 0.693245 0.183245
1.000000 0.689507 0.179508
1.000000 0.685770 0.175770
0.018232 0.813233 0.228233
0.089495 0.809495 0.224495
0.160757 0.805757 0.220758
0.232020 0.802020 0.217020
0.303283 0.798283 0.213283
0.374545 0.794545 0.209545
0.445808 0.790807 0.205808
0.517070 0.787070 0.202070
0.588333 0.783332 0.198333
0.659595 0.779595 0.194595
0.730857 0.775857 0.190858
0.802120 0.772120 0.187120
0.873382 0.768382 0.183383
0.944645 0.764645 0.179645
1.000000 0.760907 0.175908
1.000000 0.757170 0.172170
1.000000 0.753432 0.168433
0.010895 0.880895 0.220895
0.082157 0.877158 0.217158
0.153420 0.873420 0.213420
0.224683 0.869682 0.209683
0.295945 0.865945 0.205945
0.367208 0.862208 0.202208
0.438470 0.858470 0.198470
0.509733 0.854732 0.194733
0.580995 0.850995 0.190995
0.652257 0.847257 0.187258
0.723520 0.843520 0.183520
0.794782 0.839782 0.179783
0.866045 0.836045 0.176045
0.937307 0.832307 0.172308
1.000000 0.828570 0.168570
1.000000 0.824832 0.164833
1.000000 0.821095 0.161095
0.003557 0.948557 0.213558
0.074820 0.944820 0.209820
0.146083 0.941082 0.206083
0.217345 0.937345 0.202345
0.288607 0.933607 0.198608
0.359870 0.929870 0.194870
0.431132 0.926132 0.191133
0.502395 0.922395 0.187395
0.573657 0.918657 0.183658
0.644920 0.914920 0.179920
0.716182 0.911183 0.176183
0.787445 0.907445 0.172445
0.858707 0.903707 0.168708
0.929970 0.899970 0.164970
1.000000 0.896232 0.161233
1.000000 0.892495 0.157495
1.000000 0.888757 0.153758
0.000000 1.000000 0.206220
0.067483 1.000000 0.202483
0.138745 1.000000 0.198745
0.210008 1.000000 0.195008
0.281270 1.000000 0.191270
0.352532 0.997532 0.187533
0.423795 0.993795 0.183795
0.495057 0.990057 0.180058
0.566320 0.986320 0.176320
0.637582 0.982582 0.172583
0.708845 0.978845 0.168845
0.780107 0.975107 0.165108
0.851370 0.971370 0.161370
0.922632 0.967633 0.157633
0.993895 0.963895 0.153895
1.000000 0.960157 0.150158
1.000000 0.956420 0.146420
0.112195 0.000000 0.397195
0.183457 0.000000 0.393458
0.254720 0.000000 0.389720
0.325982 0.000000 0.385983
0.397245 0.000000 0.382245
0.468507 0.000000 0.378507
0.539770 0.000000 0.374770
0.611032 0.000000 0.371032
0.682295 0.000000 0.367295
0.753557 0.000000 0.363558
0.824820 0.000000 0.359820
0.896083 0.000000 0.356083
0.967345 0.000000 0.352345
1.000000 0.000000 0.348608
1.000000 0.000000 0.344870
1.000000 0.000000 0.341133
1.000000 0.000000 0.337395
0.104858 0.000000 0.389858
