ApexStudio/app/src/main/assets/luts/neon_contrast.cube
# ApexStudio filter: neon_contrast
LUT_3D_SIZE 17
DOMAIN_MIN 0.0 0.0 0.0
DOMAIN_MAX 1.0 1.0 1.0
0.000000 0.000000 0.000000
0.017948 0.000000 0.000000
0.054409 0.000000 0.000000
0.104093 0.000000 0.000000
0.164938 0.000000 0.000000
0.235710 0.000000 0.000000
0.315550 0.000000 0.000000
0.403815 0.000000 0.000000
0.500000 0.000000 0.000000
0.596185 0.000000 0.000000
0.684450 0.000000 0.000000
0.764290 0.000000 0.000000
0.835062 0.000000 0.000000
0.895907 0.000000 0.000000
0.945591 0.000000 0.000000
0.982052 0.000000 0.000000
1.000000 0.000000 0.000000
0.000000 0.017948 0.000000
0.017948 0.017948 0.000000
0.054409 0.017948 0.000000
0.104093 0.017948 0.000000
0.164938 0.017948 0.000000
0.235710 0.017948 0.000000
0.315550 0.017948 0.000000
0.403815 0.017948 0.000000
0.500000 0.017948 0.000000
0.596185 0.017948 0.000000
0.684450 0.017948 0.000000
0.764290 0.017948 0.000000
0.835062 0.017948 0.000000
0.895907 0.017948 0.000000
0.945591 0.017948 0.000000
0.982052 0.017948 0.000000
1.000000 0.017948 0.000000
0.000000 0.054409 0.000000
0.017948 0.054409 0.000000
0.054409 0.054409 0.000000
0.104093 0.054409 0.000000
0.164938 0.054409 0.000000
0.235710 0.054409 0.000000
0.315550 0.054409 0.000000
0.403815 0.054409 0.000000
0.500000 0.054409 0.000000
0.596185 0.054409 0.000000
0.684450 0.054409 0.000000
0.764290 0.054409 0.000000
0.835062 0.054409 0.000000
0.895907 0.054409 0.000000
0.945591 0.054409 0.000000
0.982052 0.054409 0.000000
1.000000 0.054409 0.000000
0.000000 0.104093 0.000000
0.017948 0.104093 0.000000
0.054409 0.104093 0.000000
0.104093 0.104093 0.000000
0.164938 0.104093 0.000000
0.235710 0.104093 0.000000
0.315550 0.104093 0.000000
0.403815 0.104093 0.000000
0.500000 0.104093 0.000000
0.596185 0.104093 0.000000
0.684450 0.104093 0.000000
0.764290 0.104093 0.000000
0.835062 0.104093 0.000000
0.895907 0.104093 0.000000
0.945591 0.104093 0.000000
0.982052 0.104093 0.000000
1.000000 0.104093 0.000000
0.000000 0.164938 0.000000
0.017948 0.164938 0.000000
0.054409 0.164938 0.000000
0.104093 0.164938 0.000000
0.164938 0.164938 0.000000
0.235710 0.164938 0.000000
0.315550 0.164938 0.000000
0.403815 0.164938 0.000000
0.500000 0.164938 0.000000
0.596185 0.164938 0.000000
0.684450 0.164938 0.000000
0.764290 0.164938 0.000000
0.835062 0.164938 0.000000
0.895907 0.164938 0.000000
0.945591 0.164938 0.000000
0.982052 0.164938 0.000000
1.000000 0.164938 0.000000
0.000000 0.235710 0.000000
0.017948 0.235710 0.000000
0.054409 0.235710 0.000000
0.104093 0.235710 0.000000
0.164938 0.235710 0.000000
0.235710 0.235710 0.000000
0.315550 0.235710 0.000000
0.403815 0.235710 0.000000
0.500000 0.235710 0.000000
0.596185 0.235710 0.000000
0.684450 0.235710 0.000000
0.764290 0.235710 0.000000
0.835062 0.235710 0.000000
0.895907 0.235710 0.000000
0.945591 0.235710 0.000000
0.982052 0.235710 0.000000
1.000000 0.235710 0.000000
0.000000 0.315550 0.000000
0.017948 0.315550 0.000000
0.054409 0.315550 0.000000
0.104093 0.315550 0.000000
0.164938 0.315550 0.000000
0.235710 0.315550 0.000000
0.315550 0.315550 0.000000
0.403815 0.315550 0.000000
0.500000 0.315550 0.000000
0.596185 0.315550 0.000000
0.684450 0.315550 0.000000
0.764290 0.315550 0.000000
0.835062 0.315550 0.000000
0.895907 0.315550 0.000000
0.945591 0.315550 0.000000
0.982052 0.315550 0.000000
1.000000 0.315550 0.000000
0.000000 0.403815 0.000000
0.017948 0.403815 0.000000
0.054409 0.403815 0.000000
0.104093 0.403815 0.000000
0.164938 0.403815 0.000000
0.235710 0.403815 0.000000
0.315550 0.403815 0.000000
0.403815 0.403815 0.000000
0.500000 0.403815 0.000000
0.596185 0.403815 0.000000
0.684450 0.403815 0.000000
0.764290 0.403815 0.000000
0.835062 0.403815 0.000000
0.895907 0.403815 0.000000
0.945591 0.403815 0.000000
0.982052 0.403815 0.000000
1.000000 0.403815 0.000000
0.000000 0.500000 0.000000
0.017948 0.500000 0.000000
0.054409 0.500000 0.000000
0.104093 0.500000 0.000000
0.164938 0.500000 0.000000
0.235710 0.500000 0.000000
0.315550 0.500000 0.000000
0.403815 0.500000 0.000000
0.500000 0.500000 0.000000
0.596185 0.500000 0.000000
0.684450 0.500000 0.000000
0.764290 0.500000 0.000000
0.835062 0.500000 0.000000
0.895907 0.500000 0.000000
0.945591 0.500000 0.000000
0.982052 0.500000 0.000000
1.000000 0.500000 0.000000
0.000000 0.596185 0.000000
0.017948 0.596185 0.000000
0.054409 0.596185 0.000000
0.104093 0.596185 0.000000
0.164938 0.596185 0.000000
0.235710 0.596185 0.000000
0.315550 0.596185 0.000000
0.403815 0.596185 0.000000
0.500000 0.596185 0.000000
0.596185 0.596185 0.000000
0.684450 0.596185 0.000000
0.764290 0.596185 0.000000
0.835062 0.596185 0.000000
0.895907 0.596185 0.000000
0.945591 0.596185 0.000000
0.982052 0.596185 0.000000
1.000000 0.596185 0.000000
0.000000 0.684450 0.000000
0.017948 0.684450 0.000000
0.054409 0.684450 0.000000
0.104093 0.684450 0.000000
0.164938 0.684450 0.000000
0.235710 0.684450 0.000000
0.315550 0.684450 0.000000
0.403815 0.684450 0.000000
0.500000 0.684450 0.000000
0.596185 0.684450 0.000000
0.684450 0.684450 0.000000
0.764290 0.684450 0.000000
0.835062 0.684450 0.000000
0.895907 0.684450 0.000000
0.945591 0.684450 0.000000
0.982052 0.684450 0.000000
1.000000 0.684450 0.000000
0.000000 0.764290 0.000000
0.017948 0.764290 0.000000
0.054409 0.764290 0.000000
0.104093 0.764290 0.000000
0.164938 0.764290 0.000000
0.235710 0.764290 0.000000
0.315550 0.764290 0.000000
0.403815 0.764290 0.000000
0.500000 0.764290 0.000000
0.596185 0.764290 0.000000
0.684450 0.764290 0.000000
0.764290 0.764290 0.000000
0.835062 0.764290 0.000000
0.895907 0.764290 0.000000
0.945591 0.764290 0.000000
0.982052 0.764290 0.000000
1.000000 0.764290 0.000000
0.000000 0.835062 0.000000
0.017948 0.835062 0.000000
0.054409 0.835062 0.000000
0.104093 0.835062 0.000000
0.164938 0.835062 0.000000
0.235710 0.835062 0.000000
0.315550 0.835062 0.000000
0.403815 0.835062 0.000000
0.500000 0.835062 0.000000
0.596185 0.835062 0.000000
0.684450 0.835062 0.000000
0.764290 0.835062 0.000000
0.835062 0.835062 0.000000
0.895907 0.835062 0.000000
0.945591 0.835062 0.000000
0.982052 0.835062 0.000000
1.000000 0.835062 0.000000
0.000000 0.895907 0.000000
0.017948 0.895907 0.000000
0.054409 0.895907 0.000000
0.104093 0.895907 0.000000
0.164938 0.895907 0.000000
0.235710 0.895907 0.000000
0.315550 0.895907 0.000000
0.403815 0.895907 0.000000
0.500000 0.895907 0.000000
0.596185 0.895907 0.000000
0.684450 0.895907 0.000000
0.764290 0.895907 0.000000
0.835062 0.895907 0.000000
0.895907 0.895907 0.000000
0.945591 0.895907 0.000000
0.982052 0.895907 0.000000
1.000000 0.895907 0.000000
0.000000 0.945591 0.000000
0.017948 0.945591 0.000000
0.054409 0.945591 0.000000
0.104093 0.945591 0.000000
0.164938 0.945591 0.000000
0.235710 0.945591 0.000000
0.315550 0.945591 0.000000
0.403815 0.945591 0.000000
0.500000 0.945591 0.000000
0.596185 0.945591 0.000000
0.684450 0.945591 0.000000
0.764290 0.945591 0.000000
0.835062 0.945591 0.000000
0.895907 0.945591 0.000000
0.945591 0.945591 0.000000
0.982052 0.945591 0.000000
1.000000 0.945591 0.000000
0.000000 0.982052 0.000000
0.017948 0.982052 0.000000
0.054409 0.982052 0.000000
0.104093 0.982052 0.000000
0.164938 0.982052 0.000000
0.235710 0.982052 0.000000
0.315550 0.982052 0.000000
0.403815 0.982052 0.000000
0.500000 0.982052 0.000000
0.596185 0.982052 0.000000
0.684450 0.982052 0.000000
0.764290 0.982052 0.000000
0.835062 0.982052 0.000000
0.895907 0.982052 0.000000
0.945591 0.982052 0.000000
0.982052 0.982052 0.000000
1.000000 0.982052 0.000000
0.000000 1.000000 0.000000
0.017948 1.000000 0.000000
0.054409 1.000000 0.000000
0.104093 1.000000 0.000000
0.164938 1.000000 0.000000
0.235710 1.000000 0.000000
0.315550 1.000000 0.000000
0.403815 1.000000 0.000000
0.500000 1.000000 0.000000
0.596185 1.000000 0.000000
0.684450 1.000000 0.000000
0.764290 1.000000 0.000000
0.835062 1.000000 0.000000
0.895907 1.000000 0.000000
0.945591 1.000000 0.000000
0.982052 1.000000 0.000000
1.000000 1.000000 0.000000
0.000000 0.000000 0.017948
0.017948 0.000000 0.017948
0.054409 0.000000 0.017948
0.104093 0.000000 0.017948
0.164938 0.000000 0.017948
0.235710 0.000000 0.017948
0.315550 0.000000 0.017948
0.403815 0.000000 0.017948
0.500000 0.000000 0.017948
0.596185 0.000000 0.017948
0.684450 0.000000 0.017948
0.764290 0.000000 0.017948
0.835062 0.000000 0.017948
0.895907 0.000000 0.017948
0.945591 0.000000 0.017948
0.982052 0.000000 0.017948
1.000000 0.000000 0.017948
0.000000 0.017948 0.017948
0.017948 0.017948 0.017948
0.054409 0.017948 0.017948
0.104093 0.017948 0.017948
0.164938 0.017948 0.017948
0.235710 0.017948 0.017948
0.315550 0.017948 0.017948
0.403815 0.017948 0.017948
0.500000 0.017948 0.017948
0.596185 0.017948 0.017948
0.684450 0.017948 0.017948
0.764290 0.017948 0.017948
0.835062 0.017948 0.017948
0.895907 0.017948 0.017948
0.945591 0.017948 0.017948
0.982052 0.017948 0.017948
1.000000 0.017948 0.017948
0.000000 0.054409 0.017948
0.017948 0.054409 0.017948
0.054409 0.054409 0.017948
0.104093 0.054409 0.017948
0.164938 0.054409 0.017948
0.235710 0.054409 0.017948
0.315550 0.054409 0.017948
0.403815 0.054409 0.017948
0.500000 0.054409 0.017948
0.596185 0.054409 0.017948
0.684450 0.054409 0.017948
0.764290 0.054409 0.017948
0.835062 0.054409 0.017948
0.895907 0.054409 0.017948
0.945591 0.054409 0.017948
0.982052 0.054409 0.017948
1.000000 0.054409 0.017948
0.000000 0.104093 0.017948
0.017948 0.104093 0.017948
0.054409 0.104093 0.017948
0.104093 0.104093 0.017948
0.164938 0.104093 0.017948
0.235710 0.104093 0.017948
0.315550 0.104093 0.017948
0.403815 0.104093 0.017948
0.500000 0.104093 0.017948
0.596185 0.104093 0.017948
0.684450 0.104093 0.017948
0.764290 0.104093 0.017948
0.835062 0.104093 0.017948
0.895907 0.104093 0.017948
0.945591 0.104093 0.017948
0.982052 0.104093 0.017948
1.000000 0.104093 0.017948
0.000000 0.164938 0.017948
0.017948 0.164938 0.017948
0.054409 0.164938 0.017948
0.104093 0.164938 0.017948
0.164938 0.164938 0.017948
0.235710 0.164938 0.017948
0.315550 0.164938 0.017948
0.403815 0.164938 0.017948
0.500000 0.164938 0.017948
0.596185 0.164938 0.017948
0.684450 0.164938 0.017948
0.764290 0.164938 0.017948
0.835062 0.164938 0.017948
0.895907 0.164938 0.017948
0.945591 0.164938 0.017948
0.982052 0.164938 0.017948
1.000000 0.164938 0.017948
0.000000 0.235710 0.017948
0.017948 0.235710 0.017948
0.054409 0.235710 0.017948
0.104093 0.235710 0.017948
0.164938 0.235710 0.017948
0.235710 0.235710 0.017948
0.315550 0.235710 0.017948
0.403815 0.235710 0.017948
0.500000 0.235710 0.017948
0.596185 0.235710 0.017948
0.684450 0.235710 0.017948
0.764290 0.235710 0.017948
0.835062 0.235710 0.017948
0.895907 0.235710 0.017948
0.945591 0.235710 0.017948
0.982052 0.235710 0.017948
1.000000 0.235710 0.017948
0.000000 0.315550 0.017948
0.017948 0.315550 0.017948
0.054409 0.315550 0.017948
0.104093 0.315550 0.017948
0.164938 0.315550 0.017948
0.235710 0.315550 0.017948
0.315550 0.315550 0.017948
0.403815 0.315550 0.017948
0.500000 0.315550 0.017948
0.596185 0.315550 0.017948
0.684450 0.315550 0.017948
0.764290 0.315550 0.017948
0.835062 0.315550 0.017948
0.895907 0.315550 0.017948
0.945591 0.315550 0.017948
0.982052 0.315550 0.017948
1.000000 0.315550 0.017948
0.000000 0.403815 0.017948
0.017948 0.403815 0.017948
0.054409 0.403815 0.017948
0.104093 0.403815 0.017948
0.164938 0.403815 0.017948
0.235710 0.403815 0.017948
0.315550 0.403815 0.017948
0.403815 0.403815 0.017948
0.500000 0.403815 0.017948
0.596185 0.403815 0.017948
0.684450 0.403815 0.017948
0.764290 0.403815 0.017948
0.835062 0.403815 0.017948
0.895907 0.403815 0.017948
0.945591 0.403815 0.017948
0.982052 0.403815 0.017948
1.000000 0.403815 0.017948
0.000000 0.500000 0.017948
0.017948 0.500000 0.017948
0.054409 0.500000 0.017948
0.104093 0.500000 0.017948
0.164938 0.500000 0.017948
0.235710 0.500000 0.017948
0.315550 0.500000 0.017948
0.403815 0.500000 0.017948
0.500000 0.500000 0.017948
0.596185 0.500000 0.017948
0.684450 0.500000 0.017948
0.764290 0.500000 0.017948
0.835062 0.500000 0.017948
0.895907 0.500000 0.017948
0.945591 0.500000 0.017948
0.982052 0.500000 0.017948
1.000000 0.500000 0.017948
0.000000 0.596185 0.017948
0.017948 0.596185 0.017948
0.054409 0.596185 0.017948
0.104093 0.596185 0.017948
0.164938 0.596185 0.017948
0.235710 0.596185 0.017948
0.315550 0.596185 0.017948
0.403815 0.596185 0.017948
0.500000 0.596185 0.017948
0.596185 0.596185 0.017948
0.684450 0.596185 0.017948
0.764290 0.596185 0.017948
0.835062 0.596185 0.017948
0.895907 0.596185 0.017948
0.945591 0.596185 0.017948
0.982052 0.596185 0.017948
1.000000 0.596185 0.017948
0.000000 0.684450 0.017948
0.017948 0.684450 0.017948
0.054409 0.684450 0.017948
0.104093 0.684450 0.017948
0.164938 0.684450 0.017948
0.235710 0.684450 0.017948
0.315550 0.684450 0.017948
0.403815 0.684450 0.017948
0.500000 0.684450 0.017948
0.596185 0.684450 0.017948
0.684450 0.684450 0.017948
0.764290 0.684450 0.017948
0.835062 0.684450 0.017948
0.895907 0.684450 0.017948
0.945591 0.684450 0.017948
0.982052 0.684450 0.017948
1.000000 0.684450 0.017948
0.000000 0.764290 0.017948
0.017948 0.764290 0.017948
0.054409 0.764290 0.017948
0.104093 0.764290 0.017948
0.164938 0.764290 0.017948
0.235710 0.764290 0.017948
0.315550 0.764290 0.017948
0.403815 0.764290 0.017948
0.500000 0.764290 0.017948
0.596185 0.764290 0.017948
0.684450 0.764290 0.017948
0.764290 0.764290 0.017948
0.835062 0.764290 0.017948
0.895907 0.764290 0.017948
0.945591 0.764290 0.017948
0.982052 0.764290 0.017948
1.000000 0.764290 0.017948
0.000000 0.835062 0.017948
0.017948 0.835062 0.017948
0.054409 0.835062 0.017948
0.104093 0.835062 0.017948
0.164938 0.835062 0.017948
0.235710 0.835062 0.017948
0.315550 0.835062 0.017948
0.403815 0.835062 0.017948
0.500000 0.835062 0.017948
0.596185 0.835062 0.017948
0.684450 0.835062 0.017948
0.764290 0.835062 0.017948
0.835062 0.835062 0.017948
0.895907 0.835062 0.017948
0.945591 0.835062 0.017948
0.982052 0.835062 0.017948
1.000000 0.835062 0.017948
0.000000 0.895907 0.017948
0.017948 0.895907 0.017948
0.054409 0.895907 0.017948
0.104093 0.895907 0.017948
0.164938 0.895907 0.017948
0.235710 0.895907 0.017948
0.315550 0.895907 0.017948
0.403815 0.895907 0.017948
0.500000 0.895907 0.017948
0.596185 0.895907 0.017948
0.684450 0.895907 0.017948
0.764290 0.895907 0.017948
0.835062 0.895907 0.017948
0.895907 0.895907 0.017948
0.945591 0.895907 0.017948
0.982052 0.895907 0.017948
1.000000 0.895907 0.017948
0.000000 0.945591 0.017948
0.017948 0.945591 0.017948
0.054409 0.945591 0.017948
0.104093 0.945591 0.017948
0.164938 0.945591 0.017948
0.235710 0.945591 0.017948
0.315550 0.945591 0.017948
0.403815 0.945591 0.017948
0.500000 0.945591 0.017948
0.596185 0.945591 0.017948
0.684450 0.945591 0.017948
0.764290 0.945591 0.017948
0.835062 0.945591 0.017948
0.895907 0.945591 0.017948
0.945591 0.945591 0.017948
0.982052 0.945591 0.017948
1.000000 0.945591 0.017948
0.000000 0.982052 0.017948
0.017948 0.982052 0.017948
0.054409 0.982052 0.017948
0.104093 0.982052 0.017948
0.164938 0.982052 0.017948
0.235710 0.982052 0.017948
0.315550 0.982052 0.017948
0.403815 0.982052 0.017948
0.500000 0.982052 0.017948
0.596185 0.982052 0.017948
0.684450 0.982052 0.017948
0.764290 0.982052 0.017948
0.835062 0.982052 0.017948
0.895907 0.982052 0.017948
0.945591 0.982052 0.017948
0.982052 0.982052 0.017948
1.000000 0.982052 0.017948
0.000000 1.000000 0.017948
0.017948 1.000000 0.017948
0.054409 1.000000 0.017948
0.104093 1.000000 0.017948
0.164938 1.000000 0.017948
0.235710 1.000000 0.017948
0.315550 1.000000 0.017948
0.403815 1.000000 0.017948
0.500000 1.000000 0.017948
0.596185 1.000000 0.017948
0.684450 1.000000 0.017948
0.764290 1.000000 0.017948
0.835062 1.000000 0.017948
0.895907 1.000000 0.017948
0.945591 1.000000 0.017948
0.982052 1.000000 0.017948
1.000000 1.000000 0.017948
0.000000 0.000000 0.054409
0.017948 0.000000 0.054409
0.054409 0.000000 0.054409
0.104093 0.000000 0.054409
0.164938 0.000000 0.054409
0.235710 0.000000 0.054409
0.315550 0.000000 0.054409
0.403815 0.000000 0.054409
0.500000 0.000000 0.054409
0.596185 0.000000 0.054409
0.684450 0.000000 0.054409
0.764290 0.000000 0.054409
0.835062 0.000000 0.054409
0.895907 0.000000 0.054409
0.945591 0.000000 0.054409
0.982052 0.000000 0.054409
1.000000 0.000000 0.054409
0.000000 0.017948 0.054409
0.017948 0.017948 0.054409
0.054409 0.017948 0.054409
0.104093 0.017948 0.054409
0.164938 0.017948 0.054409
0.235710 0.017948 0.054409
0.315550 0.017948 0.054409
0.403815 0.017948 0.054409
0.500000 0.017948 0.054409
0.596185 0.017948 0.054409
0.684450 0.017948 0.054409
0.764290 0.017948 0.054409
0.835062 0.017948 0.054409
0.895907 0.017948 0.054409
0.945591 0.017948 0.054409
0.982052 0.017948 0.054409
1.000000 0.017948 0.054409
0.000000 0.054409 0.054409
0.017948 0.054409 0.054409
0.054409 0.054409 0.054409
0.104093 0.054409 0.054409
0.164938 0.054409 0.054409
0.235710 0.054409 0.054409
0.315550 0.054409 0.054409
0.403815 0.054409 0.054409
0.500000 0.054409 0.054409
0.596185 0.054409 0.054409
0.684450 0.054409 0.054409
0.764290 0.054409 0.054409
0.835062 0.054409 0.054409
0.895907 0.054409 0.054409
0.945591 0.054409 0.054409
0.982052 0.054409 0.054409
1.000000 0.054409 0.054409
0.000000 0.104093 0.054409
0.017948 0.104093 0.054409
0.054409 0.104093 0.054409
0.104093 0.104093 0.054409
0.164938 0.104093 0.054409
0.235710 0.104093 0.054409
0.315550 0.104093 0.054409
0.403815 0.104093 0.054409
0.500000 0.104093 0.054409
0.596185 0.104093 0.054409
0.684450 0.104093 0.054409
0.764290 0.104093 0.054409
0.835062 0.104093 0.054409
0.895907 0.104093 0.054409
0.945591 0.104093 0.054409
0.982052 0.104093 0.054409
1.000000 0.104093 0.054409
0.000000 0.164938 0.054409
0.017948 0.164938 0.054409
0.054409 0.164938 0.054409
0.104093 0.164938 0.054409
0.164938 0.164938 0.054409
0.235710 0.164938 0.054409
0.315550 0.164938 0.054409
0.403815 0.164938 0.054409
0.500000 0.164938 0.054409
0.596185 0.164938 0.054409
0.684450 0.164938 0.054409
0.764290 0.164938 0.054409
0.835062 0.164938 0.054409
0.895907 0.164938 0.054409
0.945591 0.164938 0.054409
0.982052 0.164938 0.054409
1.000000 0.164938 0.054409
0.000000 0.235710 0.054409
0.017948 0.235710 0.054409
0.054409 0.235710 0.054409
0.104093 0.235710 0.054409
0.164938 0.235710 0.054409
0.235710 0.235710 0.054409
0.315550 0.235710 0.054409
0.403815 0.235710 0.054409
0.500000 0.235710 0.054409
0.596185 0.235710 0.054409
0.684450 0.235710 0.054409
0.764290 0.235710 0.054409
0.835062 0.235710 0.054409
0.895907 0.235710 0.054409
0.945591 0.235710 0.054409
0.982052 0.235710 0.054409
1.000000 0.235710 0.054409
0.000000 0.315550 0.054409
0.017948 0.315550 0.054409
0.054409 0.315550 0.054409
0.104093 0.315550 0.054409
0.164938 0.315550 0.054409
0.235710 0.315550 0.054409
0.315550 0.315550 0.054409
0.403815 0.315550 0.054409
0.500000 0.315550 0.054409
0.596185 0.315550 0.054409
0.684450 0.315550 0.054409
0.764290 0.315550 0.054409
0.835062 0.315550 0.054409
0.895907 0.315550 0.054409
0.945591 0.315550 0.054409
0.982052 0.315550 0.054409
1.000000 0.315550 0.054409
0.000000 0.403815 0.054409
0.017948 0.403815 0.054409
0.054409 0.403815 0.054409
0.104093 0.403815 0.054409
0.164938 0.403815 0.054409
0.235710 0.403815 0.054409
0.315550 0.403815 0.054409
0.403815 0.403815 0.054409
0.500000 0.403815 0.054409
0.596185 0.403815 0.054409
0.684450 0.403815 0.054409
0.764290 0.403815 0.054409
0.835062 0.403815 0.054409
0.895907 0.403815 0.054409
0.945591 0.403815 0.054409
0.982052 0.403815 0.054409
1.000000 0.403815 0.054409
0.000000 0.500000 0.054409
0.017948 0.500000 0.054409
0.054409 0.500000 0.054409
0.104093 0.500000 0.054409
0.164938 0.500000 0.054409
0.235710 0.500000 0.054409
0.315550 0.500000 0.054409
0.403815 0.500000 0.054409
0.500000 0.500000 0.054409
0.596185 0.500000 0.054409
0.684450 0.500000 0.054409
0.764290 0.500000 0.054409
0.835062 0.500000 0.054409
0.895907 0.500000 0.054409
0.945591 0.500000 0.054409
0.982052 0.500000 0.054409
1.000000 0.500000 0.054409
0.000000 0.596185 0.054409
0.017948 0.596185 0.054409
0.054409 0.596185 0.054409
0.104093 0.596185 0.054409
0.164938 0.596185 0.054409
0.235710 0.596185 0.054409
0.315550 0.596185 0.054409
0.403815 0.596185 0.054409
0.500000 0.596185 0.054409
0.596185 0.596185 0.054409
0.684450 0.596185 0.054409
0.764290 0.596185 0.054409
0.835062 0.596185 0.054409
0.895907 0.596185 0.054409
0.945591 0.596185 0.054409
0.982052 0.596185 0.054409
1.000000 0.596185 0.054409
0.000000 0.684450 0.054409
0.017948 0.684450 0.054409
0.054409 0.684450 0.054409
0.104093 0.684450 0.054409
0.164938 0.684450 0.054409
0.235710 0.684450 0.054409
0.315550 0.684450 0.054409
0.403815 0.684450 0.054409
0.500000 0.684450 0.054409
0.596185 0.684450 0.054409
0.684450 0.684450 0.054409
0.764290 0.684450 0.054409
0.835062 0.684450 0.054409
0.895907 0.684450 0.054409
0.945591 0.684450 0.054409
0.982052 0.684450 0.054409
1.000000 0.684450 0.054409
0.000000 0.764290 0.054409
0.017948 0.764290 0.054409
0.054409 0.764290 0.054409
0.104093 0.764290 0.054409
0.164938 0.764290 0.054409
0.235710 0.764290 0.054409
0.315550 0.764290 0.054409
0.403815 0.764290 0.054409
0.500000 0.764290 0.054409
0.596185 0.764290 0.054409
0.684450 0.764290 0.054409
0.764290 0.764290 0.054409
0.835062 0.764290 0.054409
0.895907 0.764290 0.054409
0.945591 0.764290 0.054409
0.982052 0.764290 0.054409
1.000000 0.764290 0.054409
0.000000 0.835062 0.054409
0.017948 0.835062 0.054409
0.054409 0.835062 0.054409
0.104093 0.835062 0.054409
0.164938 0.835062 0.054409
0.235710 0.835062 0.054409
0.315550 0.835062 0.054409
0.403815 0.835062 0.054409
0.500000 0.835062 0.054409
0.596185 0.835062 0.054409
0.684450 0.835062 0.054409
0.764290 0.835062 0.054409
0.835062 0.835062 0.054409
0.895907 0.835062 0.054409
0.945591 0.835062 0.054409
0.982052 0.835062 0.054409
1.000000 0.835062 0.054409
0.000000 0.895907 0.054409
0.017948 0.895907 0.054409
0.054409 0.895907 0.054409
0.104093 0.895907 0.054409
0.164938 0.895907 0.054409
0.235710 0.895907 0.054409
0.315550 0.895907 0.054409
0.403815 0.895907 0.054409
0.500000 0.895907 0.054409
0.596185 0.895907 0.054409
0.684450 0.895907 0.054409
0.764290 0.895907 0.054409
0.835062 0.895907 0.054409
0.895907 0.895907 0.054409
0.945591 0.895907 0.054409
0.982052 0.895907 0.054409
1.000000 0.895907 0.054409
0.000000 0.945591 0.054409
0.017948 0.945591 0.054409
0.054409 0.945591 0.054409
0.104093 0.945591 0.054409
0.164938 0.945591 0.054409
0.235710 0.945591 0.054409
0.315550 0.945591 0.054409
0.403815 0.945591 0.054409
0.500000 0.945591 0.054409
0.596185 0.945591 0.054409
0.684450 0.945591 0.054409
0.764290 0.945591 0.054409
0.835062 0.945591 0.054409
0.895907 0.945591 0.054409
0.945591 0.945591 0.054409
0.982052 0.945591 0.054409
1.000000 0.945591 0.054409
0.000000 0.982052 0.054409
0.017948 0.982052 0.054409
0.054409 0.982052 0.054409
0.104093 0.982052 0.054409
0.164938 0.982052 0.054409
0.235710 0.982052 0.054409
0.315550 0.982052 0.054409
0.403815 0.982052 0.054409
0.500000 0.982052 0.054409
0.596185 0.982052 0.054409
0.684450 0.982052 0.054409
0.764290 0.982052 0.054409
0.835062 0.982052 0.054409
0.895907 0.982052 0.054409
0.945591 0.982052 0.054409
0.982052 0.982052 0.054409
1.000000 0.982052 0.054409
0.000000 1.000000 0.054409
0.017948 1.000000 0.054409
0.054409 1.000000 0.054409
0.104093 1.000000 0.054409
0.164938 1.000000 0.054409
0.235710 1.000000 0.054409
0.315550 1.000000 0.054409
0.403815 1.000000 0.054409
0.500000 1.000000 0.054409
0.596185 1.000000 0.054409
0.684450 1.000000 0.054409
0.764290 1.000000 0.054409
0.835062 1.000000 0.054409
0.895907 1.000000 0.054409
0.945591 1.000000 0.054409
0.982052 1.000000 0.054409
1.000000 1.000000 0.054409
0.000000 0.000000 0.104093
0.017948 0.000000 0.104093
0.054409 0.000000 0.104093
0.104093 0.000000 0.104093
0.164938 0.000000 0.104093
0.235710 0.000000 0.104093
0.315550 0.000000 0.104093
0.403815 0.000000 0.104093
0.500000 0.000000 0.104093
0.596185 0.000000 0.104093
0.684450 0.000000 0.104093
0.764290 0.000000 0.104093
0.835062 0.000000 0.104093
0.895907 0.000000 0.104093
0.945591 0.000000 0.104093
0.982052 0.000000 0.104093
1.000000 0.000000 0.104093
0.000000 0.017948 0.104093
