ApexStudio/app/src/main/assets/luts/polaroid_fade.cube
# ApexStudio filter: polaroid_fade
LUT_3D_SIZE 5
DOMAIN_MIN 0.0 0.0 0.0
DOMAIN_MAX 1.0 1.0 1.0
0.107329 0.066540 0.000000
0.351136 0.066540 0.000000
0.604596 0.066540 0.000000
0.863647 0.066540 0.000000
1.000000 0.066540 0.000000
0.107329 0.295731 0.000000
0.351136 0.295731 0.000000
0.604596 0.295731 0.000000
0.863647 0.295731 0.000000
1.000000 0.295731 0.000000
0.107329 0.535427 0.000000
0.351136 0.535427 0.000000
0.604596 0.535427 0.000000
0.863647 0.535427 0.000000
1.000000 0.535427 0.000000
0.107329 0.780805 0.000000
0.351136 0.780805 0.000000
0.604596 0.780805 0.000000
0.863647 0.780805 0.000000
1.000000 0.780805 0.000000
0.107329 1.000000 0.000000
0.351136 1.000000 0.000000
0.604596 1.000000 0.000000
0.863647 1.000000 0.000000
1.000000 1.000000 0.000000
0.107329 0.066540 0.225000
0.351136 0.066540 0.225000
0.604596 0.066540 0.225000
0.863647 0.066540 0.225000
1.000000 0.066540 0.225000
0.107329 0.295731 0.225000
0.351136 0.295731 0.225000
0.604596 0.295731 0.225000
0.863647 0.295731 0.225000
1.000000 0.295731 0.225000
0.107329 0.535427 0.225000
0.351136 0.535427 0.225000
0.604596 0.535427 0.225000
0.863647 0.535427 0.225000
1.000000 0.535427 0.225000
0.107329 0.780805 0.225000
0.351136 0.780805 0.225000
0.604596 0.780805 0.225000
0.863647 0.780805 0.225000
1.000000 0.780805 0.225000
0.107329 1.000000 0.225000
0.351136 1.000000 0.225000
0.604596 1.000000 0.225000
0.863647 1.000000 0.225000
1.000000 1.000000 0.225000
0.107329 0.066540 0.450000
0.351136 0.066540 0.450000
0.604596 0.066540 0.450000
0.863647 0.066540 0.450000
1.000000 0.066540 0.450000
0.107329 0.295731 0.450000
0.351136 0.295731 0.450000
0.604596 0.295731 0.450000
0.863647 0.295731 0.450000
1.000000 0.295731 0.450000
0.107329 0.535427 0.450000
0.351136 0.535427 0.450000
0.604596 0.535427 0.450000
0.863647 0.535427 0.450000
1.000000 0.535427 0.450000
0.107329 0.780805 0.450000
0.351136 0.780805 0.450000
0.604596 0.780805 0.450000
0.863647 0.780805 0.450000
1.000000 0.780805 0.450000
0.107329 1.000000 0.450000
0.351136 1.000000 0.450000
0.604596 1.000000 0.450000
0.863647 1.000000 0.450000
1.000000 1.000000 0.450000
0.107329 0.066540 0.675000
0.351136 0.066540 0.675000
0.604596 0.066540 0.675000
0.863647 0.066540 0.675000
1.000000 0.066540 0.675000
0.107329 0.295731 0.675000
0.351136 0.295731 0.675000
0.604596 0.295731 0.675000
0.863647 0.295731 0.675000
1.000000 0.295731 0.675000
0.107329 0.535427 0.675000
0.351136 0.535427 0.675000
0.604596 0.535427 0.675000
0.863647 0.535427 0.675000
1.000000 0.535427 0.675000
0.107329 0.780805 0.675000
0.351136 0.780805 0.675000
0.604596 0.780805 0.675000
0.863647 0.780805 0.675000
1.000000 0.780805 0.675000
0.107329 1.000000 0.675000
0.351136 1.000000 0.675000
0.604596 1.000000 0.675000
0.863647 1.000000 0.675000
1.000000 1.000000 0.675000
0.107329 0.066540 0.900000
0.351136 0.066540 0.900000
0.604596 0.066540 0.900000
0.863647 0.066540 0.900000
1.000000 0.066540 0.900000
0.107329 0.295731 0.900000
0.351136 0.295731 0.900000
0.604596 0.295731 0.900000
0.863647 0.295731 0.900000
1.000000 0.295731 0.900000
0.107329 0.535427 0.900000
0.351136 0.535427 0.900000
0.604596 0.535427 0.900000
0.863647 0.535427 0.900000
1.000000 0.535427 0.900000
0.107329 0.780805 0.900000
0.351136 0.780805 0.900000
0.604596 0.780805 0.900000
0.863647 0.780805 0.900000
1.000000 0.780805 0.900000
0.107329 1.000000 0.900000
0.351136 1.000000 0.900000
0.604596 1.000000 0.900000
0.863647 1.000000 0.900000
1.000000 1.000000 0.900000
