ApexStudio/app/src/main/assets/luts/polaroid_fade.cube
# ApexStudio filter: polaroid_fade
LUT_3D_SIZE 17
DOMAIN_MIN 0.0 0.0 0.0
DOMAIN_MAX 1.0 1.0 1.0
0.107329 0.066540 0.000000
0.166871 0.066540 0.000000
0.227519 0.066540 0.000000
0.288995 0.066540 0.000000
0.351136 0.066540 0.000000
0.413835 0.066540 0.000000
0.477015 0.066540 0.000000
0.540617 0.066540 0.000000
0.604596 0.066540 0.000000
0.668915 0.066540 0.000000
0.733547 0.066540 0.000000
0.798464 0.066540 0.000000
0.863647 0.066540 0.000000
0.929076 0.066540 0.000000
0.994738 0.066540 0.000000
1.000000 0.066540 0.000000
1.000000 0.066540 0.000000
0.107329 0.122181 0.000000
0.166871 0.122181 0.000000
0.227519 0.122181 0.000000
0.288995 0.122181 0.000000
0.351136 0.122181 0.000000
0.413835 0.122181 0.000000
0.477015 0.122181 0.000000
0.540617 0.122181 0.000000
0.604596 0.122181 0.000000
0.668915 0.122181 0.000000
0.733547 0.122181 0.000000
0.798464 0.122181 0.000000
0.863647 0.122181 0.000000
0.929076 0.122181 0.000000
0.994738 0.122181 0.000000
1.000000 0.122181 0.000000
1.000000 0.122181 0.000000
0.107329 0.179165 0.000000
0.166871 0.179165 0.000000
0.227519 0.179165 0.000000
0.288995 0.179165 0.000000
0.351136 0.179165 0.000000
0.413835 0.179165 0.000000
0.477015 0.179165 0.000000
0.540617 0.179165 0.000000
0.604596 0.179165 0.000000
0.668915 0.179165 0.000000
0.733547 0.179165 0.000000
0.798464 0.179165 0.000000
0.863647 0.179165 0.000000
0.929076 0.179165 0.000000
0.994738 0.179165 0.000000
1.000000 0.179165 0.000000
1.000000 0.179165 0.000000
0.107329 0.237086 0.000000
0.166871 0.237086 0.000000
0.227519 0.237086 0.000000
0.288995 0.237086 0.000000
0.351136 0.237086 0.000000
0.413835 0.237086 0.000000
0.477015 0.237086 0.000000
0.540617 0.237086 0.000000
0.604596 0.237086 0.000000
0.668915 0.237086 0.000000
0.733547 0.237086 0.000000
0.798464 0.237086 0.000000
0.863647 0.237086 0.000000
0.929076 0.237086 0.000000
0.994738 0.237086 0.000000
1.000000 0.237086 0.000000
1.000000 0.237086 0.000000
0.107329 0.295731 0.000000
0.166871 0.295731 0.000000
0.227519 0.295731 0.000000
0.288995 0.295731 0.000000
0.351136 0.295731 0.000000
0.413835 0.295731 0.000000
0.477015 0.295731 0.000000
0.540617 0.295731 0.000000
0.604596 0.295731 0.000000
0.668915 0.295731 0.000000
0.733547 0.295731 0.000000
0.798464 0.295731 0.000000
0.863647 0.295731 0.000000
0.929076 0.295731 0.000000
0.994738 0.295731 0.000000
1.000000 0.295731 0.000000
1.000000 0.295731 0.000000
0.107329 0.354966 0.000000
0.166871 0.354966 0.000000
0.227519 0.354966 0.000000
0.288995 0.354966 0.000000
0.351136 0.354966 0.000000
0.413835 0.354966 0.000000
0.477015 0.354966 0.000000
0.540617 0.354966 0.000000
0.604596 0.354966 0.000000
0.668915 0.354966 0.000000
0.733547 0.354966 0.000000
0.798464 0.354966 0.000000
0.863647 0.354966 0.000000
0.929076 0.354966 0.000000
0.994738 0.354966 0.000000
1.000000 0.354966 0.000000
1.000000 0.354966 0.000000
0.107329 0.414701 0.000000
0.166871 0.414701 0.000000
0.227519 0.414701 0.000000
0.288995 0.414701 0.000000
0.351136 0.414701 0.000000
0.413835 0.414701 0.000000
0.477015 0.414701 0.000000
0.540617 0.414701 0.000000
0.604596 0.414701 0.000000
0.668915 0.414701 0.000000
0.733547 0.414701 0.000000
0.798464 0.414701 0.000000
0.863647 0.414701 0.000000
0.929076 0.414701 0.000000
0.994738 0.414701 0.000000
1.000000 0.414701 0.000000
1.000000 0.414701 0.000000
0.107329 0.474872 0.000000
0.166871 0.474872 0.000000
0.227519 0.474872 0.000000
0.288995 0.474872 0.000000
0.351136 0.474872 0.000000
0.413835 0.474872 0.000000
0.477015 0.474872 0.000000
0.540617 0.474872 0.000000
0.604596 0.474872 0.000000
0.668915 0.474872 0.000000
0.733547 0.474872 0.000000
0.798464 0.474872 0.000000
0.863647 0.474872 0.000000
0.929076 0.474872 0.000000
0.994738 0.474872 0.000000
1.000000 0.474872 0.000000
1.000000 0.474872 0.000000
0.107329 0.535427 0.000000
0.166871 0.535427 0.000000
0.227519 0.535427 0.000000
0.288995 0.535427 0.000000
0.351136 0.535427 0.000000
0.413835 0.535427 0.000000
0.477015 0.535427 0.000000
0.540617 0.535427 0.000000
0.604596 0.535427 0.000000
0.668915 0.535427 0.000000
0.733547 0.535427 0.000000
0.798464 0.535427 0.000000
0.863647 0.535427 0.000000
0.929076 0.535427 0.000000
0.994738 0.535427 0.000000
1.000000 0.535427 0.000000
1.000000 0.535427 0.000000
0.107329 0.596327 0.000000
0.166871 0.596327 0.000000
0.227519 0.596327 0.000000
0.288995 0.596327 0.000000
0.351136 0.596327 0.000000
0.413835 0.596327 0.000000
0.477015 0.596327 0.000000
0.540617 0.596327 0.000000
0.604596 0.596327 0.000000
0.668915 0.596327 0.000000
0.733547 0.596327 0.000000
0.798464 0.596327 0.000000
0.863647 0.596327 0.000000
0.929076 0.596327 0.000000
0.994738 0.596327 0.000000
1.000000 0.596327 0.000000
1.000000 0.596327 0.000000
0.107329 0.657541 0.000000
0.166871 0.657541 0.000000
0.227519 0.657541 0.000000
0.288995 0.657541 0.000000
0.351136 0.657541 0.000000
0.413835 0.657541 0.000000
0.477015 0.657541 0.000000
0.540617 0.657541 0.000000
0.604596 0.657541 0.000000
0.668915 0.657541 0.000000
0.733547 0.657541 0.000000
0.798464 0.657541 0.000000
0.863647 0.657541 0.000000
0.929076 0.657541 0.000000
0.994738 0.657541 0.000000
1.000000 0.657541 0.000000
1.000000 0.657541 0.000000
0.107329 0.719041 0.000000
0.166871 0.719041 0.000000
0.227519 0.719041 0.000000
0.288995 0.719041 0.000000
0.351136 0.719041 0.000000
0.413835 0.719041 0.000000
0.477015 0.719041 0.000000
0.540617 0.719041 0.000000
0.604596 0.719041 0.000000
0.668915 0.719041 0.000000
0.733547 0.719041 0.000000
0.798464 0.719041 0.000000
0.863647 0.719041 0.000000
0.929076 0.719041 0.000000
0.994738 0.719041 0.000000
1.000000 0.719041 0.000000
1.000000 0.719041 0.000000
0.107329 0.780805 0.000000
0.166871 0.780805 0.000000
0.227519 0.780805 0.000000
0.288995 0.780805 0.000000
0.351136 0.780805 0.000000
0.413835 0.780805 0.000000
0.477015 0.780805 0.000000
0.540617 0.780805 0.000000
0.604596 0.780805 0.000000
0.668915 0.780805 0.000000
0.733547 0.780805 0.000000
0.798464 0.780805 0.000000
0.863647 0.780805 0.000000
0.929076 0.780805 0.000000
0.994738 0.780805 0.000000
1.000000 0.780805 0.000000
1.000000 0.780805 0.000000
0.107329 0.842815 0.000000
0.166871 0.842815 0.000000
0.227519 0.842815 0.000000
0.288995 0.842815 0.000000
0.351136 0.842815 0.000000
0.413835 0.842815 0.000000
0.477015 0.842815 0.000000
0.540617 0.842815 0.000000
0.604596 0.842815 0.000000
0.668915 0.842815 0.000000
0.733547 0.842815 0.000000
0.798464 0.842815 0.000000
0.863647 0.842815 0.000000
0.929076 0.842815 0.000000
0.994738 0.842815 0.000000
1.000000 0.842815 0.000000
1.000000 0.842815 0.000000
0.107329 0.905054 0.000000
0.166871 0.905054 0.000000
0.227519 0.905054 0.000000
0.288995 0.905054 0.000000
0.351136 0.905054 0.000000
0.413835 0.905054 0.000000
0.477015 0.905054 0.000000
0.540617 0.905054 0.000000
0.604596 0.905054 0.000000
0.668915 0.905054 0.000000
0.733547 0.905054 0.000000
0.798464 0.905054 0.000000
0.863647 0.905054 0.000000
0.929076 0.905054 0.000000
0.994738 0.905054 0.000000
1.000000 0.905054 0.000000
1.000000 0.905054 0.000000
0.107329 0.967508 0.000000
0.166871 0.967508 0.000000
0.227519 0.967508 0.000000
0.288995 0.967508 0.000000
0.351136 0.967508 0.000000
0.413835 0.967508 0.000000
0.477015 0.967508 0.000000
0.540617 0.967508 0.000000
0.604596 0.967508 0.000000
0.668915 0.967508 0.000000
0.733547 0.967508 0.000000
0.798464 0.967508 0.000000
0.863647 0.967508 0.000000
0.929076 0.967508 0.000000
0.994738 0.967508 0.000000
1.000000 0.967508 0.000000
1.000000 0.967508 0.000000
0.107329 1.000000 0.000000
0.166871 1.000000 0.000000
0.227519 1.000000 0.000000
0.288995 1.000000 0.000000
0.351136 1.000000 0.000000
0.413835 1.000000 0.000000
0.477015 1.000000 0.000000
0.540617 1.000000 0.000000
0.604596 1.000000 0.000000
0.668915 1.000000 0.000000
0.733547 1.000000 0.000000
0.798464 1.000000 0.000000
0.863647 1.000000 0.000000
0.929076 1.000000 0.000000
0.994738 1.000000 0.000000
1.000000 1.000000 0.000000
1.000000 1.000000 0.000000
0.107329 0.066540 0.056250
0.166871 0.066540 0.056250
0.227519 0.066540 0.056250
0.288995 0.066540 0.056250
0.351136 0.066540 0.056250
0.413835 0.066540 0.056250
0.477015 0.066540 0.056250
0.540617 0.066540 0.056250
0.604596 0.066540 0.056250
0.668915 0.066540 0.056250
0.733547 0.066540 0.056250
0.798464 0.066540 0.056250
0.863647 0.066540 0.056250
0.929076 0.066540 0.056250
0.994738 0.066540 0.056250
1.000000 0.066540 0.056250
1.000000 0.066540 0.056250
0.107329 0.122181 0.056250
0.166871 0.122181 0.056250
0.227519 0.122181 0.056250
0.288995 0.122181 0.056250
0.351136 0.122181 0.056250
0.413835 0.122181 0.056250
0.477015 0.122181 0.056250
0.540617 0.122181 0.056250
0.604596 0.122181 0.056250
0.668915 0.122181 0.056250
0.733547 0.122181 0.056250
0.798464 0.122181 0.056250
0.863647 0.122181 0.056250
0.929076 0.122181 0.056250
0.994738 0.122181 0.056250
1.000000 0.122181 0.056250
1.000000 0.122181 0.056250
0.107329 0.179165 0.056250
0.166871 0.179165 0.056250
0.227519 0.179165 0.056250
0.288995 0.179165 0.056250
0.351136 0.179165 0.056250
0.413835 0.179165 0.056250
0.477015 0.179165 0.056250
0.540617 0.179165 0.056250
0.604596 0.179165 0.056250
0.668915 0.179165 0.056250
0.733547 0.179165 0.056250
0.798464 0.179165 0.056250
0.863647 0.179165 0.056250
0.929076 0.179165 0.056250
0.994738 0.179165 0.056250
1.000000 0.179165 0.056250
1.000000 0.179165 0.056250
0.107329 0.237086 0.056250
0.166871 0.237086 0.056250
0.227519 0.237086 0.056250
0.288995 0.237086 0.056250
0.351136 0.237086 0.056250
0.413835 0.237086 0.056250
0.477015 0.237086 0.056250
0.540617 0.237086 0.056250
0.604596 0.237086 0.056250
0.668915 0.237086 0.056250
0.733547 0.237086 0.056250
0.798464 0.237086 0.056250
0.863647 0.237086 0.056250
0.929076 0.237086 0.056250
0.994738 0.237086 0.056250
1.000000 0.237086 0.056250
1.000000 0.237086 0.056250
0.107329 0.295731 0.056250
0.166871 0.295731 0.056250
0.227519 0.295731 0.056250
0.288995 0.295731 0.056250
0.351136 0.295731 0.056250
0.413835 0.295731 0.056250
0.477015 0.295731 0.056250
0.540617 0.295731 0.056250
0.604596 0.295731 0.056250
0.668915 0.295731 0.056250
0.733547 0.295731 0.056250
0.798464 0.295731 0.056250
0.863647 0.295731 0.056250
0.929076 0.295731 0.056250
0.994738 0.295731 0.056250
1.000000 0.295731 0.056250
1.000000 0.295731 0.056250
0.107329 0.354966 0.056250
0.166871 0.354966 0.056250
0.227519 0.354966 0.056250
0.288995 0.354966 0.056250
0.351136 0.354966 0.056250
0.413835 0.354966 0.056250
0.477015 0.354966 0.056250
0.540617 0.354966 0.056250
0.604596 0.354966 0.056250
0.668915 0.354966 0.056250
0.733547 0.354966 0.056250
0.798464 0.354966 0.056250
0.863647 0.354966 0.056250
0.929076 0.354966 0.056250
0.994738 0.354966 0.056250
1.000000 0.354966 0.056250
1.000000 0.354966 0.056250
0.107329 0.414701 0.056250
0.166871 0.414701 0.056250
0.227519 0.414701 0.056250
0.288995 0.414701 0.056250
0.351136 0.414701 0.056250
0.413835 0.414701 0.056250
0.477015 0.414701 0.056250
0.540617 0.414701 0.056250
0.604596 0.414701 0.056250
0.668915 0.414701 0.056250
0.733547 0.414701 0.056250
0.798464 0.414701 0.056250
0.863647 0.414701 0.056250
0.929076 0.414701 0.056250
0.994738 0.414701 0.056250
1.000000 0.414701 0.056250
1.000000 0.414701 0.056250
0.107329 0.474872 0.056250
0.166871 0.474872 0.056250
0.227519 0.474872 0.056250
0.288995 0.474872 0.056250
0.351136 0.474872 0.056250
0.413835 0.474872 0.056250
0.477015 0.474872 0.056250
0.540617 0.474872 0.056250
0.604596 0.474872 0.056250
0.668915 0.474872 0.056250
0.733547 0.474872 0.056250
0.798464 0.474872 0.056250
0.863647 0.474872 0.056250
0.929076 0.474872 0.056250
0.994738 0.474872 0.056250
1.000000 0.474872 0.056250
1.000000 0.474872 0.056250
0.107329 0.535427 0.056250
0.166871 0.535427 0.056250
0.227519 0.535427 0.056250
0.288995 0.535427 0.056250
0.351136 0.535427 0.056250
0.413835 0.535427 0.056250
0.477015 0.535427 0.056250
0.540617 0.535427 0.056250
0.604596 0.535427 0.056250
0.668915 0.535427 0.056250
0.733547 0.535427 0.056250
0.798464 0.535427 0.056250
0.863647 0.535427 0.056250
0.929076 0.535427 0.056250
0.994738 0.535427 0.056250
1.000000 0.535427 0.056250
1.000000 0.535427 0.056250
0.107329 0.596327 0.056250
0.166871 0.596327 0.056250
0.227519 0.596327 0.056250
0.288995 0.596327 0.056250
0.351136 0.596327 0.056250
0.413835 0.596327 0.056250
0.477015 0.596327 0.056250
0.540617 0.596327 0.056250
0.604596 0.596327 0.056250
0.668915 0.596327 0.056250
0.733547 0.596327 0.056250
0.798464 0.596327 0.056250
0.863647 0.596327 0.056250
0.929076 0.596327 0.056250
0.994738 0.596327 0.056250
1.000000 0.596327 0.056250
1.000000 0.596327 0.056250
0.107329 0.657541 0.056250
0.166871 0.657541 0.056250
0.227519 0.657541 0.056250
0.288995 0.657541 0.056250
0.351136 0.657541 0.056250
0.413835 0.657541 0.056250
0.477015 0.657541 0.056250
0.540617 0.657541 0.056250
0.604596 0.657541 0.056250
0.668915 0.657541 0.056250
0.733547 0.657541 0.056250
0.798464 0.657541 0.056250
0.863647 0.657541 0.056250
0.929076 0.657541 0.056250
0.994738 0.657541 0.056250
1.000000 0.657541 0.056250
1.000000 0.657541 0.056250
0.107329 0.719041 0.056250
0.166871 0.719041 0.056250
0.227519 0.719041 0.056250
0.288995 0.719041 0.056250
0.351136 0.719041 0.056250
0.413835 0.719041 0.056250
0.477015 0.719041 0.056250
0.540617 0.719041 0.056250
0.604596 0.719041 0.056250
0.668915 0.719041 0.056250
0.733547 0.719041 0.056250
0.798464 0.719041 0.056250
0.863647 0.719041 0.056250
0.929076 0.719041 0.056250
0.994738 0.719041 0.056250
1.000000 0.719041 0.056250
1.000000 0.719041 0.056250
0.107329 0.780805 0.056250
0.166871 0.780805 0.056250
0.227519 0.780805 0.056250
0.288995 0.780805 0.056250
0.351136 0.780805 0.056250
0.413835 0.780805 0.056250
0.477015 0.780805 0.056250
0.540617 0.780805 0.056250
0.604596 0.780805 0.056250
0.668915 0.780805 0.056250
0.733547 0.780805 0.056250
0.798464 0.780805 0.056250
0.863647 0.780805 0.056250
0.929076 0.780805 0.056250
0.994738 0.780805 0.056250
1.000000 0.780805 0.056250
1.000000 0.780805 0.056250
0.107329 0.842815 0.056250
0.166871 0.842815 0.056250
0.227519 0.842815 0.056250
0.288995 0.842815 0.056250
0.351136 0.842815 0.056250
0.413835 0.842815 0.056250
0.477015 0.842815 0.056250
0.540617 0.842815 0.056250
0.604596 0.842815 0.056250
0.668915 0.842815 0.056250
0.733547 0.842815 0.056250
0.798464 0.842815 0.056250
0.863647 0.842815 0.056250
0.929076 0.842815 0.056250
0.994738 0.842815 0.056250
1.000000 0.842815 0.056250
1.000000 0.842815 0.056250
0.107329 0.905054 0.056250
0.166871 0.905054 0.056250
0.227519 0.905054 0.056250
0.288995 0.905054 0.056250
0.351136 0.905054 0.056250
0.413835 0.905054 0.056250
0.477015 0.905054 0.056250
0.540617 0.905054 0.056250
0.604596 0.905054 0.056250
0.668915 0.905054 0.056250
0.733547 0.905054 0.056250
0.798464 0.905054 0.056250
0.863647 0.905054 0.056250
0.929076 0.905054 0.056250
0.994738 0.905054 0.056250
1.000000 0.905054 0.056250
1.000000 0.905054 0.056250
0.107329 0.967508 0.056250
0.166871 0.967508 0.056250
0.227519 0.967508 0.056250
0.288995 0.967508 0.056250
0.351136 0.967508 0.056250
0.413835 0.967508 0.056250
0.477015 0.967508 0.056250
0.540617 0.967508 0.056250
0.604596 0.967508 0.056250
0.668915 0.967508 0.056250
0.733547 0.967508 0.056250
0.798464 0.967508 0.056250
0.863647 0.967508 0.056250
0.929076 0.967508 0.056250
0.994738 0.967508 0.056250
1.000000 0.967508 0.056250
1.000000 0.967508 0.056250
0.107329 1.000000 0.056250
0.166871 1.000000 0.056250
0.227519 1.000000 0.056250
0.288995 1.000000 0.056250
0.351136 1.000000 0.056250
0.413835 1.000000 0.056250
0.477015 1.000000 0.056250
0.540617 1.000000 0.056250
0.604596 1.000000 0.056250
0.668915 1.000000 0.056250
0.733547 1.000000 0.056250
0.798464 1.000000 0.056250
0.863647 1.000000 0.056250
0.929076 1.000000 0.056250
0.994738 1.000000 0.056250
1.000000 1.000000 0.056250
1.000000 1.000000 0.056250
0.107329 0.066540 0.112500
0.166871 0.066540 0.112500
0.227519 0.066540 0.112500
0.288995 0.066540 0.112500
0.351136 0.066540 0.112500
0.413835 0.066540 0.112500
0.477015 0.066540 0.112500
0.540617 0.066540 0.112500
0.604596 0.066540 0.112500
0.668915 0.066540 0.112500
0.733547 0.066540 0.112500
0.798464 0.066540 0.112500
0.863647 0.066540 0.112500
0.929076 0.066540 0.112500
0.994738 0.066540 0.112500
1.000000 0.066540 0.112500
1.000000 0.066540 0.112500
0.107329 0.122181 0.112500
0.166871 0.122181 0.112500
0.227519 0.122181 0.112500
0.288995 0.122181 0.112500
0.351136 0.122181 0.112500
0.413835 0.122181 0.112500
0.477015 0.122181 0.112500
0.540617 0.122181 0.112500
0.604596 0.122181 0.112500
0.668915 0.122181 0.112500
0.733547 0.122181 0.112500
0.798464 0.122181 0.112500
0.863647 0.122181 0.112500
0.929076 0.122181 0.112500
0.994738 0.122181 0.112500
1.000000 0.122181 0.112500
1.000000 0.122181 0.112500
0.107329 0.179165 0.112500
0.166871 0.179165 0.112500
0.227519 0.179165 0.112500
0.288995 0.179165 0.112500
0.351136 0.179165 0.112500
0.413835 0.179165 0.112500
0.477015 0.179165 0.112500
0.540617 0.179165 0.112500
0.604596 0.179165 0.112500
0.668915 0.179165 0.112500
0.733547 0.179165 0.112500
0.798464 0.179165 0.112500
0.863647 0.179165 0.112500
0.929076 0.179165 0.112500
0.994738 0.179165 0.112500
1.000000 0.179165 0.112500
1.000000 0.179165 0.112500
0.107329 0.237086 0.112500
0.166871 0.237086 0.112500
0.227519 0.237086 0.112500
0.288995 0.237086 0.112500
0.351136 0.237086 0.112500
0.413835 0.237086 0.112500
0.477015 0.237086 0.112500
0.540617 0.237086 0.112500
0.604596 0.237086 0.112500
0.668915 0.237086 0.112500
0.733547 0.237086 0.112500
0.798464 0.237086 0.112500
0.863647 0.237086 0.112500
0.929076 0.237086 0.112500
0.994738 0.237086 0.112500
1.000000 0.237086 0.112500
1.000000 0.237086 0.112500
0.107329 0.295731 0.112500
0.166871 0.295731 0.112500
0.227519 0.295731 0.112500
0.288995 0.295731 0.112500
0.351136 0.295731 0.112500
0.413835 0.295731 0.112500
0.477015 0.295731 0.112500
0.540617 0.295731 0.112500
0.604596 0.295731 0.112500
0.668915 0.295731 0.112500
0.733547 0.295731 0.112500
0.798464 0.295731 0.112500
0.863647 0.295731 0.112500
0.929076 0.295731 0.112500
0.994738 0.295731 0.112500
1.000000 0.295731 0.112500
1.000000 0.295731 0.112500
0.107329 0.354966 0.112500
0.166871 0.354966 0.112500
0.227519 0.354966 0.112500
0.288995 0.354966 0.112500
0.351136 0.354966 0.112500
0.413835 0.354966 0.112500
0.477015 0.354966 0.112500
0.540617 0.354966 0.112500
0.604596 0.354966 0.112500
0.668915 0.354966 0.112500
0.733547 0.354966 0.112500
0.798464 0.354966 0.112500
0.863647 0.354966 0.112500
0.929076 0.354966 0.112500
0.994738 0.354966 0.112500
1.000000 0.354966 0.112500
1.000000 0.354966 0.112500
0.107329 0.414701 0.112500
0.166871 0.414701 0.112500
0.227519 0.414701 0.112500
0.288995 0.414701 0.112500
0.351136 0.414701 0.112500
0.413835 0.414701 0.112500
0.477015 0.414701 0.112500
0.540617 0.414701 0.112500
0.604596 0.414701 0.112500
0.668915 0.414701 0.112500
0.733547 0.414701 0.112500
0.798464 0.414701 0.112500
0.863647 0.414701 0.112500
0.929076 0.414701 0.112500
0.994738 0.414701 0.112500
1.000000 0.414701 0.112500
1.000000 0.414701 0.112500
0.107329 0.474872 0.112500
0.166871 0.474872 0.112500
0.227519 0.474872 0.112500
0.288995 0.474872 0.112500
0.351136 0.474872 0.112500
0.413835 0.474872 0.112500
0.477015 0.474872 0.112500
0.540617 0.474872 0.112500
0.604596 0.474872 0.112500
0.668915 0.474872 0.112500
0.733547 0.474872 0.112500
0.798464 0.474872 0.112500
0.863647 0.474872 0.112500
0.929076 0.474872 0.112500
0.994738 0.474872 0.112500
1.000000 0.474872 0.112500
1.000000 0.474872 0.112500
0.107329 0.535427 0.112500
0.166871 0.535427 0.112500
0.227519 0.535427 0.112500
0.288995 0.535427 0.112500
0.351136 0.535427 0.112500
0.413835 0.535427 0.112500
0.477015 0.535427 0.112500
0.540617 0.535427 0.112500
0.604596 0.535427 0.112500
0.668915 0.535427 0.112500
0.733547 0.535427 0.112500
0.798464 0.535427 0.112500
0.863647 0.535427 0.112500
0.929076 0.535427 0.112500
0.994738 0.535427 0.112500
1.000000 0.535427 0.112500
1.000000 0.535427 0.112500
0.107329 0.596327 0.112500
0.166871 0.596327 0.112500
0.227519 0.596327 0.112500
0.288995 0.596327 0.112500
0.351136 0.596327 0.112500
0.413835 0.596327 0.112500
0.477015 0.596327 0.112500
0.540617 0.596327 0.112500
0.604596 0.596327 0.112500
0.668915 0.596327 0.112500
0.733547 0.596327 0.112500
0.798464 0.596327 0.112500
0.863647 0.596327 0.112500
0.929076 0.596327 0.112500
0.994738 0.596327 0.112500
1.000000 0.596327 0.112500
1.000000 0.596327 0.112500
0.107329 0.657541 0.112500
0.166871 0.657541 0.112500
0.227519 0.657541 0.112500
0.288995 0.657541 0.112500
0.351136 0.657541 0.112500
0.413835 0.657541 0.112500
0.477015 0.657541 0.112500
0.540617 0.657541 0.112500
0.604596 0.657541 0.112500
0.668915 0.657541 0.112500
0.733547 0.657541 0.112500
0.798464 0.657541 0.112500
0.863647 0.657541 0.112500
0.929076 0.657541 0.112500
0.994738 0.657541 0.112500
1.000000 0.657541 0.112500
1.000000 0.657541 0.112500
0.107329 0.719041 0.112500
0.166871 0.719041 0.112500
0.227519 0.719041 0.112500
0.288995 0.719041 0.112500
0.351136 0.719041 0.112500
0.413835 0.719041 0.112500
0.477015 0.719041 0.112500
0.540617 0.719041 0.112500
0.604596 0.719041 0.112500
0.668915 0.719041 0.112500
0.733547 0.719041 0.112500
0.798464 0.719041 0.112500
0.863647 0.719041 0.112500
0.929076 0.719041 0.112500
0.994738 0.719041 0.112500
1.000000 0.719041 0.112500
1.000000 0.719041 0.112500
0.107329 0.780805 0.112500
0.166871 0.780805 0.112500
0.227519 0.780805 0.112500
0.288995 0.780805 0.112500
0.351136 0.780805 0.112500
0.413835 0.780805 0.112500
0.477015 0.780805 0.112500
0.540617 0.780805 0.112500
0.604596 0.780805 0.112500
0.668915 0.780805 0.112500
0.733547 0.780805 0.112500
0.798464 0.780805 0.112500
0.863647 0.780805 0.112500
0.929076 0.780805 0.112500
0.994738 0.780805 0.112500
1.000000 0.780805 0.112500
1.000000 0.780805 0.112500
0.107329 0.842815 0.112500
0.166871 0.842815 0.112500
0.227519 0.842815 0.112500
0.288995 0.842815 0.112500
0.351136 0.842815 0.112500
0.413835 0.842815 0.112500
0.477015 0.842815 0.112500
0.540617 0.842815 0.112500
0.604596 0.842815 0.112500
0.668915 0.842815 0.112500
0.733547 0.842815 0.112500
0.798464 0.842815 0.112500
0.863647 0.842815 0.112500
0.929076 0.842815 0.112500
0.994738 0.842815 0.112500
1.000000 0.842815 0.112500
1.000000 0.842815 0.112500
0.107329 0.905054 0.112500
0.166871 0.905054 0.112500
0.227519 0.905054 0.112500
0.288995 0.905054 0.112500
0.351136 0.905054 0.112500
0.413835 0.905054 0.112500
0.477015 0.905054 0.112500
0.540617 0.905054 0.112500
0.604596 0.905054 0.112500
0.668915 0.905054 0.112500
0.733547 0.905054 0.112500
0.798464 0.905054 0.112500
0.863647 0.905054 0.112500
0.929076 0.905054 0.112500
0.994738 0.905054 0.112500
1.000000 0.905054 0.112500
1.000000 0.905054 0.112500
0.107329 0.967508 0.112500
0.166871 0.967508 0.112500
0.227519 0.967508 0.112500
0.288995 0.967508 0.112500
0.351136 0.967508 0.112500
0.413835 0.967508 0.112500
0.477015 0.967508 0.112500
0.540617 0.967508 0.112500
0.604596 0.967508 0.112500
0.668915 0.967508 0.112500
0.733547 0.967508 0.112500
0.798464 0.967508 0.112500
0.863647 0.967508 0.112500
0.929076 0.967508 0.112500
0.994738 0.967508 0.112500
1.000000 0.967508 0.112500
1.000000 0.967508 0.112500
0.107329 1.000000 0.112500
0.166871 1.000000 0.112500
0.227519 1.000000 0.112500
0.288995 1.000000 0.112500
0.351136 1.000000 0.112500
0.413835 1.000000 0.112500
0.477015 1.000000 0.112500
0.540617 1.000000 0.112500
0.604596 1.000000 0.112500
0.668915 1.000000 0.112500
0.733547 1.000000 0.112500
0.798464 1.000000 0.112500
0.863647 1.000000 0.112500
0.929076 1.000000 0.112500
0.994738 1.000000 0.112500
1.000000 1.000000 0.112500
1.000000 1.000000 0.112500
0.107329 0.066540 0.168750
0.166871 0.066540 0.168750
0.227519 0.066540 0.168750
0.288995 0.066540 0.168750
0.351136 0.066540 0.168750
0.413835 0.066540 0.168750
0.477015 0.066540 0.168750
0.540617 0.066540 0.168750
0.604596 0.066540 0.168750
0.668915 0.066540 0.168750
0.733547 0.066540 0.168750
0.798464 0.066540 0.168750
0.863647 0.066540 0.168750
0.929076 0.066540 0.168750
0.994738 0.066540 0.168750
1.000000 0.066540 0.168750
1.000000 0.066540 0.168750
0.107329 0.122181 0.168750
