ApexStudio/app/src/main/assets/luts/polaroid_fade.cube
# ApexStudio filter: polaroid_fade
LUT_3D_SIZE 9
DOMAIN_MIN 0.0 0.0 0.0
DOMAIN_MAX 1.0 1.0 1.0
0.107329 0.066540 0.000000
0.227519 0.066540 0.000000
0.351136 0.066540 0.000000
0.477015 0.066540 0.000000
0.604596 0.066540 0.000000
0.733547 0.066540 0.000000
0.863647 0.066540 0.000000
0.994738 0.066540 0.000000
1.000000 0.066540 0.000000
0.107329 0.179165 0.000000
0.227519 0.179165 0.000000
0.351136 0.179165 0.000000
0.477015 0.179165 0.000000
0.604596 0.179165 0.000000
0.733547 0.179165 0.000000
0.863647 0.179165 0.000000
0.994738 0.179165 0.000000
1.000000 0.179165 0.000000
0.107329 0.295731 0.000000
0.227519 0.295731 0.000000
0.351136 0.295731 0.000000
0.477015 0.295731 0.000000
0.604596 0.295731 0.000000
0.733547 0.295731 0.000000
0.863647 0.295731 0.000000
0.994738 0.295731 0.000000
1.000000 0.295731 0.000000
0.107329 0.414701 0.000000
0.227519 0.414701 0.000000
0.351136 0.414701 0.000000
0.477015 0.414701 0.000000
0.604596 0.414701 0.000000
0.733547 0.414701 0.000000
0.863647 0.414701 0.000000
0.994738 0.414701 0.000000
1.000000 0.414701 0.000000
0.107329 0.535427 0.000000
0.227519 0.535427 0.000000
0.351136 0.535427 0.000000
0.477015 0.535427 0.000000
0.604596 0.535427 0.000000
0.733547 0.535427 0.000000
0.863647 0.535427 0.000000
0.994738 0.535427 0.000000
1.000000 0.535427 0.000000
0.107329 0.657541 0.000000
0.227519 0.657541 0.000000
0.351136 0.657541 0.000000
0.477015 0.657541 0.000000
0.604596 0.657541 0.000000
0.733547 0.657541 0.000000
0.863647 0.657541 0.000000
0.994738 0.657541 0.000000
1.000000 0.657541 0.000000
0.107329 0.780805 0.000000
0.227519 0.780805 0.000000
0.351136 0.780805 0.000000
0.477015 0.780805 0.000000
0.604596 0.780805 0.000000
0.733547 0.780805 0.000000
0.863647 0.780805 0.000000
0.994738 0.780805 0.000000
1.000000 0.780805 0.000000
0.107329 0.905054 0.000000
0.227519 0.905054 0.000000
0.351136 0.905054 0.000000
0.477015 0.905054 0.000000
0.604596 0.905054 0.000000
0.733547 0.905054 0.000000
0.863647 0.905054 0.000000
0.994738 0.905054 0.000000
1.000000 0.905054 0.000000
0.107329 1.000000 0.000000
0.227519 1.000000 0.000000
0.351136 1.000000 0.000000
0.477015 1.000000 0.000000
0.604596 1.000000 0.000000
0.733547 1.000000 0.000000
0.863647 1.000000 0.000000
0.994738 1.000000 0.000000
1.000000 1.000000 0.000000
0.107329 0.066540 0.112500
0.227519 0.066540 0.112500
0.351136 0.066540 0.112500
0.477015 0.066540 0.112500
0.604596 0.066540 0.112500
0.733547 0.066540 0.112500
0.863647 0.066540 0.112500
0.994738 0.066540 0.112500
1.000000 0.066540 0.112500
0.107329 0.179165 0.112500
0.227519 0.179165 0.112500
0.351136 0.179165 0.112500
0.477015 0.179165 0.112500
0.604596 0.179165 0.112500
0.733547 0.179165 0.112500
0.863647 0.179165 0.112500
0.994738 0.179165 0.112500
1.000000 0.179165 0.112500
0.107329 0.295731 0.112500
0.227519 0.295731 0.112500
0.351136 0.295731 0.112500
0.477015 0.295731 0.112500
0.604596 0.295731 0.112500
0.733547 0.295731 0.112500
0.863647 0.295731 0.112500
0.994738 0.295731 0.112500
1.000000 0.295731 0.112500
0.107329 0.414701 0.112500
0.227519 0.414701 0.112500
0.351136 0.414701 0.112500
0.477015 0.414701 0.112500
0.604596 0.414701 0.112500
0.733547 0.414701 0.112500
0.863647 0.414701 0.112500
0.994738 0.414701 0.112500
1.000000 0.414701 0.112500
0.107329 0.535427 0.112500
0.227519 0.535427 0.112500
0.351136 0.535427 0.112500
0.477015 0.535427 0.112500
0.604596 0.535427 0.112500
0.733547 0.535427 0.112500
0.863647 0.535427 0.112500
0.994738 0.535427 0.112500
1.000000 0.535427 0.112500
0.107329 0.657541 0.112500
0.227519 0.657541 0.112500
0.351136 0.657541 0.112500
0.477015 0.657541 0.112500
0.604596 0.657541 0.112500
0.733547 0.657541 0.112500
0.863647 0.657541 0.112500
0.994738 0.657541 0.112500
1.000000 0.657541 0.112500
0.107329 0.780805 0.112500
0.227519 0.780805 0.112500
0.351136 0.780805 0.112500
0.477015 0.780805 0.112500
0.604596 0.780805 0.112500
0.733547 0.780805 0.112500
0.863647 0.780805 0.112500
0.994738 0.780805 0.112500
1.000000 0.780805 0.112500
0.107329 0.905054 0.112500
0.227519 0.905054 0.112500
0.351136 0.905054 0.112500
0.477015 0.905054 0.112500
0.604596 0.905054 0.112500
0.733547 0.905054 0.112500
0.863647 0.905054 0.112500
0.994738 0.905054 0.112500
1.000000 0.905054 0.112500
0.107329 1.000000 0.112500
0.227519 1.000000 0.112500
0.351136 1.000000 0.112500
0.477015 1.000000 0.112500
0.604596 1.000000 0.112500
0.733547 1.000000 0.112500
0.863647 1.000000 0.112500
0.994738 1.000000 0.112500
1.000000 1.000000 0.112500
0.107329 0.066540 0.225000
0.227519 0.066540 0.225000
0.351136 0.066540 0.225000
0.477015 0.066540 0.225000
0.604596 0.066540 0.225000
0.733547 0.066540 0.225000
0.863647 0.066540 0.225000
0.994738 0.066540 0.225000
1.000000 0.066540 0.225000
0.107329 0.179165 0.225000
0.227519 0.179165 0.225000
0.351136 0.179165 0.225000
0.477015 0.179165 0.225000
0.604596 0.179165 0.225000
0.733547 0.179165 0.225000
0.863647 0.179165 0.225000
0.994738 0.179165 0.225000
1.000000 0.179165 0.225000
0.107329 0.295731 0.225000
0.227519 0.295731 0.225000
0.351136 0.295731 0.225000
0.477015 0.295731 0.225000
0.604596 0.295731 0.225000
0.733547 0.295731 0.225000
0.863647 0.295731 0.225000
0.994738 0.295731 0.225000
1.000000 0.295731 0.225000
0.107329 0.414701 0.225000
0.227519 0.414701 0.225000
0.351136 0.414701 0.225000
0.477015 0.414701 0.225000
0.604596 0.414701 0.225000
0.733547 0.414701 0.225000
0.863647 0.414701 0.225000
0.994738 0.414701 0.225000
1.000000 0.414701 0.225000
0.107329 0.535427 0.225000
0.227519 0.535427 0.225000
0.351136 0.535427 0.225000
0.477015 0.535427 0.225000
0.604596 0.535427 0.225000
0.733547 0.535427 0.225000
0.863647 0.535427 0.225000
0.994738 0.535427 0.225000
1.000000 0.535427 0.225000
0.107329 0.657541 0.225000
0.227519 0.657541 0.225000
0.351136 0.657541 0.225000
0.477015 0.657541 0.225000
0.604596 0.657541 0.225000
0.733547 0.657541 0.225000
0.863647 0.657541 0.225000
0.994738 0.657541 0.225000
1.000000 0.657541 0.225000
0.107329 0.780805 0.225000
0.227519 0.780805 0.225000
0.351136 0.780805 0.225000
0.477015 0.780805 0.225000
0.604596 0.780805 0.225000
0.733547 0.780805 0.225000
0.863647 0.780805 0.225000
0.994738 0.780805 0.225000
1.000000 0.780805 0.225000
0.107329 0.905054 0.225000
0.227519 0.905054 0.225000
0.351136 0.905054 0.225000
0.477015 0.905054 0.225000
0.604596 0.905054 0.225000
0.733547 0.905054 0.225000
0.863647 0.905054 0.225000
0.994738 0.905054 0.225000
1.000000 0.905054 0.225000
0.107329 1.000000 0.225000
0.227519 1.000000 0.225000
0.351136 1.000000 0.225000
0.477015 1.000000 0.225000
0.604596 1.000000 0.225000
0.733547 1.000000 0.225000
0.863647 1.000000 0.225000
0.994738 1.000000 0.225000
1.000000 1.000000 0.225000
0.107329 0.066540 0.337500
0.227519 0.066540 0.337500
0.351136 0.066540 0.337500
0.477015 0.066540 0.337500
0.604596 0.066540 0.337500
0.733547 0.066540 0.337500
0.863647 0.066540 0.337500
0.994738 0.066540 0.337500
1.000000 0.066540 0.337500
0.107329 0.179165 0.337500
0.227519 0.179165 0.337500
0.351136 0.179165 0.337500
0.477015 0.179165 0.337500
0.604596 0.179165 0.337500
0.733547 0.179165 0.337500
0.863647 0.179165 0.337500
0.994738 0.179165 0.337500
1.000000 0.179165 0.337500
0.107329 0.295731 0.337500
0.227519 0.295731 0.337500
0.351136 0.295731 0.337500
0.477015 0.295731 0.337500
0.604596 0.295731 0.337500
0.733547 0.295731 0.337500
0.863647 0.295731 0.337500
0.994738 0.295731 0.337500
1.000000 0.295731 0.337500
0.107329 0.414701 0.337500
0.227519 0.414701 0.337500
0.351136 0.414701 0.337500
0.477015 0.414701 0.337500
0.604596 0.414701 0.337500
0.733547 0.414701 0.337500
0.863647 0.414701 0.337500
0.994738 0.414701 0.337500
1.000000 0.414701 0.337500
0.107329 0.535427 0.337500
0.227519 0.535427 0.337500
0.351136 0.535427 0.337500
0.477015 0.535427 0.337500
0.604596 0.535427 0.337500
0.733547 0.535427 0.337500
0.863647 0.535427 0.337500
0.994738 0.535427 0.337500
1.000000 0.535427 0.337500
0.107329 0.657541 0.337500
0.227519 0.657541 0.337500
0.351136 0.657541 0.337500
0.477015 0.657541 0.337500
0.604596 0.657541 0.337500
0.733547 0.657541 0.337500
0.863647 0.657541 0.337500
0.994738 0.657541 0.337500
1.000000 0.657541 0.337500
0.107329 0.780805 0.337500
0.227519 0.780805 0.337500
0.351136 0.780805 0.337500
0.477015 0.780805 0.337500
0.604596 0.780805 0.337500
0.733547 0.780805 0.337500
0.863647 0.780805 0.337500
0.994738 0.780805 0.337500
1.000000 0.780805 0.337500
0.107329 0.905054 0.337500
0.227519 0.905054 0.337500
0.351136 0.905054 0.337500
0.477015 0.905054 0.337500
0.604596 0.905054 0.337500
0.733547 0.905054 0.337500
0.863647 0.905054 0.337500
0.994738 0.905054 0.337500
1.000000 0.905054 0.337500
0.107329 1.000000 0.337500
0.227519 1.000000 0.337500
0.351136 1.000000 0.337500
0.477015 1.000000 0.337500
0.604596 1.000000 0.337500
0.733547 1.000000 0.337500
0.863647 1.000000 0.337500
0.994738 1.000000 0.337500
1.000000 1.000000 0.337500
0.107329 0.066540 0.450000
0.227519 0.066540 0.450000
0.351136 0.066540 0.450000
0.477015 0.066540 0.450000
0.604596 0.066540 0.450000
0.733547 0.066540 0.450000
0.863647 0.066540 0.450000
0.994738 0.066540 0.450000
1.000000 0.066540 0.450000
0.107329 0.179165 0.450000
0.227519 0.179165 0.450000
0.351136 0.179165 0.450000
0.477015 0.179165 0.450000
0.604596 0.179165 0.450000
0.733547 0.179165 0.450000
0.863647 0.179165 0.450000
0.994738 0.179165 0.450000
1.000000 0.179165 0.450000
0.107329 0.295731 0.450000
0.227519 0.295731 0.450000
0.351136 0.295731 0.450000
0.477015 0.295731 0.450000
0.604596 0.295731 0.450000
0.733547 0.295731 0.450000
0.863647 0.295731 0.450000
0.994738 0.295731 0.450000
1.000000 0.295731 0.450000
0.107329 0.414701 0.450000
0.227519 0.414701 0.450000
0.351136 0.414701 0.450000
0.477015 0.414701 0.450000
0.604596 0.414701 0.450000
0.733547 0.414701 0.450000
0.863647 0.414701 0.450000
0.994738 0.414701 0.450000
1.000000 0.414701 0.450000
0.107329 0.535427 0.450000
0.227519 0.535427 0.450000
0.351136 0.535427 0.450000
0.477015 0.535427 0.450000
0.604596 0.535427 0.450000
0.733547 0.535427 0.450000
0.863647 0.535427 0.450000
0.994738 0.535427 0.450000
1.000000 0.535427 0.450000
0.107329 0.657541 0.450000
0.227519 0.657541 0.450000
0.351136 0.657541 0.450000
0.477015 0.657541 0.450000
0.604596 0.657541 0.450000
0.733547 0.657541 0.450000
0.863647 0.657541 0.450000
0.994738 0.657541 0.450000
1.000000 0.657541 0.450000
0.107329 0.780805 0.450000
0.227519 0.780805 0.450000
0.351136 0.780805 0.450000
0.477015 0.780805 0.450000
0.604596 0.780805 0.450000
0.733547 0.780805 0.450000
0.863647 0.780805 0.450000
0.994738 0.780805 0.450000
1.000000 0.780805 0.450000
0.107329 0.905054 0.450000
0.227519 0.905054 0.450000
0.351136 0.905054 0.450000
0.477015 0.905054 0.450000
0.604596 0.905054 0.450000
0.733547 0.905054 0.450000
0.863647 0.905054 0.450000
0.994738 0.905054 0.450000
1.000000 0.905054 0.450000
0.107329 1.000000 0.450000
0.227519 1.000000 0.450000
0.351136 1.000000 0.450000
0.477015 1.000000 0.450000
0.604596 1.000000 0.450000
0.733547 1.000000 0.450000
0.863647 1.000000 0.450000
0.994738 1.000000 0.450000
1.000000 1.000000 0.450000
0.107329 0.066540 0.562500
0.227519 0.066540 0.562500
0.351136 0.066540 0.562500
0.477015 0.066540 0.562500
0.604596 0.066540 0.562500
0.733547 0.066540 0.562500
0.863647 0.066540 0.562500
0.994738 0.066540 0.562500
1.000000 0.066540 0.562500
0.107329 0.179165 0.562500
0.227519 0.179165 0.562500
0.351136 0.179165 0.562500
0.477015 0.179165 0.562500
0.604596 0.179165 0.562500
0.733547 0.179165 0.562500
0.863647 0.179165 0.562500
0.994738 0.179165 0.562500
1.000000 0.179165 0.562500
0.107329 0.295731 0.562500
0.227519 0.295731 0.562500
0.351136 0.295731 0.562500
0.477015 0.295731 0.562500
0.604596 0.295731 0.562500
0.733547 0.295731 0.562500
0.863647 0.295731 0.562500
0.994738 0.295731 0.562500
1.000000 0.295731 0.562500
0.107329 0.414701 0.562500
0.227519 0.414701 0.562500
0.351136 0.414701 0.562500
0.477015 0.414701 0.562500
0.604596 0.414701 0.562500
0.733547 0.414701 0.562500
0.863647 0.414701 0.562500
0.994738 0.414701 0.562500
1.000000 0.414701 0.562500
0.107329 0.535427 0.562500
0.227519 0.535427 0.562500
0.351136 0.535427 0.562500
0.477015 0.535427 0.562500
0.604596 0.535427 0.562500
0.733547 0.535427 0.562500
0.863647 0.535427 0.562500
0.994738 0.535427 0.562500
1.000000 0.535427 0.562500
0.107329 0.657541 0.562500
0.227519 0.657541 0.562500
0.351136 0.657541 0.562500
0.477015 0.657541 0.562500
0.604596 0.657541 0.562500
0.733547 0.657541 0.562500
0.863647 0.657541 0.562500
0.994738 0.657541 0.562500
1.000000 0.657541 0.562500
0.107329 0.780805 0.562500
0.227519 0.780805 0.562500
0.351136 0.780805 0.562500
0.477015 0.780805 0.562500
0.604596 0.780805 0.562500
0.733547 0.780805 0.562500
0.863647 0.780805 0.562500
0.994738 0.780805 0.562500
1.000000 0.780805 0.562500
0.107329 0.905054 0.562500
0.227519 0.905054 0.562500
0.351136 0.905054 0.562500
0.477015 0.905054 0.562500
0.604596 0.905054 0.562500
0.733547 0.905054 0.562500
0.863647 0.905054 0.562500
0.994738 0.905054 0.562500
1.000000 0.905054 0.562500
0.107329 1.000000 0.562500
0.227519 1.000000 0.562500
0.351136 1.000000 0.562500
0.477015 1.000000 0.562500
0.604596 1.000000 0.562500
0.733547 1.000000 0.562500
0.863647 1.000000 0.562500
0.994738 1.000000 0.562500
1.000000 1.000000 0.562500
0.107329 0.066540 0.675000
0.227519 0.066540 0.675000
0.351136 0.066540 0.675000
0.477015 0.066540 0.675000
0.604596 0.066540 0.675000
0.733547 0.066540 0.675000
0.863647 0.066540 0.675000
0.994738 0.066540 0.675000
1.000000 0.066540 0.675000
0.107329 0.179165 0.675000
0.227519 0.179165 0.675000
0.351136 0.179165 0.675000
0.477015 0.179165 0.675000
0.604596 0.179165 0.675000
0.733547 0.179165 0.675000
0.863647 0.179165 0.675000
0.994738 0.179165 0.675000
1.000000 0.179165 0.675000
0.107329 0.295731 0.675000
0.227519 0.295731 0.675000
0.351136 0.295731 0.675000
0.477015 0.295731 0.675000
0.604596 0.295731 0.675000
0.733547 0.295731 0.675000
0.863647 0.295731 0.675000
0.994738 0.295731 0.675000
1.000000 0.295731 0.675000
0.107329 0.414701 0.675000
0.227519 0.414701 0.675000
0.351136 0.414701 0.675000
0.477015 0.414701 0.675000
0.604596 0.414701 0.675000
0.733547 0.414701 0.675000
0.863647 0.414701 0.675000
0.994738 0.414701 0.675000
1.000000 0.414701 0.675000
0.107329 0.535427 0.675000
0.227519 0.535427 0.675000
0.351136 0.535427 0.675000
0.477015 0.535427 0.675000
0.604596 0.535427 0.675000
0.733547 0.535427 0.675000
0.863647 0.535427 0.675000
0.994738 0.535427 0.675000
1.000000 0.535427 0.675000
0.107329 0.657541 0.675000
0.227519 0.657541 0.675000
0.351136 0.657541 0.675000
0.477015 0.657541 0.675000
0.604596 0.657541 0.675000
0.733547 0.657541 0.675000
0.863647 0.657541 0.675000
0.994738 0.657541 0.675000
1.000000 0.657541 0.675000
0.107329 0.780805 0.675000
0.227519 0.780805 0.675000
0.351136 0.780805 0.675000
0.477015 0.780805 0.675000
0.604596 0.780805 0.675000
0.733547 0.780805 0.675000
0.863647 0.780805 0.675000
0.994738 0.780805 0.675000
1.000000 0.780805 0.675000
0.107329 0.905054 0.675000
0.227519 0.905054 0.675000
0.351136 0.905054 0.675000
0.477015 0.905054 0.675000
0.604596 0.905054 0.675000
0.733547 0.905054 0.675000
0.863647 0.905054 0.675000
0.994738 0.905054 0.675000
1.000000 0.905054 0.675000
0.107329 1.000000 0.675000
0.227519 1.000000 0.675000
0.351136 1.000000 0.675000
0.477015 1.000000 0.675000
0.604596 1.000000 0.675000
0.733547 1.000000 0.675000
0.863647 1.000000 0.675000
0.994738 1.000000 0.675000
1.000000 1.000000 0.675000
0.107329 0.066540 0.787500
0.227519 0.066540 0.787500
0.351136 0.066540 0.787500
0.477015 0.066540 0.787500
0.604596 0.066540 0.787500
0.733547 0.066540 0.787500
0.863647 0.066540 0.787500
0.994738 0.066540 0.787500
1.000000 0.066540 0.787500
0.107329 0.179165 0.787500
0.227519 0.179165 0.787500
0.351136 0.179165 0.787500
0.477015 0.179165 0.787500
0.604596 0.179165 0.787500
0.733547 0.179165 0.787500
0.863647 0.179165 0.787500
0.994738 0.179165 0.787500
1.000000 0.179165 0.787500
0.107329 0.295731 0.787500
0.227519 0.295731 0.787500
0.351136 0.295731 0.787500
0.477015 0.295731 0.787500
0.604596 0.295731 0.787500
0.733547 0.295731 0.787500
0.863647 0.295731 0.787500
0.994738 0.295731 0.787500
1.000000 0.295731 0.787500
0.107329 0.414701 0.787500
0.227519 0.414701 0.787500
0.351136 0.414701 0.787500
0.477015 0.414701 0.787500
0.604596 0.414701 0.787500
0.733547 0.414701 0.787500
0.863647 0.414701 0.787500
0.994738 0.414701 0.787500
1.000000 0.414701 0.787500
0.107329 0.535427 0.787500
0.227519 0.535427 0.787500
0.351136 0.535427 0.787500
0.477015 0.535427 0.787500
0.604596 0.535427 0.787500
0.733547 0.535427 0.787500
0.863647 0.535427 0.787500
0.994738 0.535427 0.787500
1.000000 0.535427 0.787500
0.107329 0.657541 0.787500
0.227519 0.657541 0.787500
0.351136 0.657541 0.787500
0.477015 0.657541 0.787500
0.604596 0.657541 0.787500
0.733547 0.657541 0.787500
0.863647 0.657541 0.787500
0.994738 0.657541 0.787500
1.000000 0.657541 0.787500
0.107329 0.780805 0.787500
0.227519 0.780805 0.787500
0.351136 0.780805 0.787500
0.477015 0.780805 0.787500
0.604596 0.780805 0.787500
0.733547 0.780805 0.787500
0.863647 0.780805 0.787500
0.994738 0.780805 0.787500
1.000000 0.780805 0.787500
0.107329 0.905054 0.787500
0.227519 0.905054 0.787500
0.351136 0.905054 0.787500
0.477015 0.905054 0.787500
0.604596 0.905054 0.787500
0.733547 0.905054 0.787500
0.863647 0.905054 0.787500
0.994738 0.905054 0.787500
1.000000 0.905054 0.787500
0.107329 1.000000 0.787500
0.227519 1.000000 0.787500
0.351136 1.000000 0.787500
0.477015 1.000000 0.787500
0.604596 1.000000 0.787500
0.733547 1.000000 0.787500
0.863647 1.000000 0.787500
0.994738 1.000000 0.787500
1.000000 1.000000 0.787500
0.107329 0.066540 0.900000
0.227519 0.066540 0.900000
0.351136 0.066540 0.900000
0.477015 0.066540 0.900000
0.604596 0.066540 0.900000
0.733547 0.066540 0.900000
0.863647 0.066540 0.900000
0.994738 0.066540 0.900000
1.000000 0.066540 0.900000
0.107329 0.179165 0.900000
0.227519 0.179165 0.900000
0.351136 0.179165 0.900000
0.477015 0.179165 0.900000
0.604596 0.179165 0.900000
0.733547 0.179165 0.900000
0.863647 0.179165 0.900000
0.994738 0.179165 0.900000
1.000000 0.179165 0.900000
0.107329 0.295731 0.900000
0.227519 0.295731 0.900000
0.351136 0.295731 0.900000
0.477015 0.295731 0.900000
0.604596 0.295731 0.900000
0.733547 0.295731 0.900000
0.863647 0.295731 0.900000
0.994738 0.295731 0.900000
1.000000 0.295731 0.900000
0.107329 0.414701 0.900000
0.227519 0.414701 0.900000
0.351136 0.414701 0.900000
0.477015 0.414701 0.900000
0.604596 0.414701 0.900000
0.733547 0.414701 0.900000
0.863647 0.414701 0.900000
0.994738 0.414701 0.900000
1.000000 0.414701 0.900000
0.107329 0.535427 0.900000
0.227519 0.535427 0.900000
0.351136 0.535427 0.900000
0.477015 0.535427 0.900000
0.604596 0.535427 0.900000
0.733547 0.535427 0.900000
0.863647 0.535427 0.900000
0.994738 0.535427 0.900000
1.000000 0.535427 0.900000
0.107329 0.657541 0.900000
0.227519 0.657541 0.900000
0.351136 0.657541 0.900000
0.477015 0.657541 0.900000
0.604596 0.657541 0.900000
0.733547 0.657541 0.900000
0.863647 0.657541 0.900000
0.994738 0.657541 0.900000
1.000000 0.657541 0.900000
0.107329 0.780805 0.900000
0.227519 0.780805 0.900000
0.351136 0.780805 0.900000
0.477015 0.780805 0.900000
0.604596 0.780805 0.900000
0.733547 0.780805 0.900000
0.863647 0.780805 0.900000
0.994738 0.780805 0.900000
1.000000 0.780805 0.900000
0.107329 0.905054 0.900000
0.227519 0.905054 0.900000
0.351136 0.905054 0.900000
0.477015 0.905054 0.900000
0.604596 0.905054 0.900000
0.733547 0.905054 0.900000
0.863647 0.905054 0.900000
0.994738 0.905054 0.900000
1.000000 0.905054 0.900000
0.107329 1.000000 0.900000
0.227519 1.000000 0.900000
0.351136 1.000000 0.900000
0.477015 1.000000 0.900000
0.604596 1.000000 0.900000
0.733547 1.000000 0.900000
0.863647 1.000000 0.900000
0.994738 1.000000 0.900000
1.000000 1.000000 0.900000
