ApexStudio/app/src/main/assets/luts/romance_warm.cube
# ApexStudio filter: romance_warm
LUT_3D_SIZE 9
DOMAIN_MIN 0.0 0.0 0.0
DOMAIN_MAX 1.0 1.0 1.0
0.084477 0.000000 0.000000
0.213127 0.000000 0.000000
0.347238 0.000000 0.000000
0.484413 0.000000 0.000000
0.623760 0.000000 0.000000
0.764798 0.000000 0.000000
0.907225 0.000000 0.000000
1.000000 0.000000 0.000000
1.000000 0.000000 0.000000
0.084477 0.112500 0.000000
0.213127 0.112500 0.000000
0.347238 0.112500 0.000000
0.484413 0.112500 0.000000
0.623760 0.112500 0.000000
0.764798 0.112500 0.000000
0.907225 0.112500 0.000000
1.000000 0.112500 0.000000
1.000000 0.112500 0.000000
0.084477 0.237500 0.000000
0.213127 0.237500 0.000000
0.347238 0.237500 0.000000
0.484413 0.237500 0.000000
0.623760 0.237500 0.000000
0.764798 0.237500 0.000000
0.907225 0.237500 0.000000
1.000000 0.237500 0.000000
1.000000 0.237500 0.000000
0.084477 0.362500 0.000000
0.213127 0.362500 0.000000
0.347238 0.362500 0.000000
0.484413 0.362500 0.000000
0.623760 0.362500 0.000000
0.764798 0.362500 0.000000
0.907225 0.362500 0.000000
1.000000 0.362500 0.000000
1.000000 0.362500 0.000000
0.084477 0.487500 0.000000
0.213127 0.487500 0.000000
0.347238 0.487500 0.000000
0.484413 0.487500 0.000000
0.623760 0.487500 0.000000
0.764798 0.487500 0.000000
0.907225 0.487500 0.000000
1.000000 0.487500 0.000000
1.000000 0.487500 0.000000
0.084477 0.612500 0.000000
0.213127 0.612500 0.000000
0.347238 0.612500 0.000000
0.484413 0.612500 0.000000
0.623760 0.612500 0.000000
0.764798 0.612500 0.000000
0.907225 0.612500 0.000000
1.000000 0.612500 0.000000
1.000000 0.612500 0.000000
0.084477 0.737500 0.000000
0.213127 0.737500 0.000000
0.347238 0.737500 0.000000
0.484413 0.737500 0.000000
0.623760 0.737500 0.000000
0.764798 0.737500 0.000000
0.907225 0.737500 0.000000
1.000000 0.737500 0.000000
1.000000 0.737500 0.000000
0.084477 0.862500 0.000000
0.213127 0.862500 0.000000
0.347238 0.862500 0.000000
0.484413 0.862500 0.000000
0.623760 0.862500 0.000000
0.764798 0.862500 0.000000
0.907225 0.862500 0.000000
1.000000 0.862500 0.000000
1.000000 0.862500 0.000000
0.084477 0.987500 0.000000
0.213127 0.987500 0.000000
0.347238 0.987500 0.000000
0.484413 0.987500 0.000000
0.623760 0.987500 0.000000
0.764798 0.987500 0.000000
0.907225 0.987500 0.000000
1.000000 0.987500 0.000000
1.000000 0.987500 0.000000
0.084477 0.000000 0.030000
0.213127 0.000000 0.030000
0.347238 0.000000 0.030000
0.484413 0.000000 0.030000
0.623760 0.000000 0.030000
0.764798 0.000000 0.030000
0.907225 0.000000 0.030000
1.000000 0.000000 0.030000
1.000000 0.000000 0.030000
0.084477 0.112500 0.030000
0.213127 0.112500 0.030000
0.347238 0.112500 0.030000
0.484413 0.112500 0.030000
0.623760 0.112500 0.030000
0.764798 0.112500 0.030000
0.907225 0.112500 0.030000
1.000000 0.112500 0.030000
1.000000 0.112500 0.030000
0.084477 0.237500 0.030000
0.213127 0.237500 0.030000
0.347238 0.237500 0.030000
0.484413 0.237500 0.030000
0.623760 0.237500 0.030000
0.764798 0.237500 0.030000
0.907225 0.237500 0.030000
1.000000 0.237500 0.030000
1.000000 0.237500 0.030000
0.084477 0.362500 0.030000
0.213127 0.362500 0.030000
0.347238 0.362500 0.030000
0.484413 0.362500 0.030000
0.623760 0.362500 0.030000
0.764798 0.362500 0.030000
0.907225 0.362500 0.030000
1.000000 0.362500 0.030000
1.000000 0.362500 0.030000
0.084477 0.487500 0.030000
0.213127 0.487500 0.030000
0.347238 0.487500 0.030000
0.484413 0.487500 0.030000
0.623760 0.487500 0.030000
0.764798 0.487500 0.030000
0.907225 0.487500 0.030000
1.000000 0.487500 0.030000
1.000000 0.487500 0.030000
0.084477 0.612500 0.030000
0.213127 0.612500 0.030000
0.347238 0.612500 0.030000
0.484413 0.612500 0.030000
0.623760 0.612500 0.030000
0.764798 0.612500 0.030000
0.907225 0.612500 0.030000
1.000000 0.612500 0.030000
1.000000 0.612500 0.030000
0.084477 0.737500 0.030000
0.213127 0.737500 0.030000
0.347238 0.737500 0.030000
0.484413 0.737500 0.030000
0.623760 0.737500 0.030000
0.764798 0.737500 0.030000
0.907225 0.737500 0.030000
1.000000 0.737500 0.030000
1.000000 0.737500 0.030000
0.084477 0.862500 0.030000
0.213127 0.862500 0.030000
0.347238 0.862500 0.030000
0.484413 0.862500 0.030000
0.623760 0.862500 0.030000
0.764798 0.862500 0.030000
0.907225 0.862500 0.030000
1.000000 0.862500 0.030000
1.000000 0.862500 0.030000
0.084477 0.987500 0.030000
0.213127 0.987500 0.030000
0.347238 0.987500 0.030000
0.484413 0.987500 0.030000
0.623760 0.987500 0.030000
0.764798 0.987500 0.030000
0.907225 0.987500 0.030000
1.000000 0.987500 0.030000
1.000000 0.987500 0.030000
0.084477 0.000000 0.142500
0.213127 0.000000 0.142500
0.347238 0.000000 0.142500
0.484413 0.000000 0.142500
0.623760 0.000000 0.142500
0.764798 0.000000 0.142500
0.907225 0.000000 0.142500
1.000000 0.000000 0.142500
1.000000 0.000000 0.142500
0.084477 0.112500 0.142500
0.213127 0.112500 0.142500
0.347238 0.112500 0.142500
0.484413 0.112500 0.142500
0.623760 0.112500 0.142500
0.764798 0.112500 0.142500
0.907225 0.112500 0.142500
1.000000 0.112500 0.142500
1.000000 0.112500 0.142500
0.084477 0.237500 0.142500
0.213127 0.237500 0.142500
0.347238 0.237500 0.142500
0.484413 0.237500 0.142500
0.623760 0.237500 0.142500
0.764798 0.237500 0.142500
0.907225 0.237500 0.142500
1.000000 0.237500 0.142500
1.000000 0.237500 0.142500
0.084477 0.362500 0.142500
0.213127 0.362500 0.142500
0.347238 0.362500 0.142500
0.484413 0.362500 0.142500
0.623760 0.362500 0.142500
0.764798 0.362500 0.142500
0.907225 0.362500 0.142500
1.000000 0.362500 0.142500
1.000000 0.362500 0.142500
0.084477 0.487500 0.142500
0.213127 0.487500 0.142500
0.347238 0.487500 0.142500
0.484413 0.487500 0.142500
0.623760 0.487500 0.142500
0.764798 0.487500 0.142500
0.907225 0.487500 0.142500
1.000000 0.487500 0.142500
1.000000 0.487500 0.142500
0.084477 0.612500 0.142500
0.213127 0.612500 0.142500
0.347238 0.612500 0.142500
0.484413 0.612500 0.142500
0.623760 0.612500 0.142500
0.764798 0.612500 0.142500
0.907225 0.612500 0.142500
1.000000 0.612500 0.142500
1.000000 0.612500 0.142500
0.084477 0.737500 0.142500
0.213127 0.737500 0.142500
0.347238 0.737500 0.142500
0.484413 0.737500 0.142500
0.623760 0.737500 0.142500
0.764798 0.737500 0.142500
0.907225 0.737500 0.142500
1.000000 0.737500 0.142500
1.000000 0.737500 0.142500
0.084477 0.862500 0.142500
0.213127 0.862500 0.142500
0.347238 0.862500 0.142500
0.484413 0.862500 0.142500
0.623760 0.862500 0.142500
0.764798 0.862500 0.142500
0.907225 0.862500 0.142500
1.000000 0.862500 0.142500
1.000000 0.862500 0.142500
0.084477 0.987500 0.142500
0.213127 0.987500 0.142500
0.347238 0.987500 0.142500
0.484413 0.987500 0.142500
0.623760 0.987500 0.142500
0.764798 0.987500 0.142500
0.907225 0.987500 0.142500
1.000000 0.987500 0.142500
1.000000 0.987500 0.142500
0.084477 0.000000 0.255000
0.213127 0.000000 0.255000
0.347238 0.000000 0.255000
0.484413 0.000000 0.255000
0.623760 0.000000 0.255000
0.764798 0.000000 0.255000
0.907225 0.000000 0.255000
1.000000 0.000000 0.255000
1.000000 0.000000 0.255000
0.084477 0.112500 0.255000
0.213127 0.112500 0.255000
0.347238 0.112500 0.255000
0.484413 0.112500 0.255000
0.623760 0.112500 0.255000
0.764798 0.112500 0.255000
0.907225 0.112500 0.255000
1.000000 0.112500 0.255000
1.000000 0.112500 0.255000
0.084477 0.237500 0.255000
0.213127 0.237500 0.255000
0.347238 0.237500 0.255000
0.484413 0.237500 0.255000
0.623760 0.237500 0.255000
0.764798 0.237500 0.255000
0.907225 0.237500 0.255000
1.000000 0.237500 0.255000
1.000000 0.237500 0.255000
0.084477 0.362500 0.255000
0.213127 0.362500 0.255000
0.347238 0.362500 0.255000
0.484413 0.362500 0.255000
0.623760 0.362500 0.255000
0.764798 0.362500 0.255000
0.907225 0.362500 0.255000
1.000000 0.362500 0.255000
1.000000 0.362500 0.255000
0.084477 0.487500 0.255000
0.213127 0.487500 0.255000
0.347238 0.487500 0.255000
0.484413 0.487500 0.255000
0.623760 0.487500 0.255000
0.764798 0.487500 0.255000
0.907225 0.487500 0.255000
1.000000 0.487500 0.255000
1.000000 0.487500 0.255000
0.084477 0.612500 0.255000
0.213127 0.612500 0.255000
0.347238 0.612500 0.255000
0.484413 0.612500 0.255000
0.623760 0.612500 0.255000
0.764798 0.612500 0.255000
0.907225 0.612500 0.255000
1.000000 0.612500 0.255000
1.000000 0.612500 0.255000
0.084477 0.737500 0.255000
0.213127 0.737500 0.255000
0.347238 0.737500 0.255000
0.484413 0.737500 0.255000
0.623760 0.737500 0.255000
0.764798 0.737500 0.255000
0.907225 0.737500 0.255000
1.000000 0.737500 0.255000
1.000000 0.737500 0.255000
0.084477 0.862500 0.255000
0.213127 0.862500 0.255000
0.347238 0.862500 0.255000
0.484413 0.862500 0.255000
0.623760 0.862500 0.255000
0.764798 0.862500 0.255000
0.907225 0.862500 0.255000
1.000000 0.862500 0.255000
1.000000 0.862500 0.255000
0.084477 0.987500 0.255000
0.213127 0.987500 0.255000
0.347238 0.987500 0.255000
0.484413 0.987500 0.255000
0.623760 0.987500 0.255000
0.764798 0.987500 0.255000
0.907225 0.987500 0.255000
1.000000 0.987500 0.255000
1.000000 0.987500 0.255000
0.084477 0.000000 0.367500
0.213127 0.000000 0.367500
0.347238 0.000000 0.367500
0.484413 0.000000 0.367500
0.623760 0.000000 0.367500
0.764798 0.000000 0.367500
0.907225 0.000000 0.367500
1.000000 0.000000 0.367500
1.000000 0.000000 0.367500
0.084477 0.112500 0.367500
0.213127 0.112500 0.367500
0.347238 0.112500 0.367500
0.484413 0.112500 0.367500
0.623760 0.112500 0.367500
0.764798 0.112500 0.367500
0.907225 0.112500 0.367500
1.000000 0.112500 0.367500
1.000000 0.112500 0.367500
0.084477 0.237500 0.367500
0.213127 0.237500 0.367500
0.347238 0.237500 0.367500
0.484413 0.237500 0.367500
0.623760 0.237500 0.367500
0.764798 0.237500 0.367500
0.907225 0.237500 0.367500
1.000000 0.237500 0.367500
1.000000 0.237500 0.367500
0.084477 0.362500 0.367500
0.213127 0.362500 0.367500
0.347238 0.362500 0.367500
0.484413 0.362500 0.367500
0.623760 0.362500 0.367500
0.764798 0.362500 0.367500
0.907225 0.362500 0.367500
1.000000 0.362500 0.367500
1.000000 0.362500 0.367500
0.084477 0.487500 0.367500
0.213127 0.487500 0.367500
0.347238 0.487500 0.367500
0.484413 0.487500 0.367500
0.623760 0.487500 0.367500
0.764798 0.487500 0.367500
0.907225 0.487500 0.367500
1.000000 0.487500 0.367500
1.000000 0.487500 0.367500
0.084477 0.612500 0.367500
0.213127 0.612500 0.367500
0.347238 0.612500 0.367500
0.484413 0.612500 0.367500
0.623760 0.612500 0.367500
0.764798 0.612500 0.367500
0.907225 0.612500 0.367500
1.000000 0.612500 0.367500
1.000000 0.612500 0.367500
0.084477 0.737500 0.367500
0.213127 0.737500 0.367500
0.347238 0.737500 0.367500
0.484413 0.737500 0.367500
0.623760 0.737500 0.367500
0.764798 0.737500 0.367500
0.907225 0.737500 0.367500
1.000000 0.737500 0.367500
1.000000 0.737500 0.367500
0.084477 0.862500 0.367500
0.213127 0.862500 0.367500
0.347238 0.862500 0.367500
0.484413 0.862500 0.367500
0.623760 0.862500 0.367500
0.764798 0.862500 0.367500
0.907225 0.862500 0.367500
1.000000 0.862500 0.367500
1.000000 0.862500 0.367500
0.084477 0.987500 0.367500
0.213127 0.987500 0.367500
0.347238 0.987500 0.367500
0.484413 0.987500 0.367500
0.623760 0.987500 0.367500
0.764798 0.987500 0.367500
0.907225 0.987500 0.367500
1.000000 0.987500 0.367500
1.000000 0.987500 0.367500
0.084477 0.000000 0.480000
0.213127 0.000000 0.480000
0.347238 0.000000 0.480000
0.484413 0.000000 0.480000
0.623760 0.000000 0.480000
0.764798 0.000000 0.480000
0.907225 0.000000 0.480000
1.000000 0.000000 0.480000
1.000000 0.000000 0.480000
0.084477 0.112500 0.480000
0.213127 0.112500 0.480000
0.347238 0.112500 0.480000
0.484413 0.112500 0.480000
0.623760 0.112500 0.480000
0.764798 0.112500 0.480000
0.907225 0.112500 0.480000
1.000000 0.112500 0.480000
1.000000 0.112500 0.480000
0.084477 0.237500 0.480000
0.213127 0.237500 0.480000
0.347238 0.237500 0.480000
0.484413 0.237500 0.480000
0.623760 0.237500 0.480000
0.764798 0.237500 0.480000
0.907225 0.237500 0.480000
1.000000 0.237500 0.480000
1.000000 0.237500 0.480000
0.084477 0.362500 0.480000
0.213127 0.362500 0.480000
0.347238 0.362500 0.480000
0.484413 0.362500 0.480000
0.623760 0.362500 0.480000
0.764798 0.362500 0.480000
0.907225 0.362500 0.480000
1.000000 0.362500 0.480000
1.000000 0.362500 0.480000
0.084477 0.487500 0.480000
0.213127 0.487500 0.480000
0.347238 0.487500 0.480000
0.484413 0.487500 0.480000
0.623760 0.487500 0.480000
0.764798 0.487500 0.480000
0.907225 0.487500 0.480000
1.000000 0.487500 0.480000
1.000000 0.487500 0.480000
0.084477 0.612500 0.480000
0.213127 0.612500 0.480000
0.347238 0.612500 0.480000
0.484413 0.612500 0.480000
0.623760 0.612500 0.480000
0.764798 0.612500 0.480000
0.907225 0.612500 0.480000
1.000000 0.612500 0.480000
1.000000 0.612500 0.480000
0.084477 0.737500 0.480000
0.213127 0.737500 0.480000
0.347238 0.737500 0.480000
0.484413 0.737500 0.480000
0.623760 0.737500 0.480000
0.764798 0.737500 0.480000
0.907225 0.737500 0.480000
1.000000 0.737500 0.480000
1.000000 0.737500 0.480000
0.084477 0.862500 0.480000
0.213127 0.862500 0.480000
0.347238 0.862500 0.480000
0.484413 0.862500 0.480000
0.623760 0.862500 0.480000
0.764798 0.862500 0.480000
0.907225 0.862500 0.480000
1.000000 0.862500 0.480000
1.000000 0.862500 0.480000
0.084477 0.987500 0.480000
0.213127 0.987500 0.480000
0.347238 0.987500 0.480000
0.484413 0.987500 0.480000
0.623760 0.987500 0.480000
0.764798 0.987500 0.480000
0.907225 0.987500 0.480000
1.000000 0.987500 0.480000
1.000000 0.987500 0.480000
0.084477 0.000000 0.592500
0.213127 0.000000 0.592500
0.347238 0.000000 0.592500
0.484413 0.000000 0.592500
0.623760 0.000000 0.592500
0.764798 0.000000 0.592500
0.907225 0.000000 0.592500
1.000000 0.000000 0.592500
1.000000 0.000000 0.592500
0.084477 0.112500 0.592500
0.213127 0.112500 0.592500
0.347238 0.112500 0.592500
0.484413 0.112500 0.592500
0.623760 0.112500 0.592500
0.764798 0.112500 0.592500
0.907225 0.112500 0.592500
1.000000 0.112500 0.592500
1.000000 0.112500 0.592500
0.084477 0.237500 0.592500
0.213127 0.237500 0.592500
0.347238 0.237500 0.592500
0.484413 0.237500 0.592500
0.623760 0.237500 0.592500
0.764798 0.237500 0.592500
0.907225 0.237500 0.592500
1.000000 0.237500 0.592500
1.000000 0.237500 0.592500
0.084477 0.362500 0.592500
0.213127 0.362500 0.592500
0.347238 0.362500 0.592500
0.484413 0.362500 0.592500
0.623760 0.362500 0.592500
0.764798 0.362500 0.592500
0.907225 0.362500 0.592500
1.000000 0.362500 0.592500
1.000000 0.362500 0.592500
0.084477 0.487500 0.592500
0.213127 0.487500 0.592500
0.347238 0.487500 0.592500
0.484413 0.487500 0.592500
0.623760 0.487500 0.592500
0.764798 0.487500 0.592500
0.907225 0.487500 0.592500
1.000000 0.487500 0.592500
1.000000 0.487500 0.592500
0.084477 0.612500 0.592500
0.213127 0.612500 0.592500
0.347238 0.612500 0.592500
0.484413 0.612500 0.592500
0.623760 0.612500 0.592500
0.764798 0.612500 0.592500
0.907225 0.612500 0.592500
1.000000 0.612500 0.592500
1.000000 0.612500 0.592500
0.084477 0.737500 0.592500
0.213127 0.737500 0.592500
0.347238 0.737500 0.592500
0.484413 0.737500 0.592500
0.623760 0.737500 0.592500
0.764798 0.737500 0.592500
0.907225 0.737500 0.592500
1.000000 0.737500 0.592500
1.000000 0.737500 0.592500
0.084477 0.862500 0.592500
0.213127 0.862500 0.592500
0.347238 0.862500 0.592500
0.484413 0.862500 0.592500
0.623760 0.862500 0.592500
0.764798 0.862500 0.592500
0.907225 0.862500 0.592500
1.000000 0.862500 0.592500
1.000000 0.862500 0.592500
0.084477 0.987500 0.592500
0.213127 0.987500 0.592500
0.347238 0.987500 0.592500
0.484413 0.987500 0.592500
0.623760 0.987500 0.592500
0.764798 0.987500 0.592500
0.907225 0.987500 0.592500
1.000000 0.987500 0.592500
1.000000 0.987500 0.592500
0.084477 0.000000 0.705000
0.213127 0.000000 0.705000
0.347238 0.000000 0.705000
0.484413 0.000000 0.705000
0.623760 0.000000 0.705000
0.764798 0.000000 0.705000
0.907225 0.000000 0.705000
1.000000 0.000000 0.705000
1.000000 0.000000 0.705000
0.084477 0.112500 0.705000
0.213127 0.112500 0.705000
0.347238 0.112500 0.705000
0.484413 0.112500 0.705000
0.623760 0.112500 0.705000
0.764798 0.112500 0.705000
0.907225 0.112500 0.705000
1.000000 0.112500 0.705000
1.000000 0.112500 0.705000
0.084477 0.237500 0.705000
0.213127 0.237500 0.705000
0.347238 0.237500 0.705000
0.484413 0.237500 0.705000
0.623760 0.237500 0.705000
0.764798 0.237500 0.705000
0.907225 0.237500 0.705000
1.000000 0.237500 0.705000
1.000000 0.237500 0.705000
0.084477 0.362500 0.705000
0.213127 0.362500 0.705000
0.347238 0.362500 0.705000
0.484413 0.362500 0.705000
0.623760 0.362500 0.705000
0.764798 0.362500 0.705000
0.907225 0.362500 0.705000
1.000000 0.362500 0.705000
1.000000 0.362500 0.705000
0.084477 0.487500 0.705000
0.213127 0.487500 0.705000
0.347238 0.487500 0.705000
0.484413 0.487500 0.705000
0.623760 0.487500 0.705000
0.764798 0.487500 0.705000
0.907225 0.487500 0.705000
1.000000 0.487500 0.705000
1.000000 0.487500 0.705000
0.084477 0.612500 0.705000
0.213127 0.612500 0.705000
0.347238 0.612500 0.705000
0.484413 0.612500 0.705000
0.623760 0.612500 0.705000
0.764798 0.612500 0.705000
0.907225 0.612500 0.705000
1.000000 0.612500 0.705000
1.000000 0.612500 0.705000
0.084477 0.737500 0.705000
0.213127 0.737500 0.705000
0.347238 0.737500 0.705000
0.484413 0.737500 0.705000
0.623760 0.737500 0.705000
0.764798 0.737500 0.705000
0.907225 0.737500 0.705000
1.000000 0.737500 0.705000
1.000000 0.737500 0.705000
0.084477 0.862500 0.705000
0.213127 0.862500 0.705000
0.347238 0.862500 0.705000
0.484413 0.862500 0.705000
0.623760 0.862500 0.705000
0.764798 0.862500 0.705000
0.907225 0.862500 0.705000
1.000000 0.862500 0.705000
1.000000 0.862500 0.705000
0.084477 0.987500 0.705000
0.213127 0.987500 0.705000
0.347238 0.987500 0.705000
0.484413 0.987500 0.705000
0.623760 0.987500 0.705000
0.764798 0.987500 0.705000
0.907225 0.987500 0.705000
1.000000 0.987500 0.705000
1.000000 0.987500 0.705000
0.084477 0.000000 0.817500
0.213127 0.000000 0.817500
0.347238 0.000000 0.817500
0.484413 0.000000 0.817500
0.623760 0.000000 0.817500
0.764798 0.000000 0.817500
0.907225 0.000000 0.817500
1.000000 0.000000 0.817500
1.000000 0.000000 0.817500
0.084477 0.112500 0.817500
0.213127 0.112500 0.817500
0.347238 0.112500 0.817500
0.484413 0.112500 0.817500
0.623760 0.112500 0.817500
0.764798 0.112500 0.817500
0.907225 0.112500 0.817500
1.000000 0.112500 0.817500
1.000000 0.112500 0.817500
0.084477 0.237500 0.817500
0.213127 0.237500 0.817500
0.347238 0.237500 0.817500
0.484413 0.237500 0.817500
0.623760 0.237500 0.817500
0.764798 0.237500 0.817500
0.907225 0.237500 0.817500
1.000000 0.237500 0.817500
1.000000 0.237500 0.817500
0.084477 0.362500 0.817500
0.213127 0.362500 0.817500
0.347238 0.362500 0.817500
0.484413 0.362500 0.817500
0.623760 0.362500 0.817500
0.764798 0.362500 0.817500
0.907225 0.362500 0.817500
1.000000 0.362500 0.817500
1.000000 0.362500 0.817500
0.084477 0.487500 0.817500
0.213127 0.487500 0.817500
0.347238 0.487500 0.817500
0.484413 0.487500 0.817500
0.623760 0.487500 0.817500
0.764798 0.487500 0.817500
0.907225 0.487500 0.817500
1.000000 0.487500 0.817500
1.000000 0.487500 0.817500
0.084477 0.612500 0.817500
0.213127 0.612500 0.817500
0.347238 0.612500 0.817500
0.484413 0.612500 0.817500
0.623760 0.612500 0.817500
0.764798 0.612500 0.817500
0.907225 0.612500 0.817500
1.000000 0.612500 0.817500
1.000000 0.612500 0.817500
0.084477 0.737500 0.817500
0.213127 0.737500 0.817500
0.347238 0.737500 0.817500
0.484413 0.737500 0.817500
0.623760 0.737500 0.817500
0.764798 0.737500 0.817500
0.907225 0.737500 0.817500
1.000000 0.737500 0.817500
1.000000 0.737500 0.817500
0.084477 0.862500 0.817500
0.213127 0.862500 0.817500
0.347238 0.862500 0.817500
0.484413 0.862500 0.817500
0.623760 0.862500 0.817500
0.764798 0.862500 0.817500
0.907225 0.862500 0.817500
1.000000 0.862500 0.817500
1.000000 0.862500 0.817500
0.084477 0.987500 0.817500
0.213127 0.987500 0.817500
0.347238 0.987500 0.817500
0.484413 0.987500 0.817500
0.623760 0.987500 0.817500
0.764798 0.987500 0.817500
0.907225 0.987500 0.817500
1.000000 0.987500 0.817500
1.000000 0.987500 0.817500
