ApexStudio/app/src/main/assets/luts/romance_warm.cube
# ApexStudio filter: romance_warm
LUT_3D_SIZE 17
DOMAIN_MIN 0.0 0.0 0.0
DOMAIN_MAX 1.0 1.0 1.0
0.084477 0.000000 0.000000
0.147808 0.000000 0.000000
0.213127 0.000000 0.000000
0.279712 0.000000 0.000000
0.347238 0.000000 0.000000
0.415513 0.000000 0.000000
0.484413 0.000000 0.000000
0.553851 0.000000 0.000000
0.623760 0.000000 0.000000
0.694089 0.000000 0.000000
0.764798 0.000000 0.000000
0.835853 0.000000 0.000000
0.907225 0.000000 0.000000
0.978892 0.000000 0.000000
1.000000 0.000000 0.000000
1.000000 0.000000 0.000000
1.000000 0.000000 0.000000
0.084477 0.050000 0.000000
0.147808 0.050000 0.000000
0.213127 0.050000 0.000000
0.279712 0.050000 0.000000
0.347238 0.050000 0.000000
0.415513 0.050000 0.000000
0.484413 0.050000 0.000000
0.553851 0.050000 0.000000
0.623760 0.050000 0.000000
0.694089 0.050000 0.000000
0.764798 0.050000 0.000000
0.835853 0.050000 0.000000
0.907225 0.050000 0.000000
0.978892 0.050000 0.000000
1.000000 0.050000 0.000000
1.000000 0.050000 0.000000
1.000000 0.050000 0.000000
0.084477 0.112500 0.000000
0.147808 0.112500 0.000000
0.213127 0.112500 0.000000
0.279712 0.112500 0.000000
0.347238 0.112500 0.000000
0.415513 0.112500 0.000000
0.484413 0.112500 0.000000
0.553851 0.112500 0.000000
0.623760 0.112500 0.000000
0.694089 0.112500 0.000000
0.764798 0.112500 0.000000
0.835853 0.112500 0.000000
0.907225 0.112500 0.000000
0.978892 0.112500 0.000000
1.000000 0.112500 0.000000
1.000000 0.112500 0.000000
1.000000 0.112500 0.000000
0.084477 0.175000 0.000000
0.147808 0.175000 0.000000
0.213127 0.175000 0.000000
0.279712 0.175000 0.000000
0.347238 0.175000 0.000000
0.415513 0.175000 0.000000
0.484413 0.175000 0.000000
0.553851 0.175000 0.000000
0.623760 0.175000 0.000000
0.694089 0.175000 0.000000
0.764798 0.175000 0.000000
0.835853 0.175000 0.000000
0.907225 0.175000 0.000000
0.978892 0.175000 0.000000
1.000000 0.175000 0.000000
1.000000 0.175000 0.000000
1.000000 0.175000 0.000000
0.084477 0.237500 0.000000
0.147808 0.237500 0.000000
0.213127 0.237500 0.000000
0.279712 0.237500 0.000000
0.347238 0.237500 0.000000
0.415513 0.237500 0.000000
0.484413 0.237500 0.000000
0.553851 0.237500 0.000000
0.623760 0.237500 0.000000
0.694089 0.237500 0.000000
0.764798 0.237500 0.000000
0.835853 0.237500 0.000000
0.907225 0.237500 0.000000
0.978892 0.237500 0.000000
1.000000 0.237500 0.000000
1.000000 0.237500 0.000000
1.000000 0.237500 0.000000
0.084477 0.300000 0.000000
0.147808 0.300000 0.000000
0.213127 0.300000 0.000000
0.279712 0.300000 0.000000
0.347238 0.300000 0.000000
0.415513 0.300000 0.000000
0.484413 0.300000 0.000000
0.553851 0.300000 0.000000
0.623760 0.300000 0.000000
0.694089 0.300000 0.000000
0.764798 0.300000 0.000000
0.835853 0.300000 0.000000
0.907225 0.300000 0.000000
0.978892 0.300000 0.000000
1.000000 0.300000 0.000000
1.000000 0.300000 0.000000
1.000000 0.300000 0.000000
0.084477 0.362500 0.000000
0.147808 0.362500 0.000000
0.213127 0.362500 0.000000
0.279712 0.362500 0.000000
0.347238 0.362500 0.000000
0.415513 0.362500 0.000000
0.484413 0.362500 0.000000
0.553851 0.362500 0.000000
0.623760 0.362500 0.000000
0.694089 0.362500 0.000000
0.764798 0.362500 0.000000
0.835853 0.362500 0.000000
0.907225 0.362500 0.000000
0.978892 0.362500 0.000000
1.000000 0.362500 0.000000
1.000000 0.362500 0.000000
1.000000 0.362500 0.000000
0.084477 0.425000 0.000000
0.147808 0.425000 0.000000
0.213127 0.425000 0.000000
0.279712 0.425000 0.000000
0.347238 0.425000 0.000000
0.415513 0.425000 0.000000
0.484413 0.425000 0.000000
0.553851 0.425000 0.000000
0.623760 0.425000 0.000000
0.694089 0.425000 0.000000
0.764798 0.425000 0.000000
0.835853 0.425000 0.000000
0.907225 0.425000 0.000000
0.978892 0.425000 0.000000
1.000000 0.425000 0.000000
1.000000 0.425000 0.000000
1.000000 0.425000 0.000000
0.084477 0.487500 0.000000
0.147808 0.487500 0.000000
0.213127 0.487500 0.000000
0.279712 0.487500 0.000000
0.347238 0.487500 0.000000
0.415513 0.487500 0.000000
0.484413 0.487500 0.000000
0.553851 0.487500 0.000000
0.623760 0.487500 0.000000
0.694089 0.487500 0.000000
0.764798 0.487500 0.000000
0.835853 0.487500 0.000000
0.907225 0.487500 0.000000
0.978892 0.487500 0.000000
1.000000 0.487500 0.000000
1.000000 0.487500 0.000000
1.000000 0.487500 0.000000
0.084477 0.550000 0.000000
0.147808 0.550000 0.000000
0.213127 0.550000 0.000000
0.279712 0.550000 0.000000
0.347238 0.550000 0.000000
0.415513 0.550000 0.000000
0.484413 0.550000 0.000000
0.553851 0.550000 0.000000
0.623760 0.550000 0.000000
0.694089 0.550000 0.000000
0.764798 0.550000 0.000000
0.835853 0.550000 0.000000
0.907225 0.550000 0.000000
0.978892 0.550000 0.000000
1.000000 0.550000 0.000000
1.000000 0.550000 0.000000
1.000000 0.550000 0.000000
0.084477 0.612500 0.000000
0.147808 0.612500 0.000000
0.213127 0.612500 0.000000
0.279712 0.612500 0.000000
0.347238 0.612500 0.000000
0.415513 0.612500 0.000000
0.484413 0.612500 0.000000
0.553851 0.612500 0.000000
0.623760 0.612500 0.000000
0.694089 0.612500 0.000000
0.764798 0.612500 0.000000
0.835853 0.612500 0.000000
0.907225 0.612500 0.000000
0.978892 0.612500 0.000000
1.000000 0.612500 0.000000
1.000000 0.612500 0.000000
1.000000 0.612500 0.000000
0.084477 0.675000 0.000000
0.147808 0.675000 0.000000
0.213127 0.675000 0.000000
0.279712 0.675000 0.000000
0.347238 0.675000 0.000000
0.415513 0.675000 0.000000
0.484413 0.675000 0.000000
0.553851 0.675000 0.000000
0.623760 0.675000 0.000000
0.694089 0.675000 0.000000
0.764798 0.675000 0.000000
0.835853 0.675000 0.000000
0.907225 0.675000 0.000000
0.978892 0.675000 0.000000
1.000000 0.675000 0.000000
1.000000 0.675000 0.000000
1.000000 0.675000 0.000000
0.084477 0.737500 0.000000
0.147808 0.737500 0.000000
0.213127 0.737500 0.000000
0.279712 0.737500 0.000000
0.347238 0.737500 0.000000
0.415513 0.737500 0.000000
0.484413 0.737500 0.000000
0.553851 0.737500 0.000000
0.623760 0.737500 0.000000
0.694089 0.737500 0.000000
0.764798 0.737500 0.000000
0.835853 0.737500 0.000000
0.907225 0.737500 0.000000
0.978892 0.737500 0.000000
1.000000 0.737500 0.000000
1.000000 0.737500 0.000000
1.000000 0.737500 0.000000
0.084477 0.800000 0.000000
0.147808 0.800000 0.000000
0.213127 0.800000 0.000000
0.279712 0.800000 0.000000
0.347238 0.800000 0.000000
0.415513 0.800000 0.000000
0.484413 0.800000 0.000000
0.553851 0.800000 0.000000
0.623760 0.800000 0.000000
0.694089 0.800000 0.000000
0.764798 0.800000 0.000000
0.835853 0.800000 0.000000
0.907225 0.800000 0.000000
0.978892 0.800000 0.000000
1.000000 0.800000 0.000000
1.000000 0.800000 0.000000
1.000000 0.800000 0.000000
0.084477 0.862500 0.000000
0.147808 0.862500 0.000000
0.213127 0.862500 0.000000
0.279712 0.862500 0.000000
0.347238 0.862500 0.000000
0.415513 0.862500 0.000000
0.484413 0.862500 0.000000
0.553851 0.862500 0.000000
0.623760 0.862500 0.000000
0.694089 0.862500 0.000000
0.764798 0.862500 0.000000
0.835853 0.862500 0.000000
0.907225 0.862500 0.000000
0.978892 0.862500 0.000000
1.000000 0.862500 0.000000
1.000000 0.862500 0.000000
1.000000 0.862500 0.000000
0.084477 0.925000 0.000000
0.147808 0.925000 0.000000
0.213127 0.925000 0.000000
0.279712 0.925000 0.000000
0.347238 0.925000 0.000000
0.415513 0.925000 0.000000
0.484413 0.925000 0.000000
0.553851 0.925000 0.000000
0.623760 0.925000 0.000000
0.694089 0.925000 0.000000
0.764798 0.925000 0.000000
0.835853 0.925000 0.000000
0.907225 0.925000 0.000000
0.978892 0.925000 0.000000
1.000000 0.925000 0.000000
1.000000 0.925000 0.000000
1.000000 0.925000 0.000000
0.084477 0.987500 0.000000
0.147808 0.987500 0.000000
0.213127 0.987500 0.000000
0.279712 0.987500 0.000000
0.347238 0.987500 0.000000
0.415513 0.987500 0.000000
0.484413 0.987500 0.000000
0.553851 0.987500 0.000000
0.623760 0.987500 0.000000
0.694089 0.987500 0.000000
0.764798 0.987500 0.000000
0.835853 0.987500 0.000000
0.907225 0.987500 0.000000
0.978892 0.987500 0.000000
1.000000 0.987500 0.000000
1.000000 0.987500 0.000000
1.000000 0.987500 0.000000
0.084477 0.000000 0.000000
0.147808 0.000000 0.000000
0.213127 0.000000 0.000000
0.279712 0.000000 0.000000
0.347238 0.000000 0.000000
0.415513 0.000000 0.000000
0.484413 0.000000 0.000000
0.553851 0.000000 0.000000
0.623760 0.000000 0.000000
0.694089 0.000000 0.000000
0.764798 0.000000 0.000000
0.835853 0.000000 0.000000
0.907225 0.000000 0.000000
0.978892 0.000000 0.000000
1.000000 0.000000 0.000000
1.000000 0.000000 0.000000
1.000000 0.000000 0.000000
0.084477 0.050000 0.000000
0.147808 0.050000 0.000000
0.213127 0.050000 0.000000
0.279712 0.050000 0.000000
0.347238 0.050000 0.000000
0.415513 0.050000 0.000000
0.484413 0.050000 0.000000
0.553851 0.050000 0.000000
0.623760 0.050000 0.000000
0.694089 0.050000 0.000000
0.764798 0.050000 0.000000
0.835853 0.050000 0.000000
0.907225 0.050000 0.000000
0.978892 0.050000 0.000000
1.000000 0.050000 0.000000
1.000000 0.050000 0.000000
1.000000 0.050000 0.000000
0.084477 0.112500 0.000000
0.147808 0.112500 0.000000
0.213127 0.112500 0.000000
0.279712 0.112500 0.000000
0.347238 0.112500 0.000000
0.415513 0.112500 0.000000
0.484413 0.112500 0.000000
0.553851 0.112500 0.000000
0.623760 0.112500 0.000000
0.694089 0.112500 0.000000
0.764798 0.112500 0.000000
0.835853 0.112500 0.000000
0.907225 0.112500 0.000000
0.978892 0.112500 0.000000
1.000000 0.112500 0.000000
1.000000 0.112500 0.000000
1.000000 0.112500 0.000000
0.084477 0.175000 0.000000
0.147808 0.175000 0.000000
0.213127 0.175000 0.000000
0.279712 0.175000 0.000000
0.347238 0.175000 0.000000
0.415513 0.175000 0.000000
0.484413 0.175000 0.000000
0.553851 0.175000 0.000000
0.623760 0.175000 0.000000
0.694089 0.175000 0.000000
0.764798 0.175000 0.000000
0.835853 0.175000 0.000000
0.907225 0.175000 0.000000
0.978892 0.175000 0.000000
1.000000 0.175000 0.000000
1.000000 0.175000 0.000000
1.000000 0.175000 0.000000
0.084477 0.237500 0.000000
0.147808 0.237500 0.000000
0.213127 0.237500 0.000000
0.279712 0.237500 0.000000
0.347238 0.237500 0.000000
0.415513 0.237500 0.000000
0.484413 0.237500 0.000000
0.553851 0.237500 0.000000
0.623760 0.237500 0.000000
0.694089 0.237500 0.000000
0.764798 0.237500 0.000000
0.835853 0.237500 0.000000
0.907225 0.237500 0.000000
0.978892 0.237500 0.000000
1.000000 0.237500 0.000000
1.000000 0.237500 0.000000
1.000000 0.237500 0.000000
0.084477 0.300000 0.000000
0.147808 0.300000 0.000000
0.213127 0.300000 0.000000
0.279712 0.300000 0.000000
0.347238 0.300000 0.000000
0.415513 0.300000 0.000000
0.484413 0.300000 0.000000
0.553851 0.300000 0.000000
0.623760 0.300000 0.000000
0.694089 0.300000 0.000000
0.764798 0.300000 0.000000
0.835853 0.300000 0.000000
0.907225 0.300000 0.000000
0.978892 0.300000 0.000000
1.000000 0.300000 0.000000
1.000000 0.300000 0.000000
1.000000 0.300000 0.000000
0.084477 0.362500 0.000000
0.147808 0.362500 0.000000
0.213127 0.362500 0.000000
0.279712 0.362500 0.000000
0.347238 0.362500 0.000000
0.415513 0.362500 0.000000
0.484413 0.362500 0.000000
0.553851 0.362500 0.000000
0.623760 0.362500 0.000000
0.694089 0.362500 0.000000
0.764798 0.362500 0.000000
0.835853 0.362500 0.000000
0.907225 0.362500 0.000000
0.978892 0.362500 0.000000
1.000000 0.362500 0.000000
1.000000 0.362500 0.000000
1.000000 0.362500 0.000000
0.084477 0.425000 0.000000
0.147808 0.425000 0.000000
0.213127 0.425000 0.000000
0.279712 0.425000 0.000000
0.347238 0.425000 0.000000
0.415513 0.425000 0.000000
0.484413 0.425000 0.000000
0.553851 0.425000 0.000000
0.623760 0.425000 0.000000
0.694089 0.425000 0.000000
0.764798 0.425000 0.000000
0.835853 0.425000 0.000000
0.907225 0.425000 0.000000
0.978892 0.425000 0.000000
1.000000 0.425000 0.000000
1.000000 0.425000 0.000000
1.000000 0.425000 0.000000
0.084477 0.487500 0.000000
0.147808 0.487500 0.000000
0.213127 0.487500 0.000000
0.279712 0.487500 0.000000
0.347238 0.487500 0.000000
0.415513 0.487500 0.000000
0.484413 0.487500 0.000000
0.553851 0.487500 0.000000
0.623760 0.487500 0.000000
0.694089 0.487500 0.000000
0.764798 0.487500 0.000000
0.835853 0.487500 0.000000
0.907225 0.487500 0.000000
0.978892 0.487500 0.000000
1.000000 0.487500 0.000000
1.000000 0.487500 0.000000
1.000000 0.487500 0.000000
0.084477 0.550000 0.000000
0.147808 0.550000 0.000000
0.213127 0.550000 0.000000
0.279712 0.550000 0.000000
0.347238 0.550000 0.000000
0.415513 0.550000 0.000000
0.484413 0.550000 0.000000
0.553851 0.550000 0.000000
0.623760 0.550000 0.000000
0.694089 0.550000 0.000000
0.764798 0.550000 0.000000
0.835853 0.550000 0.000000
0.907225 0.550000 0.000000
0.978892 0.550000 0.000000
1.000000 0.550000 0.000000
1.000000 0.550000 0.000000
1.000000 0.550000 0.000000
0.084477 0.612500 0.000000
0.147808 0.612500 0.000000
0.213127 0.612500 0.000000
0.279712 0.612500 0.000000
0.347238 0.612500 0.000000
0.415513 0.612500 0.000000
0.484413 0.612500 0.000000
0.553851 0.612500 0.000000
0.623760 0.612500 0.000000
0.694089 0.612500 0.000000
0.764798 0.612500 0.000000
0.835853 0.612500 0.000000
0.907225 0.612500 0.000000
0.978892 0.612500 0.000000
1.000000 0.612500 0.000000
1.000000 0.612500 0.000000
1.000000 0.612500 0.000000
0.084477 0.675000 0.000000
0.147808 0.675000 0.000000
0.213127 0.675000 0.000000
0.279712 0.675000 0.000000
0.347238 0.675000 0.000000
0.415513 0.675000 0.000000
0.484413 0.675000 0.000000
0.553851 0.675000 0.000000
0.623760 0.675000 0.000000
0.694089 0.675000 0.000000
0.764798 0.675000 0.000000
0.835853 0.675000 0.000000
0.907225 0.675000 0.000000
0.978892 0.675000 0.000000
1.000000 0.675000 0.000000
1.000000 0.675000 0.000000
1.000000 0.675000 0.000000
0.084477 0.737500 0.000000
0.147808 0.737500 0.000000
0.213127 0.737500 0.000000
0.279712 0.737500 0.000000
0.347238 0.737500 0.000000
0.415513 0.737500 0.000000
0.484413 0.737500 0.000000
0.553851 0.737500 0.000000
0.623760 0.737500 0.000000
0.694089 0.737500 0.000000
0.764798 0.737500 0.000000
0.835853 0.737500 0.000000
0.907225 0.737500 0.000000
0.978892 0.737500 0.000000
1.000000 0.737500 0.000000
1.000000 0.737500 0.000000
1.000000 0.737500 0.000000
0.084477 0.800000 0.000000
0.147808 0.800000 0.000000
0.213127 0.800000 0.000000
0.279712 0.800000 0.000000
0.347238 0.800000 0.000000
0.415513 0.800000 0.000000
0.484413 0.800000 0.000000
0.553851 0.800000 0.000000
0.623760 0.800000 0.000000
0.694089 0.800000 0.000000
0.764798 0.800000 0.000000
0.835853 0.800000 0.000000
0.907225 0.800000 0.000000
0.978892 0.800000 0.000000
1.000000 0.800000 0.000000
1.000000 0.800000 0.000000
1.000000 0.800000 0.000000
0.084477 0.862500 0.000000
0.147808 0.862500 0.000000
0.213127 0.862500 0.000000
0.279712 0.862500 0.000000
0.347238 0.862500 0.000000
0.415513 0.862500 0.000000
0.484413 0.862500 0.000000
0.553851 0.862500 0.000000
0.623760 0.862500 0.000000
0.694089 0.862500 0.000000
0.764798 0.862500 0.000000
0.835853 0.862500 0.000000
0.907225 0.862500 0.000000
0.978892 0.862500 0.000000
1.000000 0.862500 0.000000
1.000000 0.862500 0.000000
1.000000 0.862500 0.000000
0.084477 0.925000 0.000000
0.147808 0.925000 0.000000
0.213127 0.925000 0.000000
0.279712 0.925000 0.000000
0.347238 0.925000 0.000000
0.415513 0.925000 0.000000
0.484413 0.925000 0.000000
0.553851 0.925000 0.000000
0.623760 0.925000 0.000000
0.694089 0.925000 0.000000
0.764798 0.925000 0.000000
0.835853 0.925000 0.000000
0.907225 0.925000 0.000000
0.978892 0.925000 0.000000
1.000000 0.925000 0.000000
1.000000 0.925000 0.000000
1.000000 0.925000 0.000000
0.084477 0.987500 0.000000
0.147808 0.987500 0.000000
0.213127 0.987500 0.000000
0.279712 0.987500 0.000000
0.347238 0.987500 0.000000
0.415513 0.987500 0.000000
0.484413 0.987500 0.000000
0.553851 0.987500 0.000000
0.623760 0.987500 0.000000
0.694089 0.987500 0.000000
0.764798 0.987500 0.000000
0.835853 0.987500 0.000000
0.907225 0.987500 0.000000
0.978892 0.987500 0.000000
1.000000 0.987500 0.000000
1.000000 0.987500 0.000000
1.000000 0.987500 0.000000
0.084477 0.000000 0.030000
0.147808 0.000000 0.030000
0.213127 0.000000 0.030000
0.279712 0.000000 0.030000
0.347238 0.000000 0.030000
0.415513 0.000000 0.030000
0.484413 0.000000 0.030000
0.553851 0.000000 0.030000
0.623760 0.000000 0.030000
0.694089 0.000000 0.030000
0.764798 0.000000 0.030000
0.835853 0.000000 0.030000
0.907225 0.000000 0.030000
0.978892 0.000000 0.030000
1.000000 0.000000 0.030000
1.000000 0.000000 0.030000
1.000000 0.000000 0.030000
0.084477 0.050000 0.030000
0.147808 0.050000 0.030000
0.213127 0.050000 0.030000
0.279712 0.050000 0.030000
0.347238 0.050000 0.030000
0.415513 0.050000 0.030000
0.484413 0.050000 0.030000
0.553851 0.050000 0.030000
0.623760 0.050000 0.030000
0.694089 0.050000 0.030000
0.764798 0.050000 0.030000
0.835853 0.050000 0.030000
0.907225 0.050000 0.030000
0.978892 0.050000 0.030000
1.000000 0.050000 0.030000
1.000000 0.050000 0.030000
1.000000 0.050000 0.030000
0.084477 0.112500 0.030000
0.147808 0.112500 0.030000
0.213127 0.112500 0.030000
0.279712 0.112500 0.030000
0.347238 0.112500 0.030000
0.415513 0.112500 0.030000
0.484413 0.112500 0.030000
0.553851 0.112500 0.030000
0.623760 0.112500 0.030000
0.694089 0.112500 0.030000
0.764798 0.112500 0.030000
0.835853 0.112500 0.030000
0.907225 0.112500 0.030000
0.978892 0.112500 0.030000
1.000000 0.112500 0.030000
1.000000 0.112500 0.030000
1.000000 0.112500 0.030000
0.084477 0.175000 0.030000
0.147808 0.175000 0.030000
0.213127 0.175000 0.030000
0.279712 0.175000 0.030000
0.347238 0.175000 0.030000
0.415513 0.175000 0.030000
0.484413 0.175000 0.030000
0.553851 0.175000 0.030000
0.623760 0.175000 0.030000
0.694089 0.175000 0.030000
0.764798 0.175000 0.030000
0.835853 0.175000 0.030000
0.907225 0.175000 0.030000
0.978892 0.175000 0.030000
1.000000 0.175000 0.030000
1.000000 0.175000 0.030000
1.000000 0.175000 0.030000
0.084477 0.237500 0.030000
0.147808 0.237500 0.030000
0.213127 0.237500 0.030000
0.279712 0.237500 0.030000
0.347238 0.237500 0.030000
0.415513 0.237500 0.030000
0.484413 0.237500 0.030000
0.553851 0.237500 0.030000
0.623760 0.237500 0.030000
0.694089 0.237500 0.030000
0.764798 0.237500 0.030000
0.835853 0.237500 0.030000
0.907225 0.237500 0.030000
0.978892 0.237500 0.030000
1.000000 0.237500 0.030000
1.000000 0.237500 0.030000
1.000000 0.237500 0.030000
0.084477 0.300000 0.030000
0.147808 0.300000 0.030000
0.213127 0.300000 0.030000
0.279712 0.300000 0.030000
0.347238 0.300000 0.030000
0.415513 0.300000 0.030000
0.484413 0.300000 0.030000
0.553851 0.300000 0.030000
0.623760 0.300000 0.030000
0.694089 0.300000 0.030000
0.764798 0.300000 0.030000
0.835853 0.300000 0.030000
0.907225 0.300000 0.030000
0.978892 0.300000 0.030000
1.000000 0.300000 0.030000
1.000000 0.300000 0.030000
1.000000 0.300000 0.030000
0.084477 0.362500 0.030000
0.147808 0.362500 0.030000
0.213127 0.362500 0.030000
0.279712 0.362500 0.030000
0.347238 0.362500 0.030000
0.415513 0.362500 0.030000
0.484413 0.362500 0.030000
0.553851 0.362500 0.030000
0.623760 0.362500 0.030000
0.694089 0.362500 0.030000
0.764798 0.362500 0.030000
0.835853 0.362500 0.030000
0.907225 0.362500 0.030000
0.978892 0.362500 0.030000
1.000000 0.362500 0.030000
1.000000 0.362500 0.030000
1.000000 0.362500 0.030000
0.084477 0.425000 0.030000
0.147808 0.425000 0.030000
0.213127 0.425000 0.030000
0.279712 0.425000 0.030000
0.347238 0.425000 0.030000
0.415513 0.425000 0.030000
0.484413 0.425000 0.030000
0.553851 0.425000 0.030000
0.623760 0.425000 0.030000
0.694089 0.425000 0.030000
0.764798 0.425000 0.030000
0.835853 0.425000 0.030000
0.907225 0.425000 0.030000
0.978892 0.425000 0.030000
1.000000 0.425000 0.030000
1.000000 0.425000 0.030000
1.000000 0.425000 0.030000
0.084477 0.487500 0.030000
0.147808 0.487500 0.030000
0.213127 0.487500 0.030000
0.279712 0.487500 0.030000
0.347238 0.487500 0.030000
0.415513 0.487500 0.030000
0.484413 0.487500 0.030000
0.553851 0.487500 0.030000
0.623760 0.487500 0.030000
0.694089 0.487500 0.030000
0.764798 0.487500 0.030000
0.835853 0.487500 0.030000
0.907225 0.487500 0.030000
0.978892 0.487500 0.030000
1.000000 0.487500 0.030000
1.000000 0.487500 0.030000
1.000000 0.487500 0.030000
0.084477 0.550000 0.030000
0.147808 0.550000 0.030000
0.213127 0.550000 0.030000
0.279712 0.550000 0.030000
0.347238 0.550000 0.030000
0.415513 0.550000 0.030000
0.484413 0.550000 0.030000
0.553851 0.550000 0.030000
0.623760 0.550000 0.030000
0.694089 0.550000 0.030000
0.764798 0.550000 0.030000
0.835853 0.550000 0.030000
0.907225 0.550000 0.030000
0.978892 0.550000 0.030000
1.000000 0.550000 0.030000
1.000000 0.550000 0.030000
1.000000 0.550000 0.030000
0.084477 0.612500 0.030000
0.147808 0.612500 0.030000
0.213127 0.612500 0.030000
0.279712 0.612500 0.030000
0.347238 0.612500 0.030000
0.415513 0.612500 0.030000
0.484413 0.612500 0.030000
0.553851 0.612500 0.030000
0.623760 0.612500 0.030000
0.694089 0.612500 0.030000
0.764798 0.612500 0.030000
0.835853 0.612500 0.030000
0.907225 0.612500 0.030000
0.978892 0.612500 0.030000
1.000000 0.612500 0.030000
1.000000 0.612500 0.030000
1.000000 0.612500 0.030000
0.084477 0.675000 0.030000
0.147808 0.675000 0.030000
0.213127 0.675000 0.030000
0.279712 0.675000 0.030000
0.347238 0.675000 0.030000
0.415513 0.675000 0.030000
0.484413 0.675000 0.030000
0.553851 0.675000 0.030000
0.623760 0.675000 0.030000
0.694089 0.675000 0.030000
0.764798 0.675000 0.030000
0.835853 0.675000 0.030000
0.907225 0.675000 0.030000
0.978892 0.675000 0.030000
1.000000 0.675000 0.030000
1.000000 0.675000 0.030000
1.000000 0.675000 0.030000
0.084477 0.737500 0.030000
0.147808 0.737500 0.030000
0.213127 0.737500 0.030000
0.279712 0.737500 0.030000
0.347238 0.737500 0.030000
0.415513 0.737500 0.030000
0.484413 0.737500 0.030000
0.553851 0.737500 0.030000
0.623760 0.737500 0.030000
0.694089 0.737500 0.030000
0.764798 0.737500 0.030000
0.835853 0.737500 0.030000
0.907225 0.737500 0.030000
0.978892 0.737500 0.030000
1.000000 0.737500 0.030000
1.000000 0.737500 0.030000
1.000000 0.737500 0.030000
0.084477 0.800000 0.030000
0.147808 0.800000 0.030000
0.213127 0.800000 0.030000
0.279712 0.800000 0.030000
0.347238 0.800000 0.030000
0.415513 0.800000 0.030000
0.484413 0.800000 0.030000
0.553851 0.800000 0.030000
0.623760 0.800000 0.030000
0.694089 0.800000 0.030000
0.764798 0.800000 0.030000
0.835853 0.800000 0.030000
0.907225 0.800000 0.030000
0.978892 0.800000 0.030000
1.000000 0.800000 0.030000
1.000000 0.800000 0.030000
1.000000 0.800000 0.030000
0.084477 0.862500 0.030000
0.147808 0.862500 0.030000
0.213127 0.862500 0.030000
0.279712 0.862500 0.030000
0.347238 0.862500 0.030000
0.415513 0.862500 0.030000
0.484413 0.862500 0.030000
0.553851 0.862500 0.030000
0.623760 0.862500 0.030000
0.694089 0.862500 0.030000
0.764798 0.862500 0.030000
0.835853 0.862500 0.030000
0.907225 0.862500 0.030000
0.978892 0.862500 0.030000
1.000000 0.862500 0.030000
1.000000 0.862500 0.030000
1.000000 0.862500 0.030000
0.084477 0.925000 0.030000
0.147808 0.925000 0.030000
0.213127 0.925000 0.030000
0.279712 0.925000 0.030000
0.347238 0.925000 0.030000
0.415513 0.925000 0.030000
0.484413 0.925000 0.030000
0.553851 0.925000 0.030000
0.623760 0.925000 0.030000
0.694089 0.925000 0.030000
0.764798 0.925000 0.030000
0.835853 0.925000 0.030000
0.907225 0.925000 0.030000
0.978892 0.925000 0.030000
1.000000 0.925000 0.030000
1.000000 0.925000 0.030000
1.000000 0.925000 0.030000
0.084477 0.987500 0.030000
0.147808 0.987500 0.030000
0.213127 0.987500 0.030000
0.279712 0.987500 0.030000
0.347238 0.987500 0.030000
0.415513 0.987500 0.030000
0.484413 0.987500 0.030000
0.553851 0.987500 0.030000
0.623760 0.987500 0.030000
0.694089 0.987500 0.030000
0.764798 0.987500 0.030000
0.835853 0.987500 0.030000
0.907225 0.987500 0.030000
0.978892 0.987500 0.030000
1.000000 0.987500 0.030000
1.000000 0.987500 0.030000
1.000000 0.987500 0.030000
0.084477 0.000000 0.086250
0.147808 0.000000 0.086250
0.213127 0.000000 0.086250
0.279712 0.000000 0.086250
0.347238 0.000000 0.086250
0.415513 0.000000 0.086250
0.484413 0.000000 0.086250
0.553851 0.000000 0.086250
0.623760 0.000000 0.086250
0.694089 0.000000 0.086250
0.764798 0.000000 0.086250
0.835853 0.000000 0.086250
0.907225 0.000000 0.086250
0.978892 0.000000 0.086250
1.000000 0.000000 0.086250
1.000000 0.000000 0.086250
1.000000 0.000000 0.086250
0.084477 0.050000 0.086250
