ApexStudio/app/src/main/assets/luts/super_8.cube
# ApexStudio filter: super_8
LUT_3D_SIZE 17
DOMAIN_MIN 0.0 0.0 0.0
DOMAIN_MAX 1.0 1.0 1.0
0.000000 0.043922 0.000000
0.073626 0.039811 0.000000
0.152014 0.035700 0.000000
0.230403 0.031589 0.000000
0.308792 0.027477 0.000000
0.387181 0.023366 0.000000
0.465569 0.019255 0.000000
0.543958 0.015144 0.000000
0.622347 0.011032 0.000000
0.700736 0.006921 0.000000
0.779124 0.002810 0.000000
0.857513 0.000000 0.000000
0.935902 0.000000 0.000000
1.000000 0.000000 0.000000
1.000000 0.000000 0.000000
1.000000 0.000000 0.000000
1.000000 0.000000 0.000000
0.000000 0.103135 0.000000
0.067205 0.099023 0.000000
0.145593 0.094912 0.000000
0.223982 0.090801 0.000000
0.302371 0.086690 0.000000
0.380760 0.082578 0.000000
0.459148 0.078467 0.000000
0.537537 0.074356 0.000000
0.615926 0.070245 0.000000
0.694315 0.066133 0.000000
0.772703 0.062022 0.000000
0.851092 0.057911 0.000000
0.929481 0.053800 0.000000
1.000000 0.049688 0.000000
1.000000 0.045577 0.000000
1.000000 0.043335 0.000000
1.000000 0.043335 0.000000
0.000000 0.164206 0.000000
0.060582 0.160095 0.000000
0.138971 0.155984 0.000000
0.217359 0.151872 0.000000
0.295748 0.147761 0.000000
0.374137 0.143650 0.000000
0.452526 0.139539 0.000000
0.530914 0.135427 0.000000
0.609303 0.131316 0.000000
0.687692 0.127205 0.000000
0.766081 0.123094 0.000000
0.844469 0.118982 0.000000
0.922858 0.114871 0.000000
1.000000 0.110760 0.000000
1.000000 0.106649 0.000000
1.000000 0.104406 0.000000
1.000000 0.104406 0.000000
0.000000 0.226462 0.000000
0.053831 0.222351 0.000000
0.132219 0.218240 0.000000
0.210608 0.214128 0.000000
0.288997 0.210017 0.000000
0.367386 0.205906 0.000000
0.445774 0.201795 0.000000
0.524163 0.197683 0.000000
0.602552 0.193572 0.000000
0.680941 0.189461 0.000000
0.759329 0.185350 0.000000
0.837718 0.181238 0.000000
0.916107 0.177127 0.000000
0.994496 0.173016 0.000000
1.000000 0.168905 0.000000
1.000000 0.166662 0.000000
1.000000 0.166662 0.000000
0.000000 0.289596 0.000000
0.046984 0.285485 0.000000
0.125373 0.281374 0.000000
0.203762 0.277263 0.000000
0.282150 0.273151 0.000000
0.360539 0.269040 0.000000
0.438928 0.264929 0.000000
0.517317 0.260818 0.000000
0.595705 0.256706 0.000000
0.674094 0.252595 0.000000
0.752483 0.248484 0.000000
0.830872 0.244373 0.000000
0.909260 0.240261 0.000000
0.987649 0.236150 0.000000
1.000000 0.232039 0.000000
1.000000 0.229796 0.000000
1.000000 0.229796 0.000000
0.000000 0.353432 0.000000
0.040062 0.349320 0.000000
0.118450 0.345209 0.000000
0.196839 0.341098 0.000000
0.275228 0.336987 0.000000
0.353617 0.332875 0.000000
0.432005 0.328764 0.000000
0.510394 0.324653 0.000000
0.588783 0.320542 0.000000
0.667172 0.316430 0.000000
0.745560 0.312319 0.000000
0.823949 0.308208 0.000000
0.902338 0.304097 0.000000
0.980727 0.299985 0.000000
1.000000 0.295874 0.000000
1.000000 0.293632 0.000000
1.000000 0.293632 0.000000
0.000000 0.417852 0.000000
0.033076 0.413740 0.000000
0.111465 0.409629 0.000000
0.189853 0.405518 0.000000
0.268242 0.401407 0.000000
0.346631 0.397295 0.000000
0.425020 0.393184 0.000000
0.503408 0.389073 0.000000
0.581797 0.384962 0.000000
0.660186 0.380850 0.000000
0.738575 0.376739 0.000000
0.816963 0.372628 0.000000
0.895352 0.368517 0.000000
0.973741 0.364405 0.000000
1.000000 0.360294 0.000000
1.000000 0.358052 0.000000
1.000000 0.358052 0.000000
0.000000 0.482774 0.000000
0.026035 0.478663 0.000000
0.104424 0.474551 0.000000
0.182813 0.470440 0.000000
0.261202 0.466329 0.000000
0.339590 0.462218 0.000000
0.417979 0.458106 0.000000
0.496368 0.453995 0.000000
0.574757 0.449884 0.000000
0.653145 0.445773 0.000000
0.731534 0.441661 0.000000
0.809923 0.437550 0.000000
0.888312 0.433439 0.000000
0.966700 0.429328 0.000000
1.000000 0.425216 0.000000
1.000000 0.422974 0.000000
1.000000 0.422974 0.000000
0.000000 0.548137 0.000000
0.018947 0.544026 0.000000
0.097336 0.539915 0.000000
0.175725 0.535803 0.000000
0.254114 0.531692 0.000000
0.332502 0.527581 0.000000
0.410891 0.523470 0.000000
0.489280 0.519358 0.000000
0.567669 0.515247 0.000000
0.646057 0.511136 0.000000
0.724446 0.507025 0.000000
0.802835 0.502913 0.000000
0.881224 0.498802 0.000000
0.959612 0.494691 0.000000
1.000000 0.490580 0.000000
1.000000 0.488337 0.000000
1.000000 0.488337 0.000000
0.000000 0.613893 0.000000
0.011817 0.609782 0.000000
0.090205 0.605671 0.000000
0.168594 0.601559 0.000000
0.246983 0.597448 0.000000
0.325372 0.593337 0.000000
0.403760 0.589226 0.000000
0.482149 0.585114 0.000000
0.560538 0.581003 0.000000
0.638927 0.576892 0.000000
0.717315 0.572781 0.000000
0.795704 0.568669 0.000000
0.874093 0.564558 0.000000
0.952482 0.560447 0.000000
1.000000 0.556336 0.000000
1.000000 0.554093 0.000000
1.000000 0.554093 0.000000
0.000000 0.680004 0.000000
0.004647 0.675893 0.000000
0.083036 0.671781 0.000000
0.161425 0.667670 0.000000
0.239814 0.663559 0.000000
0.318202 0.659448 0.000000
0.396591 0.655336 0.000000
0.474980 0.651225 0.000000
0.553369 0.647114 0.000000
0.631757 0.643003 0.000000
0.710146 0.638891 0.000000
0.788535 0.634780 0.000000
0.866924 0.630669 0.000000
0.945312 0.626558 0.000000
1.000000 0.622446 0.000000
1.000000 0.620204 0.000000
1.000000 0.620204 0.000000
0.000000 0.746438 0.000000
0.000000 0.742327 0.000000
0.075832 0.738216 0.000000
0.154221 0.734104 0.000000
0.232609 0.729993 0.000000
0.310998 0.725882 0.000000
0.389387 0.721771 0.000000
0.467776 0.717659 0.000000
0.546164 0.713548 0.000000
0.624553 0.709437 0.000000
0.702942 0.705326 0.000000
0.781331 0.701214 0.000000
0.859719 0.697103 0.000000
0.938108 0.692992 0.000000
1.000000 0.688881 0.000000
1.000000 0.686638 0.000000
1.000000 0.686638 0.000000
0.000000 0.813170 0.000000
0.000000 0.809058 0.000000
0.068595 0.804947 0.000000
0.146984 0.800836 0.000000
0.225373 0.796725 0.000000
0.303762 0.792613 0.000000
0.382150 0.788502 0.000000
0.460539 0.784391 0.000000
0.538928 0.780280 0.000000
0.617317 0.776168 0.000000
0.695705 0.772057 0.000000
0.774094 0.767946 0.000000
0.852483 0.763835 0.000000
0.930872 0.759723 0.000000
1.000000 0.755612 0.000000
1.000000 0.753370 0.000000
1.000000 0.753370 0.000000
0.000000 0.880176 0.000000
0.000000 0.876065 0.000000
0.061329 0.871954 0.000000
0.139718 0.867842 0.000000
0.218106 0.863731 0.000000
0.296495 0.859620 0.000000
0.374884 0.855509 0.000000
0.453273 0.851397 0.000000
0.531661 0.847286 0.000000
0.610050 0.843175 0.000000
0.688439 0.839064 0.000000
0.766828 0.834952 0.000000
0.845216 0.830841 0.000000
0.923605 0.826730 0.000000
1.000000 0.822619 0.000000
1.000000 0.820376 0.000000
1.000000 0.820376 0.000000
0.000000 0.947439 0.000000
0.000000 0.943328 0.000000
0.054035 0.939217 0.000000
0.132423 0.935105 0.000000
0.210812 0.930994 0.000000
0.289201 0.926883 0.000000
0.367590 0.922772 0.000000
0.445978 0.918660 0.000000
0.524367 0.914549 0.000000
0.602756 0.910438 0.000000
0.681145 0.906327 0.000000
0.759533 0.902215 0.000000
0.837922 0.898104 0.000000
0.916311 0.893993 0.000000
0.994700 0.889882 0.000000
1.000000 0.887639 0.000000
1.000000 0.887639 0.000000
0.000000 1.000000 0.000000
0.000000 1.000000 0.000000
0.046715 1.000000 0.000000
0.125103 1.000000 0.000000
0.203492 0.998497 0.000000
0.281881 0.994386 0.000000
0.360270 0.990274 0.000000
0.438658 0.986163 0.000000
0.517047 0.982052 0.000000
0.595436 0.977941 0.000000
0.673825 0.973829 0.000000
0.752213 0.969718 0.000000
0.830602 0.965607 0.000000
0.908991 0.961496 0.000000
0.987380 0.957384 0.000000
1.000000 0.955142 0.000000
1.000000 0.955142 0.000000
0.000000 1.000000 0.000000
0.000000 1.000000 0.000000
0.039378 1.000000 0.000000
0.117766 1.000000 0.000000
0.196155 1.000000 0.000000
0.274544 1.000000 0.000000
0.352933 1.000000 0.000000
0.431321 1.000000 0.000000
0.509710 1.000000 0.000000
0.588099 1.000000 0.000000
0.666488 1.000000 0.000000
0.744876 1.000000 0.000000
0.823265 1.000000 0.000000
0.901654 1.000000 0.000000
0.980043 1.000000 0.000000
1.000000 1.000000 0.000000
1.000000 1.000000 0.000000
0.000000 0.043624 0.010647
0.073327 0.039513 0.006536
0.151716 0.035401 0.002424
0.230105 0.031290 0.000000
0.308493 0.027179 0.000000
0.386882 0.023068 0.000000
0.465271 0.018956 0.000000
0.543660 0.014845 0.000000
0.622048 0.010734 0.000000
0.700437 0.006623 0.000000
0.778826 0.002511 0.000000
0.857215 0.000000 0.000000
0.935603 0.000000 0.000000
1.000000 0.000000 0.000000
1.000000 0.000000 0.000000
1.000000 0.000000 0.000000
1.000000 0.000000 0.000000
0.000000 0.102836 0.004226
0.066906 0.098725 0.000115
0.145295 0.094614 0.000000
0.223684 0.090502 0.000000
0.302072 0.086391 0.000000
0.380461 0.082280 0.000000
0.458850 0.078169 0.000000
0.537239 0.074057 0.000000
0.615627 0.069946 0.000000
0.694016 0.065835 0.000000
0.772405 0.061724 0.000000
0.850794 0.057612 0.000000
0.929182 0.053501 0.000000
1.000000 0.049390 0.000000
1.000000 0.045279 0.000000
1.000000 0.043036 0.000000
1.000000 0.043036 0.000000
0.000000 0.163908 0.000000
0.060283 0.159796 0.000000
0.138672 0.155685 0.000000
0.217061 0.151574 0.000000
0.295450 0.147463 0.000000
0.373838 0.143351 0.000000
0.452227 0.139240 0.000000
0.530616 0.135129 0.000000
0.609005 0.131018 0.000000
0.687393 0.126906 0.000000
0.765782 0.122795 0.000000
0.844171 0.118684 0.000000
0.922560 0.114573 0.000000
1.000000 0.110461 0.000000
1.000000 0.106350 0.000000
1.000000 0.104108 0.000000
1.000000 0.104108 0.000000
0.000000 0.226164 0.000000
0.053532 0.222052 0.000000
0.131921 0.217941 0.000000
0.210310 0.213830 0.000000
0.288698 0.209719 0.000000
0.367087 0.205607 0.000000
0.445476 0.201496 0.000000
0.523865 0.197385 0.000000
0.602253 0.193274 0.000000
0.680642 0.189162 0.000000
0.759031 0.185051 0.000000
0.837420 0.180940 0.000000
0.915808 0.176829 0.000000
0.994197 0.172717 0.000000
1.000000 0.168606 0.000000
1.000000 0.166364 0.000000
1.000000 0.166364 0.000000
0.000000 0.289298 0.000000
0.046686 0.285187 0.000000
0.125074 0.281075 0.000000
0.203463 0.276964 0.000000
0.281852 0.272853 0.000000
0.360241 0.268742 0.000000
0.438629 0.264630 0.000000
0.517018 0.260519 0.000000
0.595407 0.256408 0.000000
0.673796 0.252297 0.000000
0.752184 0.248185 0.000000
0.830573 0.244074 0.000000
0.908962 0.239963 0.000000
0.987351 0.235852 0.000000
1.000000 0.231740 0.000000
1.000000 0.229498 0.000000
1.000000 0.229498 0.000000
0.000000 0.353133 0.000000
0.039763 0.349022 0.000000
0.118152 0.344911 0.000000
0.196541 0.340799 0.000000
0.274929 0.336688 0.000000
0.353318 0.332577 0.000000
0.431707 0.328466 0.000000
0.510096 0.324354 0.000000
0.588484 0.320243 0.000000
0.666873 0.316132 0.000000
0.745262 0.312021 0.000000
0.823651 0.307909 0.000000
0.902039 0.303798 0.000000
0.980428 0.299687 0.000000
1.000000 0.295576 0.000000
1.000000 0.293333 0.000000
1.000000 0.293333 0.000000
0.000000 0.417553 0.000000
0.032777 0.413442 0.000000
0.111166 0.409331 0.000000
0.189555 0.405219 0.000000
0.267944 0.401108 0.000000
0.346332 0.396997 0.000000
0.424721 0.392886 0.000000
0.503110 0.388774 0.000000
0.581499 0.384663 0.000000
0.659887 0.380552 0.000000
0.738276 0.376441 0.000000
0.816665 0.372329 0.000000
0.895054 0.368218 0.000000
0.973442 0.364107 0.000000
1.000000 0.359996 0.000000
1.000000 0.357753 0.000000
1.000000 0.357753 0.000000
0.000000 0.482476 0.000000
0.025737 0.478364 0.000000
0.104126 0.474253 0.000000
0.182515 0.470142 0.000000
0.260903 0.466031 0.000000
0.339292 0.461919 0.000000
0.417681 0.457808 0.000000
0.496070 0.453697 0.000000
0.574458 0.449586 0.000000
0.652847 0.445474 0.000000
0.731236 0.441363 0.000000
0.809625 0.437252 0.000000
0.888013 0.433141 0.000000
0.966402 0.429029 0.000000
1.000000 0.424918 0.000000
1.000000 0.422676 0.000000
1.000000 0.422676 0.000000
0.000000 0.547839 0.000000
0.018649 0.543727 0.000000
0.097038 0.539616 0.000000
0.175426 0.535505 0.000000
0.253815 0.531394 0.000000
0.332204 0.527282 0.000000
0.410593 0.523171 0.000000
0.488981 0.519060 0.000000
0.567370 0.514949 0.000000
0.645759 0.510837 0.000000
0.724148 0.506726 0.000000
0.802536 0.502615 0.000000
0.880925 0.498504 0.000000
0.959314 0.494392 0.000000
1.000000 0.490281 0.000000
1.000000 0.488039 0.000000
1.000000 0.488039 0.000000
0.000000 0.613595 0.000000
0.011518 0.609483 0.000000
0.089907 0.605372 0.000000
0.168296 0.601261 0.000000
0.246684 0.597150 0.000000
0.325073 0.593038 0.000000
0.403462 0.588927 0.000000
0.481851 0.584816 0.000000
0.560239 0.580705 0.000000
0.638628 0.576593 0.000000
0.717017 0.572482 0.000000
0.795406 0.568371 0.000000
0.873794 0.564260 0.000000
0.952183 0.560148 0.000000
1.000000 0.556037 0.000000
1.000000 0.553795 0.000000
1.000000 0.553795 0.000000
0.000000 0.679705 0.000000
0.004349 0.675594 0.000000
0.082738 0.671483 0.000000
0.161126 0.667372 0.000000
0.239515 0.663260 0.000000
0.317904 0.659149 0.000000
0.396293 0.655038 0.000000
0.474681 0.650927 0.000000
0.553070 0.646815 0.000000
0.631459 0.642704 0.000000
0.709848 0.638593 0.000000
0.788236 0.634482 0.000000
0.866625 0.630370 0.000000
0.945014 0.626259 0.000000
1.000000 0.622148 0.000000
1.000000 0.619905 0.000000
1.000000 0.619905 0.000000
0.000000 0.746140 0.000000
0.000000 0.742028 0.000000
0.075533 0.737917 0.000000
0.153922 0.733806 0.000000
0.232311 0.729695 0.000000
0.310700 0.725583 0.000000
0.389088 0.721472 0.000000
0.467477 0.717361 0.000000
0.545866 0.713250 0.000000
0.624255 0.709138 0.000000
0.702643 0.705027 0.000000
0.781032 0.700916 0.000000
0.859421 0.696805 0.000000
0.937810 0.692693 0.000000
1.000000 0.688582 0.000000
1.000000 0.686340 0.000000
1.000000 0.686340 0.000000
0.000000 0.812871 0.000000
0.000000 0.808760 0.000000
0.068297 0.804649 0.000000
0.146686 0.800537 0.000000
0.225074 0.796426 0.000000
0.303463 0.792315 0.000000
0.381852 0.788204 0.000000
0.460241 0.784092 0.000000
0.538629 0.779981 0.000000
0.617018 0.775870 0.000000
0.695407 0.771759 0.000000
0.773796 0.767647 0.000000
0.852184 0.763536 0.000000
0.930573 0.759425 0.000000
1.000000 0.755314 0.000000
1.000000 0.753071 0.000000
1.000000 0.753071 0.000000
0.000000 0.879878 0.000000
0.000000 0.875767 0.000000
0.061030 0.871655 0.000000
0.139419 0.867544 0.000000
0.217808 0.863433 0.000000
0.296197 0.859322 0.000000
0.374585 0.855210 0.000000
0.452974 0.851099 0.000000
0.531363 0.846988 0.000000
0.609752 0.842877 0.000000
0.688140 0.838765 0.000000
0.766529 0.834654 0.000000
0.844918 0.830543 0.000000
0.923307 0.826432 0.000000
1.000000 0.822320 0.000000
1.000000 0.820078 0.000000
1.000000 0.820078 0.000000
0.000000 0.947141 0.000000
0.000000 0.943029 0.000000
0.053736 0.938918 0.000000
0.132125 0.934807 0.000000
0.210514 0.930696 0.000000
0.288902 0.926584 0.000000
0.367291 0.922473 0.000000
0.445680 0.918362 0.000000
0.524069 0.914251 0.000000
0.602457 0.910139 0.000000
0.680846 0.906028 0.000000
0.759235 0.901917 0.000000
0.837624 0.897806 0.000000
0.916012 0.893694 0.000000
0.994401 0.889583 0.000000
1.000000 0.887341 0.000000
1.000000 0.887341 0.000000
0.000000 1.000000 0.000000
0.000000 1.000000 0.000000
0.046416 1.000000 0.000000
0.124805 1.000000 0.000000
0.203194 0.998199 0.000000
0.281582 0.994087 0.000000
0.359971 0.989976 0.000000
0.438360 0.985865 0.000000
0.516749 0.981754 0.000000
0.595137 0.977642 0.000000
0.673526 0.973531 0.000000
0.751915 0.969420 0.000000
0.830304 0.965309 0.000000
0.908692 0.961197 0.000000
0.987081 0.957086 0.000000
1.000000 0.954844 0.000000
1.000000 0.954844 0.000000
0.000000 1.000000 0.000000
0.000000 1.000000 0.000000
0.039079 1.000000 0.000000
0.117468 1.000000 0.000000
0.195857 1.000000 0.000000
0.274245 1.000000 0.000000
0.352634 1.000000 0.000000
0.431023 1.000000 0.000000
0.509412 1.000000 0.000000
0.587800 1.000000 0.000000
0.666189 1.000000 0.000000
0.744578 1.000000 0.000000
0.822967 1.000000 0.000000
0.901355 1.000000 0.000000
0.979744 1.000000 0.000000
1.000000 1.000000 0.000000
1.000000 1.000000 0.000000
0.000000 0.042278 0.080135
0.071981 0.038167 0.076024
0.150370 0.034056 0.071913
0.228759 0.029944 0.067801
0.307148 0.025833 0.063690
0.385536 0.021722 0.059579
0.463925 0.017611 0.055468
0.542314 0.013499 0.051356
0.620703 0.009388 0.047245
0.699091 0.005277 0.043134
0.777480 0.001166 0.039023
0.855869 0.000000 0.034911
0.934258 0.000000 0.030800
1.000000 0.000000 0.026689
1.000000 0.000000 0.022578
1.000000 0.000000 0.020335
1.000000 0.000000 0.020335
0.000000 0.101490 0.073714
0.065560 0.097379 0.069603
0.143949 0.093268 0.065492
0.222338 0.089157 0.061380
0.300726 0.085045 0.057269
0.379115 0.080934 0.053158
0.457504 0.076823 0.049047
0.535893 0.072712 0.044935
0.614281 0.068600 0.040824
0.692670 0.064489 0.036713
0.771059 0.060378 0.032602
0.849448 0.056267 0.028490
0.927836 0.052155 0.024379
1.000000 0.048044 0.020268
1.000000 0.043933 0.016157
1.000000 0.041690 0.013914
1.000000 0.041690 0.013914
0.000000 0.162562 0.067091
0.058937 0.158451 0.062980
0.137326 0.154339 0.058869
0.215715 0.150228 0.054758
0.294104 0.146117 0.050646
0.372492 0.142006 0.046535
0.450881 0.137894 0.042424
0.529270 0.133783 0.038313
0.607659 0.129672 0.034201
0.686047 0.125561 0.030090
0.764436 0.121449 0.025979
0.842825 0.117338 0.021868
0.921214 0.113227 0.017756
0.999602 0.109116 0.013645
1.000000 0.105004 0.009534
1.000000 0.102762 0.007291
1.000000 0.102762 0.007291
0.000000 0.224818 0.060340
0.052186 0.220706 0.056229
0.130575 0.216595 0.052118
0.208964 0.212484 0.048006
0.287353 0.208373 0.043895
0.365741 0.204261 0.039784
0.444130 0.200150 0.035673
0.522519 0.196039 0.031561
0.600908 0.191928 0.027450
0.679296 0.187816 0.023339
0.757685 0.183705 0.019228
0.836074 0.179594 0.015116
0.914463 0.175483 0.011005
0.992851 0.171371 0.006894
1.000000 0.167260 0.002783
1.000000 0.165018 0.000540
1.000000 0.165018 0.000540
0.000000 0.287952 0.053494
0.045340 0.283841 0.049382
0.123729 0.279729 0.045271
0.202117 0.275618 0.041160
0.280506 0.271507 0.037049
0.358895 0.267396 0.032937
0.437284 0.263284 0.028826
0.515672 0.259173 0.024715
0.594061 0.255062 0.020604
0.672450 0.250951 0.016492
0.750839 0.246839 0.012381
0.829227 0.242728 0.008270
0.907616 0.238617 0.004159
0.986005 0.234506 0.000047
1.000000 0.230394 0.000000
1.000000 0.228152 0.000000
1.000000 0.228152 0.000000
0.000000 0.351787 0.046571
0.038417 0.347676 0.042460
0.116806 0.343565 0.038349
0.195195 0.339453 0.034237
0.273584 0.335342 0.030126
0.351972 0.331231 0.026015
0.430361 0.327120 0.021904
0.508750 0.323008 0.017792
0.587139 0.318897 0.013681
0.665527 0.314786 0.009570
0.743916 0.310675 0.005459
0.822305 0.306563 0.001347
0.900694 0.302452 0.000000
0.979082 0.298341 0.000000
1.000000 0.294230 0.000000
1.000000 0.291987 0.000000
1.000000 0.291987 0.000000
0.000000 0.416207 0.039585
0.031432 0.412096 0.035474
0.109820 0.407985 0.031363
0.188209 0.403874 0.027252
0.266598 0.399762 0.023140
0.344987 0.395651 0.019029
0.423375 0.391540 0.014918
0.501764 0.387429 0.010807
0.580153 0.383317 0.006695
0.658542 0.379206 0.002584
0.736930 0.375095 0.000000
0.815319 0.370984 0.000000
0.893708 0.366872 0.000000
0.972097 0.362761 0.000000
1.000000 0.358650 0.000000
1.000000 0.356407 0.000000
1.000000 0.356407 0.000000
0.000000 0.481130 0.032545
0.024391 0.477018 0.028434
0.102780 0.472907 0.024323
0.181169 0.468796 0.020211
0.259557 0.464685 0.016100
0.337946 0.460573 0.011989
0.416335 0.456462 0.007878
0.494724 0.452351 0.003766
0.573112 0.448240 0.000000
0.651501 0.444128 0.000000
0.729890 0.440017 0.000000
0.808279 0.435906 0.000000
0.886667 0.431795 0.000000
0.965056 0.427683 0.000000
1.000000 0.423572 0.000000
1.000000 0.421330 0.000000
1.000000 0.421330 0.000000
0.000000 0.546493 0.025457
0.017303 0.542382 0.021346
0.095692 0.538270 0.017234
0.174081 0.534159 0.013123
0.252469 0.530048 0.009012
0.330858 0.525937 0.004901
0.409247 0.521825 0.000789
0.487636 0.517714 0.000000
0.566024 0.513603 0.000000
0.644413 0.509492 0.000000
0.722802 0.505380 0.000000
0.801191 0.501269 0.000000
0.879579 0.497158 0.000000
0.957968 0.493047 0.000000
1.000000 0.488935 0.000000
1.000000 0.486693 0.000000
1.000000 0.486693 0.000000
0.000000 0.612249 0.018326
0.010172 0.608138 0.014215
0.088561 0.604026 0.010104
0.166950 0.599915 0.005992
0.245338 0.595804 0.001881
0.323727 0.591693 0.000000
0.402116 0.587581 0.000000
0.480505 0.583470 0.000000
0.558893 0.579359 0.000000
0.637282 0.575248 0.000000
0.715671 0.571136 0.000000
0.794060 0.567025 0.000000
0.872448 0.562914 0.000000
0.950837 0.558803 0.000000
1.000000 0.554691 0.000000
1.000000 0.552449 0.000000
1.000000 0.552449 0.000000
0.000000 0.678360 0.011157
0.003003 0.674248 0.007046
0.081392 0.670137 0.002934
0.159781 0.666026 0.000000
0.238169 0.661915 0.000000
0.316558 0.657803 0.000000
0.394947 0.653692 0.000000
0.473336 0.649581 0.000000
0.551724 0.645470 0.000000
0.630113 0.641358 0.000000
0.708502 0.637247 0.000000
0.786891 0.633136 0.000000
0.865279 0.629025 0.000000
0.943668 0.624913 0.000000
1.000000 0.620802 0.000000
1.000000 0.618560 0.000000
1.000000 0.618560 0.000000
0.000000 0.744794 0.003953
0.000000 0.740682 0.000000
0.074187 0.736571 0.000000
0.152576 0.732460 0.000000
0.230965 0.728349 0.000000
0.309354 0.724237 0.000000
0.387742 0.720126 0.000000
0.466131 0.716015 0.000000
0.544520 0.711904 0.000000
0.622909 0.707792 0.000000
0.701297 0.703681 0.000000
0.779686 0.699570 0.000000
0.858075 0.695459 0.000000
0.936464 0.691347 0.000000
1.000000 0.687236 0.000000
1.000000 0.684994 0.000000
1.000000 0.684994 0.000000
0.000000 0.811525 0.000000
0.000000 0.807414 0.000000
0.066951 0.803303 0.000000
0.145340 0.799191 0.000000
0.223728 0.795080 0.000000
0.302117 0.790969 0.000000
0.380506 0.786858 0.000000
0.458895 0.782746 0.000000
0.537283 0.778635 0.000000
0.615672 0.774524 0.000000
0.694061 0.770413 0.000000
0.772450 0.766301 0.000000
0.850838 0.762190 0.000000
0.929227 0.758079 0.000000
1.000000 0.753968 0.000000
1.000000 0.751725 0.000000
1.000000 0.751725 0.000000
0.000000 0.878532 0.000000
0.000000 0.874421 0.000000
0.059685 0.870309 0.000000
0.138073 0.866198 0.000000
0.216462 0.862087 0.000000
0.294851 0.857976 0.000000
0.373240 0.853864 0.000000
0.451628 0.849753 0.000000
0.530017 0.845642 0.000000
0.608406 0.841531 0.000000
0.686795 0.837419 0.000000
0.765183 0.833308 0.000000
0.843572 0.829197 0.000000
0.921961 0.825086 0.000000
1.000000 0.820974 0.000000
1.000000 0.818732 0.000000
1.000000 0.818732 0.000000
0.000000 0.945795 0.000000
0.000000 0.941684 0.000000
0.052390 0.937572 0.000000
0.130779 0.933461 0.000000
0.209168 0.929350 0.000000
0.287557 0.925239 0.000000
0.365945 0.921127 0.000000
0.444334 0.917016 0.000000
0.522723 0.912905 0.000000
0.601112 0.908794 0.000000
0.679500 0.904682 0.000000
0.757889 0.900571 0.000000
0.836278 0.896460 0.000000
0.914667 0.892349 0.000000
0.993055 0.888237 0.000000
1.000000 0.885995 0.000000
1.000000 0.885995 0.000000
0.000000 1.000000 0.000000
0.000000 1.000000 0.000000
0.045070 1.000000 0.000000
0.123459 1.000000 0.000000
0.201848 0.996853 0.000000
0.280236 0.992741 0.000000
0.358625 0.988630 0.000000
0.437014 0.984519 0.000000
0.515403 0.980408 0.000000
0.593791 0.976296 0.000000
0.672180 0.972185 0.000000
0.750569 0.968074 0.000000
0.828958 0.963963 0.000000
0.907346 0.959851 0.000000
0.985735 0.955740 0.000000
1.000000 0.953498 0.000000
1.000000 0.953498 0.000000
0.000000 1.000000 0.000000
0.000000 1.000000 0.000000
0.037733 1.000000 0.000000
0.116122 1.000000 0.000000
0.194511 1.000000 0.000000
0.272899 1.000000 0.000000
0.351288 1.000000 0.000000
0.429677 1.000000 0.000000
0.508066 1.000000 0.000000
0.586454 1.000000 0.000000
0.664843 1.000000 0.000000
0.743232 1.000000 0.000000
0.821621 1.000000 0.000000
0.900009 1.000000 0.000000
0.978398 1.000000 0.000000
1.000000 1.000000 0.000000
1.000000 1.000000 0.000000
0.000000 0.040994 0.146455
0.070697 0.036882 0.142344
0.149086 0.032771 0.138233
0.227474 0.028660 0.134122
0.305863 0.024549 0.130010
0.384252 0.020437 0.125899
0.462641 0.016326 0.121788
0.541029 0.012215 0.117677
0.619418 0.008104 0.113565
0.697807 0.003992 0.109454
0.776196 0.000000 0.105343
0.854584 0.000000 0.101232
0.932973 0.000000 0.097120
1.000000 0.000000 0.093009
1.000000 0.000000 0.088898
1.000000 0.000000 0.086655
1.000000 0.000000 0.086655
0.000000 0.100206 0.140034
