ApexStudio/app/src/main/assets/luts/super_8.cube
# ApexStudio filter: super_8
LUT_3D_SIZE 9
DOMAIN_MIN 0.0 0.0 0.0
DOMAIN_MAX 1.0 1.0 1.0
0.000000 0.043922 0.000000
0.152014 0.035700 0.000000
0.308792 0.027477 0.000000
0.465569 0.019255 0.000000
0.622347 0.011032 0.000000
0.779124 0.002810 0.000000
0.935902 0.000000 0.000000
1.000000 0.000000 0.000000
1.000000 0.000000 0.000000
0.000000 0.164206 0.000000
0.138971 0.155984 0.000000
0.295748 0.147761 0.000000
0.452526 0.139539 0.000000
0.609303 0.131316 0.000000
0.766081 0.123094 0.000000
0.922858 0.114871 0.000000
1.000000 0.106649 0.000000
1.000000 0.104406 0.000000
0.000000 0.289596 0.000000
0.125373 0.281374 0.000000
0.282150 0.273151 0.000000
0.438928 0.264929 0.000000
0.595705 0.256706 0.000000
0.752483 0.248484 0.000000
0.909260 0.240261 0.000000
1.000000 0.232039 0.000000
1.000000 0.229796 0.000000
0.000000 0.417852 0.000000
0.111465 0.409629 0.000000
0.268242 0.401407 0.000000
0.425020 0.393184 0.000000
0.581797 0.384962 0.000000
0.738575 0.376739 0.000000
0.895352 0.368517 0.000000
1.000000 0.360294 0.000000
1.000000 0.358052 0.000000
0.000000 0.548137 0.000000
0.097336 0.539915 0.000000
0.254114 0.531692 0.000000
0.410891 0.523470 0.000000
0.567669 0.515247 0.000000
0.724446 0.507025 0.000000
0.881224 0.498802 0.000000
1.000000 0.490580 0.000000
1.000000 0.488337 0.000000
0.000000 0.680004 0.000000
0.083036 0.671781 0.000000
0.239814 0.663559 0.000000
0.396591 0.655336 0.000000
0.553369 0.647114 0.000000
0.710146 0.638891 0.000000
0.866924 0.630669 0.000000
1.000000 0.622446 0.000000
1.000000 0.620204 0.000000
0.000000 0.813170 0.000000
0.068595 0.804947 0.000000
0.225373 0.796725 0.000000
0.382150 0.788502 0.000000
0.538928 0.780280 0.000000
0.695705 0.772057 0.000000
0.852483 0.763835 0.000000
1.000000 0.755612 0.000000
1.000000 0.753370 0.000000
0.000000 0.947439 0.000000
0.054035 0.939217 0.000000
0.210812 0.930994 0.000000
0.367590 0.922772 0.000000
0.524367 0.914549 0.000000
0.681145 0.906327 0.000000
0.837922 0.898104 0.000000
0.994700 0.889882 0.000000
1.000000 0.887639 0.000000
0.000000 1.000000 0.000000
0.039378 1.000000 0.000000
0.196155 1.000000 0.000000
0.352933 1.000000 0.000000
0.509710 1.000000 0.000000
0.666488 1.000000 0.000000
0.823265 1.000000 0.000000
0.980043 1.000000 0.000000
1.000000 1.000000 0.000000
0.000000 0.042278 0.080135
0.150370 0.034056 0.071913
0.307148 0.025833 0.063690
0.463925 0.017611 0.055468
0.620703 0.009388 0.047245
0.777480 0.001166 0.039023
0.934258 0.000000 0.030800
1.000000 0.000000 0.022578
1.000000 0.000000 0.020335
0.000000 0.162562 0.067091
0.137326 0.154339 0.058869
0.294104 0.146117 0.050646
0.450881 0.137894 0.042424
0.607659 0.129672 0.034201
0.764436 0.121449 0.025979
0.921214 0.113227 0.017756
1.000000 0.105004 0.009534
1.000000 0.102762 0.007291
0.000000 0.287952 0.053494
0.123729 0.279729 0.045271
0.280506 0.271507 0.037049
0.437284 0.263284 0.028826
0.594061 0.255062 0.020604
0.750839 0.246839 0.012381
0.907616 0.238617 0.004159
1.000000 0.230394 0.000000
1.000000 0.228152 0.000000
0.000000 0.416207 0.039585
0.109820 0.407985 0.031363
0.266598 0.399762 0.023140
0.423375 0.391540 0.014918
0.580153 0.383317 0.006695
0.736930 0.375095 0.000000
0.893708 0.366872 0.000000
1.000000 0.358650 0.000000
1.000000 0.356407 0.000000
0.000000 0.546493 0.025457
0.095692 0.538270 0.017234
0.252469 0.530048 0.009012
0.409247 0.521825 0.000789
0.566024 0.513603 0.000000
0.722802 0.505380 0.000000
0.879579 0.497158 0.000000
1.000000 0.488935 0.000000
1.000000 0.486693 0.000000
0.000000 0.678360 0.011157
0.081392 0.670137 0.002934
0.238169 0.661915 0.000000
0.394947 0.653692 0.000000
0.551724 0.645470 0.000000
0.708502 0.637247 0.000000
0.865279 0.629025 0.000000
1.000000 0.620802 0.000000
1.000000 0.618560 0.000000
0.000000 0.811525 0.000000
0.066951 0.803303 0.000000
0.223728 0.795080 0.000000
0.380506 0.786858 0.000000
0.537283 0.778635 0.000000
0.694061 0.770413 0.000000
0.850838 0.762190 0.000000
1.000000 0.753968 0.000000
1.000000 0.751725 0.000000
0.000000 0.945795 0.000000
0.052390 0.937572 0.000000
0.209168 0.929350 0.000000
0.365945 0.921127 0.000000
0.522723 0.912905 0.000000
0.679500 0.904682 0.000000
0.836278 0.896460 0.000000
0.993055 0.888237 0.000000
1.000000 0.885995 0.000000
0.000000 1.000000 0.000000
0.037733 1.000000 0.000000
0.194511 1.000000 0.000000
0.351288 1.000000 0.000000
0.508066 1.000000 0.000000
0.664843 1.000000 0.000000
0.821621 1.000000 0.000000
0.978398 1.000000 0.000000
1.000000 1.000000 0.000000
0.000000 0.039738 0.211301
0.147830 0.031515 0.203079
0.304607 0.023293 0.194856
0.461385 0.015070 0.186634
0.618162 0.006848 0.178411
0.774940 0.000000 0.170189
0.931717 0.000000 0.161966
1.000000 0.000000 0.153744
1.000000 0.000000 0.151501
0.000000 0.160021 0.198258
0.134786 0.151799 0.190035
0.291563 0.143576 0.181813
0.448341 0.135354 0.173590
0.605118 0.127131 0.165368
0.761896 0.118909 0.157145
0.918673 0.110686 0.148923
1.000000 0.102464 0.140700
1.000000 0.100221 0.138458
0.000000 0.285412 0.184660
0.121188 0.277189 0.176437
0.277966 0.268967 0.168215
0.434743 0.260744 0.159992
0.591521 0.252522 0.151770
0.748298 0.244299 0.143547
0.905076 0.236077 0.135325
1.000000 0.227854 0.127102
1.000000 0.225612 0.124860
0.000000 0.413667 0.170752
0.107280 0.405444 0.162529
0.264057 0.397222 0.154307
0.420835 0.388999 0.146084
0.577612 0.380777 0.137862
0.734390 0.372554 0.129639
0.891167 0.364332 0.121417
1.000000 0.356109 0.113194
1.000000 0.353867 0.110952
0.000000 0.543952 0.156623
0.093151 0.535730 0.148401
0.249929 0.527507 0.140178
0.406706 0.519285 0.131956
0.563484 0.511062 0.123733
0.720261 0.502840 0.115511
0.877039 0.494617 0.107288
1.000000 0.486395 0.099066
1.000000 0.484152 0.096823
0.000000 0.675819 0.142323
0.078851 0.667597 0.134101
0.235629 0.659374 0.125878
0.392406 0.651152 0.117656
0.549184 0.642929 0.109433
0.705961 0.634707 0.101211
0.862739 0.626484 0.092988
1.000000 0.618262 0.084766
1.000000 0.616019 0.082523
0.000000 0.808985 0.127882
0.064411 0.800762 0.119660
0.221188 0.792540 0.111437
0.377966 0.784317 0.103215
0.534743 0.776095 0.094992
0.691521 0.767872 0.086770
0.848298 0.759650 0.078547
1.000000 0.751427 0.070325
1.000000 0.749185 0.068082
0.000000 0.943254 0.113322
0.049850 0.935032 0.105099
0.206627 0.926809 0.096877
0.363405 0.918587 0.088654
0.520182 0.910364 0.080432
0.676960 0.902142 0.072209
0.833737 0.893919 0.063987
0.990515 0.885697 0.055764
1.000000 0.883454 0.053522
0.000000 1.000000 0.098665
0.035193 1.000000 0.090442
0.191970 1.000000 0.082220
0.348748 1.000000 0.073997
0.505525 1.000000 0.065775
0.662303 1.000000 0.057552
0.819080 1.000000 0.049330
0.975858 1.000000 0.041107
1.000000 1.000000 0.038865
0.000000 0.037278 0.338318
0.145370 0.029055 0.330095
0.302147 0.020833 0.321873
0.458925 0.012610 0.313650
0.615702 0.004388 0.305428
0.772480 0.000000 0.297205
0.929257 0.000000 0.288983
1.000000 0.000000 0.280760
1.000000 0.000000 0.278518
0.000000 0.157561 0.325274
0.132326 0.149339 0.317051
0.289103 0.141116 0.308829
0.445881 0.132894 0.300606
0.602658 0.124671 0.292384
0.759436 0.116449 0.284161
0.916213 0.108226 0.275939
1.000000 0.100004 0.267716
1.000000 0.097761 0.265474
0.000000 0.282951 0.311676
0.118728 0.274729 0.303454
0.275506 0.266506 0.295231
0.432283 0.258284 0.287009
0.589061 0.250061 0.278786
0.745838 0.241839 0.270564
0.902616 0.233616 0.262341
1.000000 0.225394 0.254119
1.000000 0.223151 0.251876
0.000000 0.411207 0.297768
0.104820 0.402984 0.289545
0.261597 0.394762 0.281323
0.418375 0.386539 0.273100
0.575152 0.378317 0.264878
0.731930 0.370094 0.256655
0.888707 0.361872 0.248433
1.000000 0.353649 0.240210
1.000000 0.351407 0.237968
0.000000 0.541492 0.283639
0.090691 0.533270 0.275417
0.247469 0.525047 0.267194
0.404246 0.516825 0.258972
0.561024 0.508602 0.250749
0.717801 0.500380 0.242527
0.874579 0.492157 0.234304
1.000000 0.483935 0.226082
1.000000 0.481692 0.223839
0.000000 0.673359 0.269339
0.076391 0.665137 0.261117
0.233169 0.656914 0.252894
0.389946 0.648692 0.244672
0.546724 0.640469 0.236449
0.703501 0.632247 0.228227
0.860279 0.624024 0.220004
1.000000 0.615802 0.211782
1.000000 0.613559 0.209539
0.000000 0.806525 0.254898
0.061950 0.798302 0.246676
0.218728 0.790080 0.238453
0.375505 0.781857 0.230231
0.532283 0.773635 0.222008
0.689060 0.765412 0.213786
0.845838 0.757190 0.205563
1.000000 0.748967 0.197341
1.000000 0.746725 0.195098
0.000000 0.940794 0.240338
0.047390 0.932572 0.232115
0.204167 0.924349 0.223893
0.360945 0.916127 0.215670
0.517722 0.907904 0.207448
0.674500 0.899682 0.199225
0.831277 0.891459 0.191003
0.988055 0.883237 0.182780
1.000000 0.880994 0.180538
0.000000 1.000000 0.225681
0.032733 1.000000 0.217458
0.189510 1.000000 0.209236
0.346288 1.000000 0.201013
0.503065 1.000000 0.192791
0.659843 1.000000 0.184568
0.816620 1.000000 0.176346
0.973398 1.000000 0.168123
1.000000 1.000000 0.165881
0.000000 0.034863 0.462967
0.142955 0.026641 0.454745
0.299733 0.018418 0.446522
0.456510 0.010196 0.438300
0.613288 0.001973 0.430077
0.770065 0.000000 0.421855
0.926843 0.000000 0.413632
1.000000 0.000000 0.405410
1.000000 0.000000 0.403167
0.000000 0.155147 0.449923
0.129912 0.146925 0.441701
0.286689 0.138702 0.433478
0.443467 0.130480 0.425256
0.600244 0.122257 0.417033
0.757022 0.114035 0.408811
0.913799 0.105812 0.400588
1.000000 0.097590 0.392366
1.000000 0.095347 0.390123
0.000000 0.280537 0.436326
0.116314 0.272315 0.428103
0.273091 0.264092 0.419881
0.429869 0.255870 0.411658
0.586646 0.247647 0.403436
0.743424 0.239425 0.395213
0.900201 0.231202 0.386991
1.000000 0.222980 0.378768
1.000000 0.220737 0.376526
0.000000 0.408793 0.422417
0.102406 0.400570 0.414195
0.259183 0.392348 0.405972
0.415961 0.384125 0.397750
0.572738 0.375903 0.389527
0.729516 0.367680 0.381305
0.886293 0.359458 0.373082
1.000000 0.351235 0.364860
1.000000 0.348993 0.362617
0.000000 0.539078 0.408289
0.088277 0.530856 0.400066
0.245055 0.522633 0.391844
0.401832 0.514411 0.383621
0.558610 0.506188 0.375399
0.715387 0.497966 0.367176
0.872165 0.489743 0.358954
1.000000 0.481521 0.350731
1.000000 0.479278 0.348489
0.000000 0.670945 0.393989
0.073977 0.662722 0.385766
0.230755 0.654500 0.377544
0.387532 0.646277 0.369321
0.544310 0.638055 0.361099
0.701087 0.629832 0.352876
0.857865 0.621610 0.344654
1.000000 0.613387 0.336431
1.000000 0.611145 0.334189
0.000000 0.804111 0.379548
0.059536 0.795888 0.371325
0.216314 0.787666 0.363103
0.373091 0.779443 0.354880
0.529869 0.771221 0.346658
0.686646 0.762998 0.338435
0.843424 0.754776 0.330213
1.000000 0.746553 0.321990
1.000000 0.744311 0.319748
0.000000 0.938380 0.364987
0.044976 0.930158 0.356765
0.201753 0.921935 0.348542
0.358531 0.913713 0.340320
0.515308 0.905490 0.332097
0.672086 0.897268 0.323875
0.828863 0.889045 0.315652
0.985641 0.880823 0.307430
1.000000 0.878580 0.305187
0.000000 1.000000 0.350330
0.030319 1.000000 0.342108
0.187096 1.000000 0.333885
0.343874 1.000000 0.325663
0.500651 1.000000 0.317440
0.657429 1.000000 0.309218
0.814206 1.000000 0.300995
0.970984 1.000000 0.292773
1.000000 1.000000 0.290530
0.000000 0.032481 0.585957
0.140573 0.024259 0.577734
0.297351 0.016036 0.569512
0.454128 0.007814 0.561289
0.610906 0.000000 0.553067
0.767683 0.000000 0.544844
0.924461 0.000000 0.536622
1.000000 0.000000 0.528399
1.000000 0.000000 0.526157
0.000000 0.152765 0.572913
0.127529 0.144543 0.564690
0.284307 0.136320 0.556468
0.441084 0.128098 0.548245
0.597862 0.119875 0.540023
0.754639 0.111653 0.531800
0.911417 0.103430 0.523578
1.000000 0.095208 0.515355
1.000000 0.092965 0.513113
0.000000 0.278155 0.559315
0.113932 0.269933 0.551093
0.270709 0.261710 0.542870
0.427487 0.253488 0.534648
0.584264 0.245265 0.526425
0.741042 0.237043 0.518203
0.897819 0.228820 0.509980
1.000000 0.220598 0.501758
1.000000 0.218355 0.499515
0.000000 0.406411 0.545407
0.100024 0.398188 0.537184
0.256801 0.389966 0.528962
0.413579 0.381743 0.520739
0.570356 0.373521 0.512517
0.727134 0.365298 0.504294
0.883911 0.357076 0.496072
1.000000 0.348853 0.487849
1.000000 0.346611 0.485607
0.000000 0.536696 0.531278
0.085895 0.528474 0.523056
0.242673 0.520251 0.514833
0.399450 0.512029 0.506611
0.556228 0.503806 0.498388
0.713005 0.495584 0.490166
0.869783 0.487361 0.481943
1.000000 0.479139 0.473721
1.000000 0.476896 0.471478
0.000000 0.668563 0.516978
0.071595 0.660340 0.508756
0.228373 0.652118 0.500533
0.385150 0.643895 0.492311
0.541928 0.635673 0.484088
0.698705 0.627450 0.475866
0.855483 0.619228 0.467643
1.000000 0.611005 0.459421
1.000000 0.608763 0.457178
0.000000 0.801728 0.502537
0.057154 0.793506 0.494315
0.213932 0.785283 0.486092
0.370709 0.777061 0.477870
0.527487 0.768838 0.469647
0.684264 0.760616 0.461425
0.841042 0.752393 0.453202
0.997819 0.744171 0.444980
1.000000 0.741928 0.442737
0.000000 0.935998 0.487977
0.042594 0.927776 0.479754
0.199371 0.919553 0.471532
0.356149 0.911331 0.463309
0.512926 0.903108 0.455087
0.669704 0.894886 0.446864
0.826481 0.886663 0.438642
0.983259 0.878441 0.430419
1.000000 0.876198 0.428177
0.000000 1.000000 0.473320
0.027936 1.000000 0.465097
0.184714 1.000000 0.456875
0.341491 1.000000 0.448652
0.498269 1.000000 0.440430
0.655046 1.000000 0.432207
0.811824 1.000000 0.423985
0.968601 1.000000 0.415762
1.000000 1.000000 0.413520
0.000000 0.030124 0.707669
0.138216 0.021902 0.699447
0.294994 0.013679 0.691224
0.451771 0.005457 0.683002
0.608549 0.000000 0.674779
0.765326 0.000000 0.666557
0.922104 0.000000 0.658334
1.000000 0.000000 0.650112
1.000000 0.000000 0.647869
0.000000 0.150408 0.694625
0.125172 0.142185 0.686403
0.281950 0.133963 0.678180
0.438727 0.125740 0.669958
0.595505 0.117518 0.661735
0.752282 0.109295 0.653513
0.909060 0.101073 0.645290
1.000000 0.092850 0.637068
1.000000 0.090608 0.634825
0.000000 0.275798 0.681028
0.111575 0.267575 0.672805
0.268352 0.259353 0.664583
0.425130 0.251130 0.656360
0.581907 0.242908 0.648138
0.738685 0.234685 0.639915
0.895462 0.226463 0.631693
1.000000 0.218240 0.623470
1.000000 0.215998 0.621228
0.000000 0.404053 0.667119
0.097666 0.395831 0.658897
0.254444 0.387608 0.650674
0.411221 0.379386 0.642452
0.567999 0.371163 0.634229
0.724776 0.362941 0.626007
0.881554 0.354718 0.617784
1.000000 0.346496 0.609562
1.000000 0.344253 0.607319
0.000000 0.534339 0.652991
0.083538 0.526116 0.644768
0.240315 0.517894 0.636546
0.397093 0.509671 0.628323
0.553870 0.501449 0.620101
0.710648 0.493226 0.611878
0.867425 0.485004 0.603656
1.000000 0.476781 0.595433
1.000000 0.474539 0.593191
0.000000 0.666205 0.638691
0.069238 0.657983 0.630468
0.226015 0.649760 0.622246
0.382793 0.641538 0.614023
0.539570 0.633315 0.605801
0.696348 0.625093 0.597578
0.853125 0.616870 0.589356
1.000000 0.608648 0.581133
1.000000 0.606405 0.578891
0.000000 0.799371 0.624250
0.054797 0.791149 0.616027
0.211574 0.782926 0.607805
0.368352 0.774704 0.599582
0.525129 0.766481 0.591360
0.681907 0.758259 0.583137
0.838684 0.750036 0.574915
0.995462 0.741814 0.566692
1.000000 0.739571 0.564450
0.000000 0.933641 0.609689
0.040236 0.925418 0.601467
0.197014 0.917196 0.593244
0.353791 0.908973 0.585022
0.510569 0.900751 0.576799
0.667346 0.892528 0.568577
0.824124 0.884306 0.560354
0.980901 0.876083 0.552132
1.000000 0.873841 0.549889
0.000000 1.000000 0.595032
0.025579 1.000000 0.586810
0.182357 1.000000 0.578587
0.339134 1.000000 0.570365
0.495912 1.000000 0.562142
0.652689 1.000000 0.553920
0.809467 1.000000 0.545697
0.966244 1.000000 0.537475
1.000000 1.000000 0.535232
0.000000 0.027787 0.828345
0.135879 0.019564 0.820123
0.292656 0.011342 0.811900
0.449434 0.003119 0.803678
0.606211 0.000000 0.795455
0.762989 0.000000 0.787233
0.919766 0.000000 0.779010
1.000000 0.000000 0.770788
1.000000 0.000000 0.768545
0.000000 0.148071 0.815301
0.122835 0.139848 0.807079
0.279612 0.131626 0.798856
0.436390 0.123403 0.790634
0.593167 0.115181 0.782411
0.749945 0.106958 0.774189
0.906722 0.098736 0.765966
1.000000 0.090513 0.757744
1.000000 0.088271 0.755501
0.000000 0.273461 0.801704
0.109237 0.265238 0.793481
0.266015 0.257016 0.785259
0.422792 0.248793 0.777036
0.579570 0.240571 0.768814
0.736347 0.232348 0.760591
0.893125 0.224126 0.752369
1.000000 0.215903 0.744146
1.000000 0.213661 0.741904
0.000000 0.401716 0.787795
0.095329 0.393493 0.779573
0.252106 0.385271 0.771350
0.408884 0.377048 0.763128
0.565661 0.368826 0.754905
0.722439 0.360603 0.746683
0.879216 0.352381 0.738460
1.000000 0.344158 0.730238
1.000000 0.341916 0.727995
0.000000 0.532001 0.773667
0.081200 0.523779 0.765444
0.237978 0.515556 0.757222
0.394755 0.507334 0.748999
0.551533 0.499111 0.740777
0.708310 0.490889 0.732554
0.865088 0.482666 0.724332
1.000000 0.474444 0.716109
1.000000 0.472201 0.713867
0.000000 0.663868 0.759367
0.066900 0.655646 0.751144
0.223678 0.647423 0.742922
0.380455 0.639201 0.734699
0.537233 0.630978 0.726477
0.694010 0.622756 0.718254
0.850788 0.614533 0.710032
1.000000 0.606311 0.701809
1.000000 0.604068 0.699567
0.000000 0.797034 0.744926
0.052460 0.788811 0.736704
0.209237 0.780589 0.728481
0.366015 0.772366 0.720259
0.522792 0.764144 0.712036
0.679570 0.755921 0.703814
0.836347 0.747699 0.695591
0.993125 0.739476 0.687369
1.000000 0.737234 0.685126
0.000000 0.931304 0.730366
0.037899 0.923081 0.722143
0.194677 0.914859 0.713921
0.351454 0.906636 0.705698
0.508232 0.898414 0.697476
0.665009 0.890191 0.689253
0.821787 0.881969 0.681031
0.978564 0.873746 0.672808
1.000000 0.871504 0.670566
0.000000 1.000000 0.715708
0.023242 1.000000 0.707486
0.180019 1.000000 0.699263
0.336797 1.000000 0.691041
0.493574 1.000000 0.682818
0.650352 1.000000 0.674596
0.807129 1.000000 0.666373
0.963907 1.000000 0.658151
1.000000 1.000000 0.655908
0.000000 0.025466 0.948151
0.133558 0.017244 0.939928
0.290336 0.009021 0.931706
0.447113 0.000799 0.923483
0.603891 0.000000 0.915261
0.760668 0.000000 0.907038
0.917446 0.000000 0.898816
1.000000 0.000000 0.890593
1.000000 0.000000 0.888351
0.000000 0.145750 0.935107
0.120515 0.137528 0.926884
0.277292 0.129305 0.918662
0.434070 0.121083 0.910439
0.590847 0.112860 0.902217
0.747625 0.104638 0.893994
0.904402 0.096415 0.885772
1.000000 0.088193 0.877549
1.000000 0.085950 0.875307
0.000000 0.271140 0.921509
0.106917 0.262918 0.913287
0.263694 0.254695 0.905064
0.420472 0.246473 0.896842
0.577249 0.238250 0.888619
0.734027 0.230028 0.880397
0.890804 0.221805 0.872174
1.000000 0.213583 0.863952
1.000000 0.211340 0.861709
0.000000 0.399396 0.907601
0.093009 0.391173 0.899378
0.249786 0.382951 0.891156
0.406564 0.374728 0.882933
0.563341 0.366506 0.874711
0.720119 0.358283 0.866488
0.876896 0.350061 0.858266
1.000000 0.341838 0.850043
1.000000 0.339596 0.847801
0.000000 0.529681 0.893472
0.078880 0.521459 0.885250
0.235658 0.513236 0.877027
0.392435 0.505014 0.868805
0.549213 0.496791 0.860582
0.705990 0.488569 0.852360
0.862768 0.480346 0.844137
1.000000 0.472124 0.835915
1.000000 0.469881 0.833672
0.000000 0.661548 0.879172
0.064580 0.653325 0.870950
0.221358 0.645103 0.862727
0.378135 0.636880 0.854505
0.534913 0.628658 0.846282
0.691690 0.620435 0.838060
0.848468 0.612213 0.829837
1.000000 0.603990 0.821615
1.000000 0.601748 0.819372
0.000000 0.794713 0.864731
0.050139 0.786491 0.856509
0.206917 0.778268 0.848286
0.363694 0.770046 0.840064
0.520472 0.761823 0.831841
0.677249 0.753601 0.823619
0.834027 0.745378 0.815396
0.990804 0.737156 0.807174
1.000000 0.734913 0.804931
0.000000 0.928983 0.850171
0.035579 0.920761 0.841948
0.192356 0.912538 0.833726
0.349134 0.904316 0.825503
0.505911 0.896093 0.817281
0.662689 0.887871 0.809058
0.819466 0.879648 0.800836
0.976244 0.871426 0.792613
1.000000 0.869183 0.790371
0.000000 1.000000 0.835514
0.020921 1.000000 0.827291
0.177699 1.000000 0.819069
0.334476 1.000000 0.810846
0.491254 1.000000 0.802624
0.648031 1.000000 0.794401
0.804809 1.000000 0.786179
0.961586 1.000000 0.777956
1.000000 1.000000 0.775714
