ApexStudio/app/src/main/assets/luts/super_8.cube
# ApexStudio filter: super_8
LUT_3D_SIZE 5
DOMAIN_MIN 0.0 0.0 0.0
DOMAIN_MAX 1.0 1.0 1.0
0.000000 0.043922 0.000000
0.308792 0.027477 0.000000
0.622347 0.011032 0.000000
0.935902 0.000000 0.000000
1.000000 0.000000 0.000000
0.000000 0.289596 0.000000
0.282150 0.273151 0.000000
0.595705 0.256706 0.000000
0.909260 0.240261 0.000000
1.000000 0.229796 0.000000
0.000000 0.548137 0.000000
0.254114 0.531692 0.000000
0.567669 0.515247 0.000000
0.881224 0.498802 0.000000
1.000000 0.488337 0.000000
0.000000 0.813170 0.000000
0.225373 0.796725 0.000000
0.538928 0.780280 0.000000
0.852483 0.763835 0.000000
1.000000 0.753370 0.000000
0.000000 1.000000 0.000000
0.196155 1.000000 0.000000
0.509710 1.000000 0.000000
0.823265 1.000000 0.000000
1.000000 1.000000 0.000000
0.000000 0.039738 0.211301
0.304607 0.023293 0.194856
0.618162 0.006848 0.178411
0.931717 0.000000 0.161966
1.000000 0.000000 0.151501
0.000000 0.285412 0.184660
0.277966 0.268967 0.168215
0.591521 0.252522 0.151770
0.905076 0.236077 0.135325
1.000000 0.225612 0.124860
0.000000 0.543952 0.156623
0.249929 0.527507 0.140178
0.563484 0.511062 0.123733
0.877039 0.494617 0.107288
1.000000 0.484152 0.096823
0.000000 0.808985 0.127882
0.221188 0.792540 0.111437
0.534743 0.776095 0.094992
0.848298 0.759650 0.078547
1.000000 0.749185 0.068082
0.000000 1.000000 0.098665
0.191970 1.000000 0.082220
0.505525 1.000000 0.065775
0.819080 1.000000 0.049330
1.000000 1.000000 0.038865
0.000000 0.034863 0.462967
0.299733 0.018418 0.446522
0.613288 0.001973 0.430077
0.926843 0.000000 0.413632
1.000000 0.000000 0.403167
0.000000 0.280537 0.436326
0.273091 0.264092 0.419881
0.586646 0.247647 0.403436
0.900201 0.231202 0.386991
1.000000 0.220737 0.376526
0.000000 0.539078 0.408289
0.245055 0.522633 0.391844
0.558610 0.506188 0.375399
0.872165 0.489743 0.358954
1.000000 0.479278 0.348489
0.000000 0.804111 0.379548
0.216314 0.787666 0.363103
0.529869 0.771221 0.346658
0.843424 0.754776 0.330213
1.000000 0.744311 0.319748
0.000000 1.000000 0.350330
0.187096 1.000000 0.333885
0.500651 1.000000 0.317440
0.814206 1.000000 0.300995
1.000000 1.000000 0.290530
0.000000 0.030124 0.707669
0.294994 0.013679 0.691224
0.608549 0.000000 0.674779
0.922104 0.000000 0.658334
1.000000 0.000000 0.647869
0.000000 0.275798 0.681028
0.268352 0.259353 0.664583
0.581907 0.242908 0.648138
0.895462 0.226463 0.631693
1.000000 0.215998 0.621228
0.000000 0.534339 0.652991
0.240315 0.517894 0.636546
0.553870 0.501449 0.620101
0.867425 0.485004 0.603656
1.000000 0.474539 0.593191
0.000000 0.799371 0.624250
0.211574 0.782926 0.607805
0.525129 0.766481 0.591360
0.838684 0.750036 0.574915
1.000000 0.739571 0.564450
0.000000 1.000000 0.595032
0.182357 1.000000 0.578587
0.495912 1.000000 0.562142
0.809467 1.000000 0.545697
1.000000 1.000000 0.535232
0.000000 0.025466 0.948151
0.290336 0.009021 0.931706
0.603891 0.000000 0.915261
0.917446 0.000000 0.898816
1.000000 0.000000 0.888351
0.000000 0.271140 0.921509
0.263694 0.254695 0.905064
0.577249 0.238250 0.888619
0.890804 0.221805 0.872174
1.000000 0.211340 0.861709
0.000000 0.529681 0.893472
0.235658 0.513236 0.877027
0.549213 0.496791 0.860582
0.862768 0.480346 0.844137
1.000000 0.469881 0.833672
0.000000 0.794713 0.864731
0.206917 0.778268 0.848286
0.520472 0.761823 0.831841
0.834027 0.745378 0.815396
1.000000 0.734913 0.804931
0.000000 1.000000 0.835514
0.177699 1.000000 0.819069
0.491254 1.000000 0.802624
0.804809 1.000000 0.786179
1.000000 1.000000 0.775714
