ApexStudio/app/src/main/assets/luts/synthwave_blue.cube
# ApexStudio filter: synthwave_blue
LUT_3D_SIZE 5
DOMAIN_MIN 0.0 0.0 0.0
DOMAIN_MAX 1.0 1.0 1.0
0.000000 0.050000 0.200000
0.200000 0.050000 0.200000
0.450000 0.050000 0.200000
0.700000 0.050000 0.200000
0.950000 0.050000 0.200000
0.000000 0.300000 0.200000
0.200000 0.300000 0.200000
0.450000 0.300000 0.200000
0.700000 0.300000 0.200000
0.950000 0.300000 0.200000
0.000000 0.550000 0.200000
0.200000 0.550000 0.200000
0.450000 0.550000 0.200000
0.700000 0.550000 0.200000
0.950000 0.550000 0.200000
0.000000 0.800000 0.200000
0.200000 0.800000 0.200000
0.450000 0.800000 0.200000
0.700000 0.800000 0.200000
0.950000 0.800000 0.200000
0.000000 1.000000 0.200000
0.200000 1.000000 0.200000
0.450000 1.000000 0.200000
0.700000 1.000000 0.200000
0.950000 1.000000 0.200000
0.000000 0.050000 0.450000
0.200000 0.050000 0.450000
0.450000 0.050000 0.450000
0.700000 0.050000 0.450000
0.950000 0.050000 0.450000
0.000000 0.300000 0.450000
0.200000 0.300000 0.450000
0.450000 0.300000 0.450000
0.700000 0.300000 0.450000
0.950000 0.300000 0.450000
0.000000 0.550000 0.450000
0.200000 0.550000 0.450000
0.450000 0.550000 0.450000
0.700000 0.550000 0.450000
0.950000 0.550000 0.450000
0.000000 0.800000 0.450000
0.200000 0.800000 0.450000
0.450000 0.800000 0.450000
0.700000 0.800000 0.450000
0.950000 0.800000 0.450000
0.000000 1.000000 0.450000
0.200000 1.000000 0.450000
0.450000 1.000000 0.450000
0.700000 1.000000 0.450000
0.950000 1.000000 0.450000
0.000000 0.050000 0.700000
0.200000 0.050000 0.700000
0.450000 0.050000 0.700000
0.700000 0.050000 0.700000
0.950000 0.050000 0.700000
0.000000 0.300000 0.700000
0.200000 0.300000 0.700000
0.450000 0.300000 0.700000
0.700000 0.300000 0.700000
0.950000 0.300000 0.700000
0.000000 0.550000 0.700000
0.200000 0.550000 0.700000
0.450000 0.550000 0.700000
0.700000 0.550000 0.700000
0.950000 0.550000 0.700000
0.000000 0.800000 0.700000
0.200000 0.800000 0.700000
0.450000 0.800000 0.700000
0.700000 0.800000 0.700000
0.950000 0.800000 0.700000
0.000000 1.000000 0.700000
0.200000 1.000000 0.700000
0.450000 1.000000 0.700000
0.700000 1.000000 0.700000
0.950000 1.000000 0.700000
0.000000 0.050000 0.950000
0.200000 0.050000 0.950000
0.450000 0.050000 0.950000
0.700000 0.050000 0.950000
0.950000 0.050000 0.950000
0.000000 0.300000 0.950000
0.200000 0.300000 0.950000
0.450000 0.300000 0.950000
0.700000 0.300000 0.950000
0.950000 0.300000 0.950000
0.000000 0.550000 0.950000
0.200000 0.550000 0.950000
0.450000 0.550000 0.950000
0.700000 0.550000 0.950000
0.950000 0.550000 0.950000
0.000000 0.800000 0.950000
0.200000 0.800000 0.950000
0.450000 0.800000 0.950000
0.700000 0.800000 0.950000
0.950000 0.800000 0.950000
0.000000 1.000000 0.950000
0.200000 1.000000 0.950000
0.450000 1.000000 0.950000
0.700000 1.000000 0.950000
0.950000 1.000000 0.950000
0.000000 0.050000 1.000000
0.200000 0.050000 1.000000
0.450000 0.050000 1.000000
0.700000 0.050000 1.000000
0.950000 0.050000 1.000000
0.000000 0.300000 1.000000
0.200000 0.300000 1.000000
0.450000 0.300000 1.000000
0.700000 0.300000 1.000000
0.950000 0.300000 1.000000
0.000000 0.550000 1.000000
0.200000 0.550000 1.000000
0.450000 0.550000 1.000000
0.700000 0.550000 1.000000
0.950000 0.550000 1.000000
0.000000 0.800000 1.000000
0.200000 0.800000 1.000000
0.450000 0.800000 1.000000
0.700000 0.800000 1.000000
0.950000 0.800000 1.000000
0.000000 1.000000 1.000000
0.200000 1.000000 1.000000
0.450000 1.000000 1.000000
0.700000 1.000000 1.000000
0.950000 1.000000 1.000000
