ApexStudio/app/src/main/assets/luts/synthwave_blue.cube
# ApexStudio filter: synthwave_blue
LUT_3D_SIZE 17
DOMAIN_MIN 0.0 0.0 0.0
DOMAIN_MAX 1.0 1.0 1.0
0.000000 0.050000 0.200000
0.012500 0.050000 0.200000
0.075000 0.050000 0.200000
0.137500 0.050000 0.200000
0.200000 0.050000 0.200000
0.262500 0.050000 0.200000
0.325000 0.050000 0.200000
0.387500 0.050000 0.200000
0.450000 0.050000 0.200000
0.512500 0.050000 0.200000
0.575000 0.050000 0.200000
0.637500 0.050000 0.200000
0.700000 0.050000 0.200000
0.762500 0.050000 0.200000
0.825000 0.050000 0.200000
0.887500 0.050000 0.200000
0.950000 0.050000 0.200000
0.000000 0.112500 0.200000
0.012500 0.112500 0.200000
0.075000 0.112500 0.200000
0.137500 0.112500 0.200000
0.200000 0.112500 0.200000
0.262500 0.112500 0.200000
0.325000 0.112500 0.200000
0.387500 0.112500 0.200000
0.450000 0.112500 0.200000
0.512500 0.112500 0.200000
0.575000 0.112500 0.200000
0.637500 0.112500 0.200000
0.700000 0.112500 0.200000
0.762500 0.112500 0.200000
0.825000 0.112500 0.200000
0.887500 0.112500 0.200000
0.950000 0.112500 0.200000
0.000000 0.175000 0.200000
0.012500 0.175000 0.200000
0.075000 0.175000 0.200000
0.137500 0.175000 0.200000
0.200000 0.175000 0.200000
0.262500 0.175000 0.200000
0.325000 0.175000 0.200000
0.387500 0.175000 0.200000
0.450000 0.175000 0.200000
0.512500 0.175000 0.200000
0.575000 0.175000 0.200000
0.637500 0.175000 0.200000
0.700000 0.175000 0.200000
0.762500 0.175000 0.200000
0.825000 0.175000 0.200000
0.887500 0.175000 0.200000
0.950000 0.175000 0.200000
0.000000 0.237500 0.200000
0.012500 0.237500 0.200000
0.075000 0.237500 0.200000
0.137500 0.237500 0.200000
0.200000 0.237500 0.200000
0.262500 0.237500 0.200000
0.325000 0.237500 0.200000
0.387500 0.237500 0.200000
0.450000 0.237500 0.200000
0.512500 0.237500 0.200000
0.575000 0.237500 0.200000
0.637500 0.237500 0.200000
0.700000 0.237500 0.200000
0.762500 0.237500 0.200000
0.825000 0.237500 0.200000
0.887500 0.237500 0.200000
0.950000 0.237500 0.200000
0.000000 0.300000 0.200000
0.012500 0.300000 0.200000
0.075000 0.300000 0.200000
0.137500 0.300000 0.200000
0.200000 0.300000 0.200000
0.262500 0.300000 0.200000
0.325000 0.300000 0.200000
0.387500 0.300000 0.200000
0.450000 0.300000 0.200000
0.512500 0.300000 0.200000
0.575000 0.300000 0.200000
0.637500 0.300000 0.200000
0.700000 0.300000 0.200000
0.762500 0.300000 0.200000
0.825000 0.300000 0.200000
0.887500 0.300000 0.200000
0.950000 0.300000 0.200000
0.000000 0.362500 0.200000
0.012500 0.362500 0.200000
0.075000 0.362500 0.200000
0.137500 0.362500 0.200000
0.200000 0.362500 0.200000
0.262500 0.362500 0.200000
0.325000 0.362500 0.200000
0.387500 0.362500 0.200000
0.450000 0.362500 0.200000
0.512500 0.362500 0.200000
0.575000 0.362500 0.200000
0.637500 0.362500 0.200000
0.700000 0.362500 0.200000
0.762500 0.362500 0.200000
0.825000 0.362500 0.200000
0.887500 0.362500 0.200000
0.950000 0.362500 0.200000
0.000000 0.425000 0.200000
0.012500 0.425000 0.200000
0.075000 0.425000 0.200000
0.137500 0.425000 0.200000
0.200000 0.425000 0.200000
0.262500 0.425000 0.200000
0.325000 0.425000 0.200000
0.387500 0.425000 0.200000
0.450000 0.425000 0.200000
0.512500 0.425000 0.200000
0.575000 0.425000 0.200000
0.637500 0.425000 0.200000
0.700000 0.425000 0.200000
0.762500 0.425000 0.200000
0.825000 0.425000 0.200000
0.887500 0.425000 0.200000
0.950000 0.425000 0.200000
0.000000 0.487500 0.200000
0.012500 0.487500 0.200000
0.075000 0.487500 0.200000
0.137500 0.487500 0.200000
0.200000 0.487500 0.200000
0.262500 0.487500 0.200000
0.325000 0.487500 0.200000
0.387500 0.487500 0.200000
0.450000 0.487500 0.200000
0.512500 0.487500 0.200000
0.575000 0.487500 0.200000
0.637500 0.487500 0.200000
0.700000 0.487500 0.200000
0.762500 0.487500 0.200000
0.825000 0.487500 0.200000
0.887500 0.487500 0.200000
0.950000 0.487500 0.200000
0.000000 0.550000 0.200000
0.012500 0.550000 0.200000
0.075000 0.550000 0.200000
0.137500 0.550000 0.200000
0.200000 0.550000 0.200000
0.262500 0.550000 0.200000
0.325000 0.550000 0.200000
0.387500 0.550000 0.200000
0.450000 0.550000 0.200000
0.512500 0.550000 0.200000
0.575000 0.550000 0.200000
0.637500 0.550000 0.200000
0.700000 0.550000 0.200000
0.762500 0.550000 0.200000
0.825000 0.550000 0.200000
0.887500 0.550000 0.200000
0.950000 0.550000 0.200000
0.000000 0.612500 0.200000
0.012500 0.612500 0.200000
0.075000 0.612500 0.200000
0.137500 0.612500 0.200000
0.200000 0.612500 0.200000
0.262500 0.612500 0.200000
0.325000 0.612500 0.200000
0.387500 0.612500 0.200000
0.450000 0.612500 0.200000
0.512500 0.612500 0.200000
0.575000 0.612500 0.200000
0.637500 0.612500 0.200000
0.700000 0.612500 0.200000
0.762500 0.612500 0.200000
0.825000 0.612500 0.200000
0.887500 0.612500 0.200000
0.950000 0.612500 0.200000
0.000000 0.675000 0.200000
0.012500 0.675000 0.200000
0.075000 0.675000 0.200000
0.137500 0.675000 0.200000
0.200000 0.675000 0.200000
0.262500 0.675000 0.200000
0.325000 0.675000 0.200000
0.387500 0.675000 0.200000
0.450000 0.675000 0.200000
0.512500 0.675000 0.200000
0.575000 0.675000 0.200000
0.637500 0.675000 0.200000
0.700000 0.675000 0.200000
0.762500 0.675000 0.200000
0.825000 0.675000 0.200000
0.887500 0.675000 0.200000
0.950000 0.675000 0.200000
0.000000 0.737500 0.200000
0.012500 0.737500 0.200000
0.075000 0.737500 0.200000
0.137500 0.737500 0.200000
0.200000 0.737500 0.200000
0.262500 0.737500 0.200000
0.325000 0.737500 0.200000
0.387500 0.737500 0.200000
0.450000 0.737500 0.200000
0.512500 0.737500 0.200000
0.575000 0.737500 0.200000
0.637500 0.737500 0.200000
0.700000 0.737500 0.200000
0.762500 0.737500 0.200000
0.825000 0.737500 0.200000
0.887500 0.737500 0.200000
0.950000 0.737500 0.200000
0.000000 0.800000 0.200000
0.012500 0.800000 0.200000
0.075000 0.800000 0.200000
0.137500 0.800000 0.200000
0.200000 0.800000 0.200000
0.262500 0.800000 0.200000
0.325000 0.800000 0.200000
0.387500 0.800000 0.200000
0.450000 0.800000 0.200000
0.512500 0.800000 0.200000
0.575000 0.800000 0.200000
0.637500 0.800000 0.200000
0.700000 0.800000 0.200000
0.762500 0.800000 0.200000
0.825000 0.800000 0.200000
0.887500 0.800000 0.200000
0.950000 0.800000 0.200000
0.000000 0.862500 0.200000
0.012500 0.862500 0.200000
0.075000 0.862500 0.200000
0.137500 0.862500 0.200000
0.200000 0.862500 0.200000
0.262500 0.862500 0.200000
0.325000 0.862500 0.200000
0.387500 0.862500 0.200000
0.450000 0.862500 0.200000
0.512500 0.862500 0.200000
0.575000 0.862500 0.200000
0.637500 0.862500 0.200000
0.700000 0.862500 0.200000
0.762500 0.862500 0.200000
0.825000 0.862500 0.200000
0.887500 0.862500 0.200000
0.950000 0.862500 0.200000
0.000000 0.925000 0.200000
0.012500 0.925000 0.200000
0.075000 0.925000 0.200000
0.137500 0.925000 0.200000
0.200000 0.925000 0.200000
0.262500 0.925000 0.200000
0.325000 0.925000 0.200000
0.387500 0.925000 0.200000
0.450000 0.925000 0.200000
0.512500 0.925000 0.200000
0.575000 0.925000 0.200000
0.637500 0.925000 0.200000
0.700000 0.925000 0.200000
0.762500 0.925000 0.200000
0.825000 0.925000 0.200000
0.887500 0.925000 0.200000
0.950000 0.925000 0.200000
0.000000 0.987500 0.200000
0.012500 0.987500 0.200000
0.075000 0.987500 0.200000
0.137500 0.987500 0.200000
0.200000 0.987500 0.200000
0.262500 0.987500 0.200000
0.325000 0.987500 0.200000
0.387500 0.987500 0.200000
0.450000 0.987500 0.200000
0.512500 0.987500 0.200000
0.575000 0.987500 0.200000
0.637500 0.987500 0.200000
0.700000 0.987500 0.200000
0.762500 0.987500 0.200000
0.825000 0.987500 0.200000
0.887500 0.987500 0.200000
0.950000 0.987500 0.200000
0.000000 1.000000 0.200000
0.012500 1.000000 0.200000
0.075000 1.000000 0.200000
0.137500 1.000000 0.200000
0.200000 1.000000 0.200000
0.262500 1.000000 0.200000
0.325000 1.000000 0.200000
0.387500 1.000000 0.200000
0.450000 1.000000 0.200000
0.512500 1.000000 0.200000
0.575000 1.000000 0.200000
0.637500 1.000000 0.200000
0.700000 1.000000 0.200000
0.762500 1.000000 0.200000
0.825000 1.000000 0.200000
0.887500 1.000000 0.200000
0.950000 1.000000 0.200000
0.000000 0.050000 0.262500
0.012500 0.050000 0.262500
0.075000 0.050000 0.262500
0.137500 0.050000 0.262500
0.200000 0.050000 0.262500
0.262500 0.050000 0.262500
0.325000 0.050000 0.262500
0.387500 0.050000 0.262500
0.450000 0.050000 0.262500
0.512500 0.050000 0.262500
0.575000 0.050000 0.262500
0.637500 0.050000 0.262500
0.700000 0.050000 0.262500
0.762500 0.050000 0.262500
0.825000 0.050000 0.262500
0.887500 0.050000 0.262500
0.950000 0.050000 0.262500
0.000000 0.112500 0.262500
0.012500 0.112500 0.262500
0.075000 0.112500 0.262500
0.137500 0.112500 0.262500
0.200000 0.112500 0.262500
0.262500 0.112500 0.262500
0.325000 0.112500 0.262500
0.387500 0.112500 0.262500
0.450000 0.112500 0.262500
0.512500 0.112500 0.262500
0.575000 0.112500 0.262500
0.637500 0.112500 0.262500
0.700000 0.112500 0.262500
0.762500 0.112500 0.262500
0.825000 0.112500 0.262500
0.887500 0.112500 0.262500
0.950000 0.112500 0.262500
0.000000 0.175000 0.262500
0.012500 0.175000 0.262500
0.075000 0.175000 0.262500
0.137500 0.175000 0.262500
0.200000 0.175000 0.262500
0.262500 0.175000 0.262500
0.325000 0.175000 0.262500
0.387500 0.175000 0.262500
0.450000 0.175000 0.262500
0.512500 0.175000 0.262500
0.575000 0.175000 0.262500
0.637500 0.175000 0.262500
0.700000 0.175000 0.262500
0.762500 0.175000 0.262500
0.825000 0.175000 0.262500
0.887500 0.175000 0.262500
0.950000 0.175000 0.262500
0.000000 0.237500 0.262500
0.012500 0.237500 0.262500
0.075000 0.237500 0.262500
0.137500 0.237500 0.262500
0.200000 0.237500 0.262500
0.262500 0.237500 0.262500
0.325000 0.237500 0.262500
0.387500 0.237500 0.262500
0.450000 0.237500 0.262500
0.512500 0.237500 0.262500
0.575000 0.237500 0.262500
0.637500 0.237500 0.262500
0.700000 0.237500 0.262500
0.762500 0.237500 0.262500
0.825000 0.237500 0.262500
0.887500 0.237500 0.262500
0.950000 0.237500 0.262500
0.000000 0.300000 0.262500
0.012500 0.300000 0.262500
0.075000 0.300000 0.262500
0.137500 0.300000 0.262500
0.200000 0.300000 0.262500
0.262500 0.300000 0.262500
0.325000 0.300000 0.262500
0.387500 0.300000 0.262500
0.450000 0.300000 0.262500
0.512500 0.300000 0.262500
0.575000 0.300000 0.262500
0.637500 0.300000 0.262500
0.700000 0.300000 0.262500
0.762500 0.300000 0.262500
0.825000 0.300000 0.262500
0.887500 0.300000 0.262500
0.950000 0.300000 0.262500
0.000000 0.362500 0.262500
0.012500 0.362500 0.262500
0.075000 0.362500 0.262500
0.137500 0.362500 0.262500
0.200000 0.362500 0.262500
0.262500 0.362500 0.262500
0.325000 0.362500 0.262500
0.387500 0.362500 0.262500
0.450000 0.362500 0.262500
0.512500 0.362500 0.262500
0.575000 0.362500 0.262500
0.637500 0.362500 0.262500
0.700000 0.362500 0.262500
0.762500 0.362500 0.262500
0.825000 0.362500 0.262500
0.887500 0.362500 0.262500
0.950000 0.362500 0.262500
0.000000 0.425000 0.262500
0.012500 0.425000 0.262500
0.075000 0.425000 0.262500
0.137500 0.425000 0.262500
0.200000 0.425000 0.262500
0.262500 0.425000 0.262500
0.325000 0.425000 0.262500
0.387500 0.425000 0.262500
0.450000 0.425000 0.262500
0.512500 0.425000 0.262500
0.575000 0.425000 0.262500
0.637500 0.425000 0.262500
0.700000 0.425000 0.262500
0.762500 0.425000 0.262500
0.825000 0.425000 0.262500
0.887500 0.425000 0.262500
0.950000 0.425000 0.262500
0.000000 0.487500 0.262500
0.012500 0.487500 0.262500
0.075000 0.487500 0.262500
0.137500 0.487500 0.262500
0.200000 0.487500 0.262500
0.262500 0.487500 0.262500
0.325000 0.487500 0.262500
0.387500 0.487500 0.262500
0.450000 0.487500 0.262500
0.512500 0.487500 0.262500
0.575000 0.487500 0.262500
0.637500 0.487500 0.262500
0.700000 0.487500 0.262500
0.762500 0.487500 0.262500
0.825000 0.487500 0.262500
0.887500 0.487500 0.262500
0.950000 0.487500 0.262500
0.000000 0.550000 0.262500
0.012500 0.550000 0.262500
0.075000 0.550000 0.262500
0.137500 0.550000 0.262500
0.200000 0.550000 0.262500
0.262500 0.550000 0.262500
0.325000 0.550000 0.262500
0.387500 0.550000 0.262500
0.450000 0.550000 0.262500
0.512500 0.550000 0.262500
0.575000 0.550000 0.262500
0.637500 0.550000 0.262500
0.700000 0.550000 0.262500
0.762500 0.550000 0.262500
0.825000 0.550000 0.262500
0.887500 0.550000 0.262500
0.950000 0.550000 0.262500
0.000000 0.612500 0.262500
0.012500 0.612500 0.262500
0.075000 0.612500 0.262500
0.137500 0.612500 0.262500
0.200000 0.612500 0.262500
0.262500 0.612500 0.262500
0.325000 0.612500 0.262500
0.387500 0.612500 0.262500
0.450000 0.612500 0.262500
0.512500 0.612500 0.262500
0.575000 0.612500 0.262500
0.637500 0.612500 0.262500
0.700000 0.612500 0.262500
0.762500 0.612500 0.262500
0.825000 0.612500 0.262500
0.887500 0.612500 0.262500
0.950000 0.612500 0.262500
0.000000 0.675000 0.262500
0.012500 0.675000 0.262500
0.075000 0.675000 0.262500
0.137500 0.675000 0.262500
0.200000 0.675000 0.262500
0.262500 0.675000 0.262500
0.325000 0.675000 0.262500
0.387500 0.675000 0.262500
0.450000 0.675000 0.262500
0.512500 0.675000 0.262500
0.575000 0.675000 0.262500
0.637500 0.675000 0.262500
0.700000 0.675000 0.262500
0.762500 0.675000 0.262500
0.825000 0.675000 0.262500
0.887500 0.675000 0.262500
0.950000 0.675000 0.262500
0.000000 0.737500 0.262500
0.012500 0.737500 0.262500
0.075000 0.737500 0.262500
0.137500 0.737500 0.262500
0.200000 0.737500 0.262500
0.262500 0.737500 0.262500
0.325000 0.737500 0.262500
0.387500 0.737500 0.262500
0.450000 0.737500 0.262500
0.512500 0.737500 0.262500
0.575000 0.737500 0.262500
0.637500 0.737500 0.262500
0.700000 0.737500 0.262500
0.762500 0.737500 0.262500
0.825000 0.737500 0.262500
0.887500 0.737500 0.262500
0.950000 0.737500 0.262500
0.000000 0.800000 0.262500
0.012500 0.800000 0.262500
0.075000 0.800000 0.262500
0.137500 0.800000 0.262500
0.200000 0.800000 0.262500
0.262500 0.800000 0.262500
0.325000 0.800000 0.262500
0.387500 0.800000 0.262500
0.450000 0.800000 0.262500
0.512500 0.800000 0.262500
0.575000 0.800000 0.262500
0.637500 0.800000 0.262500
0.700000 0.800000 0.262500
0.762500 0.800000 0.262500
0.825000 0.800000 0.262500
0.887500 0.800000 0.262500
0.950000 0.800000 0.262500
0.000000 0.862500 0.262500
0.012500 0.862500 0.262500
0.075000 0.862500 0.262500
0.137500 0.862500 0.262500
0.200000 0.862500 0.262500
0.262500 0.862500 0.262500
0.325000 0.862500 0.262500
0.387500 0.862500 0.262500
0.450000 0.862500 0.262500
0.512500 0.862500 0.262500
0.575000 0.862500 0.262500
0.637500 0.862500 0.262500
0.700000 0.862500 0.262500
0.762500 0.862500 0.262500
0.825000 0.862500 0.262500
0.887500 0.862500 0.262500
0.950000 0.862500 0.262500
0.000000 0.925000 0.262500
0.012500 0.925000 0.262500
0.075000 0.925000 0.262500
0.137500 0.925000 0.262500
0.200000 0.925000 0.262500
0.262500 0.925000 0.262500
0.325000 0.925000 0.262500
0.387500 0.925000 0.262500
0.450000 0.925000 0.262500
0.512500 0.925000 0.262500
0.575000 0.925000 0.262500
0.637500 0.925000 0.262500
0.700000 0.925000 0.262500
0.762500 0.925000 0.262500
0.825000 0.925000 0.262500
0.887500 0.925000 0.262500
0.950000 0.925000 0.262500
0.000000 0.987500 0.262500
0.012500 0.987500 0.262500
0.075000 0.987500 0.262500
0.137500 0.987500 0.262500
0.200000 0.987500 0.262500
0.262500 0.987500 0.262500
0.325000 0.987500 0.262500
0.387500 0.987500 0.262500
0.450000 0.987500 0.262500
0.512500 0.987500 0.262500
0.575000 0.987500 0.262500
0.637500 0.987500 0.262500
0.700000 0.987500 0.262500
0.762500 0.987500 0.262500
0.825000 0.987500 0.262500
0.887500 0.987500 0.262500
0.950000 0.987500 0.262500
0.000000 1.000000 0.262500
0.012500 1.000000 0.262500
0.075000 1.000000 0.262500
0.137500 1.000000 0.262500
0.200000 1.000000 0.262500
0.262500 1.000000 0.262500
0.325000 1.000000 0.262500
0.387500 1.000000 0.262500
0.450000 1.000000 0.262500
0.512500 1.000000 0.262500
0.575000 1.000000 0.262500
0.637500 1.000000 0.262500
0.700000 1.000000 0.262500
0.762500 1.000000 0.262500
0.825000 1.000000 0.262500
0.887500 1.000000 0.262500
0.950000 1.000000 0.262500
0.000000 0.050000 0.325000
0.012500 0.050000 0.325000
0.075000 0.050000 0.325000
0.137500 0.050000 0.325000
0.200000 0.050000 0.325000
0.262500 0.050000 0.325000
0.325000 0.050000 0.325000
0.387500 0.050000 0.325000
0.450000 0.050000 0.325000
0.512500 0.050000 0.325000
0.575000 0.050000 0.325000
0.637500 0.050000 0.325000
0.700000 0.050000 0.325000
0.762500 0.050000 0.325000
0.825000 0.050000 0.325000
0.887500 0.050000 0.325000
0.950000 0.050000 0.325000
0.000000 0.112500 0.325000
0.012500 0.112500 0.325000
0.075000 0.112500 0.325000
0.137500 0.112500 0.325000
0.200000 0.112500 0.325000
0.262500 0.112500 0.325000
0.325000 0.112500 0.325000
0.387500 0.112500 0.325000
0.450000 0.112500 0.325000
0.512500 0.112500 0.325000
0.575000 0.112500 0.325000
0.637500 0.112500 0.325000
0.700000 0.112500 0.325000
0.762500 0.112500 0.325000
0.825000 0.112500 0.325000
0.887500 0.112500 0.325000
0.950000 0.112500 0.325000
0.000000 0.175000 0.325000
0.012500 0.175000 0.325000
0.075000 0.175000 0.325000
0.137500 0.175000 0.325000
0.200000 0.175000 0.325000
0.262500 0.175000 0.325000
0.325000 0.175000 0.325000
0.387500 0.175000 0.325000
0.450000 0.175000 0.325000
0.512500 0.175000 0.325000
0.575000 0.175000 0.325000
0.637500 0.175000 0.325000
0.700000 0.175000 0.325000
0.762500 0.175000 0.325000
0.825000 0.175000 0.325000
0.887500 0.175000 0.325000
0.950000 0.175000 0.325000
0.000000 0.237500 0.325000
0.012500 0.237500 0.325000
0.075000 0.237500 0.325000
0.137500 0.237500 0.325000
0.200000 0.237500 0.325000
0.262500 0.237500 0.325000
0.325000 0.237500 0.325000
0.387500 0.237500 0.325000
0.450000 0.237500 0.325000
0.512500 0.237500 0.325000
0.575000 0.237500 0.325000
0.637500 0.237500 0.325000
0.700000 0.237500 0.325000
0.762500 0.237500 0.325000
0.825000 0.237500 0.325000
0.887500 0.237500 0.325000
0.950000 0.237500 0.325000
0.000000 0.300000 0.325000
0.012500 0.300000 0.325000
0.075000 0.300000 0.325000
0.137500 0.300000 0.325000
0.200000 0.300000 0.325000
0.262500 0.300000 0.325000
0.325000 0.300000 0.325000
0.387500 0.300000 0.325000
0.450000 0.300000 0.325000
0.512500 0.300000 0.325000
0.575000 0.300000 0.325000
0.637500 0.300000 0.325000
0.700000 0.300000 0.325000
0.762500 0.300000 0.325000
0.825000 0.300000 0.325000
0.887500 0.300000 0.325000
0.950000 0.300000 0.325000
0.000000 0.362500 0.325000
0.012500 0.362500 0.325000
0.075000 0.362500 0.325000
0.137500 0.362500 0.325000
0.200000 0.362500 0.325000
0.262500 0.362500 0.325000
0.325000 0.362500 0.325000
0.387500 0.362500 0.325000
0.450000 0.362500 0.325000
0.512500 0.362500 0.325000
0.575000 0.362500 0.325000
0.637500 0.362500 0.325000
0.700000 0.362500 0.325000
0.762500 0.362500 0.325000
0.825000 0.362500 0.325000
0.887500 0.362500 0.325000
0.950000 0.362500 0.325000
0.000000 0.425000 0.325000
0.012500 0.425000 0.325000
0.075000 0.425000 0.325000
0.137500 0.425000 0.325000
0.200000 0.425000 0.325000
0.262500 0.425000 0.325000
0.325000 0.425000 0.325000
0.387500 0.425000 0.325000
0.450000 0.425000 0.325000
0.512500 0.425000 0.325000
0.575000 0.425000 0.325000
0.637500 0.425000 0.325000
0.700000 0.425000 0.325000
0.762500 0.425000 0.325000
0.825000 0.425000 0.325000
0.887500 0.425000 0.325000
0.950000 0.425000 0.325000
0.000000 0.487500 0.325000
0.012500 0.487500 0.325000
0.075000 0.487500 0.325000
0.137500 0.487500 0.325000
0.200000 0.487500 0.325000
0.262500 0.487500 0.325000
0.325000 0.487500 0.325000
0.387500 0.487500 0.325000
0.450000 0.487500 0.325000
0.512500 0.487500 0.325000
0.575000 0.487500 0.325000
0.637500 0.487500 0.325000
0.700000 0.487500 0.325000
0.762500 0.487500 0.325000
0.825000 0.487500 0.325000
0.887500 0.487500 0.325000
0.950000 0.487500 0.325000
0.000000 0.550000 0.325000
0.012500 0.550000 0.325000
0.075000 0.550000 0.325000
0.137500 0.550000 0.325000
0.200000 0.550000 0.325000
0.262500 0.550000 0.325000
0.325000 0.550000 0.325000
0.387500 0.550000 0.325000
0.450000 0.550000 0.325000
0.512500 0.550000 0.325000
0.575000 0.550000 0.325000
0.637500 0.550000 0.325000
0.700000 0.550000 0.325000
0.762500 0.550000 0.325000
0.825000 0.550000 0.325000
0.887500 0.550000 0.325000
0.950000 0.550000 0.325000
0.000000 0.612500 0.325000
0.012500 0.612500 0.325000
0.075000 0.612500 0.325000
0.137500 0.612500 0.325000
0.200000 0.612500 0.325000
0.262500 0.612500 0.325000
0.325000 0.612500 0.325000
0.387500 0.612500 0.325000
0.450000 0.612500 0.325000
0.512500 0.612500 0.325000
0.575000 0.612500 0.325000
0.637500 0.612500 0.325000
0.700000 0.612500 0.325000
0.762500 0.612500 0.325000
0.825000 0.612500 0.325000
0.887500 0.612500 0.325000
0.950000 0.612500 0.325000
0.000000 0.675000 0.325000
0.012500 0.675000 0.325000
0.075000 0.675000 0.325000
0.137500 0.675000 0.325000
0.200000 0.675000 0.325000
0.262500 0.675000 0.325000
0.325000 0.675000 0.325000
0.387500 0.675000 0.325000
0.450000 0.675000 0.325000
0.512500 0.675000 0.325000
0.575000 0.675000 0.325000
0.637500 0.675000 0.325000
0.700000 0.675000 0.325000
0.762500 0.675000 0.325000
0.825000 0.675000 0.325000
0.887500 0.675000 0.325000
0.950000 0.675000 0.325000
0.000000 0.737500 0.325000
0.012500 0.737500 0.325000
0.075000 0.737500 0.325000
0.137500 0.737500 0.325000
0.200000 0.737500 0.325000
0.262500 0.737500 0.325000
0.325000 0.737500 0.325000
0.387500 0.737500 0.325000
0.450000 0.737500 0.325000
0.512500 0.737500 0.325000
0.575000 0.737500 0.325000
0.637500 0.737500 0.325000
0.700000 0.737500 0.325000
0.762500 0.737500 0.325000
0.825000 0.737500 0.325000
0.887500 0.737500 0.325000
0.950000 0.737500 0.325000
0.000000 0.800000 0.325000
0.012500 0.800000 0.325000
0.075000 0.800000 0.325000
0.137500 0.800000 0.325000
0.200000 0.800000 0.325000
0.262500 0.800000 0.325000
0.325000 0.800000 0.325000
0.387500 0.800000 0.325000
0.450000 0.800000 0.325000
0.512500 0.800000 0.325000
0.575000 0.800000 0.325000
0.637500 0.800000 0.325000
0.700000 0.800000 0.325000
0.762500 0.800000 0.325000
0.825000 0.800000 0.325000
0.887500 0.800000 0.325000
0.950000 0.800000 0.325000
0.000000 0.862500 0.325000
0.012500 0.862500 0.325000
0.075000 0.862500 0.325000
0.137500 0.862500 0.325000
0.200000 0.862500 0.325000
0.262500 0.862500 0.325000
0.325000 0.862500 0.325000
0.387500 0.862500 0.325000
0.450000 0.862500 0.325000
0.512500 0.862500 0.325000
0.575000 0.862500 0.325000
0.637500 0.862500 0.325000
0.700000 0.862500 0.325000
0.762500 0.862500 0.325000
0.825000 0.862500 0.325000
0.887500 0.862500 0.325000
0.950000 0.862500 0.325000
0.000000 0.925000 0.325000
0.012500 0.925000 0.325000
0.075000 0.925000 0.325000
0.137500 0.925000 0.325000
0.200000 0.925000 0.325000
0.262500 0.925000 0.325000
0.325000 0.925000 0.325000
0.387500 0.925000 0.325000
0.450000 0.925000 0.325000
0.512500 0.925000 0.325000
0.575000 0.925000 0.325000
0.637500 0.925000 0.325000
0.700000 0.925000 0.325000
0.762500 0.925000 0.325000
0.825000 0.925000 0.325000
0.887500 0.925000 0.325000
0.950000 0.925000 0.325000
0.000000 0.987500 0.325000
0.012500 0.987500 0.325000
0.075000 0.987500 0.325000
0.137500 0.987500 0.325000
0.200000 0.987500 0.325000
0.262500 0.987500 0.325000
0.325000 0.987500 0.325000
0.387500 0.987500 0.325000
0.450000 0.987500 0.325000
0.512500 0.987500 0.325000
0.575000 0.987500 0.325000
0.637500 0.987500 0.325000
0.700000 0.987500 0.325000
0.762500 0.987500 0.325000
0.825000 0.987500 0.325000
0.887500 0.987500 0.325000
0.950000 0.987500 0.325000
0.000000 1.000000 0.325000
0.012500 1.000000 0.325000
0.075000 1.000000 0.325000
0.137500 1.000000 0.325000
0.200000 1.000000 0.325000
0.262500 1.000000 0.325000
0.325000 1.000000 0.325000
0.387500 1.000000 0.325000
0.450000 1.000000 0.325000
0.512500 1.000000 0.325000
0.575000 1.000000 0.325000
0.637500 1.000000 0.325000
0.700000 1.000000 0.325000
0.762500 1.000000 0.325000
0.825000 1.000000 0.325000
0.887500 1.000000 0.325000
0.950000 1.000000 0.325000
0.000000 0.050000 0.387500
0.012500 0.050000 0.387500
0.075000 0.050000 0.387500
0.137500 0.050000 0.387500
0.200000 0.050000 0.387500
0.262500 0.050000 0.387500
0.325000 0.050000 0.387500
0.387500 0.050000 0.387500
0.450000 0.050000 0.387500
0.512500 0.050000 0.387500
0.575000 0.050000 0.387500
0.637500 0.050000 0.387500
0.700000 0.050000 0.387500
0.762500 0.050000 0.387500
0.825000 0.050000 0.387500
0.887500 0.050000 0.387500
0.950000 0.050000 0.387500
0.000000 0.112500 0.387500
