ApexStudio/app/src/main/assets/luts/tropical_punch.cube
# ApexStudio filter: tropical_punch
LUT_3D_SIZE 17
DOMAIN_MIN 0.0 0.0 0.0
DOMAIN_MAX 1.0 1.0 1.0
0.000000 0.000000 0.000000
0.084406 0.000000 0.000000
0.168813 0.000000 0.000000
0.253219 0.000000 0.000000
0.337625 0.000000 0.000000
0.422031 0.000000 0.000000
0.506437 0.000000 0.000000
0.590844 0.000000 0.000000
0.675250 0.000000 0.000000
0.759656 0.000000 0.000000
0.844063 0.000000 0.000000
0.928469 0.000000 0.000000
1.000000 0.000000 0.000000
1.000000 0.000000 0.000000
1.000000 0.000000 0.000000
1.000000 0.000000 0.000000
1.000000 0.000000 0.000000
0.000000 0.075406 0.000000
0.066062 0.066062 0.000000
0.150469 0.056719 0.000000
0.234875 0.047375 0.000000
0.319281 0.038031 0.000000
0.403688 0.028688 0.000000
0.488094 0.019344 0.000000
0.572500 0.010000 0.000000
0.656906 0.000656 0.000000
0.741313 0.000000 0.000000
0.825719 0.000000 0.000000
0.910125 0.000000 0.000000
0.994531 0.000000 0.000000
1.000000 0.000000 0.000000
1.000000 0.000000 0.000000
1.000000 0.000000 0.000000
1.000000 0.000000 0.000000
0.000000 0.150813 0.000000
0.047719 0.141469 0.000000
0.132125 0.132125 0.000000
0.216531 0.122781 0.000000
0.300937 0.113437 0.000000
0.385344 0.104094 0.000000
0.469750 0.094750 0.000000
0.554156 0.085406 0.000000
0.638562 0.076063 0.000000
0.722969 0.066719 0.000000
0.807375 0.057375 0.000000
0.891781 0.048031 0.000000
0.976187 0.038687 0.000000
1.000000 0.029344 0.000000
1.000000 0.020000 0.000000
1.000000 0.010656 0.000000
1.000000 0.001312 0.000000
0.000000 0.226219 0.000000
0.029375 0.216875 0.000000
0.113781 0.207531 0.000000
0.198188 0.198188 0.000000
0.282594 0.188844 0.000000
0.367000 0.179500 0.000000
0.451406 0.170156 0.000000
0.535813 0.160812 0.000000
0.620219 0.151469 0.000000
0.704625 0.142125 0.000000
0.789031 0.132781 0.000000
0.873438 0.123438 0.000000
0.957844 0.114094 0.000000
1.000000 0.104750 0.000000
1.000000 0.095406 0.000000
1.000000 0.086062 0.000000
1.000000 0.076719 0.000000
0.000000 0.301625 0.000000
0.011031 0.292281 0.000000
0.095438 0.282938 0.000000
0.179844 0.273594 0.000000
0.264250 0.264250 0.000000
0.348656 0.254906 0.000000
0.433063 0.245563 0.000000
0.517469 0.236219 0.000000
0.601875 0.226875 0.000000
0.686281 0.217531 0.000000
0.770687 0.208188 0.000000
0.855094 0.198844 0.000000
0.939500 0.189500 0.000000
1.000000 0.180156 0.000000
1.000000 0.170813 0.000000
1.000000 0.161469 0.000000
1.000000 0.152125 0.000000
0.000000 0.377031 0.000000
0.000000 0.367688 0.000000
0.077094 0.358344 0.000000
0.161500 0.349000 0.000000
0.245906 0.339656 0.000000
0.330313 0.330313 0.000000
0.414719 0.320969 0.000000
0.499125 0.311625 0.000000
0.583531 0.302281 0.000000
0.667938 0.292938 0.000000
0.752344 0.283594 0.000000
0.836750 0.274250 0.000000
0.921156 0.264906 0.000000
1.000000 0.255563 0.000000
1.000000 0.246219 0.000000
1.000000 0.236875 0.000000
1.000000 0.227531 0.000000
0.000000 0.452438 0.000000
0.000000 0.443094 0.000000
0.058750 0.433750 0.000000
0.143156 0.424406 0.000000
0.227563 0.415063 0.000000
0.311969 0.405719 0.000000
0.396375 0.396375 0.000000
0.480781 0.387031 0.000000
0.565187 0.377688 0.000000
0.649594 0.368344 0.000000
0.734000 0.359000 0.000000
0.818406 0.349656 0.000000
0.902813 0.340313 0.000000
0.987219 0.330969 0.000000
1.000000 0.321625 0.000000
1.000000 0.312281 0.000000
1.000000 0.302938 0.000000
0.000000 0.527844 0.000000
0.000000 0.518500 0.000000
0.040406 0.509156 0.000000
0.124812 0.499812 0.000000
0.209219 0.490469 0.000000
0.293625 0.481125 0.000000
0.378031 0.471781 0.000000
0.462438 0.462438 0.000000
0.546844 0.453094 0.000000
0.631250 0.443750 0.000000
0.715656 0.434406 0.000000
0.800063 0.425063 0.000000
0.884469 0.415719 0.000000
0.968875 0.406375 0.000000
1.000000 0.397031 0.000000
1.000000 0.387688 0.000000
1.000000 0.378344 0.000000
0.000000 0.603250 0.000000
0.000000 0.593906 0.000000
0.022063 0.584563 0.000000
0.106469 0.575219 0.000000
0.190875 0.565875 0.000000
0.275281 0.556531 0.000000
0.359687 0.547187 0.000000
0.444094 0.537844 0.000000
0.528500 0.528500 0.000000
0.612906 0.519156 0.000000
0.697313 0.509813 0.000000
0.781719 0.500469 0.000000
0.866125 0.491125 0.000000
0.950531 0.481781 0.000000
1.000000 0.472438 0.000000
1.000000 0.463094 0.000000
1.000000 0.453750 0.000000
0.000000 0.678656 0.000000
0.000000 0.669312 0.000000
0.003719 0.659969 0.000000
0.088125 0.650625 0.000000
0.172531 0.641281 0.000000
0.256938 0.631938 0.000000
0.341344 0.622594 0.000000
0.425750 0.613250 0.000000
0.510156 0.603906 0.000000
0.594562 0.594562 0.000000
0.678969 0.585219 0.000000
0.763375 0.575875 0.000000
0.847781 0.566531 0.000000
0.932187 0.557187 0.000000
1.000000 0.547844 0.000000
1.000000 0.538500 0.000000
1.000000 0.529156 0.000000
0.000000 0.754063 0.000000
0.000000 0.744719 0.000000
0.000000 0.735375 0.000000
0.069781 0.726031 0.000000
0.154188 0.716688 0.000000
0.238594 0.707344 0.000000
0.323000 0.698000 0.000000
0.407406 0.688656 0.000000
0.491813 0.679312 0.000000
0.576219 0.669969 0.000000
0.660625 0.660625 0.000000
0.745031 0.651281 0.000000
0.829438 0.641938 0.000000
0.913844 0.632594 0.000000
0.998250 0.623250 0.000000
1.000000 0.613906 0.000000
1.000000 0.604563 0.000000
0.000000 0.829469 0.000000
0.000000 0.820125 0.000000
0.000000 0.810781 0.000000
0.051437 0.801438 0.000000
0.135844 0.792094 0.000000
0.220250 0.782750 0.000000
0.304656 0.773406 0.000000
0.389062 0.764062 0.000000
0.473469 0.754719 0.000000
0.557875 0.745375 0.000000
0.642281 0.736031 0.000000
0.726688 0.726688 0.000000
0.811094 0.717344 0.000000
0.895500 0.708000 0.000000
0.979906 0.698656 0.000000
1.000000 0.689312 0.000000
1.000000 0.679969 0.000000
0.000000 0.904875 0.000000
0.000000 0.895531 0.000000
0.000000 0.886188 0.000000
0.033094 0.876844 0.000000
0.117500 0.867500 0.000000
0.201906 0.858156 0.000000
0.286313 0.848812 0.000000
0.370719 0.839469 0.000000
0.455125 0.830125 0.000000
0.539531 0.820781 0.000000
0.623938 0.811438 0.000000
0.708344 0.802094 0.000000
0.792750 0.792750 0.000000
0.877156 0.783406 0.000000
0.961562 0.774062 0.000000
1.000000 0.764719 0.000000
1.000000 0.755375 0.000000
0.000000 0.980281 0.000000
0.000000 0.970938 0.000000
0.000000 0.961594 0.000000
0.014750 0.952250 0.000000
0.099156 0.942906 0.000000
0.183563 0.933563 0.000000
0.267969 0.924219 0.000000
0.352375 0.914875 0.000000
0.436781 0.905531 0.000000
0.521188 0.896188 0.000000
0.605594 0.886844 0.000000
0.690000 0.877500 0.000000
0.774406 0.868156 0.000000
0.858812 0.858812 0.000000
0.943219 0.849469 0.000000
1.000000 0.840125 0.000000
1.000000 0.830781 0.000000
0.000000 1.000000 0.000000
0.000000 1.000000 0.000000
0.000000 1.000000 0.000000
0.000000 1.000000 0.000000
0.080813 1.000000 0.000000
0.165219 1.000000 0.000000
0.249625 0.999625 0.000000
0.334031 0.990281 0.000000
0.418438 0.980938 0.000000
0.502844 0.971594 0.000000
0.587250 0.962250 0.000000
0.671656 0.952906 0.000000
0.756062 0.943562 0.000000
0.840469 0.934219 0.000000
0.924875 0.924875 0.000000
1.000000 0.915531 0.000000
1.000000 0.906188 0.000000
0.000000 1.000000 0.000000
0.000000 1.000000 0.000000
0.000000 1.000000 0.000000
0.000000 1.000000 0.000000
0.062469 1.000000 0.000000
0.146875 1.000000 0.000000
0.231281 1.000000 0.000000
0.315688 1.000000 0.000000
0.400094 1.000000 0.000000
0.484500 1.000000 0.000000
0.568906 1.000000 0.000000
0.653312 1.000000 0.000000
0.737719 1.000000 0.000000
0.822125 1.000000 0.000000
0.906531 1.000000 0.000000
0.990938 0.990938 0.000000
1.000000 0.981594 0.000000
0.000000 1.000000 0.000000
0.000000 1.000000 0.000000
0.000000 1.000000 0.000000
0.000000 1.000000 0.000000
0.044125 1.000000 0.000000
0.128531 1.000000 0.000000
0.212938 1.000000 0.000000
0.297344 1.000000 0.000000
0.381750 1.000000 0.000000
0.466156 1.000000 0.000000
0.550563 1.000000 0.000000
0.634969 1.000000 0.000000
0.719375 1.000000 0.000000
0.803781 1.000000 0.000000
0.888188 1.000000 0.000000
0.972594 1.000000 0.000000
1.000000 1.000000 0.000000
0.000000 0.000000 0.090188
0.080844 0.000000 0.080844
0.165250 0.000000 0.071500
0.249656 0.000000 0.062156
0.334063 0.000000 0.052812
0.418469 0.000000 0.043469
0.502875 0.000000 0.034125
0.587281 0.000000 0.024781
0.671687 0.000000 0.015438
0.756094 0.000000 0.006094
0.840500 0.000000 0.000000
0.924906 0.000000 0.000000
1.000000 0.000000 0.000000
1.000000 0.000000 0.000000
1.000000 0.000000 0.000000
1.000000 0.000000 0.000000
1.000000 0.000000 0.000000
0.000000 0.071844 0.071844
0.062500 0.062500 0.062500
0.146906 0.053156 0.053156
0.231312 0.043812 0.043812
0.315719 0.034469 0.034469
0.400125 0.025125 0.025125
0.484531 0.015781 0.015781
0.568938 0.006438 0.006438
0.653344 0.000000 0.000000
0.737750 0.000000 0.000000
0.822156 0.000000 0.000000
0.906562 0.000000 0.000000
0.990969 0.000000 0.000000
1.000000 0.000000 0.000000
1.000000 0.000000 0.000000
1.000000 0.000000 0.000000
1.000000 0.000000 0.000000
0.000000 0.147250 0.053500
0.044156 0.137906 0.044156
0.128562 0.128562 0.034813
0.212969 0.119219 0.025469
0.297375 0.109875 0.016125
0.381781 0.100531 0.006781
0.466188 0.091188 0.000000
0.550594 0.081844 0.000000
0.635000 0.072500 0.000000
0.719406 0.063156 0.000000
0.803813 0.053813 0.000000
0.888219 0.044469 0.000000
0.972625 0.035125 0.000000
1.000000 0.025781 0.000000
1.000000 0.016438 0.000000
1.000000 0.007094 0.000000
1.000000 0.000000 0.000000
0.000000 0.222656 0.035156
0.025813 0.213313 0.025813
0.110219 0.203969 0.016469
0.194625 0.194625 0.007125
0.279031 0.185281 0.000000
0.363437 0.175938 0.000000
0.447844 0.166594 0.000000
0.532250 0.157250 0.000000
0.616656 0.147906 0.000000
0.701062 0.138563 0.000000
0.785469 0.129219 0.000000
0.869875 0.119875 0.000000
0.954281 0.110531 0.000000
1.000000 0.101188 0.000000
1.000000 0.091844 0.000000
1.000000 0.082500 0.000000
1.000000 0.073156 0.000000
0.000000 0.298063 0.016813
0.007469 0.288719 0.007469
0.091875 0.279375 0.000000
0.176281 0.270031 0.000000
0.260688 0.260688 0.000000
0.345094 0.251344 0.000000
0.429500 0.242000 0.000000
0.513906 0.232656 0.000000
0.598313 0.223312 0.000000
0.682719 0.213969 0.000000
0.767125 0.204625 0.000000
0.851531 0.195281 0.000000
0.935938 0.185938 0.000000
1.000000 0.176594 0.000000
1.000000 0.167250 0.000000
1.000000 0.157906 0.000000
1.000000 0.148562 0.000000
0.000000 0.373469 0.000000
0.000000 0.364125 0.000000
0.073531 0.354781 0.000000
0.157938 0.345438 0.000000
0.242344 0.336094 0.000000
0.326750 0.326750 0.000000
0.411156 0.317406 0.000000
0.495563 0.308063 0.000000
0.579969 0.298719 0.000000
0.664375 0.289375 0.000000
0.748781 0.280031 0.000000
0.833187 0.270688 0.000000
0.917594 0.261344 0.000000
1.000000 0.252000 0.000000
1.000000 0.242656 0.000000
1.000000 0.233313 0.000000
1.000000 0.223969 0.000000
0.000000 0.448875 0.000000
0.000000 0.439531 0.000000
0.055188 0.430188 0.000000
0.139594 0.420844 0.000000
0.224000 0.411500 0.000000
0.308406 0.402156 0.000000
0.392813 0.392813 0.000000
0.477219 0.383469 0.000000
0.561625 0.374125 0.000000
0.646031 0.364781 0.000000
0.730438 0.355438 0.000000
0.814844 0.346094 0.000000
0.899250 0.336750 0.000000
0.983656 0.327406 0.000000
1.000000 0.318063 0.000000
1.000000 0.308719 0.000000
1.000000 0.299375 0.000000
0.000000 0.524281 0.000000
0.000000 0.514938 0.000000
0.036844 0.505594 0.000000
0.121250 0.496250 0.000000
0.205656 0.486906 0.000000
0.290063 0.477563 0.000000
0.374469 0.468219 0.000000
0.458875 0.458875 0.000000
0.543281 0.449531 0.000000
0.627687 0.440188 0.000000
0.712094 0.430844 0.000000
0.796500 0.421500 0.000000
0.880906 0.412156 0.000000
0.965313 0.402812 0.000000
1.000000 0.393469 0.000000
1.000000 0.384125 0.000000
1.000000 0.374781 0.000000
0.000000 0.599687 0.000000
0.000000 0.590344 0.000000
0.018500 0.581000 0.000000
0.102906 0.571656 0.000000
0.187313 0.562312 0.000000
0.271719 0.552969 0.000000
0.356125 0.543625 0.000000
0.440531 0.534281 0.000000
0.524938 0.524938 0.000000
0.609344 0.515594 0.000000
0.693750 0.506250 0.000000
0.778156 0.496906 0.000000
0.862563 0.487563 0.000000
0.946969 0.478219 0.000000
1.000000 0.468875 0.000000
1.000000 0.459531 0.000000
1.000000 0.450187 0.000000
0.000000 0.675094 0.000000
0.000000 0.665750 0.000000
0.000156 0.656406 0.000000
0.084563 0.647063 0.000000
0.168969 0.637719 0.000000
0.253375 0.628375 0.000000
0.337781 0.619031 0.000000
0.422188 0.609688 0.000000
0.506594 0.600344 0.000000
0.591000 0.591000 0.000000
0.675406 0.581656 0.000000
0.759813 0.572313 0.000000
0.844219 0.562969 0.000000
0.928625 0.553625 0.000000
1.000000 0.544281 0.000000
1.000000 0.534938 0.000000
1.000000 0.525594 0.000000
0.000000 0.750500 0.000000
0.000000 0.741156 0.000000
0.000000 0.731812 0.000000
0.066219 0.722469 0.000000
0.150625 0.713125 0.000000
0.235031 0.703781 0.000000
0.319438 0.694438 0.000000
0.403844 0.685094 0.000000
0.488250 0.675750 0.000000
0.572656 0.666406 0.000000
0.657062 0.657062 0.000000
0.741469 0.647719 0.000000
0.825875 0.638375 0.000000
0.910281 0.629031 0.000000
0.994687 0.619687 0.000000
1.000000 0.610344 0.000000
1.000000 0.601000 0.000000
0.000000 0.825906 0.000000
0.000000 0.816563 0.000000
0.000000 0.807219 0.000000
0.047875 0.797875 0.000000
0.132281 0.788531 0.000000
0.216687 0.779187 0.000000
0.301094 0.769844 0.000000
0.385500 0.760500 0.000000
0.469906 0.751156 0.000000
0.554312 0.741812 0.000000
0.638719 0.732469 0.000000
0.723125 0.723125 0.000000
0.807531 0.713781 0.000000
0.891938 0.704438 0.000000
0.976344 0.695094 0.000000
1.000000 0.685750 0.000000
1.000000 0.676406 0.000000
0.000000 0.901312 0.000000
0.000000 0.891969 0.000000
0.000000 0.882625 0.000000
0.029531 0.873281 0.000000
0.113937 0.863938 0.000000
0.198344 0.854594 0.000000
0.282750 0.845250 0.000000
0.367156 0.835906 0.000000
0.451562 0.826562 0.000000
0.535969 0.817219 0.000000
0.620375 0.807875 0.000000
0.704781 0.798531 0.000000
0.789187 0.789187 0.000000
0.873594 0.779844 0.000000
0.958000 0.770500 0.000000
1.000000 0.761156 0.000000
1.000000 0.751812 0.000000
0.000000 0.976719 0.000000
0.000000 0.967375 0.000000
0.000000 0.958031 0.000000
0.011188 0.948688 0.000000
0.095594 0.939344 0.000000
0.180000 0.930000 0.000000
0.264406 0.920656 0.000000
0.348812 0.911312 0.000000
0.433219 0.901969 0.000000
0.517625 0.892625 0.000000
0.602031 0.883281 0.000000
0.686438 0.873938 0.000000
0.770844 0.864594 0.000000
0.855250 0.855250 0.000000
0.939656 0.845906 0.000000
1.000000 0.836562 0.000000
1.000000 0.827219 0.000000
0.000000 1.000000 0.000000
0.000000 1.000000 0.000000
0.000000 1.000000 0.000000
0.000000 1.000000 0.000000
0.077250 1.000000 0.000000
0.161656 1.000000 0.000000
0.246062 0.996062 0.000000
0.330469 0.986719 0.000000
0.414875 0.977375 0.000000
0.499281 0.968031 0.000000
0.583687 0.958687 0.000000
0.668094 0.949344 0.000000
0.752500 0.940000 0.000000
0.836906 0.930656 0.000000
0.921312 0.921312 0.000000
1.000000 0.911969 0.000000
1.000000 0.902625 0.000000
0.000000 1.000000 0.000000
0.000000 1.000000 0.000000
0.000000 1.000000 0.000000
0.000000 1.000000 0.000000
0.058906 1.000000 0.000000
0.143313 1.000000 0.000000
0.227719 1.000000 0.000000
0.312125 1.000000 0.000000
0.396531 1.000000 0.000000
0.480938 1.000000 0.000000
0.565344 1.000000 0.000000
0.649750 1.000000 0.000000
0.734156 1.000000 0.000000
0.818562 1.000000 0.000000
0.902969 0.996719 0.000000
0.987375 0.987375 0.000000
1.000000 0.978031 0.000000
0.000000 1.000000 0.000000
0.000000 1.000000 0.000000
0.000000 1.000000 0.000000
0.000000 1.000000 0.000000
0.040562 1.000000 0.000000
0.124969 1.000000 0.000000
0.209375 1.000000 0.000000
0.293781 1.000000 0.000000
0.378188 1.000000 0.000000
0.462594 1.000000 0.000000
0.547000 1.000000 0.000000
0.631406 1.000000 0.000000
0.715812 1.000000 0.000000
0.800219 1.000000 0.000000
0.884625 1.000000 0.000000
0.969031 1.000000 0.000000
1.000000 1.000000 0.000000
0.000000 0.000000 0.180375
0.077281 0.000000 0.171031
0.161687 0.000000 0.161687
0.246094 0.000000 0.152344
0.330500 0.000000 0.143000
0.414906 0.000000 0.133656
0.499312 0.000000 0.124312
0.583719 0.000000 0.114969
0.668125 0.000000 0.105625
0.752531 0.000000 0.096281
0.836938 0.000000 0.086938
0.921344 0.000000 0.077594
1.000000 0.000000 0.068250
1.000000 0.000000 0.058906
1.000000 0.000000 0.049563
1.000000 0.000000 0.040219
1.000000 0.000000 0.030875
0.000000 0.068281 0.162031
0.058938 0.058938 0.152688
0.143344 0.049594 0.143344
0.227750 0.040250 0.134000
0.312156 0.030906 0.124656
0.396563 0.021562 0.115312
0.480969 0.012219 0.105969
0.565375 0.002875 0.096625
0.649781 0.000000 0.087281
0.734187 0.000000 0.077938
0.818594 0.000000 0.068594
0.903000 0.000000 0.059250
0.987406 0.000000 0.049906
1.000000 0.000000 0.040563
1.000000 0.000000 0.031219
1.000000 0.000000 0.021875
1.000000 0.000000 0.012531
0.000000 0.143687 0.143687
0.040594 0.134344 0.134344
0.125000 0.125000 0.125000
0.209406 0.115656 0.115656
0.293813 0.106312 0.106312
0.378219 0.096969 0.096969
0.462625 0.087625 0.087625
0.547031 0.078281 0.078281
0.631437 0.068938 0.068938
0.715844 0.059594 0.059594
0.800250 0.050250 0.050250
0.884656 0.040906 0.040906
0.969063 0.031562 0.031562
1.000000 0.022219 0.022219
1.000000 0.012875 0.012875
1.000000 0.003531 0.003531
1.000000 0.000000 0.000000
0.000000 0.219094 0.125344
0.022250 0.209750 0.116000
0.106656 0.200406 0.106656
0.191062 0.191062 0.097312
0.275469 0.181719 0.087969
0.359875 0.172375 0.078625
0.444281 0.163031 0.069281
0.528687 0.153688 0.059938
0.613094 0.144344 0.050594
0.697500 0.135000 0.041250
0.781906 0.125656 0.031906
0.866313 0.116313 0.022562
0.950719 0.106969 0.013219
1.000000 0.097625 0.003875
1.000000 0.088281 0.000000
1.000000 0.078938 0.000000
1.000000 0.069594 0.000000
0.000000 0.294500 0.107000
0.003906 0.285156 0.097656
0.088313 0.275813 0.088313
0.172719 0.266469 0.078969
0.257125 0.257125 0.069625
0.341531 0.247781 0.060281
0.425938 0.238438 0.050938
0.510344 0.229094 0.041594
0.594750 0.219750 0.032250
0.679156 0.210406 0.022906
0.763563 0.201063 0.013563
0.847969 0.191719 0.004219
0.932375 0.182375 0.000000
1.000000 0.173031 0.000000
1.000000 0.163688 0.000000
1.000000 0.154344 0.000000
1.000000 0.145000 0.000000
0.000000 0.369906 0.088656
0.000000 0.360563 0.079313
0.069969 0.351219 0.069969
0.154375 0.341875 0.060625
0.238781 0.332531 0.051281
0.323188 0.323188 0.041938
0.407594 0.313844 0.032594
0.492000 0.304500 0.023250
0.576406 0.295156 0.013906
0.660813 0.285813 0.004563
0.745219 0.276469 0.000000
0.829625 0.267125 0.000000
0.914031 0.257781 0.000000
0.998437 0.248438 0.000000
1.000000 0.239094 0.000000
1.000000 0.229750 0.000000
1.000000 0.220406 0.000000
0.000000 0.445312 0.070312
0.000000 0.435969 0.060969
0.051625 0.426625 0.051625
0.136031 0.417281 0.042281
0.220438 0.407938 0.032938
0.304844 0.398594 0.023594
0.389250 0.389250 0.014250
0.473656 0.379906 0.004906
0.558063 0.370563 0.000000
0.642469 0.361219 0.000000
0.726875 0.351875 0.000000
0.811281 0.342531 0.000000
0.895687 0.333188 0.000000
0.980094 0.323844 0.000000
1.000000 0.314500 0.000000
1.000000 0.305156 0.000000
1.000000 0.295813 0.000000
0.000000 0.520719 0.051969
0.000000 0.511375 0.042625
0.033281 0.502031 0.033281
0.117688 0.492688 0.023938
0.202094 0.483344 0.014594
0.286500 0.474000 0.005250
0.370906 0.464656 0.000000
0.455313 0.455313 0.000000
0.539719 0.445969 0.000000
0.624125 0.436625 0.000000
0.708531 0.427281 0.000000
0.792938 0.417938 0.000000
0.877344 0.408594 0.000000
0.961750 0.399250 0.000000
1.000000 0.389906 0.000000
1.000000 0.380563 0.000000
1.000000 0.371219 0.000000
0.000000 0.596125 0.033625
0.000000 0.586781 0.024281
0.014937 0.577438 0.014937
0.099344 0.568094 0.005594
0.183750 0.558750 0.000000
0.268156 0.549406 0.000000
0.352563 0.540063 0.000000
0.436969 0.530719 0.000000
0.521375 0.521375 0.000000
0.605781 0.512031 0.000000
0.690187 0.502687 0.000000
0.774594 0.493344 0.000000
0.859000 0.484000 0.000000
0.943406 0.474656 0.000000
1.000000 0.465313 0.000000
1.000000 0.455969 0.000000
1.000000 0.446625 0.000000
0.000000 0.671531 0.015281
0.000000 0.662187 0.005937
0.000000 0.652844 0.000000
0.081000 0.643500 0.000000
0.165406 0.634156 0.000000
0.249813 0.624812 0.000000
0.334219 0.615469 0.000000
0.418625 0.606125 0.000000
0.503031 0.596781 0.000000
0.587438 0.587438 0.000000
0.671844 0.578094 0.000000
0.756250 0.568750 0.000000
0.840656 0.559406 0.000000
0.925063 0.550063 0.000000
1.000000 0.540719 0.000000
1.000000 0.531375 0.000000
1.000000 0.522031 0.000000
0.000000 0.746938 0.000000
0.000000 0.737594 0.000000
0.000000 0.728250 0.000000
0.062656 0.718906 0.000000
0.147063 0.709563 0.000000
0.231469 0.700219 0.000000
0.315875 0.690875 0.000000
0.400281 0.681531 0.000000
0.484688 0.672188 0.000000
0.569094 0.662844 0.000000
0.653500 0.653500 0.000000
0.737906 0.644156 0.000000
0.822313 0.634813 0.000000
0.906719 0.625469 0.000000
0.991125 0.616125 0.000000
1.000000 0.606781 0.000000
1.000000 0.597438 0.000000
0.000000 0.822344 0.000000
0.000000 0.813000 0.000000
0.000000 0.803656 0.000000
0.044313 0.794312 0.000000
0.128719 0.784969 0.000000
0.213125 0.775625 0.000000
0.297531 0.766281 0.000000
0.381937 0.756938 0.000000
0.466344 0.747594 0.000000
0.550750 0.738250 0.000000
0.635156 0.728906 0.000000
0.719563 0.719563 0.000000
0.803969 0.710219 0.000000
0.888375 0.700875 0.000000
0.972781 0.691531 0.000000
1.000000 0.682187 0.000000
1.000000 0.672844 0.000000
0.000000 0.897750 0.000000
0.000000 0.888406 0.000000
0.000000 0.879063 0.000000
0.025969 0.869719 0.000000
0.110375 0.860375 0.000000
0.194781 0.851031 0.000000
0.279188 0.841688 0.000000
0.363594 0.832344 0.000000
0.448000 0.823000 0.000000
0.532406 0.813656 0.000000
0.616812 0.804312 0.000000
0.701219 0.794969 0.000000
0.785625 0.785625 0.000000
0.870031 0.776281 0.000000
0.954438 0.766938 0.000000
1.000000 0.757594 0.000000
1.000000 0.748250 0.000000
0.000000 0.973156 0.000000
0.000000 0.963812 0.000000
0.000000 0.954469 0.000000
0.007625 0.945125 0.000000
0.092031 0.935781 0.000000
0.176438 0.926438 0.000000
0.260844 0.917094 0.000000
0.345250 0.907750 0.000000
0.429656 0.898406 0.000000
0.514063 0.889063 0.000000
0.598469 0.879719 0.000000
0.682875 0.870375 0.000000
0.767281 0.861031 0.000000
0.851688 0.851688 0.000000
0.936094 0.842344 0.000000
1.000000 0.833000 0.000000
1.000000 0.823656 0.000000
0.000000 1.000000 0.000000
0.000000 1.000000 0.000000
0.000000 1.000000 0.000000
0.000000 1.000000 0.000000
0.073688 1.000000 0.000000
0.158094 1.000000 0.000000
0.242500 0.992500 0.000000
0.326906 0.983156 0.000000
0.411313 0.973812 0.000000
0.495719 0.964469 0.000000
0.580125 0.955125 0.000000
0.664531 0.945781 0.000000
0.748938 0.936438 0.000000
0.833344 0.927094 0.000000
0.917750 0.917750 0.000000
1.000000 0.908406 0.000000
1.000000 0.899063 0.000000
0.000000 1.000000 0.000000
0.000000 1.000000 0.000000
0.000000 1.000000 0.000000
0.000000 1.000000 0.000000
0.055344 1.000000 0.000000
0.139750 1.000000 0.000000
0.224156 1.000000 0.000000
0.308563 1.000000 0.000000
0.392969 1.000000 0.000000
0.477375 1.000000 0.000000
0.561781 1.000000 0.000000
0.646188 1.000000 0.000000
0.730594 1.000000 0.000000
0.815000 1.000000 0.000000
0.899406 0.993156 0.000000
0.983812 0.983812 0.000000
1.000000 0.974469 0.000000
0.000000 1.000000 0.000000
0.000000 1.000000 0.000000
0.000000 1.000000 0.000000
0.000000 1.000000 0.000000
0.037000 1.000000 0.000000
0.121406 1.000000 0.000000
0.205813 1.000000 0.000000
0.290219 1.000000 0.000000
0.374625 1.000000 0.000000
0.459031 1.000000 0.000000
0.543438 1.000000 0.000000
0.627844 1.000000 0.000000
0.712250 1.000000 0.000000
0.796656 1.000000 0.000000
0.881063 1.000000 0.000000
0.965469 1.000000 0.000000
1.000000 1.000000 0.000000
0.000000 0.000000 0.270562
0.073719 0.000000 0.261219
0.158125 0.000000 0.251875
0.242531 0.000000 0.242531
0.326937 0.000000 0.233187
0.411344 0.000000 0.223844
0.495750 0.000000 0.214500
0.580156 0.000000 0.205156
0.664562 0.000000 0.195813
0.748969 0.000000 0.186469
0.833375 0.000000 0.177125
0.917781 0.000000 0.167781
1.000000 0.000000 0.158438
1.000000 0.000000 0.149094
1.000000 0.000000 0.139750
1.000000 0.000000 0.130406
1.000000 0.000000 0.121063
0.000000 0.064719 0.252219
