ApexStudio/app/src/main/assets/luts/tropical_punch.cube
# ApexStudio filter: tropical_punch
LUT_3D_SIZE 9
DOMAIN_MIN 0.0 0.0 0.0
DOMAIN_MAX 1.0 1.0 1.0
0.000000 0.000000 0.000000
0.168813 0.000000 0.000000
0.337625 0.000000 0.000000
0.506437 0.000000 0.000000
0.675250 0.000000 0.000000
0.844063 0.000000 0.000000
1.000000 0.000000 0.000000
1.000000 0.000000 0.000000
1.000000 0.000000 0.000000
0.000000 0.150813 0.000000
0.132125 0.132125 0.000000
0.300937 0.113437 0.000000
0.469750 0.094750 0.000000
0.638562 0.076063 0.000000
0.807375 0.057375 0.000000
0.976187 0.038687 0.000000
1.000000 0.020000 0.000000
1.000000 0.001312 0.000000
0.000000 0.301625 0.000000
0.095438 0.282938 0.000000
0.264250 0.264250 0.000000
0.433063 0.245563 0.000000
0.601875 0.226875 0.000000
0.770687 0.208188 0.000000
0.939500 0.189500 0.000000
1.000000 0.170813 0.000000
1.000000 0.152125 0.000000
0.000000 0.452438 0.000000
0.058750 0.433750 0.000000
0.227563 0.415063 0.000000
0.396375 0.396375 0.000000
0.565187 0.377688 0.000000
0.734000 0.359000 0.000000
0.902813 0.340313 0.000000
1.000000 0.321625 0.000000
1.000000 0.302938 0.000000
0.000000 0.603250 0.000000
0.022063 0.584563 0.000000
0.190875 0.565875 0.000000
0.359687 0.547187 0.000000
0.528500 0.528500 0.000000
0.697313 0.509813 0.000000
0.866125 0.491125 0.000000
1.000000 0.472438 0.000000
1.000000 0.453750 0.000000
0.000000 0.754063 0.000000
0.000000 0.735375 0.000000
0.154188 0.716688 0.000000
0.323000 0.698000 0.000000
0.491813 0.679312 0.000000
0.660625 0.660625 0.000000
0.829438 0.641938 0.000000
0.998250 0.623250 0.000000
1.000000 0.604563 0.000000
0.000000 0.904875 0.000000
0.000000 0.886188 0.000000
0.117500 0.867500 0.000000
0.286313 0.848812 0.000000
0.455125 0.830125 0.000000
0.623938 0.811438 0.000000
0.792750 0.792750 0.000000
0.961562 0.774062 0.000000
1.000000 0.755375 0.000000
0.000000 1.000000 0.000000
0.000000 1.000000 0.000000
0.080813 1.000000 0.000000
0.249625 0.999625 0.000000
0.418438 0.980938 0.000000
0.587250 0.962250 0.000000
0.756062 0.943562 0.000000
0.924875 0.924875 0.000000
1.000000 0.906188 0.000000
0.000000 1.000000 0.000000
0.000000 1.000000 0.000000
0.044125 1.000000 0.000000
0.212938 1.000000 0.000000
0.381750 1.000000 0.000000
0.550563 1.000000 0.000000
0.719375 1.000000 0.000000
0.888188 1.000000 0.000000
1.000000 1.000000 0.000000
0.000000 0.000000 0.180375
0.161687 0.000000 0.161687
0.330500 0.000000 0.143000
0.499312 0.000000 0.124312
0.668125 0.000000 0.105625
0.836938 0.000000 0.086938
1.000000 0.000000 0.068250
1.000000 0.000000 0.049563
1.000000 0.000000 0.030875
0.000000 0.143687 0.143687
0.125000 0.125000 0.125000
0.293813 0.106312 0.106312
0.462625 0.087625 0.087625
0.631437 0.068938 0.068938
0.800250 0.050250 0.050250
0.969063 0.031562 0.031562
1.000000 0.012875 0.012875
1.000000 0.000000 0.000000
0.000000 0.294500 0.107000
0.088313 0.275813 0.088313
0.257125 0.257125 0.069625
0.425938 0.238438 0.050938
0.594750 0.219750 0.032250
0.763563 0.201063 0.013563
0.932375 0.182375 0.000000
1.000000 0.163688 0.000000
1.000000 0.145000 0.000000
0.000000 0.445312 0.070312
0.051625 0.426625 0.051625
0.220438 0.407938 0.032938
0.389250 0.389250 0.014250
0.558063 0.370563 0.000000
0.726875 0.351875 0.000000
0.895687 0.333188 0.000000
1.000000 0.314500 0.000000
1.000000 0.295813 0.000000
0.000000 0.596125 0.033625
0.014937 0.577438 0.014937
0.183750 0.558750 0.000000
0.352563 0.540063 0.000000
0.521375 0.521375 0.000000
0.690187 0.502687 0.000000
0.859000 0.484000 0.000000
1.000000 0.465313 0.000000
1.000000 0.446625 0.000000
0.000000 0.746938 0.000000
0.000000 0.728250 0.000000
0.147063 0.709563 0.000000
0.315875 0.690875 0.000000
0.484688 0.672188 0.000000
0.653500 0.653500 0.000000
0.822313 0.634813 0.000000
0.991125 0.616125 0.000000
1.000000 0.597438 0.000000
0.000000 0.897750 0.000000
0.000000 0.879063 0.000000
0.110375 0.860375 0.000000
0.279188 0.841688 0.000000
0.448000 0.823000 0.000000
0.616812 0.804312 0.000000
0.785625 0.785625 0.000000
0.954438 0.766938 0.000000
1.000000 0.748250 0.000000
0.000000 1.000000 0.000000
0.000000 1.000000 0.000000
0.073688 1.000000 0.000000
0.242500 0.992500 0.000000
0.411313 0.973812 0.000000
0.580125 0.955125 0.000000
0.748938 0.936438 0.000000
0.917750 0.917750 0.000000
1.000000 0.899063 0.000000
0.000000 1.000000 0.000000
0.000000 1.000000 0.000000
0.037000 1.000000 0.000000
0.205813 1.000000 0.000000
0.374625 1.000000 0.000000
0.543438 1.000000 0.000000
0.712250 1.000000 0.000000
0.881063 1.000000 0.000000
1.000000 1.000000 0.000000
0.000000 0.000000 0.360750
0.154562 0.000000 0.342062
0.323375 0.000000 0.323375
0.492188 0.000000 0.304688
0.661000 0.000000 0.286000
0.829812 0.000000 0.267313
0.998625 0.000000 0.248625
1.000000 0.000000 0.229937
1.000000 0.000000 0.211250
0.000000 0.136563 0.324063
0.117875 0.117875 0.305375
0.286687 0.099187 0.286687
0.455500 0.080500 0.268000
0.624313 0.061812 0.249312
0.793125 0.043125 0.230625
0.961937 0.024437 0.211937
1.000000 0.005750 0.193250
1.000000 0.000000 0.174562
0.000000 0.287375 0.287375
0.081187 0.268688 0.268688
0.250000 0.250000 0.250000
0.418813 0.231313 0.231313
0.587625 0.212625 0.212625
0.756438 0.193938 0.193938
0.925250 0.175250 0.175250
1.000000 0.156562 0.156562
1.000000 0.137875 0.137875
0.000000 0.438188 0.250688
0.044500 0.419500 0.232000
0.213312 0.400813 0.213312
0.382125 0.382125 0.194625
0.550937 0.363437 0.175937
0.719750 0.344750 0.157250
0.888562 0.326063 0.138562
1.000000 0.307375 0.119875
1.000000 0.288688 0.101188
0.000000 0.589000 0.214000
0.007812 0.570312 0.195312
0.176625 0.551625 0.176625
0.345437 0.532937 0.157938
0.514250 0.514250 0.139250
0.683063 0.495563 0.120563
0.851875 0.476875 0.101875
1.000000 0.458188 0.083188
1.000000 0.439500 0.064500
0.000000 0.739812 0.177313
0.000000 0.721125 0.158625
0.139937 0.702438 0.139937
0.308750 0.683750 0.121250
0.477563 0.665063 0.102563
0.646375 0.646375 0.083875
0.815188 0.627688 0.065188
0.984000 0.609000 0.046500
1.000000 0.590313 0.027813
0.000000 0.890625 0.140625
0.000000 0.871938 0.121938
0.103250 0.853250 0.103250
0.272063 0.834563 0.084563
0.440875 0.815875 0.065875
0.609688 0.797188 0.047188
0.778500 0.778500 0.028500
0.947313 0.759813 0.009813
1.000000 0.741125 0.000000
0.000000 1.000000 0.103938
0.000000 1.000000 0.085250
0.066562 1.000000 0.066562
0.235375 0.985375 0.047875
0.404188 0.966688 0.029188
0.573000 0.948000 0.010500
0.741812 0.929312 0.000000
0.910625 0.910625 0.000000
1.000000 0.891938 0.000000
0.000000 1.000000 0.067250
0.000000 1.000000 0.048562
0.029875 1.000000 0.029875
0.198688 1.000000 0.011188
0.367500 1.000000 0.000000
0.536312 1.000000 0.000000
0.705125 1.000000 0.000000
0.873938 1.000000 0.000000
1.000000 1.000000 0.000000
0.000000 0.000000 0.541125
0.147437 0.000000 0.522437
0.316250 0.000000 0.503750
0.485062 0.000000 0.485062
0.653875 0.000000 0.466375
0.822688 0.000000 0.447688
0.991500 0.000000 0.429000
1.000000 0.000000 0.410312
1.000000 0.000000 0.391625
0.000000 0.129437 0.504437
0.110750 0.110750 0.485750
0.279562 0.092062 0.467062
0.448375 0.073375 0.448375
0.617188 0.054688 0.429688
0.786000 0.036000 0.411000
0.954813 0.017313 0.392312
1.000000 0.000000 0.373625
1.000000 0.000000 0.354938
0.000000 0.280250 0.467750
0.074063 0.261563 0.449063
0.242875 0.242875 0.430375
0.411687 0.224188 0.411687
0.580500 0.205500 0.393000
0.749313 0.186813 0.374313
0.918125 0.168125 0.355625
1.000000 0.149438 0.336938
1.000000 0.130750 0.318250
0.000000 0.431063 0.431063
0.037375 0.412375 0.412375
0.206187 0.393687 0.393687
0.375000 0.375000 0.375000
0.543813 0.356313 0.356313
0.712625 0.337625 0.337625
0.881438 0.318937 0.318937
1.000000 0.300250 0.300250
1.000000 0.281563 0.281563
0.000000 0.581875 0.394375
0.000688 0.563187 0.375688
0.169500 0.544500 0.357000
0.338313 0.525813 0.338313
0.507125 0.507125 0.319625
0.675938 0.488438 0.300938
0.844750 0.469750 0.282250
1.000000 0.451063 0.263563
1.000000 0.432375 0.244875
0.000000 0.732687 0.357688
0.000000 0.714000 0.339000
0.132813 0.695312 0.320312
0.301625 0.676625 0.301625
0.470438 0.657938 0.282938
0.639250 0.639250 0.264250
0.808063 0.620563 0.245563
0.976875 0.601875 0.226875
1.000000 0.583187 0.208188
0.000000 0.883500 0.321000
0.000000 0.864812 0.302313
0.096125 0.846125 0.283625
0.264938 0.827438 0.264938
0.433750 0.808750 0.246250
0.602563 0.790063 0.227563
0.771375 0.771375 0.208875
0.940187 0.752687 0.190188
1.000000 0.734000 0.171500
0.000000 1.000000 0.284313
0.000000 1.000000 0.265625
0.059438 0.996938 0.246938
0.228250 0.978250 0.228250
0.397063 0.959563 0.209563
0.565875 0.940875 0.190875
0.734687 0.922187 0.172188
0.903500 0.903500 0.153500
1.000000 0.884813 0.134813
0.000000 1.000000 0.247625
0.000000 1.000000 0.228938
0.022750 1.000000 0.210250
0.191562 1.000000 0.191562
0.360375 1.000000 0.172875
0.529188 1.000000 0.154188
0.698000 1.000000 0.135500
0.866812 1.000000 0.116813
1.000000 1.000000 0.098125
0.000000 0.000000 0.721500
0.140313 0.000000 0.702812
0.309125 0.000000 0.684125
0.477938 0.000000 0.665438
0.646750 0.000000 0.646750
0.815563 0.000000 0.628063
0.984375 0.000000 0.609375
1.000000 0.000000 0.590688
1.000000 0.000000 0.572000
0.000000 0.122313 0.684812
0.103625 0.103625 0.666125
0.272437 0.084937 0.647437
0.441250 0.066250 0.628750
0.610062 0.047563 0.610062
0.778875 0.028875 0.591375
0.947688 0.010187 0.572688
1.000000 0.000000 0.554000
1.000000 0.000000 0.535312
0.000000 0.273125 0.648125
0.066938 0.254437 0.629438
0.235750 0.235750 0.610750
0.404563 0.217063 0.592062
0.573375 0.198375 0.573375
0.742188 0.179688 0.554688
0.911000 0.161000 0.536000
1.000000 0.142313 0.517313
1.000000 0.123625 0.498625
0.000000 0.423937 0.611438
0.030250 0.405250 0.592750
0.199063 0.386563 0.574063
0.367875 0.367875 0.555375
0.536687 0.349187 0.536687
0.705500 0.330500 0.518000
0.874313 0.311812 0.499312
1.000000 0.293125 0.480625
1.000000 0.274438 0.461938
0.000000 0.574750 0.574750
0.000000 0.556063 0.556063
0.162375 0.537375 0.537375
0.331187 0.518687 0.518687
0.500000 0.500000 0.500000
0.668813 0.481312 0.481312
0.837625 0.462625 0.462625
1.000000 0.443937 0.443937
1.000000 0.425250 0.425250
0.000000 0.725563 0.538062
0.000000 0.706875 0.519375
0.125688 0.688188 0.500688
0.294500 0.669500 0.482000
0.463313 0.650813 0.463313
0.632125 0.632125 0.444625
0.800938 0.613438 0.425938
0.969750 0.594750 0.407250
1.000000 0.576062 0.388562
0.000000 0.876375 0.501375
0.000000 0.857687 0.482687
0.089000 0.839000 0.464000
0.257812 0.820312 0.445312
0.426625 0.801625 0.426625
0.595438 0.782938 0.407938
0.764250 0.764250 0.389250
0.933062 0.745562 0.370562
1.000000 0.726875 0.351875
0.000000 1.000000 0.464687
0.000000 1.000000 0.446000
0.052312 0.989812 0.427312
0.221125 0.971125 0.408625
0.389937 0.952438 0.389937
0.558750 0.933750 0.371250
0.727562 0.915062 0.352562
0.896375 0.896375 0.333875
1.000000 0.877687 0.315188
0.000000 1.000000 0.428000
0.000000 1.000000 0.409312
0.015625 1.000000 0.390625
0.184437 1.000000 0.371937
0.353250 1.000000 0.353250
0.522062 1.000000 0.334562
0.690875 1.000000 0.315875
0.859687 1.000000 0.297188
1.000000 1.000000 0.278500
0.000000 0.000000 0.901875
0.133188 0.000000 0.883188
0.302000 0.000000 0.864500
0.470813 0.000000 0.845813
0.639625 0.000000 0.827125
0.808437 0.000000 0.808437
0.977250 0.000000 0.789750
1.000000 0.000000 0.771062
1.000000 0.000000 0.752375
0.000000 0.115187 0.865187
0.096500 0.096500 0.846500
0.265313 0.077812 0.827812
0.434125 0.059125 0.809125
0.602938 0.040438 0.790438
0.771750 0.021750 0.771750
0.940562 0.003062 0.753062
1.000000 0.000000 0.734375
1.000000 0.000000 0.715688
0.000000 0.266000 0.828500
0.059812 0.247312 0.809812
0.228625 0.228625 0.791125
0.397437 0.209937 0.772437
0.566250 0.191250 0.753750
0.735062 0.172563 0.735062
0.903875 0.153875 0.716375
1.000000 0.135188 0.697688
1.000000 0.116500 0.679000
0.000000 0.416813 0.791813
0.023125 0.398125 0.773125
0.191937 0.379437 0.754437
0.360750 0.360750 0.735750
0.529562 0.342062 0.717062
0.698375 0.323375 0.698375
0.867188 0.304688 0.679688
1.000000 0.286000 0.661000
1.000000 0.267313 0.642313
0.000000 0.567625 0.755125
0.000000 0.548938 0.736438
0.155250 0.530250 0.717750
0.324062 0.511562 0.699062
0.492875 0.492875 0.680375
0.661687 0.474187 0.661687
0.830500 0.455500 0.643000
0.999313 0.436812 0.624313
1.000000 0.418125 0.605625
0.000000 0.718438 0.718438
0.000000 0.699750 0.699750
0.118563 0.681063 0.681063
0.287375 0.662375 0.662375
0.456188 0.643687 0.643687
0.625000 0.625000 0.625000
0.793813 0.606313 0.606313
0.962625 0.587625 0.587625
1.000000 0.568937 0.568937
0.000000 0.869250 0.681750
0.000000 0.850562 0.663062
0.081875 0.831875 0.644375
0.250688 0.813187 0.625687
0.419500 0.794500 0.607000
0.588313 0.775813 0.588313
0.757125 0.757125 0.569625
0.925937 0.738437 0.550937
1.000000 0.719750 0.532250
0.000000 1.000000 0.645062
0.000000 1.000000 0.626375
0.045188 0.982687 0.607687
0.214000 0.964000 0.589000
0.382812 0.945312 0.570312
0.551625 0.926625 0.551625
0.720437 0.907937 0.532937
0.889250 0.889250 0.514250
1.000000 0.870563 0.495563
0.000000 1.000000 0.608375
0.000000 1.000000 0.589687
0.008500 1.000000 0.571000
0.177312 1.000000 0.552312
0.346125 1.000000 0.533625
0.514938 1.000000 0.514938
0.683750 1.000000 0.496250
0.852563 1.000000 0.477563
1.000000 1.000000 0.458875
0.000000 0.000000 1.000000
0.126062 0.000000 1.000000
0.294875 0.000000 1.000000
0.463687 0.000000 1.000000
0.632500 0.000000 1.000000
0.801313 0.000000 0.988813
0.970125 0.000000 0.970125
1.000000 0.000000 0.951438
1.000000 0.000000 0.932750
0.000000 0.108063 1.000000
0.089375 0.089375 1.000000
0.258188 0.070687 1.000000
0.427000 0.052000 0.989500
0.595813 0.033313 0.970813
0.764625 0.014625 0.952125
0.933438 0.000000 0.933438
1.000000 0.000000 0.914750
1.000000 0.000000 0.896062
0.000000 0.258875 1.000000
0.052687 0.240187 0.990187
0.221500 0.221500 0.971500
0.390313 0.202813 0.952812
0.559125 0.184125 0.934125
0.727938 0.165438 0.915438
0.896750 0.146750 0.896750
1.000000 0.128063 0.878062
1.000000 0.109375 0.859375
0.000000 0.409687 0.972187
0.016000 0.391000 0.953500
0.184812 0.372312 0.934812
0.353625 0.353625 0.916125
0.522437 0.334937 0.897437
0.691250 0.316250 0.878750
0.860062 0.297563 0.860062
1.000000 0.278875 0.841375
1.000000 0.260188 0.822688
0.000000 0.560500 0.935500
0.000000 0.541813 0.916813
0.148125 0.523125 0.898125
0.316937 0.504437 0.879437
0.485750 0.485750 0.860750
0.654562 0.467062 0.842062
0.823375 0.448375 0.823375
0.992188 0.429688 0.804688
1.000000 0.411000 0.786000
0.000000 0.711313 0.898813
0.000000 0.692625 0.880125
0.111438 0.673938 0.861438
0.280250 0.655250 0.842750
0.449063 0.636563 0.824063
0.617875 0.617875 0.805375
0.786687 0.599187 0.786687
0.955500 0.580500 0.768000
1.000000 0.561813 0.749313
0.000000 0.862125 0.862125
0.000000 0.843438 0.843438
0.074750 0.824750 0.824750
0.243563 0.806063 0.806063
0.412375 0.787375 0.787375
0.581187 0.768687 0.768687
0.750000 0.750000 0.750000
0.918813 0.731313 0.731313
1.000000 0.712625 0.712625
0.000000 1.000000 0.825438
0.000000 0.994250 0.806750
0.038062 0.975562 0.788062
0.206875 0.956875 0.769375
0.375688 0.938187 0.750687
0.544500 0.919500 0.732000
0.713313 0.900813 0.713313
0.882125 0.882125 0.694625
1.000000 0.863438 0.675938
0.000000 1.000000 0.788750
0.000000 1.000000 0.770062
0.001375 1.000000 0.751375
0.170188 1.000000 0.732687
0.339000 1.000000 0.714000
0.507812 1.000000 0.695312
0.676625 1.000000 0.676625
0.845438 1.000000 0.657938
1.000000 1.000000 0.639250
0.000000 0.000000 1.000000
0.118938 0.000000 1.000000
0.287750 0.000000 1.000000
0.456562 0.000000 1.000000
0.625375 0.000000 1.000000
0.794187 0.000000 1.000000
0.963000 0.000000 1.000000
1.000000 0.000000 1.000000
1.000000 0.000000 1.000000
0.000000 0.100937 1.000000
0.082250 0.082250 1.000000
0.251062 0.063562 1.000000
0.419875 0.044875 1.000000
0.588688 0.026187 1.000000
0.757500 0.007500 1.000000
0.926312 0.000000 1.000000
1.000000 0.000000 1.000000
1.000000 0.000000 1.000000
0.000000 0.251750 1.000000
0.045563 0.233063 1.000000
0.214375 0.214375 1.000000
0.383188 0.195688 1.000000
0.552000 0.177000 1.000000
0.720813 0.158313 1.000000
0.889625 0.139625 1.000000
1.000000 0.120938 1.000000
1.000000 0.102250 1.000000
0.000000 0.402562 1.000000
0.008875 0.383875 1.000000
0.177687 0.365187 1.000000
0.346500 0.346500 1.000000
0.515313 0.327813 1.000000
0.684125 0.309125 1.000000
0.852938 0.290438 1.000000
1.000000 0.271750 1.000000
1.000000 0.253063 1.000000
0.000000 0.553375 1.000000
0.000000 0.534687 1.000000
0.141000 0.516000 1.000000
0.309812 0.497312 1.000000
0.478625 0.478625 1.000000
0.647437 0.459937 1.000000
0.816250 0.441250 1.000000
0.985062 0.422563 0.985062
1.000000 0.403875 0.966375
0.000000 0.704187 1.000000
0.000000 0.685500 1.000000
0.104313 0.666813 1.000000
0.273125 0.648125 1.000000
0.441938 0.629438 1.000000
0.610750 0.610750 0.985750
0.779563 0.592063 0.967063
0.948375 0.573375 0.948375
1.000000 0.554688 0.929688
0.000000 0.855000 1.000000
0.000000 0.836313 1.000000
0.067625 0.817625 1.000000
0.236438 0.798938 0.986438
0.405250 0.780250 0.967750
0.574063 0.761563 0.949063
0.742875 0.742875 0.930375
0.911687 0.724187 0.911687
1.000000 0.705500 0.893000
0.000000 1.000000 1.000000
0.000000 0.987125 0.987125
0.030937 0.968438 0.968438
0.199750 0.949750 0.949750
0.368563 0.931063 0.931063
0.537375 0.912375 0.912375
0.706187 0.893687 0.893687
0.875000 0.875000 0.875000
1.000000 0.856313 0.856313
0.000000 1.000000 0.969125
0.000000 1.000000 0.950438
0.000000 1.000000 0.931750
0.163062 1.000000 0.913062
0.331875 1.000000 0.894375
0.500687 1.000000 0.875687
0.669500 1.000000 0.857000
0.838313 1.000000 0.838313
1.000000 1.000000 0.819625
0.000000 0.000000 1.000000
0.111812 0.000000 1.000000
0.280625 0.000000 1.000000
0.449437 0.000000 1.000000
0.618250 0.000000 1.000000
0.787062 0.000000 1.000000
0.955875 0.000000 1.000000
1.000000 0.000000 1.000000
1.000000 0.000000 1.000000
0.000000 0.093812 1.000000
0.075125 0.075125 1.000000
0.243938 0.056438 1.000000
0.412750 0.037750 1.000000
0.581562 0.019063 1.000000
0.750375 0.000375 1.000000
0.919187 0.000000 1.000000
1.000000 0.000000 1.000000
1.000000 0.000000 1.000000
0.000000 0.244625 1.000000
0.038438 0.225938 1.000000
0.207250 0.207250 1.000000
0.376063 0.188563 1.000000
0.544875 0.169875 1.000000
0.713688 0.151188 1.000000
0.882500 0.132500 1.000000
1.000000 0.113812 1.000000
1.000000 0.095125 1.000000
0.000000 0.395437 1.000000
0.001750 0.376750 1.000000
0.170563 0.358063 1.000000
0.339375 0.339375 1.000000
0.508188 0.320688 1.000000
0.677000 0.302000 1.000000
0.845813 0.283313 1.000000
1.000000 0.264625 1.000000
1.000000 0.245938 1.000000
0.000000 0.546250 1.000000
0.000000 0.527563 1.000000
0.133875 0.508875 1.000000
0.302687 0.490187 1.000000
0.471500 0.471500 1.000000
0.640313 0.452813 1.000000
0.809125 0.434125 1.000000
0.977938 0.415438 1.000000
1.000000 0.396750 1.000000
0.000000 0.697063 1.000000
0.000000 0.678375 1.000000
0.097188 0.659687 1.000000
0.266000 0.641000 1.000000
0.434813 0.622313 1.000000
0.603625 0.603625 1.000000
0.772438 0.584938 1.000000
0.941250 0.566250 1.000000
1.000000 0.547562 1.000000
0.000000 0.847875 1.000000
0.000000 0.829187 1.000000
0.060500 0.810500 1.000000
0.229313 0.791813 1.000000
0.398125 0.773125 1.000000
0.566938 0.754438 1.000000
0.735750 0.735750 1.000000
0.904562 0.717062 1.000000
1.000000 0.698375 1.000000
0.000000 0.998687 1.000000
0.000000 0.980000 1.000000
0.023813 0.961313 1.000000
0.192625 0.942625 1.000000
0.361438 0.923938 1.000000
0.530250 0.905250 1.000000
0.699062 0.886562 1.000000
0.867875 0.867875 1.000000
1.000000 0.849187 1.000000
0.000000 1.000000 1.000000
0.000000 1.000000 1.000000
0.000000 1.000000 1.000000
0.155937 1.000000 1.000000
0.324750 1.000000 1.000000
0.493563 1.000000 1.000000
0.662375 1.000000 1.000000
0.831187 1.000000 1.000000
1.000000 1.000000 1.000000
