ApexStudio/app/src/main/assets/luts/tropical_punch.cube
# ApexStudio filter: tropical_punch
LUT_3D_SIZE 5
DOMAIN_MIN 0.0 0.0 0.0
DOMAIN_MAX 1.0 1.0 1.0
0.000000 0.000000 0.000000
0.337625 0.000000 0.000000
0.675250 0.000000 0.000000
1.000000 0.000000 0.000000
1.000000 0.000000 0.000000
0.000000 0.301625 0.000000
0.264250 0.264250 0.000000
0.601875 0.226875 0.000000
0.939500 0.189500 0.000000
1.000000 0.152125 0.000000
0.000000 0.603250 0.000000
0.190875 0.565875 0.000000
0.528500 0.528500 0.000000
0.866125 0.491125 0.000000
1.000000 0.453750 0.000000
0.000000 0.904875 0.000000
0.117500 0.867500 0.000000
0.455125 0.830125 0.000000
0.792750 0.792750 0.000000
1.000000 0.755375 0.000000
0.000000 1.000000 0.000000
0.044125 1.000000 0.000000
0.381750 1.000000 0.000000
0.719375 1.000000 0.000000
1.000000 1.000000 0.000000
0.000000 0.000000 0.360750
0.323375 0.000000 0.323375
0.661000 0.000000 0.286000
0.998625 0.000000 0.248625
1.000000 0.000000 0.211250
0.000000 0.287375 0.287375
0.250000 0.250000 0.250000
0.587625 0.212625 0.212625
0.925250 0.175250 0.175250
1.000000 0.137875 0.137875
0.000000 0.589000 0.214000
0.176625 0.551625 0.176625
0.514250 0.514250 0.139250
0.851875 0.476875 0.101875
1.000000 0.439500 0.064500
0.000000 0.890625 0.140625
0.103250 0.853250 0.103250
0.440875 0.815875 0.065875
0.778500 0.778500 0.028500
1.000000 0.741125 0.000000
0.000000 1.000000 0.067250
0.029875 1.000000 0.029875
0.367500 1.000000 0.000000
0.705125 1.000000 0.000000
1.000000 1.000000 0.000000
0.000000 0.000000 0.721500
0.309125 0.000000 0.684125
0.646750 0.000000 0.646750
0.984375 0.000000 0.609375
1.000000 0.000000 0.572000
0.000000 0.273125 0.648125
0.235750 0.235750 0.610750
0.573375 0.198375 0.573375
0.911000 0.161000 0.536000
1.000000 0.123625 0.498625
0.000000 0.574750 0.574750
0.162375 0.537375 0.537375
0.500000 0.500000 0.500000
0.837625 0.462625 0.462625
1.000000 0.425250 0.425250
0.000000 0.876375 0.501375
0.089000 0.839000 0.464000
0.426625 0.801625 0.426625
0.764250 0.764250 0.389250
1.000000 0.726875 0.351875
0.000000 1.000000 0.428000
0.015625 1.000000 0.390625
0.353250 1.000000 0.353250
0.690875 1.000000 0.315875
1.000000 1.000000 0.278500
0.000000 0.000000 1.000000
0.294875 0.000000 1.000000
0.632500 0.000000 1.000000
0.970125 0.000000 0.970125
1.000000 0.000000 0.932750
0.000000 0.258875 1.000000
0.221500 0.221500 0.971500
0.559125 0.184125 0.934125
0.896750 0.146750 0.896750
1.000000 0.109375 0.859375
0.000000 0.560500 0.935500
0.148125 0.523125 0.898125
0.485750 0.485750 0.860750
0.823375 0.448375 0.823375
1.000000 0.411000 0.786000
0.000000 0.862125 0.862125
0.074750 0.824750 0.824750
0.412375 0.787375 0.787375
0.750000 0.750000 0.750000
1.000000 0.712625 0.712625
0.000000 1.000000 0.788750
0.001375 1.000000 0.751375
0.339000 1.000000 0.714000
0.676625 1.000000 0.676625
1.000000 1.000000 0.639250
0.000000 0.000000 1.000000
0.280625 0.000000 1.000000
0.618250 0.000000 1.000000
0.955875 0.000000 1.000000
1.000000 0.000000 1.000000
0.000000 0.244625 1.000000
0.207250 0.207250 1.000000
0.544875 0.169875 1.000000
0.882500 0.132500 1.000000
1.000000 0.095125 1.000000
0.000000 0.546250 1.000000
0.133875 0.508875 1.000000
0.471500 0.471500 1.000000
0.809125 0.434125 1.000000
1.000000 0.396750 1.000000
0.000000 0.847875 1.000000
0.060500 0.810500 1.000000
0.398125 0.773125 1.000000
0.735750 0.735750 1.000000
1.000000 0.698375 1.000000
0.000000 1.000000 1.000000
0.000000 1.000000 1.000000
0.324750 1.000000 1.000000
0.662375 1.000000 1.000000
1.000000 1.000000 1.000000
