ApexStudio/app/src/main/assets/luts/ultraviolet.cube
# ApexStudio filter: ultraviolet
LUT_3D_SIZE 5
DOMAIN_MIN 0.0 0.0 0.0
DOMAIN_MAX 1.0 1.0 1.0
0.000000 0.000000 0.000000
0.267525 0.000000 0.000000
0.535050 0.000000 0.000000
0.802575 0.000000 0.000000
1.000000 0.000000 0.000000
0.000000 0.260325 0.000000
0.252850 0.252850 0.000000
0.520375 0.245375 0.000000
0.787900 0.237900 0.000000
1.000000 0.230425 0.000000
0.000000 0.520650 0.000000
0.238175 0.513175 0.000000
0.505700 0.505700 0.000000
0.773225 0.498225 0.000000
1.000000 0.490750 0.000000
0.000000 0.780975 0.000000
0.223500 0.773500 0.000000
0.491025 0.766025 0.000000
0.758550 0.758550 0.000000
1.000000 0.751075 0.000000
0.000000 1.000000 0.000000
0.208825 1.000000 0.000000
0.476350 1.000000 0.000000
0.743875 1.000000 0.000000
1.000000 1.000000 0.000000
0.000000 0.000000 0.272150
0.264675 0.000000 0.264675
0.532200 0.000000 0.257200
0.799725 0.000000 0.249725
1.000000 0.000000 0.242250
0.000000 0.257475 0.257475
0.250000 0.250000 0.250000
0.517525 0.242525 0.242525
0.785050 0.235050 0.235050
1.000000 0.227575 0.227575
0.000000 0.517800 0.242800
0.235325 0.510325 0.235325
0.502850 0.502850 0.227850
0.770375 0.495375 0.220375
1.000000 0.487900 0.212900
0.000000 0.778125 0.228125
0.220650 0.770650 0.220650
0.488175 0.763175 0.213175
0.755700 0.755700 0.205700
1.000000 0.748225 0.198225
0.000000 1.000000 0.213450
0.205975 1.000000 0.205975
0.473500 1.000000 0.198500
0.741025 1.000000 0.191025
1.000000 1.000000 0.183550
0.000000 0.000000 0.544300
0.261825 0.000000 0.536825
0.529350 0.000000 0.529350
0.796875 0.000000 0.521875
1.000000 0.000000 0.514400
0.000000 0.254625 0.529625
0.247150 0.247150 0.522150
0.514675 0.239675 0.514675
0.782200 0.232200 0.507200
1.000000 0.224725 0.499725
0.000000 0.514950 0.514950
0.232475 0.507475 0.507475
0.500000 0.500000 0.500000
0.767525 0.492525 0.492525
1.000000 0.485050 0.485050
0.000000 0.775275 0.500275
0.217800 0.767800 0.492800
0.485325 0.760325 0.485325
0.752850 0.752850 0.477850
1.000000 0.745375 0.470375
0.000000 1.000000 0.485600
0.203125 1.000000 0.478125
0.470650 1.000000 0.470650
0.738175 1.000000 0.463175
1.000000 1.000000 0.455700
0.000000 0.000000 0.816450
0.258975 0.000000 0.808975
0.526500 0.000000 0.801500
0.794025 0.000000 0.794025
1.000000 0.000000 0.786550
0.000000 0.251775 0.801775
0.244300 0.244300 0.794300
0.511825 0.236825 0.786825
0.779350 0.229350 0.779350
1.000000 0.221875 0.771875
0.000000 0.512100 0.787100
0.229625 0.504625 0.779625
0.497150 0.497150 0.772150
0.764675 0.489675 0.764675
1.000000 0.482200 0.757200
0.000000 0.772425 0.772425
0.214950 0.764950 0.764950
0.482475 0.757475 0.757475
0.750000 0.750000 0.750000
1.000000 0.742525 0.742525
0.000000 1.000000 0.757750
0.200275 1.000000 0.750275
0.467800 1.000000 0.742800
0.735325 1.000000 0.735325
1.000000 1.000000 0.727850
0.000000 0.000000 1.000000
0.256125 0.000000 1.000000
0.523650 0.000000 1.000000
0.791175 0.000000 1.000000
1.000000 0.000000 1.000000
0.000000 0.248925 1.000000
0.241450 0.241450 1.000000
0.508975 0.233975 1.000000
0.776500 0.226500 1.000000
1.000000 0.219025 1.000000
0.000000 0.509250 1.000000
0.226775 0.501775 1.000000
0.494300 0.494300 1.000000
0.761825 0.486825 1.000000
1.000000 0.479350 1.000000
0.000000 0.769575 1.000000
0.212100 0.762100 1.000000
0.479625 0.754625 1.000000
0.747150 0.747150 1.000000
1.000000 0.739675 1.000000
0.000000 1.000000 1.000000
0.197425 1.000000 1.000000
0.464950 1.000000 1.000000
0.732475 1.000000 1.000000
1.000000 1.000000 1.000000
