ApexStudio/app/src/main/assets/luts/ultraviolet.cube
# ApexStudio filter: ultraviolet
LUT_3D_SIZE 17
DOMAIN_MIN 0.0 0.0 0.0
DOMAIN_MAX 1.0 1.0 1.0
0.000000 0.000000 0.000000
0.066881 0.000000 0.000000
0.133763 0.000000 0.000000
0.200644 0.000000 0.000000
0.267525 0.000000 0.000000
0.334406 0.000000 0.000000
0.401288 0.000000 0.000000
0.468169 0.000000 0.000000
0.535050 0.000000 0.000000
0.601931 0.000000 0.000000
0.668813 0.000000 0.000000
0.735694 0.000000 0.000000
0.802575 0.000000 0.000000
0.869456 0.000000 0.000000
0.936338 0.000000 0.000000
1.000000 0.000000 0.000000
1.000000 0.000000 0.000000
0.000000 0.065081 0.000000
0.063213 0.063213 0.000000
0.130094 0.061344 0.000000
0.196975 0.059475 0.000000
0.263856 0.057606 0.000000
0.330738 0.055737 0.000000
0.397619 0.053869 0.000000
0.464500 0.052000 0.000000
0.531381 0.050131 0.000000
0.598263 0.048262 0.000000
0.665144 0.046394 0.000000
0.732025 0.044525 0.000000
0.798906 0.042656 0.000000
0.865788 0.040787 0.000000
0.932669 0.038919 0.000000
0.999550 0.037050 0.000000
1.000000 0.035181 0.000000
0.000000 0.130163 0.000000
0.059544 0.128294 0.000000
0.126425 0.126425 0.000000
0.193306 0.124556 0.000000
0.260188 0.122688 0.000000
0.327069 0.120819 0.000000
0.393950 0.118950 0.000000
0.460831 0.117081 0.000000
0.527713 0.115212 0.000000
0.594594 0.113344 0.000000
0.661475 0.111475 0.000000
0.728356 0.109606 0.000000
0.795238 0.107737 0.000000
0.862119 0.105869 0.000000
0.929000 0.104000 0.000000
0.995881 0.102131 0.000000
1.000000 0.100262 0.000000
0.000000 0.195244 0.000000
0.055875 0.193375 0.000000
0.122756 0.191506 0.000000
0.189638 0.189638 0.000000
0.256519 0.187769 0.000000
0.323400 0.185900 0.000000
0.390281 0.184031 0.000000
0.457163 0.182163 0.000000
0.524044 0.180294 0.000000
0.590925 0.178425 0.000000
0.657806 0.176556 0.000000
0.724688 0.174687 0.000000
0.791569 0.172819 0.000000
0.858450 0.170950 0.000000
0.925331 0.169081 0.000000
0.992213 0.167212 0.000000
1.000000 0.165344 0.000000
0.000000 0.260325 0.000000
0.052206 0.258456 0.000000
0.119087 0.256588 0.000000
0.185969 0.254719 0.000000
0.252850 0.252850 0.000000
0.319731 0.250981 0.000000
0.386613 0.249113 0.000000
0.453494 0.247244 0.000000
0.520375 0.245375 0.000000
0.587256 0.243506 0.000000
0.654138 0.241638 0.000000
0.721019 0.239769 0.000000
0.787900 0.237900 0.000000
0.854781 0.236031 0.000000
0.921663 0.234162 0.000000
0.988544 0.232294 0.000000
1.000000 0.230425 0.000000
0.000000 0.325406 0.000000
0.048537 0.323538 0.000000
0.115419 0.321669 0.000000
0.182300 0.319800 0.000000
0.249181 0.317931 0.000000
0.316063 0.316063 0.000000
0.382944 0.314194 0.000000
0.449825 0.312325 0.000000
0.516706 0.310456 0.000000
0.583588 0.308588 0.000000
0.650469 0.306719 0.000000
0.717350 0.304850 0.000000
0.784231 0.302981 0.000000
0.851113 0.301113 0.000000
0.917994 0.299244 0.000000
0.984875 0.297375 0.000000
1.000000 0.295506 0.000000
0.000000 0.390487 0.000000
0.044869 0.388619 0.000000
0.111750 0.386750 0.000000
0.178631 0.384881 0.000000
0.245512 0.383012 0.000000
0.312394 0.381144 0.000000
0.379275 0.379275 0.000000
0.446156 0.377406 0.000000
0.513038 0.375538 0.000000
0.579919 0.373669 0.000000
0.646800 0.371800 0.000000
0.713681 0.369931 0.000000
0.780563 0.368063 0.000000
0.847444 0.366194 0.000000
0.914325 0.364325 0.000000
0.981206 0.362456 0.000000
1.000000 0.360588 0.000000
0.000000 0.455569 0.000000
0.041200 0.453700 0.000000
0.108081 0.451831 0.000000
0.174962 0.449963 0.000000
0.241844 0.448094 0.000000
0.308725 0.446225 0.000000
0.375606 0.444356 0.000000
0.442488 0.442488 0.000000
0.509369 0.440619 0.000000
0.576250 0.438750 0.000000
0.643131 0.436881 0.000000
0.710013 0.435013 0.000000
0.776894 0.433144 0.000000
0.843775 0.431275 0.000000
0.910656 0.429406 0.000000
0.977538 0.427538 0.000000
1.000000 0.425669 0.000000
0.000000 0.520650 0.000000
0.037531 0.518781 0.000000
0.104412 0.516912 0.000000
0.171294 0.515044 0.000000
0.238175 0.513175 0.000000
0.305056 0.511306 0.000000
0.371937 0.509437 0.000000
0.438819 0.507569 0.000000
0.505700 0.505700 0.000000
0.572581 0.503831 0.000000
0.639463 0.501962 0.000000
0.706344 0.500094 0.000000
0.773225 0.498225 0.000000
0.840106 0.496356 0.000000
0.906988 0.494487 0.000000
0.973869 0.492619 0.000000
1.000000 0.490750 0.000000
0.000000 0.585731 0.000000
0.033862 0.583862 0.000000
0.100744 0.581994 0.000000
0.167625 0.580125 0.000000
0.234506 0.578256 0.000000
0.301387 0.576388 0.000000
0.368269 0.574519 0.000000
0.435150 0.572650 0.000000
0.502031 0.570781 0.000000
0.568913 0.568913 0.000000
0.635794 0.567044 0.000000
0.702675 0.565175 0.000000
0.769556 0.563306 0.000000
0.836437 0.561438 0.000000
0.903319 0.559569 0.000000
0.970200 0.557700 0.000000
1.000000 0.555831 0.000000
0.000000 0.650813 0.000000
0.030194 0.648944 0.000000
0.097075 0.647075 0.000000
0.163956 0.645206 0.000000
0.230838 0.643338 0.000000
0.297719 0.641469 0.000000
0.364600 0.639600 0.000000
0.431481 0.637731 0.000000
0.498362 0.635862 0.000000
0.565244 0.633994 0.000000
0.632125 0.632125 0.000000
0.699006 0.630256 0.000000
0.765888 0.628387 0.000000
0.832769 0.626519 0.000000
0.899650 0.624650 0.000000
0.966531 0.622781 0.000000
1.000000 0.620912 0.000000
0.000000 0.715894 0.000000
0.026525 0.714025 0.000000
0.093406 0.712156 0.000000
0.160287 0.710287 0.000000
0.227169 0.708419 0.000000
0.294050 0.706550 0.000000
0.360931 0.704681 0.000000
0.427812 0.702813 0.000000
0.494694 0.700944 0.000000
0.561575 0.699075 0.000000
0.628456 0.697206 0.000000
0.695338 0.695338 0.000000
0.762219 0.693469 0.000000
0.829100 0.691600 0.000000
0.895981 0.689731 0.000000
0.962862 0.687863 0.000000
1.000000 0.685994 0.000000
0.000000 0.780975 0.000000
0.022856 0.779106 0.000000
0.089737 0.777238 0.000000
0.156619 0.775369 0.000000
0.223500 0.773500 0.000000
0.290381 0.771631 0.000000
0.357262 0.769763 0.000000
0.424144 0.767894 0.000000
0.491025 0.766025 0.000000
0.557906 0.764156 0.000000
0.624788 0.762288 0.000000
0.691669 0.760419 0.000000
0.758550 0.758550 0.000000
0.825431 0.756681 0.000000
0.892313 0.754812 0.000000
0.959194 0.752944 0.000000
1.000000 0.751075 0.000000
0.000000 0.846056 0.000000
0.019187 0.844188 0.000000
0.086069 0.842319 0.000000
0.152950 0.840450 0.000000
0.219831 0.838581 0.000000
0.286712 0.836712 0.000000
0.353594 0.834844 0.000000
0.420475 0.832975 0.000000
0.487356 0.831106 0.000000
0.554237 0.829238 0.000000
0.621119 0.827369 0.000000
0.688000 0.825500 0.000000
0.754881 0.823631 0.000000
0.821763 0.821763 0.000000
0.888644 0.819894 0.000000
0.955525 0.818025 0.000000
1.000000 0.816156 0.000000
0.000000 0.911138 0.000000
0.015519 0.909269 0.000000
0.082400 0.907400 0.000000
0.149281 0.905531 0.000000
0.216162 0.903663 0.000000
0.283044 0.901794 0.000000
0.349925 0.899925 0.000000
0.416806 0.898056 0.000000
0.483687 0.896188 0.000000
0.550569 0.894319 0.000000
0.617450 0.892450 0.000000
0.684331 0.890581 0.000000
0.751212 0.888713 0.000000
0.818094 0.886844 0.000000
0.884975 0.884975 0.000000
0.951856 0.883106 0.000000
1.000000 0.881238 0.000000
0.000000 0.976219 0.000000
0.011850 0.974350 0.000000
0.078731 0.972481 0.000000
0.145612 0.970613 0.000000
0.212494 0.968744 0.000000
0.279375 0.966875 0.000000
0.346256 0.965006 0.000000
0.413137 0.963137 0.000000
0.480019 0.961269 0.000000
0.546900 0.959400 0.000000
0.613781 0.957531 0.000000
0.680662 0.955663 0.000000
0.747544 0.953794 0.000000
0.814425 0.951925 0.000000
0.881306 0.950056 0.000000
0.948187 0.948187 0.000000
1.000000 0.946319 0.000000
0.000000 1.000000 0.000000
0.008181 1.000000 0.000000
0.075062 1.000000 0.000000
0.141944 1.000000 0.000000
0.208825 1.000000 0.000000
0.275706 1.000000 0.000000
0.342587 1.000000 0.000000
0.409469 1.000000 0.000000
0.476350 1.000000 0.000000
0.543231 1.000000 0.000000
0.610113 1.000000 0.000000
0.676994 1.000000 0.000000
0.743875 1.000000 0.000000
0.810756 1.000000 0.000000
0.877637 1.000000 0.000000
0.944519 1.000000 0.000000
1.000000 1.000000 0.000000
0.000000 0.000000 0.068038
0.066169 0.000000 0.066169
0.133050 0.000000 0.064300
0.199931 0.000000 0.062431
0.266813 0.000000 0.060562
0.333694 0.000000 0.058694
0.400575 0.000000 0.056825
0.467456 0.000000 0.054956
0.534338 0.000000 0.053087
0.601219 0.000000 0.051219
0.668100 0.000000 0.049350
0.734981 0.000000 0.047481
0.801863 0.000000 0.045612
0.868744 0.000000 0.043744
0.935625 0.000000 0.041875
1.000000 0.000000 0.040006
1.000000 0.000000 0.038137
0.000000 0.064369 0.064369
0.062500 0.062500 0.062500
0.129381 0.060631 0.060631
0.196263 0.058762 0.058762
0.263144 0.056894 0.056894
0.330025 0.055025 0.055025
0.396906 0.053156 0.053156
0.463788 0.051287 0.051287
0.530669 0.049419 0.049419
0.597550 0.047550 0.047550
0.664431 0.045681 0.045681
0.731313 0.043812 0.043812
0.798194 0.041944 0.041944
0.865075 0.040075 0.040075
0.931956 0.038206 0.038206
0.998838 0.036337 0.036337
1.000000 0.034469 0.034469
0.000000 0.129450 0.060700
0.058831 0.127581 0.058831
0.125713 0.125713 0.056962
0.192594 0.123844 0.055094
0.259475 0.121975 0.053225
0.326356 0.120106 0.051356
0.393238 0.118237 0.049487
0.460119 0.116369 0.047619
0.527000 0.114500 0.045750
0.593881 0.112631 0.043881
0.660763 0.110762 0.042012
0.727644 0.108894 0.040144
0.794525 0.107025 0.038275
0.861406 0.105156 0.036406
0.928287 0.103287 0.034537
0.995169 0.101419 0.032669
1.000000 0.099550 0.030800
0.000000 0.194531 0.057031
0.055162 0.192663 0.055162
0.122044 0.190794 0.053294
0.188925 0.188925 0.051425
0.255806 0.187056 0.049556
0.322688 0.185188 0.047687
0.389569 0.183319 0.045819
0.456450 0.181450 0.043950
0.523331 0.179581 0.042081
0.590213 0.177712 0.040212
0.657094 0.175844 0.038344
0.723975 0.173975 0.036475
0.790856 0.172106 0.034606
0.857738 0.170237 0.032737
0.924619 0.168369 0.030869
0.991500 0.166500 0.029000
1.000000 0.164631 0.027131
0.000000 0.259613 0.053362
0.051494 0.257744 0.051494
0.118375 0.255875 0.049625
0.185256 0.254006 0.047756
0.252138 0.252138 0.045887
0.319019 0.250269 0.044019
0.385900 0.248400 0.042150
0.452781 0.246531 0.040281
0.519663 0.244663 0.038412
0.586544 0.242794 0.036544
0.653425 0.240925 0.034675
0.720306 0.239056 0.032806
0.787188 0.237187 0.030937
0.854069 0.235319 0.029069
0.920950 0.233450 0.027200
0.987831 0.231581 0.025331
1.000000 0.229712 0.023462
0.000000 0.324694 0.049694
0.047825 0.322825 0.047825
0.114706 0.320956 0.045956
0.181588 0.319088 0.044087
0.248469 0.317219 0.042219
0.315350 0.315350 0.040350
0.382231 0.313481 0.038481
0.449113 0.311613 0.036612
0.515994 0.309744 0.034744
0.582875 0.307875 0.032875
0.649756 0.306006 0.031006
0.716638 0.304138 0.029137
0.783519 0.302269 0.027269
0.850400 0.300400 0.025400
0.917281 0.298531 0.023531
0.984163 0.296662 0.021662
1.000000 0.294794 0.019794
0.000000 0.389775 0.046025
0.044156 0.387906 0.044156
0.111037 0.386038 0.042287
0.177919 0.384169 0.040419
0.244800 0.382300 0.038550
0.311681 0.380431 0.036681
0.378563 0.378563 0.034812
0.445444 0.376694 0.032944
0.512325 0.374825 0.031075
0.579206 0.372956 0.029206
0.646088 0.371088 0.027337
0.712969 0.369219 0.025469
0.779850 0.367350 0.023600
0.846731 0.365481 0.021731
0.913613 0.363613 0.019862
0.980494 0.361744 0.017994
1.000000 0.359875 0.016125
0.000000 0.454856 0.042356
0.040487 0.452987 0.040487
0.107369 0.451119 0.038619
0.174250 0.449250 0.036750
0.241131 0.447381 0.034881
0.308013 0.445512 0.033013
0.374894 0.443644 0.031144
0.441775 0.441775 0.029275
0.508656 0.439906 0.027406
0.575538 0.438038 0.025537
0.642419 0.436169 0.023669
0.709300 0.434300 0.021800
0.776181 0.432431 0.019931
0.843063 0.430562 0.018062
0.909944 0.428694 0.016194
0.976825 0.426825 0.014325
1.000000 0.424956 0.012456
0.000000 0.519938 0.038687
0.036819 0.518069 0.036819
0.103700 0.516200 0.034950
0.170581 0.514331 0.033081
0.237462 0.512463 0.031212
0.304344 0.510594 0.029344
0.371225 0.508725 0.027475
0.438106 0.506856 0.025606
0.504988 0.504988 0.023737
0.571869 0.503119 0.021869
0.638750 0.501250 0.020000
0.705631 0.499381 0.018131
0.772513 0.497513 0.016262
0.839394 0.495644 0.014394
0.906275 0.493775 0.012525
0.973156 0.491906 0.010656
1.000000 0.490038 0.008787
0.000000 0.585019 0.035019
0.033150 0.583150 0.033150
0.100031 0.581281 0.031281
0.166912 0.579412 0.029412
0.233794 0.577544 0.027544
0.300675 0.575675 0.025675
0.367556 0.573806 0.023806
0.434438 0.571937 0.021937
0.501319 0.570069 0.020069
0.568200 0.568200 0.018200
0.635081 0.566331 0.016331
0.701963 0.564462 0.014462
0.768844 0.562594 0.012594
0.835725 0.560725 0.010725
0.902606 0.558856 0.008856
0.969488 0.556987 0.006987
1.000000 0.555119 0.005119
0.000000 0.650100 0.031350
0.029481 0.648231 0.029481
0.096362 0.646363 0.027612
0.163244 0.644494 0.025744
0.230125 0.642625 0.023875
0.297006 0.640756 0.022006
0.363887 0.638888 0.020137
0.430769 0.637019 0.018269
0.497650 0.635150 0.016400
0.564531 0.633281 0.014531
0.631413 0.631413 0.012662
0.698294 0.629544 0.010794
0.765175 0.627675 0.008925
0.832056 0.625806 0.007056
0.898937 0.623938 0.005187
0.965819 0.622069 0.003319
1.000000 0.620200 0.001450
0.000000 0.715181 0.027681
0.025812 0.713313 0.025812
0.092694 0.711444 0.023944
0.159575 0.709575 0.022075
0.226456 0.707706 0.020206
0.293337 0.705838 0.018337
0.360219 0.703969 0.016469
0.427100 0.702100 0.014600
0.493981 0.700231 0.012731
0.560863 0.698362 0.010862
0.627744 0.696494 0.008994
0.694625 0.694625 0.007125
0.761506 0.692756 0.005256
0.828388 0.690887 0.003387
0.895269 0.689019 0.001519
0.962150 0.687150 0.000000
1.000000 0.685281 0.000000
0.000000 0.780263 0.024012
0.022144 0.778394 0.022144
0.089025 0.776525 0.020275
0.155906 0.774656 0.018406
0.222787 0.772787 0.016537
0.289669 0.770919 0.014669
0.356550 0.769050 0.012800
0.423431 0.767181 0.010931
0.490312 0.765313 0.009062
0.557194 0.763444 0.007194
0.624075 0.761575 0.005325
0.690956 0.759706 0.003456
0.757838 0.757838 0.001587
0.824719 0.755969 0.000000
0.891600 0.754100 0.000000
0.958481 0.752231 0.000000
1.000000 0.750363 0.000000
0.000000 0.845344 0.020344
0.018475 0.843475 0.018475
0.085356 0.841606 0.016606
0.152237 0.839738 0.014737
0.219119 0.837869 0.012869
0.286000 0.836000 0.011000
0.352881 0.834131 0.009131
0.419762 0.832263 0.007262
0.486644 0.830394 0.005394
0.553525 0.828525 0.003525
0.620406 0.826656 0.001656
0.687288 0.824788 0.000000
0.754169 0.822919 0.000000
0.821050 0.821050 0.000000
0.887931 0.819181 0.000000
0.954813 0.817312 0.000000
1.000000 0.815444 0.000000
0.000000 0.910425 0.016675
0.014806 0.908556 0.014806
0.081687 0.906688 0.012937
0.148569 0.904819 0.011069
0.215450 0.902950 0.009200
0.282331 0.901081 0.007331
0.349212 0.899212 0.005462
0.416094 0.897344 0.003594
0.482975 0.895475 0.001725
0.549856 0.893606 0.000000
0.616737 0.891738 0.000000
0.683619 0.889869 0.000000
0.750500 0.888000 0.000000
0.817381 0.886131 0.000000
0.884262 0.884262 0.000000
0.951144 0.882394 0.000000
1.000000 0.880525 0.000000
0.000000 0.975506 0.013006
0.011137 0.973638 0.011137
0.078019 0.971769 0.009269
0.144900 0.969900 0.007400
0.211781 0.968031 0.005531
0.278662 0.966163 0.003662
0.345544 0.964294 0.001794
0.412425 0.962425 0.000000
0.479306 0.960556 0.000000
0.546188 0.958688 0.000000
0.613069 0.956819 0.000000
0.679950 0.954950 0.000000
0.746831 0.953081 0.000000
0.813712 0.951213 0.000000
0.880594 0.949344 0.000000
0.947475 0.947475 0.000000
1.000000 0.945606 0.000000
0.000000 1.000000 0.009337
0.007469 1.000000 0.007469
0.074350 1.000000 0.005600
0.141231 1.000000 0.003731
0.208112 1.000000 0.001862
0.274994 1.000000 0.000000
0.341875 1.000000 0.000000
0.408756 1.000000 0.000000
0.475637 1.000000 0.000000
0.542519 1.000000 0.000000
0.609400 1.000000 0.000000
0.676281 1.000000 0.000000
0.743162 1.000000 0.000000
0.810044 1.000000 0.000000
0.876925 1.000000 0.000000
0.943806 1.000000 0.000000
1.000000 1.000000 0.000000
0.000000 0.000000 0.136075
0.065456 0.000000 0.134206
0.132337 0.000000 0.132337
0.199219 0.000000 0.130469
0.266100 0.000000 0.128600
0.332981 0.000000 0.126731
0.399863 0.000000 0.124863
0.466744 0.000000 0.122994
0.533625 0.000000 0.121125
0.600506 0.000000 0.119256
0.667388 0.000000 0.117387
0.734269 0.000000 0.115519
0.801150 0.000000 0.113650
0.868031 0.000000 0.111781
0.934913 0.000000 0.109912
1.000000 0.000000 0.108044
1.000000 0.000000 0.106175
0.000000 0.063656 0.132406
0.061788 0.061788 0.130538
0.128669 0.059919 0.128669
0.195550 0.058050 0.126800
0.262431 0.056181 0.124931
0.329313 0.054312 0.123062
0.396194 0.052444 0.121194
0.463075 0.050575 0.119325
0.529956 0.048706 0.117456
0.596838 0.046837 0.115587
0.663719 0.044969 0.113719
0.730600 0.043100 0.111850
0.797481 0.041231 0.109981
0.864363 0.039362 0.108112
0.931244 0.037494 0.106244
0.998125 0.035625 0.104375
1.000000 0.033756 0.102506
0.000000 0.128738 0.128738
0.058119 0.126869 0.126869
0.125000 0.125000 0.125000
0.191881 0.123131 0.123131
0.258763 0.121262 0.121262
0.325644 0.119394 0.119394
0.392525 0.117525 0.117525
0.459406 0.115656 0.115656
0.526288 0.113787 0.113787
0.593169 0.111919 0.111919
0.660050 0.110050 0.110050
0.726931 0.108181 0.108181
0.793813 0.106312 0.106312
0.860694 0.104444 0.104444
0.927575 0.102575 0.102575
0.994456 0.100706 0.100706
1.000000 0.098837 0.098837
0.000000 0.193819 0.125069
0.054450 0.191950 0.123200
0.121331 0.190081 0.121331
0.188213 0.188213 0.119462
0.255094 0.186344 0.117594
0.321975 0.184475 0.115725
0.388856 0.182606 0.113856
0.455738 0.180737 0.111987
0.522619 0.178869 0.110119
0.589500 0.177000 0.108250
0.656381 0.175131 0.106381
0.723263 0.173262 0.104512
0.790144 0.171394 0.102644
0.857025 0.169525 0.100775
0.923906 0.167656 0.098906
0.990787 0.165787 0.097037
1.000000 0.163919 0.095169
0.000000 0.258900 0.121400
0.050781 0.257031 0.119531
0.117662 0.255163 0.117662
0.184544 0.253294 0.115794
0.251425 0.251425 0.113925
0.318306 0.249556 0.112056
0.385188 0.247688 0.110187
0.452069 0.245819 0.108319
0.518950 0.243950 0.106450
0.585831 0.242081 0.104581
0.652713 0.240212 0.102712
0.719594 0.238344 0.100844
0.786475 0.236475 0.098975
0.853356 0.234606 0.097106
0.920238 0.232737 0.095237
0.987119 0.230869 0.093369
1.000000 0.229000 0.091500
0.000000 0.323981 0.117731
0.047113 0.322113 0.115862
0.113994 0.320244 0.113994
0.180875 0.318375 0.112125
0.247756 0.316506 0.110256
0.314638 0.314638 0.108387
0.381519 0.312769 0.106519
0.448400 0.310900 0.104650
0.515281 0.309031 0.102781
0.582163 0.307163 0.100912
0.649044 0.305294 0.099044
0.715925 0.303425 0.097175
0.782806 0.301556 0.095306
0.849688 0.299687 0.093437
0.916569 0.297819 0.091569
0.983450 0.295950 0.089700
1.000000 0.294081 0.087831
0.000000 0.389062 0.114062
0.043444 0.387194 0.112194
0.110325 0.385325 0.110325
0.177206 0.383456 0.108456
0.244088 0.381588 0.106587
0.310969 0.379719 0.104719
0.377850 0.377850 0.102850
0.444731 0.375981 0.100981
0.511613 0.374113 0.099112
0.578494 0.372244 0.097244
0.645375 0.370375 0.095375
0.712256 0.368506 0.093506
0.779138 0.366638 0.091637
0.846019 0.364769 0.089769
0.912900 0.362900 0.087900
0.979781 0.361031 0.086031
1.000000 0.359162 0.084162
0.000000 0.454144 0.110394
0.039775 0.452275 0.108525
0.106656 0.450406 0.106656
0.173537 0.448538 0.104787
0.240419 0.446669 0.102919
0.307300 0.444800 0.101050
0.374181 0.442931 0.099181
0.441063 0.441063 0.097312
0.507944 0.439194 0.095444
0.574825 0.437325 0.093575
0.641706 0.435456 0.091706
0.708588 0.433588 0.089837
0.775469 0.431719 0.087969
0.842350 0.429850 0.086100
0.909231 0.427981 0.084231
0.976113 0.426113 0.082362
1.000000 0.424244 0.080494
0.000000 0.519225 0.106725
0.036106 0.517356 0.104856
0.102987 0.515487 0.102987
0.169869 0.513619 0.101119
0.236750 0.511750 0.099250
0.303631 0.509881 0.097381
0.370513 0.508012 0.095513
0.437394 0.506144 0.093644
0.504275 0.504275 0.091775
0.571156 0.502406 0.089906
0.638038 0.500537 0.088037
0.704919 0.498669 0.086169
0.771800 0.496800 0.084300
0.838681 0.494931 0.082431
0.905563 0.493063 0.080562
0.972444 0.491194 0.078694
1.000000 0.489325 0.076825
0.000000 0.584306 0.103056
0.032437 0.582438 0.101187
0.099319 0.580569 0.099319
0.166200 0.578700 0.097450
0.233081 0.576831 0.095581
0.299963 0.574963 0.093712
0.366844 0.573094 0.091844
0.433725 0.571225 0.089975
0.500606 0.569356 0.088106
0.567488 0.567488 0.086237
0.634369 0.565619 0.084369
0.701250 0.563750 0.082500
0.768131 0.561881 0.080631
0.835013 0.560013 0.078762
0.901894 0.558144 0.076894
0.968775 0.556275 0.075025
1.000000 0.554406 0.073156
0.000000 0.649388 0.099387
0.028769 0.647519 0.097519
0.095650 0.645650 0.095650
0.162531 0.643781 0.093781
0.229412 0.641912 0.091912
0.296294 0.640044 0.090044
0.363175 0.638175 0.088175
0.430056 0.636306 0.086306
0.496938 0.634437 0.084437
0.563819 0.632569 0.082569
0.630700 0.630700 0.080700
0.697581 0.628831 0.078831
0.764463 0.626962 0.076962
0.831344 0.625094 0.075094
0.898225 0.623225 0.073225
0.965106 0.621356 0.071356
1.000000 0.619487 0.069487
0.000000 0.714469 0.095719
0.025100 0.712600 0.093850
0.091981 0.710731 0.091981
0.158862 0.708862 0.090112
0.225744 0.706994 0.088244
0.292625 0.705125 0.086375
0.359506 0.703256 0.084506
0.426387 0.701388 0.082637
0.493269 0.699519 0.080769
0.560150 0.697650 0.078900
0.627031 0.695781 0.077031
0.693913 0.693913 0.075163
0.760794 0.692044 0.073294
0.827675 0.690175 0.071425
0.894556 0.688306 0.069556
0.961437 0.686438 0.067687
1.000000 0.684569 0.065819
0.000000 0.779550 0.092050
0.021431 0.777681 0.090181
0.088312 0.775813 0.088312
0.155194 0.773944 0.086444
0.222075 0.772075 0.084575
0.288956 0.770206 0.082706
0.355838 0.768338 0.080837
0.422719 0.766469 0.078969
0.489600 0.764600 0.077100
0.556481 0.762731 0.075231
0.623363 0.760862 0.073362
0.690244 0.758994 0.071494
0.757125 0.757125 0.069625
0.824006 0.755256 0.067756
0.890888 0.753387 0.065887
0.957769 0.751519 0.064019
1.000000 0.749650 0.062150
0.000000 0.844631 0.088381
0.017762 0.842763 0.086512
0.084644 0.840894 0.084644
0.151525 0.839025 0.082775
0.218406 0.837156 0.080906
0.285287 0.835287 0.079037
0.352169 0.833419 0.077169
0.419050 0.831550 0.075300
0.485931 0.829681 0.073431
0.552813 0.827813 0.071562
0.619694 0.825944 0.069694
0.686575 0.824075 0.067825
0.753456 0.822206 0.065956
0.820338 0.820338 0.064087
0.887219 0.818469 0.062219
0.954100 0.816600 0.060350
1.000000 0.814731 0.058481
0.000000 0.909713 0.084712
0.014094 0.907844 0.082844
0.080975 0.905975 0.080975
0.147856 0.904106 0.079106
0.214737 0.902238 0.077237
0.281619 0.900369 0.075369
0.348500 0.898500 0.073500
0.415381 0.896631 0.071631
0.482262 0.894763 0.069762
0.549144 0.892894 0.067894
0.616025 0.891025 0.066025
0.682906 0.889156 0.064156
0.749788 0.887288 0.062287
0.816669 0.885419 0.060419
0.883550 0.883550 0.058550
0.950431 0.881681 0.056681
1.000000 0.879812 0.054812
0.000000 0.974794 0.081044
0.010425 0.972925 0.079175
0.077306 0.971056 0.077306
0.144187 0.969188 0.075437
0.211069 0.967319 0.073569
0.277950 0.965450 0.071700
0.344831 0.963581 0.069831
0.411712 0.961712 0.067962
0.478594 0.959844 0.066094
0.545475 0.957975 0.064225
0.612356 0.956106 0.062356
0.679237 0.954238 0.060487
0.746119 0.952369 0.058619
0.813000 0.950500 0.056750
0.879881 0.948631 0.054881
0.946763 0.946763 0.053012
1.000000 0.944894 0.051144
0.000000 1.000000 0.077375
0.006756 1.000000 0.075506
0.073637 1.000000 0.073637
0.140519 1.000000 0.071769
0.207400 1.000000 0.069900
0.274281 1.000000 0.068031
0.341162 1.000000 0.066162
0.408044 1.000000 0.064294
0.474925 1.000000 0.062425
0.541806 1.000000 0.060556
0.608688 1.000000 0.058687
0.675569 1.000000 0.056819
0.742450 1.000000 0.054950
0.809331 1.000000 0.053081
0.876213 1.000000 0.051212
0.943094 1.000000 0.049344
1.000000 1.000000 0.047475
0.000000 0.000000 0.204113
0.064744 0.000000 0.202244
0.131625 0.000000 0.200375
0.198506 0.000000 0.198506
0.265387 0.000000 0.196638
0.332269 0.000000 0.194769
0.399150 0.000000 0.192900
0.466031 0.000000 0.191031
0.532913 0.000000 0.189163
0.599794 0.000000 0.187294
0.666675 0.000000 0.185425
0.733556 0.000000 0.183556
0.800438 0.000000 0.181688
0.867319 0.000000 0.179819
0.934200 0.000000 0.177950
1.000000 0.000000 0.176081
1.000000 0.000000 0.174212
0.000000 0.062944 0.200444
