ApexStudio/app/src/main/assets/luts/ultraviolet.cube
# ApexStudio filter: ultraviolet
LUT_3D_SIZE 9
DOMAIN_MIN 0.0 0.0 0.0
DOMAIN_MAX 1.0 1.0 1.0
0.000000 0.000000 0.000000
0.133763 0.000000 0.000000
0.267525 0.000000 0.000000
0.401288 0.000000 0.000000
0.535050 0.000000 0.000000
0.668813 0.000000 0.000000
0.802575 0.000000 0.000000
0.936338 0.000000 0.000000
1.000000 0.000000 0.000000
0.000000 0.130163 0.000000
0.126425 0.126425 0.000000
0.260188 0.122688 0.000000
0.393950 0.118950 0.000000
0.527713 0.115212 0.000000
0.661475 0.111475 0.000000
0.795238 0.107737 0.000000
0.929000 0.104000 0.000000
1.000000 0.100262 0.000000
0.000000 0.260325 0.000000
0.119087 0.256588 0.000000
0.252850 0.252850 0.000000
0.386613 0.249113 0.000000
0.520375 0.245375 0.000000
0.654138 0.241638 0.000000
0.787900 0.237900 0.000000
0.921663 0.234162 0.000000
1.000000 0.230425 0.000000
0.000000 0.390487 0.000000
0.111750 0.386750 0.000000
0.245512 0.383012 0.000000
0.379275 0.379275 0.000000
0.513038 0.375538 0.000000
0.646800 0.371800 0.000000
0.780563 0.368063 0.000000
0.914325 0.364325 0.000000
1.000000 0.360588 0.000000
0.000000 0.520650 0.000000
0.104412 0.516912 0.000000
0.238175 0.513175 0.000000
0.371937 0.509437 0.000000
0.505700 0.505700 0.000000
0.639463 0.501962 0.000000
0.773225 0.498225 0.000000
0.906988 0.494487 0.000000
1.000000 0.490750 0.000000
0.000000 0.650813 0.000000
0.097075 0.647075 0.000000
0.230838 0.643338 0.000000
0.364600 0.639600 0.000000
0.498362 0.635862 0.000000
0.632125 0.632125 0.000000
0.765888 0.628387 0.000000
0.899650 0.624650 0.000000
1.000000 0.620912 0.000000
0.000000 0.780975 0.000000
0.089737 0.777238 0.000000
0.223500 0.773500 0.000000
0.357262 0.769763 0.000000
0.491025 0.766025 0.000000
0.624788 0.762288 0.000000
0.758550 0.758550 0.000000
0.892313 0.754812 0.000000
1.000000 0.751075 0.000000
0.000000 0.911138 0.000000
0.082400 0.907400 0.000000
0.216162 0.903663 0.000000
0.349925 0.899925 0.000000
0.483687 0.896188 0.000000
0.617450 0.892450 0.000000
0.751212 0.888713 0.000000
0.884975 0.884975 0.000000
1.000000 0.881238 0.000000
0.000000 1.000000 0.000000
0.075062 1.000000 0.000000
0.208825 1.000000 0.000000
0.342587 1.000000 0.000000
0.476350 1.000000 0.000000
0.610113 1.000000 0.000000
0.743875 1.000000 0.000000
0.877637 1.000000 0.000000
1.000000 1.000000 0.000000
0.000000 0.000000 0.136075
0.132337 0.000000 0.132337
0.266100 0.000000 0.128600
0.399863 0.000000 0.124863
0.533625 0.000000 0.121125
0.667388 0.000000 0.117387
0.801150 0.000000 0.113650
0.934913 0.000000 0.109912
1.000000 0.000000 0.106175
0.000000 0.128738 0.128738
0.125000 0.125000 0.125000
0.258763 0.121262 0.121262
0.392525 0.117525 0.117525
0.526288 0.113787 0.113787
0.660050 0.110050 0.110050
0.793813 0.106312 0.106312
0.927575 0.102575 0.102575
1.000000 0.098837 0.098837
0.000000 0.258900 0.121400
0.117662 0.255163 0.117662
0.251425 0.251425 0.113925
0.385188 0.247688 0.110187
0.518950 0.243950 0.106450
0.652713 0.240212 0.102712
0.786475 0.236475 0.098975
0.920238 0.232737 0.095237
1.000000 0.229000 0.091500
0.000000 0.389062 0.114062
0.110325 0.385325 0.110325
0.244088 0.381588 0.106587
0.377850 0.377850 0.102850
0.511613 0.374113 0.099112
0.645375 0.370375 0.095375
0.779138 0.366638 0.091637
0.912900 0.362900 0.087900
1.000000 0.359162 0.084162
0.000000 0.519225 0.106725
0.102987 0.515487 0.102987
0.236750 0.511750 0.099250
0.370513 0.508012 0.095513
0.504275 0.504275 0.091775
0.638038 0.500537 0.088037
0.771800 0.496800 0.084300
0.905563 0.493063 0.080562
1.000000 0.489325 0.076825
0.000000 0.649388 0.099387
0.095650 0.645650 0.095650
0.229412 0.641912 0.091912
0.363175 0.638175 0.088175
0.496938 0.634437 0.084437
0.630700 0.630700 0.080700
0.764463 0.626962 0.076962
0.898225 0.623225 0.073225
1.000000 0.619487 0.069487
0.000000 0.779550 0.092050
0.088312 0.775813 0.088312
0.222075 0.772075 0.084575
0.355838 0.768338 0.080837
0.489600 0.764600 0.077100
0.623363 0.760862 0.073362
0.757125 0.757125 0.069625
0.890888 0.753387 0.065887
1.000000 0.749650 0.062150
0.000000 0.909713 0.084712
0.080975 0.905975 0.080975
0.214737 0.902238 0.077237
0.348500 0.898500 0.073500
0.482262 0.894763 0.069762
0.616025 0.891025 0.066025
0.749788 0.887288 0.062287
0.883550 0.883550 0.058550
1.000000 0.879812 0.054812
0.000000 1.000000 0.077375
0.073637 1.000000 0.073637
0.207400 1.000000 0.069900
0.341162 1.000000 0.066162
0.474925 1.000000 0.062425
0.608688 1.000000 0.058687
0.742450 1.000000 0.054950
0.876213 1.000000 0.051212
1.000000 1.000000 0.047475
0.000000 0.000000 0.272150
0.130912 0.000000 0.268412
0.264675 0.000000 0.264675
0.398438 0.000000 0.260938
0.532200 0.000000 0.257200
0.665963 0.000000 0.253463
0.799725 0.000000 0.249725
0.933488 0.000000 0.245987
1.000000 0.000000 0.242250
0.000000 0.127312 0.264813
0.123575 0.123575 0.261075
0.257337 0.119837 0.257337
0.391100 0.116100 0.253600
0.524863 0.112362 0.249862
0.658625 0.108625 0.246125
0.792388 0.104887 0.242387
0.926150 0.101150 0.238650
1.000000 0.097412 0.234912
0.000000 0.257475 0.257475
0.116237 0.253738 0.253738
0.250000 0.250000 0.250000
0.383763 0.246262 0.246262
0.517525 0.242525 0.242525
0.651288 0.238787 0.238787
0.785050 0.235050 0.235050
0.918813 0.231312 0.231312
1.000000 0.227575 0.227575
0.000000 0.387638 0.250138
0.108900 0.383900 0.246400
0.242663 0.380163 0.242663
0.376425 0.376425 0.238925
0.510188 0.372688 0.235187
0.643950 0.368950 0.231450
0.777713 0.365212 0.227712
0.911475 0.361475 0.223975
1.000000 0.357737 0.220237
0.000000 0.517800 0.242800
0.101562 0.514062 0.239062
0.235325 0.510325 0.235325
0.369088 0.506587 0.231587
0.502850 0.502850 0.227850
0.636613 0.499113 0.224112
0.770375 0.495375 0.220375
0.904138 0.491638 0.216637
1.000000 0.487900 0.212900
0.000000 0.647962 0.235462
0.094225 0.644225 0.231725
0.227987 0.640487 0.227987
0.361750 0.636750 0.224250
0.495513 0.633012 0.220513
0.629275 0.629275 0.216775
0.763038 0.625537 0.213037
0.896800 0.621800 0.209300
1.000000 0.618062 0.205562
0.000000 0.778125 0.228125
0.086887 0.774388 0.224387
0.220650 0.770650 0.220650
0.354413 0.766912 0.216912
0.488175 0.763175 0.213175
0.621938 0.759437 0.209437
0.755700 0.755700 0.205700
0.889463 0.751962 0.201962
1.000000 0.748225 0.198225
0.000000 0.908288 0.220787
0.079550 0.904550 0.217050
0.213312 0.900813 0.213312
0.347075 0.897075 0.209575
0.480838 0.893338 0.205837
0.614600 0.889600 0.202100
0.748363 0.885862 0.198362
0.882125 0.882125 0.194625
1.000000 0.878387 0.190887
0.000000 1.000000 0.213450
0.072212 1.000000 0.209712
0.205975 1.000000 0.205975
0.339737 1.000000 0.202237
0.473500 1.000000 0.198500
0.607263 1.000000 0.194762
0.741025 1.000000 0.191025
0.874788 1.000000 0.187287
1.000000 1.000000 0.183550
0.000000 0.000000 0.408225
0.129488 0.000000 0.404487
0.263250 0.000000 0.400750
0.397012 0.000000 0.397012
0.530775 0.000000 0.393275
0.664538 0.000000 0.389537
0.798300 0.000000 0.385800
0.932063 0.000000 0.382062
1.000000 0.000000 0.378325
0.000000 0.125887 0.400887
0.122150 0.122150 0.397150
0.255912 0.118412 0.393413
0.389675 0.114675 0.389675
0.523438 0.110937 0.385938
0.657200 0.107200 0.382200
0.790963 0.103462 0.378462
0.924725 0.099725 0.374725
1.000000 0.095987 0.370987
0.000000 0.256050 0.393550
0.114812 0.252312 0.389813
0.248575 0.248575 0.386075
0.382337 0.244837 0.382337
0.516100 0.241100 0.378600
0.649863 0.237363 0.374862
0.783625 0.233625 0.371125
0.917388 0.229887 0.367387
1.000000 0.226150 0.363650
0.000000 0.386213 0.386213
0.107475 0.382475 0.382475
0.241237 0.378738 0.378738
0.375000 0.375000 0.375000
0.508763 0.371262 0.371262
0.642525 0.367525 0.367525
0.776288 0.363787 0.363787
0.910050 0.360050 0.360050
1.000000 0.356313 0.356313
0.000000 0.516375 0.378875
0.100137 0.512638 0.375138
0.233900 0.508900 0.371400
0.367663 0.505162 0.367663
0.501425 0.501425 0.363925
0.635188 0.497688 0.360187
0.768950 0.493950 0.356450
0.902713 0.490212 0.352712
1.000000 0.486475 0.348975
0.000000 0.646537 0.371538
0.092800 0.642800 0.367800
0.226562 0.639062 0.364063
0.360325 0.635325 0.360325
0.494088 0.631587 0.356588
0.627850 0.627850 0.352850
0.761613 0.624113 0.349112
0.895375 0.620375 0.345375
1.000000 0.616637 0.341637
0.000000 0.776700 0.364200
0.085462 0.772962 0.360463
0.219225 0.769225 0.356725
0.352988 0.765487 0.352988
0.486750 0.761750 0.349250
0.620513 0.758012 0.345513
0.754275 0.754275 0.341775
0.888038 0.750537 0.338037
1.000000 0.746800 0.334300
0.000000 0.906863 0.356862
0.078125 0.903125 0.353125
0.211887 0.899388 0.349387
0.345650 0.895650 0.345650
0.479413 0.891912 0.341912
0.613175 0.888175 0.338175
0.746938 0.884437 0.334437
0.880700 0.880700 0.330700
1.000000 0.876962 0.326962
0.000000 1.000000 0.349525
0.070788 1.000000 0.345787
0.204550 1.000000 0.342050
0.338312 1.000000 0.338312
0.472075 1.000000 0.334575
0.605838 1.000000 0.330837
0.739600 1.000000 0.327100
0.873363 1.000000 0.323362
1.000000 1.000000 0.319625
0.000000 0.000000 0.544300
0.128062 0.000000 0.540563
0.261825 0.000000 0.536825
0.395587 0.000000 0.533088
0.529350 0.000000 0.529350
0.663113 0.000000 0.525613
0.796875 0.000000 0.521875
0.930638 0.000000 0.518138
1.000000 0.000000 0.514400
0.000000 0.124463 0.536963
0.120725 0.120725 0.533225
0.254487 0.116987 0.529487
0.388250 0.113250 0.525750
0.522012 0.109512 0.522012
0.655775 0.105775 0.518275
0.789538 0.102038 0.514537
0.923300 0.098300 0.510800
1.000000 0.094562 0.507062
0.000000 0.254625 0.529625
0.113388 0.250887 0.525888
0.247150 0.247150 0.522150
0.380912 0.243413 0.518413
0.514675 0.239675 0.514675
0.648438 0.235937 0.510938
0.782200 0.232200 0.507200
0.915963 0.228462 0.503463
1.000000 0.224725 0.499725
0.000000 0.384788 0.522288
0.106050 0.381050 0.518550
0.239812 0.377312 0.514813
0.373575 0.373575 0.511075
0.507337 0.369837 0.507337
0.641100 0.366100 0.503600
0.774863 0.362362 0.499862
0.908625 0.358625 0.496125
1.000000 0.354888 0.492387
0.000000 0.514950 0.514950
0.098712 0.511213 0.511213
0.232475 0.507475 0.507475
0.366237 0.503737 0.503737
0.500000 0.500000 0.500000
0.633763 0.496262 0.496262
0.767525 0.492525 0.492525
0.901288 0.488787 0.488787
1.000000 0.485050 0.485050
0.000000 0.645112 0.507613
0.091375 0.641375 0.503875
0.225137 0.637638 0.500138
0.358900 0.633900 0.496400
0.492663 0.630162 0.492663
0.626425 0.626425 0.488925
0.760188 0.622687 0.485187
0.893950 0.618950 0.481450
1.000000 0.615212 0.477712
0.000000 0.775275 0.500275
0.084037 0.771537 0.496537
0.217800 0.767800 0.492800
0.351562 0.764062 0.489062
0.485325 0.760325 0.485325
0.619088 0.756587 0.481587
0.752850 0.752850 0.477850
0.886613 0.749112 0.474112
1.000000 0.745375 0.470375
0.000000 0.905438 0.492937
0.076700 0.901700 0.489200
0.210462 0.897962 0.485463
0.344225 0.894225 0.481725
0.477988 0.890487 0.477988
0.611750 0.886750 0.474250
0.745513 0.883012 0.470512
0.879275 0.879275 0.466775
1.000000 0.875537 0.463037
0.000000 1.000000 0.485600
0.069362 1.000000 0.481862
0.203125 1.000000 0.478125
0.336887 1.000000 0.474387
0.470650 1.000000 0.470650
0.604413 1.000000 0.466912
0.738175 1.000000 0.463175
0.871938 1.000000 0.459437
1.000000 1.000000 0.455700
0.000000 0.000000 0.680375
0.126638 0.000000 0.676638
0.260400 0.000000 0.672900
0.394163 0.000000 0.669163
0.527925 0.000000 0.665425
0.661687 0.000000 0.661687
0.795450 0.000000 0.657950
0.929212 0.000000 0.654213
1.000000 0.000000 0.650475
0.000000 0.123037 0.673038
0.119300 0.119300 0.669300
0.253063 0.115562 0.665563
0.386825 0.111825 0.661825
0.520587 0.108087 0.658088
0.654350 0.104350 0.654350
0.788112 0.100612 0.650613
0.921875 0.096875 0.646875
1.000000 0.093137 0.643138
0.000000 0.253200 0.665700
0.111962 0.249463 0.661963
0.245725 0.245725 0.658225
0.379487 0.241987 0.654487
0.513250 0.238250 0.650750
0.647012 0.234512 0.647012
0.780775 0.230775 0.643275
0.914538 0.227038 0.639537
1.000000 0.223300 0.635800
0.000000 0.383362 0.658362
0.104625 0.379625 0.654625
0.238387 0.375887 0.650888
0.372150 0.372150 0.647150
0.505912 0.368412 0.643413
0.639675 0.364675 0.639675
0.773438 0.360938 0.635938
0.907200 0.357200 0.632200
1.000000 0.353463 0.628463
0.000000 0.513525 0.651025
0.097287 0.509788 0.647288
0.231050 0.506050 0.643550
0.364812 0.502313 0.639813
0.498575 0.498575 0.636075
0.632337 0.494837 0.632337
0.766100 0.491100 0.628600
0.899863 0.487362 0.624862
1.000000 0.483625 0.621125
0.000000 0.643687 0.643687
0.089950 0.639950 0.639950
0.223712 0.636213 0.636213
0.357475 0.632475 0.632475
0.491237 0.628737 0.628737
0.625000 0.625000 0.625000
0.758763 0.621263 0.621263
0.892525 0.617525 0.617525
1.000000 0.613787 0.613787
0.000000 0.773850 0.636350
0.082612 0.770112 0.632613
0.216375 0.766375 0.628875
0.350137 0.762638 0.625138
0.483900 0.758900 0.621400
0.617663 0.755162 0.617663
0.751425 0.751425 0.613925
0.885188 0.747687 0.610187
1.000000 0.743950 0.606450
0.000000 0.904012 0.629012
0.075275 0.900275 0.625275
0.209037 0.896537 0.621537
0.342800 0.892800 0.617800
0.476562 0.889062 0.614062
0.610325 0.885325 0.610325
0.744088 0.881587 0.606587
0.877850 0.877850 0.602850
1.000000 0.874112 0.599112
0.000000 1.000000 0.621675
0.067937 1.000000 0.617938
0.201700 1.000000 0.614200
0.335462 1.000000 0.610463
0.469225 1.000000 0.606725
0.602988 1.000000 0.602988
0.736750 1.000000 0.599250
0.870513 1.000000 0.595513
1.000000 1.000000 0.591775
0.000000 0.000000 0.816450
0.125213 0.000000 0.812712
0.258975 0.000000 0.808975
0.392738 0.000000 0.805238
0.526500 0.000000 0.801500
0.660262 0.000000 0.797763
0.794025 0.000000 0.794025
0.927788 0.000000 0.790288
1.000000 0.000000 0.786550
0.000000 0.121612 0.809113
0.117875 0.117875 0.805375
0.251638 0.114137 0.801638
0.385400 0.110400 0.797900
0.519162 0.106662 0.794163
0.652925 0.102925 0.790425
0.786687 0.099187 0.786687
0.920450 0.095450 0.782950
1.000000 0.091712 0.779213
0.000000 0.251775 0.801775
0.110537 0.248037 0.798038
0.244300 0.244300 0.794300
0.378063 0.240563 0.790563
0.511825 0.236825 0.786825
0.645587 0.233087 0.783088
0.779350 0.229350 0.779350
0.913112 0.225612 0.775613
1.000000 0.221875 0.771875
0.000000 0.381938 0.794438
0.103200 0.378200 0.790700
0.236962 0.374462 0.786963
0.370725 0.370725 0.783225
0.504487 0.366988 0.779487
0.638250 0.363250 0.775750
0.772012 0.359513 0.772012
0.905775 0.355775 0.768275
1.000000 0.352038 0.764537
0.000000 0.512100 0.787100
0.095862 0.508363 0.783362
0.229625 0.504625 0.779625
0.363387 0.500888 0.775888
0.497150 0.497150 0.772150
0.630912 0.493412 0.768413
0.764675 0.489675 0.764675
0.898438 0.485938 0.760938
1.000000 0.482200 0.757200
0.000000 0.642262 0.779763
0.088525 0.638525 0.776025
0.222287 0.634788 0.772288
0.356050 0.631050 0.768550
0.489812 0.627313 0.764813
0.623575 0.623575 0.761075
0.757337 0.619838 0.757337
0.891100 0.616100 0.753600
1.000000 0.612362 0.749862
0.000000 0.772425 0.772425
0.081187 0.768687 0.768687
0.214950 0.764950 0.764950
0.348712 0.761213 0.761213
0.482475 0.757475 0.757475
0.616237 0.753737 0.753737
0.750000 0.750000 0.750000
0.883763 0.746263 0.746263
1.000000 0.742525 0.742525
0.000000 0.902588 0.765088
0.073850 0.898850 0.761350
0.207612 0.895112 0.757613
0.341375 0.891375 0.753875
0.475137 0.887638 0.750138
0.608900 0.883900 0.746400
0.742663 0.880162 0.742663
0.876425 0.876425 0.738925
1.000000 0.872687 0.735187
0.000000 1.000000 0.757750
0.066512 1.000000 0.754012
0.200275 1.000000 0.750275
0.334037 1.000000 0.746537
0.467800 1.000000 0.742800
0.601562 1.000000 0.739062
0.735325 1.000000 0.735325
0.869088 1.000000 0.731587
1.000000 1.000000 0.727850
0.000000 0.000000 0.952525
0.123787 0.000000 0.948788
0.257550 0.000000 0.945050
0.391313 0.000000 0.941313
0.525075 0.000000 0.937575
0.658837 0.000000 0.933838
0.792600 0.000000 0.930100
0.926363 0.000000 0.926363
1.000000 0.000000 0.922625
0.000000 0.120188 0.945188
0.116450 0.116450 0.941450
0.250213 0.112712 0.937712
0.383975 0.108975 0.933975
0.517737 0.105237 0.930238
0.651500 0.101500 0.926500
0.785262 0.097762 0.922763
0.919025 0.094025 0.919025
1.000000 0.090287 0.915288
0.000000 0.250350 0.937850
0.109112 0.246613 0.934113
0.242875 0.242875 0.930375
0.376638 0.239138 0.926638
0.510400 0.235400 0.922900
0.644162 0.231662 0.919163
0.777925 0.227925 0.915425
0.911687 0.224187 0.911687
1.000000 0.220450 0.907950
0.000000 0.380513 0.930513
0.101775 0.376775 0.926775
0.235537 0.373038 0.923038
0.369300 0.369300 0.919300
0.503062 0.365563 0.915563
0.636825 0.361825 0.911825
0.770587 0.358088 0.908088
0.904350 0.354350 0.904350
1.000000 0.350612 0.900613
0.000000 0.510675 0.923175
0.094437 0.506938 0.919438
0.228200 0.503200 0.915700
0.361962 0.499462 0.911963
0.495725 0.495725 0.908225
0.629487 0.491988 0.904487
0.763250 0.488250 0.900750
0.897012 0.484513 0.897012
1.000000 0.480775 0.893275
0.000000 0.640838 0.915838
0.087100 0.637100 0.912100
0.220862 0.633363 0.908362
0.354625 0.629625 0.904625
0.488387 0.625888 0.900888
0.622150 0.622150 0.897150
0.755912 0.618413 0.893413
0.889675 0.614675 0.889675
1.000000 0.610938 0.885938
0.000000 0.771000 0.908500
0.079762 0.767262 0.904763
0.213525 0.763525 0.901025
0.347287 0.759788 0.897288
0.481050 0.756050 0.893550
0.614812 0.752313 0.889813
0.748575 0.748575 0.886075
0.882337 0.744838 0.882337
1.000000 0.741100 0.878600
0.000000 0.901163 0.901163
0.072425 0.897425 0.897425
0.206187 0.893687 0.893687
0.339950 0.889950 0.889950
0.473712 0.886213 0.886213
0.607475 0.882475 0.882475
0.741237 0.878737 0.878737
0.875000 0.875000 0.875000
1.000000 0.871263 0.871263
0.000000 1.000000 0.893825
0.065087 1.000000 0.890088
0.198850 1.000000 0.886350
0.332612 1.000000 0.882613
0.466375 1.000000 0.878875
0.600137 1.000000 0.875138
0.733900 1.000000 0.871400
0.867663 1.000000 0.867663
1.000000 1.000000 0.863925
0.000000 0.000000 1.000000
0.122362 0.000000 1.000000
0.256125 0.000000 1.000000
0.389887 0.000000 1.000000
0.523650 0.000000 1.000000
0.657412 0.000000 1.000000
0.791175 0.000000 1.000000
0.924938 0.000000 1.000000
1.000000 0.000000 1.000000
0.000000 0.118762 1.000000
0.115025 0.115025 1.000000
0.248787 0.111287 1.000000
0.382550 0.107550 1.000000
0.516312 0.103812 1.000000
0.650075 0.100075 1.000000
0.783837 0.096337 1.000000
0.917600 0.092600 1.000000
1.000000 0.088862 1.000000
0.000000 0.248925 1.000000
0.107687 0.245188 1.000000
0.241450 0.241450 1.000000
0.375213 0.237712 1.000000
0.508975 0.233975 1.000000
0.642737 0.230237 1.000000
0.776500 0.226500 1.000000
0.910262 0.222762 1.000000
1.000000 0.219025 1.000000
0.000000 0.379088 1.000000
0.100350 0.375350 1.000000
0.234112 0.371613 1.000000
0.367875 0.367875 1.000000
0.501637 0.364138 1.000000
0.635400 0.360400 1.000000
0.769162 0.356662 1.000000
0.902925 0.352925 1.000000
1.000000 0.349187 1.000000
0.000000 0.509250 1.000000
0.093012 0.505513 1.000000
0.226775 0.501775 1.000000
0.360537 0.498038 1.000000
0.494300 0.494300 1.000000
0.628062 0.490563 1.000000
0.761825 0.486825 1.000000
0.895587 0.483088 1.000000
1.000000 0.479350 1.000000
0.000000 0.639413 1.000000
0.085675 0.635675 1.000000
0.219438 0.631938 1.000000
0.353200 0.628200 1.000000
0.486962 0.624463 1.000000
0.620725 0.620725 1.000000
0.754487 0.616988 1.000000
0.888250 0.613250 1.000000
1.000000 0.609513 1.000000
0.000000 0.769575 1.000000
0.078337 0.765838 1.000000
0.212100 0.762100 1.000000
0.345862 0.758363 1.000000
0.479625 0.754625 1.000000
0.613387 0.750888 1.000000
0.747150 0.747150 1.000000
0.880912 0.743413 1.000000
1.000000 0.739675 1.000000
0.000000 0.899738 1.000000
0.071000 0.896000 1.000000
0.204762 0.892262 1.000000
0.338525 0.888525 1.000000
0.472287 0.884788 1.000000
0.606050 0.881050 1.000000
0.739812 0.877313 1.000000
0.873575 0.873575 1.000000
1.000000 0.869838 1.000000
0.000000 1.000000 1.000000
0.063662 1.000000 1.000000
0.197425 1.000000 1.000000
0.331187 1.000000 1.000000
0.464950 1.000000 1.000000
0.598712 1.000000 1.000000
0.732475 1.000000 1.000000
0.866237 1.000000 1.000000
1.000000 1.000000 1.000000
