app/src/main/assets/luts/agfa_vista.cube
# ApexStudio filter: agfa_vista
LUT_3D_SIZE 17
DOMAIN_MIN 0.0 0.0 0.0
DOMAIN_MAX 1.0 1.0 1.0
0.040000 0.060000 0.020000
0.108750 0.060000 0.020000
0.177500 0.060000 0.020000
0.246250 0.060000 0.020000
0.315000 0.060000 0.020000
0.383750 0.060000 0.020000
0.452500 0.060000 0.020000
0.521250 0.060000 0.020000
0.590000 0.060000 0.020000
0.658750 0.060000 0.020000
0.727500 0.060000 0.020000
0.796250 0.060000 0.020000
0.865000 0.060000 0.020000
0.933750 0.060000 0.020000
1.000000 0.060000 0.020000
1.000000 0.060000 0.020000
1.000000 0.060000 0.020000
0.040000 0.131875 0.020000
0.108750 0.131875 0.020000
0.177500 0.131875 0.020000
0.246250 0.131875 0.020000
0.315000 0.131875 0.020000
0.383750 0.131875 0.020000
0.452500 0.131875 0.020000
0.521250 0.131875 0.020000
0.590000 0.131875 0.020000
0.658750 0.131875 0.020000
0.727500 0.131875 0.020000
0.796250 0.131875 0.020000
0.865000 0.131875 0.020000
0.933750 0.131875 0.020000
1.000000 0.131875 0.020000
1.000000 0.131875 0.020000
1.000000 0.131875 0.020000
0.040000 0.203750 0.020000
0.108750 0.203750 0.020000
0.177500 0.203750 0.020000
0.246250 0.203750 0.020000
0.315000 0.203750 0.020000
0.383750 0.203750 0.020000
0.452500 0.203750 0.020000
0.521250 0.203750 0.020000
0.590000 0.203750 0.020000
0.658750 0.203750 0.020000
0.727500 0.203750 0.020000
0.796250 0.203750 0.020000
0.865000 0.203750 0.020000
0.933750 0.203750 0.020000
1.000000 0.203750 0.020000
1.000000 0.203750 0.020000
1.000000 0.203750 0.020000
0.040000 0.275625 0.020000
0.108750 0.275625 0.020000
0.177500 0.275625 0.020000
0.246250 0.275625 0.020000
0.315000 0.275625 0.020000
0.383750 0.275625 0.020000
0.452500 0.275625 0.020000
0.521250 0.275625 0.020000
0.590000 0.275625 0.020000
0.658750 0.275625 0.020000
0.727500 0.275625 0.020000
0.796250 0.275625 0.020000
0.865000 0.275625 0.020000
0.933750 0.275625 0.020000
1.000000 0.275625 0.020000
1.000000 0.275625 0.020000
1.000000 0.275625 0.020000
0.040000 0.347500 0.020000
0.108750 0.347500 0.020000
0.177500 0.347500 0.020000
0.246250 0.347500 0.020000
0.315000 0.347500 0.020000
0.383750 0.347500 0.020000
0.452500 0.347500 0.020000
0.521250 0.347500 0.020000
0.590000 0.347500 0.020000
0.658750 0.347500 0.020000
0.727500 0.347500 0.020000
0.796250 0.347500 0.020000
0.865000 0.347500 0.020000
0.933750 0.347500 0.020000
1.000000 0.347500 0.020000
1.000000 0.347500 0.020000
1.000000 0.347500 0.020000
0.040000 0.419375 0.020000
0.108750 0.419375 0.020000
0.177500 0.419375 0.020000
0.246250 0.419375 0.020000
0.315000 0.419375 0.020000
0.383750 0.419375 0.020000
0.452500 0.419375 0.020000
0.521250 0.419375 0.020000
0.590000 0.419375 0.020000
0.658750 0.419375 0.020000
0.727500 0.419375 0.020000
0.796250 0.419375 0.020000
0.865000 0.419375 0.020000
0.933750 0.419375 0.020000
1.000000 0.419375 0.020000
1.000000 0.419375 0.020000
1.000000 0.419375 0.020000
0.040000 0.491250 0.020000
0.108750 0.491250 0.020000
0.177500 0.491250 0.020000
0.246250 0.491250 0.020000
0.315000 0.491250 0.020000
0.383750 0.491250 0.020000
0.452500 0.491250 0.020000
0.521250 0.491250 0.020000
0.590000 0.491250 0.020000
0.658750 0.491250 0.020000
0.727500 0.491250 0.020000
0.796250 0.491250 0.020000
0.865000 0.491250 0.020000
0.933750 0.491250 0.020000
1.000000 0.491250 0.020000
1.000000 0.491250 0.020000
1.000000 0.491250 0.020000
0.040000 0.563125 0.020000
0.108750 0.563125 0.020000
0.177500 0.563125 0.020000
0.246250 0.563125 0.020000
0.315000 0.563125 0.020000
0.383750 0.563125 0.020000
0.452500 0.563125 0.020000
0.521250 0.563125 0.020000
0.590000 0.563125 0.020000
0.658750 0.563125 0.020000
0.727500 0.563125 0.020000
0.796250 0.563125 0.020000
0.865000 0.563125 0.020000
0.933750 0.563125 0.020000
1.000000 0.563125 0.020000
1.000000 0.563125 0.020000
1.000000 0.563125 0.020000
0.040000 0.635000 0.020000
0.108750 0.635000 0.020000
0.177500 0.635000 0.020000
0.246250 0.635000 0.020000
0.315000 0.635000 0.020000
0.383750 0.635000 0.020000
0.452500 0.635000 0.020000
0.521250 0.635000 0.020000
0.590000 0.635000 0.020000
0.658750 0.635000 0.020000
0.727500 0.635000 0.020000
0.796250 0.635000 0.020000
0.865000 0.635000 0.020000
0.933750 0.635000 0.020000
1.000000 0.635000 0.020000
1.000000 0.635000 0.020000
1.000000 0.635000 0.020000
0.040000 0.706875 0.020000
0.108750 0.706875 0.020000
0.177500 0.706875 0.020000
0.246250 0.706875 0.020000
0.315000 0.706875 0.020000
0.383750 0.706875 0.020000
0.452500 0.706875 0.020000
0.521250 0.706875 0.020000
0.590000 0.706875 0.020000
0.658750 0.706875 0.020000
0.727500 0.706875 0.020000
0.796250 0.706875 0.020000
0.865000 0.706875 0.020000
0.933750 0.706875 0.020000
1.000000 0.706875 0.020000
1.000000 0.706875 0.020000
1.000000 0.706875 0.020000
0.040000 0.778750 0.020000
0.108750 0.778750 0.020000
0.177500 0.778750 0.020000
0.246250 0.778750 0.020000
0.315000 0.778750 0.020000
0.383750 0.778750 0.020000
0.452500 0.778750 0.020000
0.521250 0.778750 0.020000
0.590000 0.778750 0.020000
0.658750 0.778750 0.020000
0.727500 0.778750 0.020000
0.796250 0.778750 0.020000
0.865000 0.778750 0.020000
0.933750 0.778750 0.020000
1.000000 0.778750 0.020000
1.000000 0.778750 0.020000
1.000000 0.778750 0.020000
0.040000 0.850625 0.020000
0.108750 0.850625 0.020000
0.177500 0.850625 0.020000
0.246250 0.850625 0.020000
0.315000 0.850625 0.020000
0.383750 0.850625 0.020000
0.452500 0.850625 0.020000
0.521250 0.850625 0.020000
0.590000 0.850625 0.020000
0.658750 0.850625 0.020000
0.727500 0.850625 0.020000
0.796250 0.850625 0.020000
0.865000 0.850625 0.020000
0.933750 0.850625 0.020000
1.000000 0.850625 0.020000
1.000000 0.850625 0.020000
1.000000 0.850625 0.020000
0.040000 0.922500 0.020000
0.108750 0.922500 0.020000
0.177500 0.922500 0.020000
0.246250 0.922500 0.020000
0.315000 0.922500 0.020000
0.383750 0.922500 0.020000
0.452500 0.922500 0.020000
0.521250 0.922500 0.020000
0.590000 0.922500 0.020000
0.658750 0.922500 0.020000
0.727500 0.922500 0.020000
0.796250 0.922500 0.020000
0.865000 0.922500 0.020000
0.933750 0.922500 0.020000
1.000000 0.922500 0.020000
1.000000 0.922500 0.020000
1.000000 0.922500 0.020000
0.040000 0.994375 0.020000
0.108750 0.994375 0.020000
0.177500 0.994375 0.020000
0.246250 0.994375 0.020000
0.315000 0.994375 0.020000
0.383750 0.994375 0.020000
0.452500 0.994375 0.020000
0.521250 0.994375 0.020000
0.590000 0.994375 0.020000
0.658750 0.994375 0.020000
0.727500 0.994375 0.020000
0.796250 0.994375 0.020000
0.865000 0.994375 0.020000
0.933750 0.994375 0.020000
1.000000 0.994375 0.020000
1.000000 0.994375 0.020000
1.000000 0.994375 0.020000
0.040000 1.000000 0.020000
0.108750 1.000000 0.020000
0.177500 1.000000 0.020000
0.246250 1.000000 0.020000
0.315000 1.000000 0.020000
0.383750 1.000000 0.020000
0.452500 1.000000 0.020000
0.521250 1.000000 0.020000
0.590000 1.000000 0.020000
0.658750 1.000000 0.020000
0.727500 1.000000 0.020000
0.796250 1.000000 0.020000
0.865000 1.000000 0.020000
0.933750 1.000000 0.020000
1.000000 1.000000 0.020000
1.000000 1.000000 0.020000
1.000000 1.000000 0.020000
0.040000 1.000000 0.020000
0.108750 1.000000 0.020000
0.177500 1.000000 0.020000
0.246250 1.000000 0.020000
0.315000 1.000000 0.020000
0.383750 1.000000 0.020000
0.452500 1.000000 0.020000
0.521250 1.000000 0.020000
0.590000 1.000000 0.020000
0.658750 1.000000 0.020000
0.727500 1.000000 0.020000
0.796250 1.000000 0.020000
0.865000 1.000000 0.020000
0.933750 1.000000 0.020000
1.000000 1.000000 0.020000
1.000000 1.000000 0.020000
1.000000 1.000000 0.020000
0.040000 1.000000 0.020000
0.108750 1.000000 0.020000
0.177500 1.000000 0.020000
0.246250 1.000000 0.020000
0.315000 1.000000 0.020000
0.383750 1.000000 0.020000
0.452500 1.000000 0.020000
0.521250 1.000000 0.020000
0.590000 1.000000 0.020000
0.658750 1.000000 0.020000
0.727500 1.000000 0.020000
0.796250 1.000000 0.020000
0.865000 1.000000 0.020000
0.933750 1.000000 0.020000
1.000000 1.000000 0.020000
1.000000 1.000000 0.020000
1.000000 1.000000 0.020000
0.040000 0.060000 0.095000
0.108750 0.060000 0.095000
0.177500 0.060000 0.095000
0.246250 0.060000 0.095000
0.315000 0.060000 0.095000
0.383750 0.060000 0.095000
0.452500 0.060000 0.095000
0.521250 0.060000 0.095000
0.590000 0.060000 0.095000
0.658750 0.060000 0.095000
0.727500 0.060000 0.095000
0.796250 0.060000 0.095000
0.865000 0.060000 0.095000
0.933750 0.060000 0.095000
1.000000 0.060000 0.095000
1.000000 0.060000 0.095000
1.000000 0.060000 0.095000
0.040000 0.131875 0.095000
0.108750 0.131875 0.095000
0.177500 0.131875 0.095000
0.246250 0.131875 0.095000
0.315000 0.131875 0.095000
0.383750 0.131875 0.095000
0.452500 0.131875 0.095000
0.521250 0.131875 0.095000
0.590000 0.131875 0.095000
0.658750 0.131875 0.095000
0.727500 0.131875 0.095000
0.796250 0.131875 0.095000
0.865000 0.131875 0.095000
0.933750 0.131875 0.095000
1.000000 0.131875 0.095000
1.000000 0.131875 0.095000
1.000000 0.131875 0.095000
0.040000 0.203750 0.095000
0.108750 0.203750 0.095000
0.177500 0.203750 0.095000
0.246250 0.203750 0.095000
0.315000 0.203750 0.095000
0.383750 0.203750 0.095000
0.452500 0.203750 0.095000
0.521250 0.203750 0.095000
0.590000 0.203750 0.095000
0.658750 0.203750 0.095000
0.727500 0.203750 0.095000
0.796250 0.203750 0.095000
0.865000 0.203750 0.095000
0.933750 0.203750 0.095000
1.000000 0.203750 0.095000
1.000000 0.203750 0.095000
1.000000 0.203750 0.095000
0.040000 0.275625 0.095000
0.108750 0.275625 0.095000
0.177500 0.275625 0.095000
0.246250 0.275625 0.095000
0.315000 0.275625 0.095000
0.383750 0.275625 0.095000
0.452500 0.275625 0.095000
0.521250 0.275625 0.095000
0.590000 0.275625 0.095000
0.658750 0.275625 0.095000
0.727500 0.275625 0.095000
0.796250 0.275625 0.095000
0.865000 0.275625 0.095000
0.933750 0.275625 0.095000
1.000000 0.275625 0.095000
1.000000 0.275625 0.095000
1.000000 0.275625 0.095000
0.040000 0.347500 0.095000
0.108750 0.347500 0.095000
0.177500 0.347500 0.095000
0.246250 0.347500 0.095000
0.315000 0.347500 0.095000
0.383750 0.347500 0.095000
0.452500 0.347500 0.095000
0.521250 0.347500 0.095000
0.590000 0.347500 0.095000
0.658750 0.347500 0.095000
0.727500 0.347500 0.095000
0.796250 0.347500 0.095000
0.865000 0.347500 0.095000
0.933750 0.347500 0.095000
1.000000 0.347500 0.095000
1.000000 0.347500 0.095000
1.000000 0.347500 0.095000
0.040000 0.419375 0.095000
0.108750 0.419375 0.095000
0.177500 0.419375 0.095000
0.246250 0.419375 0.095000
0.315000 0.419375 0.095000
0.383750 0.419375 0.095000
0.452500 0.419375 0.095000
0.521250 0.419375 0.095000
0.590000 0.419375 0.095000
0.658750 0.419375 0.095000
0.727500 0.419375 0.095000
0.796250 0.419375 0.095000
0.865000 0.419375 0.095000
0.933750 0.419375 0.095000
1.000000 0.419375 0.095000
1.000000 0.419375 0.095000
1.000000 0.419375 0.095000
0.040000 0.491250 0.095000
0.108750 0.491250 0.095000
0.177500 0.491250 0.095000
0.246250 0.491250 0.095000
0.315000 0.491250 0.095000
0.383750 0.491250 0.095000
0.452500 0.491250 0.095000
0.521250 0.491250 0.095000
0.590000 0.491250 0.095000
0.658750 0.491250 0.095000
0.727500 0.491250 0.095000
0.796250 0.491250 0.095000
0.865000 0.491250 0.095000
0.933750 0.491250 0.095000
1.000000 0.491250 0.095000
1.000000 0.491250 0.095000
1.000000 0.491250 0.095000
0.040000 0.563125 0.095000
0.108750 0.563125 0.095000
0.177500 0.563125 0.095000
0.246250 0.563125 0.095000
0.315000 0.563125 0.095000
0.383750 0.563125 0.095000
0.452500 0.563125 0.095000
0.521250 0.563125 0.095000
0.590000 0.563125 0.095000
0.658750 0.563125 0.095000
0.727500 0.563125 0.095000
0.796250 0.563125 0.095000
0.865000 0.563125 0.095000
0.933750 0.563125 0.095000
1.000000 0.563125 0.095000
1.000000 0.563125 0.095000
1.000000 0.563125 0.095000
0.040000 0.635000 0.095000
0.108750 0.635000 0.095000
0.177500 0.635000 0.095000
0.246250 0.635000 0.095000
0.315000 0.635000 0.095000
0.383750 0.635000 0.095000
0.452500 0.635000 0.095000
0.521250 0.635000 0.095000
0.590000 0.635000 0.095000
0.658750 0.635000 0.095000
0.727500 0.635000 0.095000
0.796250 0.635000 0.095000
0.865000 0.635000 0.095000
0.933750 0.635000 0.095000
1.000000 0.635000 0.095000
1.000000 0.635000 0.095000
1.000000 0.635000 0.095000
0.040000 0.706875 0.095000
0.108750 0.706875 0.095000
0.177500 0.706875 0.095000
0.246250 0.706875 0.095000
0.315000 0.706875 0.095000
0.383750 0.706875 0.095000
0.452500 0.706875 0.095000
0.521250 0.706875 0.095000
0.590000 0.706875 0.095000
0.658750 0.706875 0.095000
0.727500 0.706875 0.095000
0.796250 0.706875 0.095000
0.865000 0.706875 0.095000
0.933750 0.706875 0.095000
1.000000 0.706875 0.095000
1.000000 0.706875 0.095000
1.000000 0.706875 0.095000
0.040000 0.778750 0.095000
0.108750 0.778750 0.095000
0.177500 0.778750 0.095000
0.246250 0.778750 0.095000
0.315000 0.778750 0.095000
0.383750 0.778750 0.095000
0.452500 0.778750 0.095000
0.521250 0.778750 0.095000
0.590000 0.778750 0.095000
0.658750 0.778750 0.095000
0.727500 0.778750 0.095000
0.796250 0.778750 0.095000
0.865000 0.778750 0.095000
0.933750 0.778750 0.095000
1.000000 0.778750 0.095000
1.000000 0.778750 0.095000
1.000000 0.778750 0.095000
0.040000 0.850625 0.095000
0.108750 0.850625 0.095000
0.177500 0.850625 0.095000
0.246250 0.850625 0.095000
0.315000 0.850625 0.095000
0.383750 0.850625 0.095000
0.452500 0.850625 0.095000
0.521250 0.850625 0.095000
0.590000 0.850625 0.095000
0.658750 0.850625 0.095000
0.727500 0.850625 0.095000
0.796250 0.850625 0.095000
0.865000 0.850625 0.095000
0.933750 0.850625 0.095000
1.000000 0.850625 0.095000
1.000000 0.850625 0.095000
1.000000 0.850625 0.095000
0.040000 0.922500 0.095000
0.108750 0.922500 0.095000
0.177500 0.922500 0.095000
0.246250 0.922500 0.095000
0.315000 0.922500 0.095000
0.383750 0.922500 0.095000
0.452500 0.922500 0.095000
0.521250 0.922500 0.095000
0.590000 0.922500 0.095000
0.658750 0.922500 0.095000
0.727500 0.922500 0.095000
0.796250 0.922500 0.095000
0.865000 0.922500 0.095000
0.933750 0.922500 0.095000
1.000000 0.922500 0.095000
1.000000 0.922500 0.095000
1.000000 0.922500 0.095000
0.040000 0.994375 0.095000
0.108750 0.994375 0.095000
0.177500 0.994375 0.095000
0.246250 0.994375 0.095000
0.315000 0.994375 0.095000
0.383750 0.994375 0.095000
0.452500 0.994375 0.095000
0.521250 0.994375 0.095000
0.590000 0.994375 0.095000
0.658750 0.994375 0.095000
0.727500 0.994375 0.095000
0.796250 0.994375 0.095000
0.865000 0.994375 0.095000
0.933750 0.994375 0.095000
1.000000 0.994375 0.095000
1.000000 0.994375 0.095000
1.000000 0.994375 0.095000
0.040000 1.000000 0.095000
0.108750 1.000000 0.095000
0.177500 1.000000 0.095000
0.246250 1.000000 0.095000
0.315000 1.000000 0.095000
0.383750 1.000000 0.095000
0.452500 1.000000 0.095000
0.521250 1.000000 0.095000
0.590000 1.000000 0.095000
0.658750 1.000000 0.095000
0.727500 1.000000 0.095000
0.796250 1.000000 0.095000
0.865000 1.000000 0.095000
0.933750 1.000000 0.095000
1.000000 1.000000 0.095000
1.000000 1.000000 0.095000
1.000000 1.000000 0.095000
0.040000 1.000000 0.095000
0.108750 1.000000 0.095000
0.177500 1.000000 0.095000
0.246250 1.000000 0.095000
0.315000 1.000000 0.095000
0.383750 1.000000 0.095000
0.452500 1.000000 0.095000
0.521250 1.000000 0.095000
0.590000 1.000000 0.095000
0.658750 1.000000 0.095000
0.727500 1.000000 0.095000
0.796250 1.000000 0.095000
0.865000 1.000000 0.095000
0.933750 1.000000 0.095000
1.000000 1.000000 0.095000
1.000000 1.000000 0.095000
1.000000 1.000000 0.095000
0.040000 1.000000 0.095000
0.108750 1.000000 0.095000
0.177500 1.000000 0.095000
0.246250 1.000000 0.095000
0.315000 1.000000 0.095000
0.383750 1.000000 0.095000
0.452500 1.000000 0.095000
0.521250 1.000000 0.095000
0.590000 1.000000 0.095000
0.658750 1.000000 0.095000
0.727500 1.000000 0.095000
0.796250 1.000000 0.095000
0.865000 1.000000 0.095000
0.933750 1.000000 0.095000
1.000000 1.000000 0.095000
1.000000 1.000000 0.095000
1.000000 1.000000 0.095000
0.040000 0.060000 0.170000
0.108750 0.060000 0.170000
0.177500 0.060000 0.170000
0.246250 0.060000 0.170000
0.315000 0.060000 0.170000
0.383750 0.060000 0.170000
0.452500 0.060000 0.170000
0.521250 0.060000 0.170000
0.590000 0.060000 0.170000
0.658750 0.060000 0.170000
0.727500 0.060000 0.170000
0.796250 0.060000 0.170000
0.865000 0.060000 0.170000
0.933750 0.060000 0.170000
1.000000 0.060000 0.170000
1.000000 0.060000 0.170000
1.000000 0.060000 0.170000
0.040000 0.131875 0.170000
0.108750 0.131875 0.170000
0.177500 0.131875 0.170000
0.246250 0.131875 0.170000
0.315000 0.131875 0.170000
0.383750 0.131875 0.170000
0.452500 0.131875 0.170000
0.521250 0.131875 0.170000
0.590000 0.131875 0.170000
0.658750 0.131875 0.170000
0.727500 0.131875 0.170000
0.796250 0.131875 0.170000
0.865000 0.131875 0.170000
0.933750 0.131875 0.170000
1.000000 0.131875 0.170000
1.000000 0.131875 0.170000
1.000000 0.131875 0.170000
0.040000 0.203750 0.170000
0.108750 0.203750 0.170000
0.177500 0.203750 0.170000
0.246250 0.203750 0.170000
0.315000 0.203750 0.170000
0.383750 0.203750 0.170000
0.452500 0.203750 0.170000
0.521250 0.203750 0.170000
0.590000 0.203750 0.170000
0.658750 0.203750 0.170000
0.727500 0.203750 0.170000
0.796250 0.203750 0.170000
0.865000 0.203750 0.170000
0.933750 0.203750 0.170000
1.000000 0.203750 0.170000
1.000000 0.203750 0.170000
1.000000 0.203750 0.170000
0.040000 0.275625 0.170000
0.108750 0.275625 0.170000
0.177500 0.275625 0.170000
0.246250 0.275625 0.170000
0.315000 0.275625 0.170000
0.383750 0.275625 0.170000
0.452500 0.275625 0.170000
0.521250 0.275625 0.170000
0.590000 0.275625 0.170000
0.658750 0.275625 0.170000
0.727500 0.275625 0.170000
0.796250 0.275625 0.170000
0.865000 0.275625 0.170000
0.933750 0.275625 0.170000
1.000000 0.275625 0.170000
1.000000 0.275625 0.170000
1.000000 0.275625 0.170000
0.040000 0.347500 0.170000
0.108750 0.347500 0.170000
0.177500 0.347500 0.170000
0.246250 0.347500 0.170000
0.315000 0.347500 0.170000
0.383750 0.347500 0.170000
0.452500 0.347500 0.170000
0.521250 0.347500 0.170000
0.590000 0.347500 0.170000
0.658750 0.347500 0.170000
0.727500 0.347500 0.170000
0.796250 0.347500 0.170000
0.865000 0.347500 0.170000
0.933750 0.347500 0.170000
1.000000 0.347500 0.170000
1.000000 0.347500 0.170000
1.000000 0.347500 0.170000
0.040000 0.419375 0.170000
0.108750 0.419375 0.170000
0.177500 0.419375 0.170000
0.246250 0.419375 0.170000
0.315000 0.419375 0.170000
0.383750 0.419375 0.170000
0.452500 0.419375 0.170000
0.521250 0.419375 0.170000
0.590000 0.419375 0.170000
0.658750 0.419375 0.170000
0.727500 0.419375 0.170000
0.796250 0.419375 0.170000
0.865000 0.419375 0.170000
0.933750 0.419375 0.170000
1.000000 0.419375 0.170000
1.000000 0.419375 0.170000
1.000000 0.419375 0.170000
0.040000 0.491250 0.170000
0.108750 0.491250 0.170000
0.177500 0.491250 0.170000
0.246250 0.491250 0.170000
0.315000 0.491250 0.170000
0.383750 0.491250 0.170000
0.452500 0.491250 0.170000
0.521250 0.491250 0.170000
0.590000 0.491250 0.170000
0.658750 0.491250 0.170000
0.727500 0.491250 0.170000
0.796250 0.491250 0.170000
0.865000 0.491250 0.170000
0.933750 0.491250 0.170000
1.000000 0.491250 0.170000
1.000000 0.491250 0.170000
1.000000 0.491250 0.170000
0.040000 0.563125 0.170000
0.108750 0.563125 0.170000
0.177500 0.563125 0.170000
0.246250 0.563125 0.170000
0.315000 0.563125 0.170000
0.383750 0.563125 0.170000
0.452500 0.563125 0.170000
0.521250 0.563125 0.170000
0.590000 0.563125 0.170000
0.658750 0.563125 0.170000
0.727500 0.563125 0.170000
0.796250 0.563125 0.170000
0.865000 0.563125 0.170000
0.933750 0.563125 0.170000
1.000000 0.563125 0.170000
1.000000 0.563125 0.170000
1.000000 0.563125 0.170000
0.040000 0.635000 0.170000
0.108750 0.635000 0.170000
0.177500 0.635000 0.170000
0.246250 0.635000 0.170000
0.315000 0.635000 0.170000
0.383750 0.635000 0.170000
0.452500 0.635000 0.170000
0.521250 0.635000 0.170000
0.590000 0.635000 0.170000
0.658750 0.635000 0.170000
0.727500 0.635000 0.170000
0.796250 0.635000 0.170000
0.865000 0.635000 0.170000
0.933750 0.635000 0.170000
1.000000 0.635000 0.170000
1.000000 0.635000 0.170000
1.000000 0.635000 0.170000
0.040000 0.706875 0.170000
0.108750 0.706875 0.170000
0.177500 0.706875 0.170000
0.246250 0.706875 0.170000
0.315000 0.706875 0.170000
0.383750 0.706875 0.170000
0.452500 0.706875 0.170000
0.521250 0.706875 0.170000
0.590000 0.706875 0.170000
0.658750 0.706875 0.170000
0.727500 0.706875 0.170000
0.796250 0.706875 0.170000
0.865000 0.706875 0.170000
0.933750 0.706875 0.170000
1.000000 0.706875 0.170000
1.000000 0.706875 0.170000
1.000000 0.706875 0.170000
0.040000 0.778750 0.170000
0.108750 0.778750 0.170000
0.177500 0.778750 0.170000
0.246250 0.778750 0.170000
0.315000 0.778750 0.170000
0.383750 0.778750 0.170000
0.452500 0.778750 0.170000
0.521250 0.778750 0.170000
0.590000 0.778750 0.170000
0.658750 0.778750 0.170000
0.727500 0.778750 0.170000
0.796250 0.778750 0.170000
0.865000 0.778750 0.170000
0.933750 0.778750 0.170000
1.000000 0.778750 0.170000
1.000000 0.778750 0.170000
1.000000 0.778750 0.170000
0.040000 0.850625 0.170000
0.108750 0.850625 0.170000
0.177500 0.850625 0.170000
0.246250 0.850625 0.170000
0.315000 0.850625 0.170000
0.383750 0.850625 0.170000
0.452500 0.850625 0.170000
0.521250 0.850625 0.170000
0.590000 0.850625 0.170000
0.658750 0.850625 0.170000
0.727500 0.850625 0.170000
0.796250 0.850625 0.170000
0.865000 0.850625 0.170000
0.933750 0.850625 0.170000
1.000000 0.850625 0.170000
1.000000 0.850625 0.170000
1.000000 0.850625 0.170000
0.040000 0.922500 0.170000
0.108750 0.922500 0.170000
0.177500 0.922500 0.170000
0.246250 0.922500 0.170000
0.315000 0.922500 0.170000
0.383750 0.922500 0.170000
0.452500 0.922500 0.170000
0.521250 0.922500 0.170000
0.590000 0.922500 0.170000
0.658750 0.922500 0.170000
0.727500 0.922500 0.170000
0.796250 0.922500 0.170000
0.865000 0.922500 0.170000
0.933750 0.922500 0.170000
1.000000 0.922500 0.170000
1.000000 0.922500 0.170000
1.000000 0.922500 0.170000
0.040000 0.994375 0.170000
0.108750 0.994375 0.170000
0.177500 0.994375 0.170000
0.246250 0.994375 0.170000
0.315000 0.994375 0.170000
0.383750 0.994375 0.170000
0.452500 0.994375 0.170000
0.521250 0.994375 0.170000
0.590000 0.994375 0.170000
0.658750 0.994375 0.170000
0.727500 0.994375 0.170000
0.796250 0.994375 0.170000
0.865000 0.994375 0.170000
0.933750 0.994375 0.170000
1.000000 0.994375 0.170000
1.000000 0.994375 0.170000
1.000000 0.994375 0.170000
0.040000 1.000000 0.170000
0.108750 1.000000 0.170000
0.177500 1.000000 0.170000
0.246250 1.000000 0.170000
0.315000 1.000000 0.170000
0.383750 1.000000 0.170000
0.452500 1.000000 0.170000
0.521250 1.000000 0.170000
0.590000 1.000000 0.170000
0.658750 1.000000 0.170000
0.727500 1.000000 0.170000
0.796250 1.000000 0.170000
0.865000 1.000000 0.170000
0.933750 1.000000 0.170000
1.000000 1.000000 0.170000
1.000000 1.000000 0.170000
1.000000 1.000000 0.170000
0.040000 1.000000 0.170000
0.108750 1.000000 0.170000
0.177500 1.000000 0.170000
0.246250 1.000000 0.170000
0.315000 1.000000 0.170000
0.383750 1.000000 0.170000
0.452500 1.000000 0.170000
0.521250 1.000000 0.170000
0.590000 1.000000 0.170000
0.658750 1.000000 0.170000
0.727500 1.000000 0.170000
0.796250 1.000000 0.170000
0.865000 1.000000 0.170000
0.933750 1.000000 0.170000
1.000000 1.000000 0.170000
1.000000 1.000000 0.170000
1.000000 1.000000 0.170000
0.040000 1.000000 0.170000
0.108750 1.000000 0.170000
0.177500 1.000000 0.170000
0.246250 1.000000 0.170000
0.315000 1.000000 0.170000
0.383750 1.000000 0.170000
0.452500 1.000000 0.170000
0.521250 1.000000 0.170000
0.590000 1.000000 0.170000
0.658750 1.000000 0.170000
0.727500 1.000000 0.170000
0.796250 1.000000 0.170000
0.865000 1.000000 0.170000
0.933750 1.000000 0.170000
1.000000 1.000000 0.170000
1.000000 1.000000 0.170000
1.000000 1.000000 0.170000
0.040000 0.060000 0.245000
0.108750 0.060000 0.245000
0.177500 0.060000 0.245000
0.246250 0.060000 0.245000
0.315000 0.060000 0.245000
0.383750 0.060000 0.245000
0.452500 0.060000 0.245000
0.521250 0.060000 0.245000
0.590000 0.060000 0.245000
0.658750 0.060000 0.245000
0.727500 0.060000 0.245000
0.796250 0.060000 0.245000
0.865000 0.060000 0.245000
0.933750 0.060000 0.245000
1.000000 0.060000 0.245000
1.000000 0.060000 0.245000
1.000000 0.060000 0.245000
0.040000 0.131875 0.245000
