app/src/main/assets/luts/agfa_vista.cube
# ApexStudio filter: agfa_vista
LUT_3D_SIZE 5
DOMAIN_MIN 0.0 0.0 0.0
DOMAIN_MAX 1.0 1.0 1.0
0.040000 0.060000 0.020000
0.315000 0.060000 0.020000
0.590000 0.060000 0.020000
0.865000 0.060000 0.020000
1.000000 0.060000 0.020000
0.040000 0.347500 0.020000
0.315000 0.347500 0.020000
0.590000 0.347500 0.020000
0.865000 0.347500 0.020000
1.000000 0.347500 0.020000
0.040000 0.635000 0.020000
0.315000 0.635000 0.020000
0.590000 0.635000 0.020000
0.865000 0.635000 0.020000
1.000000 0.635000 0.020000
0.040000 0.922500 0.020000
0.315000 0.922500 0.020000
0.590000 0.922500 0.020000
0.865000 0.922500 0.020000
1.000000 0.922500 0.020000
0.040000 1.000000 0.020000
0.315000 1.000000 0.020000
0.590000 1.000000 0.020000
0.865000 1.000000 0.020000
1.000000 1.000000 0.020000
0.040000 0.060000 0.320000
0.315000 0.060000 0.320000
0.590000 0.060000 0.320000
0.865000 0.060000 0.320000
1.000000 0.060000 0.320000
0.040000 0.347500 0.320000
0.315000 0.347500 0.320000
0.590000 0.347500 0.320000
0.865000 0.347500 0.320000
1.000000 0.347500 0.320000
0.040000 0.635000 0.320000
0.315000 0.635000 0.320000
0.590000 0.635000 0.320000
0.865000 0.635000 0.320000
1.000000 0.635000 0.320000
0.040000 0.922500 0.320000
0.315000 0.922500 0.320000
0.590000 0.922500 0.320000
0.865000 0.922500 0.320000
1.000000 0.922500 0.320000
0.040000 1.000000 0.320000
0.315000 1.000000 0.320000
0.590000 1.000000 0.320000
0.865000 1.000000 0.320000
1.000000 1.000000 0.320000
0.040000 0.060000 0.620000
0.315000 0.060000 0.620000
0.590000 0.060000 0.620000
0.865000 0.060000 0.620000
1.000000 0.060000 0.620000
0.040000 0.347500 0.620000
0.315000 0.347500 0.620000
0.590000 0.347500 0.620000
0.865000 0.347500 0.620000
1.000000 0.347500 0.620000
0.040000 0.635000 0.620000
0.315000 0.635000 0.620000
0.590000 0.635000 0.620000
0.865000 0.635000 0.620000
1.000000 0.635000 0.620000
0.040000 0.922500 0.620000
0.315000 0.922500 0.620000
0.590000 0.922500 0.620000
0.865000 0.922500 0.620000
1.000000 0.922500 0.620000
0.040000 1.000000 0.620000
0.315000 1.000000 0.620000
0.590000 1.000000 0.620000
0.865000 1.000000 0.620000
1.000000 1.000000 0.620000
0.040000 0.060000 0.920000
0.315000 0.060000 0.920000
0.590000 0.060000 0.920000
0.865000 0.060000 0.920000
1.000000 0.060000 0.920000
0.040000 0.347500 0.920000
0.315000 0.347500 0.920000
0.590000 0.347500 0.920000
0.865000 0.347500 0.920000
1.000000 0.347500 0.920000
0.040000 0.635000 0.920000
0.315000 0.635000 0.920000
0.590000 0.635000 0.920000
0.865000 0.635000 0.920000
1.000000 0.635000 0.920000
0.040000 0.922500 0.920000
0.315000 0.922500 0.920000
0.590000 0.922500 0.920000
0.865000 0.922500 0.920000
1.000000 0.922500 0.920000
0.040000 1.000000 0.920000
0.315000 1.000000 0.920000
0.590000 1.000000 0.920000
0.865000 1.000000 0.920000
1.000000 1.000000 0.920000
0.040000 0.060000 1.000000
0.315000 0.060000 1.000000
0.590000 0.060000 1.000000
0.865000 0.060000 1.000000
1.000000 0.060000 1.000000
0.040000 0.347500 1.000000
0.315000 0.347500 1.000000
0.590000 0.347500 1.000000
0.865000 0.347500 1.000000
1.000000 0.347500 1.000000
0.040000 0.635000 1.000000
0.315000 0.635000 1.000000
0.590000 0.635000 1.000000
0.865000 0.635000 1.000000
1.000000 0.635000 1.000000
0.040000 0.922500 1.000000
0.315000 0.922500 1.000000
0.590000 0.922500 1.000000
0.865000 0.922500 1.000000
1.000000 0.922500 1.000000
0.040000 1.000000 1.000000
0.315000 1.000000 1.000000
0.590000 1.000000 1.000000
0.865000 1.000000 1.000000
1.000000 1.000000 1.000000
