app/src/main/assets/luts/agfa_vista.cube
# ApexStudio filter: agfa_vista
LUT_3D_SIZE 9
DOMAIN_MIN 0.0 0.0 0.0
DOMAIN_MAX 1.0 1.0 1.0
0.040000 0.060000 0.020000
0.177500 0.060000 0.020000
0.315000 0.060000 0.020000
0.452500 0.060000 0.020000
0.590000 0.060000 0.020000
0.727500 0.060000 0.020000
0.865000 0.060000 0.020000
1.000000 0.060000 0.020000
1.000000 0.060000 0.020000
0.040000 0.203750 0.020000
0.177500 0.203750 0.020000
0.315000 0.203750 0.020000
0.452500 0.203750 0.020000
0.590000 0.203750 0.020000
0.727500 0.203750 0.020000
0.865000 0.203750 0.020000
1.000000 0.203750 0.020000
1.000000 0.203750 0.020000
0.040000 0.347500 0.020000
0.177500 0.347500 0.020000
0.315000 0.347500 0.020000
0.452500 0.347500 0.020000
0.590000 0.347500 0.020000
0.727500 0.347500 0.020000
0.865000 0.347500 0.020000
1.000000 0.347500 0.020000
1.000000 0.347500 0.020000
0.040000 0.491250 0.020000
0.177500 0.491250 0.020000
0.315000 0.491250 0.020000
0.452500 0.491250 0.020000
0.590000 0.491250 0.020000
0.727500 0.491250 0.020000
0.865000 0.491250 0.020000
1.000000 0.491250 0.020000
1.000000 0.491250 0.020000
0.040000 0.635000 0.020000
0.177500 0.635000 0.020000
0.315000 0.635000 0.020000
0.452500 0.635000 0.020000
0.590000 0.635000 0.020000
0.727500 0.635000 0.020000
0.865000 0.635000 0.020000
1.000000 0.635000 0.020000
1.000000 0.635000 0.020000
0.040000 0.778750 0.020000
0.177500 0.778750 0.020000
0.315000 0.778750 0.020000
0.452500 0.778750 0.020000
0.590000 0.778750 0.020000
0.727500 0.778750 0.020000
0.865000 0.778750 0.020000
1.000000 0.778750 0.020000
1.000000 0.778750 0.020000
0.040000 0.922500 0.020000
0.177500 0.922500 0.020000
0.315000 0.922500 0.020000
0.452500 0.922500 0.020000
0.590000 0.922500 0.020000
0.727500 0.922500 0.020000
0.865000 0.922500 0.020000
1.000000 0.922500 0.020000
1.000000 0.922500 0.020000
0.040000 1.000000 0.020000
0.177500 1.000000 0.020000
0.315000 1.000000 0.020000
0.452500 1.000000 0.020000
0.590000 1.000000 0.020000
0.727500 1.000000 0.020000
0.865000 1.000000 0.020000
1.000000 1.000000 0.020000
1.000000 1.000000 0.020000
0.040000 1.000000 0.020000
0.177500 1.000000 0.020000
0.315000 1.000000 0.020000
0.452500 1.000000 0.020000
0.590000 1.000000 0.020000
0.727500 1.000000 0.020000
0.865000 1.000000 0.020000
1.000000 1.000000 0.020000
1.000000 1.000000 0.020000
0.040000 0.060000 0.170000
0.177500 0.060000 0.170000
0.315000 0.060000 0.170000
0.452500 0.060000 0.170000
0.590000 0.060000 0.170000
0.727500 0.060000 0.170000
0.865000 0.060000 0.170000
1.000000 0.060000 0.170000
1.000000 0.060000 0.170000
0.040000 0.203750 0.170000
0.177500 0.203750 0.170000
0.315000 0.203750 0.170000
0.452500 0.203750 0.170000
0.590000 0.203750 0.170000
0.727500 0.203750 0.170000
0.865000 0.203750 0.170000
1.000000 0.203750 0.170000
1.000000 0.203750 0.170000
0.040000 0.347500 0.170000
0.177500 0.347500 0.170000
0.315000 0.347500 0.170000
0.452500 0.347500 0.170000
0.590000 0.347500 0.170000
0.727500 0.347500 0.170000
0.865000 0.347500 0.170000
1.000000 0.347500 0.170000
1.000000 0.347500 0.170000
0.040000 0.491250 0.170000
0.177500 0.491250 0.170000
0.315000 0.491250 0.170000
0.452500 0.491250 0.170000
0.590000 0.491250 0.170000
0.727500 0.491250 0.170000
0.865000 0.491250 0.170000
1.000000 0.491250 0.170000
1.000000 0.491250 0.170000
0.040000 0.635000 0.170000
0.177500 0.635000 0.170000
0.315000 0.635000 0.170000
0.452500 0.635000 0.170000
0.590000 0.635000 0.170000
0.727500 0.635000 0.170000
0.865000 0.635000 0.170000
1.000000 0.635000 0.170000
1.000000 0.635000 0.170000
0.040000 0.778750 0.170000
0.177500 0.778750 0.170000
0.315000 0.778750 0.170000
0.452500 0.778750 0.170000
0.590000 0.778750 0.170000
0.727500 0.778750 0.170000
0.865000 0.778750 0.170000
1.000000 0.778750 0.170000
1.000000 0.778750 0.170000
0.040000 0.922500 0.170000
0.177500 0.922500 0.170000
0.315000 0.922500 0.170000
0.452500 0.922500 0.170000
0.590000 0.922500 0.170000
0.727500 0.922500 0.170000
0.865000 0.922500 0.170000
1.000000 0.922500 0.170000
1.000000 0.922500 0.170000
0.040000 1.000000 0.170000
0.177500 1.000000 0.170000
0.315000 1.000000 0.170000
0.452500 1.000000 0.170000
0.590000 1.000000 0.170000
0.727500 1.000000 0.170000
0.865000 1.000000 0.170000
1.000000 1.000000 0.170000
1.000000 1.000000 0.170000
0.040000 1.000000 0.170000
0.177500 1.000000 0.170000
0.315000 1.000000 0.170000
0.452500 1.000000 0.170000
0.590000 1.000000 0.170000
0.727500 1.000000 0.170000
0.865000 1.000000 0.170000
1.000000 1.000000 0.170000
1.000000 1.000000 0.170000
0.040000 0.060000 0.320000
0.177500 0.060000 0.320000
0.315000 0.060000 0.320000
0.452500 0.060000 0.320000
0.590000 0.060000 0.320000
0.727500 0.060000 0.320000
0.865000 0.060000 0.320000
1.000000 0.060000 0.320000
1.000000 0.060000 0.320000
0.040000 0.203750 0.320000
0.177500 0.203750 0.320000
0.315000 0.203750 0.320000
0.452500 0.203750 0.320000
0.590000 0.203750 0.320000
0.727500 0.203750 0.320000
0.865000 0.203750 0.320000
1.000000 0.203750 0.320000
1.000000 0.203750 0.320000
0.040000 0.347500 0.320000
0.177500 0.347500 0.320000
0.315000 0.347500 0.320000
0.452500 0.347500 0.320000
0.590000 0.347500 0.320000
0.727500 0.347500 0.320000
0.865000 0.347500 0.320000
1.000000 0.347500 0.320000
1.000000 0.347500 0.320000
0.040000 0.491250 0.320000
0.177500 0.491250 0.320000
0.315000 0.491250 0.320000
0.452500 0.491250 0.320000
0.590000 0.491250 0.320000
0.727500 0.491250 0.320000
0.865000 0.491250 0.320000
1.000000 0.491250 0.320000
1.000000 0.491250 0.320000
0.040000 0.635000 0.320000
0.177500 0.635000 0.320000
0.315000 0.635000 0.320000
0.452500 0.635000 0.320000
0.590000 0.635000 0.320000
0.727500 0.635000 0.320000
0.865000 0.635000 0.320000
1.000000 0.635000 0.320000
1.000000 0.635000 0.320000
0.040000 0.778750 0.320000
0.177500 0.778750 0.320000
0.315000 0.778750 0.320000
0.452500 0.778750 0.320000
0.590000 0.778750 0.320000
0.727500 0.778750 0.320000
0.865000 0.778750 0.320000
1.000000 0.778750 0.320000
1.000000 0.778750 0.320000
0.040000 0.922500 0.320000
0.177500 0.922500 0.320000
0.315000 0.922500 0.320000
0.452500 0.922500 0.320000
0.590000 0.922500 0.320000
0.727500 0.922500 0.320000
0.865000 0.922500 0.320000
1.000000 0.922500 0.320000
1.000000 0.922500 0.320000
0.040000 1.000000 0.320000
0.177500 1.000000 0.320000
0.315000 1.000000 0.320000
0.452500 1.000000 0.320000
0.590000 1.000000 0.320000
0.727500 1.000000 0.320000
0.865000 1.000000 0.320000
1.000000 1.000000 0.320000
1.000000 1.000000 0.320000
0.040000 1.000000 0.320000
0.177500 1.000000 0.320000
0.315000 1.000000 0.320000
0.452500 1.000000 0.320000
0.590000 1.000000 0.320000
0.727500 1.000000 0.320000
0.865000 1.000000 0.320000
1.000000 1.000000 0.320000
1.000000 1.000000 0.320000
0.040000 0.060000 0.470000
0.177500 0.060000 0.470000
0.315000 0.060000 0.470000
0.452500 0.060000 0.470000
0.590000 0.060000 0.470000
0.727500 0.060000 0.470000
0.865000 0.060000 0.470000
1.000000 0.060000 0.470000
1.000000 0.060000 0.470000
0.040000 0.203750 0.470000
0.177500 0.203750 0.470000
0.315000 0.203750 0.470000
0.452500 0.203750 0.470000
0.590000 0.203750 0.470000
0.727500 0.203750 0.470000
0.865000 0.203750 0.470000
1.000000 0.203750 0.470000
1.000000 0.203750 0.470000
0.040000 0.347500 0.470000
0.177500 0.347500 0.470000
0.315000 0.347500 0.470000
0.452500 0.347500 0.470000
0.590000 0.347500 0.470000
0.727500 0.347500 0.470000
0.865000 0.347500 0.470000
1.000000 0.347500 0.470000
1.000000 0.347500 0.470000
0.040000 0.491250 0.470000
0.177500 0.491250 0.470000
0.315000 0.491250 0.470000
0.452500 0.491250 0.470000
0.590000 0.491250 0.470000
0.727500 0.491250 0.470000
0.865000 0.491250 0.470000
1.000000 0.491250 0.470000
1.000000 0.491250 0.470000
0.040000 0.635000 0.470000
0.177500 0.635000 0.470000
0.315000 0.635000 0.470000
0.452500 0.635000 0.470000
0.590000 0.635000 0.470000
0.727500 0.635000 0.470000
0.865000 0.635000 0.470000
1.000000 0.635000 0.470000
1.000000 0.635000 0.470000
0.040000 0.778750 0.470000
0.177500 0.778750 0.470000
0.315000 0.778750 0.470000
0.452500 0.778750 0.470000
0.590000 0.778750 0.470000
0.727500 0.778750 0.470000
0.865000 0.778750 0.470000
1.000000 0.778750 0.470000
1.000000 0.778750 0.470000
0.040000 0.922500 0.470000
0.177500 0.922500 0.470000
0.315000 0.922500 0.470000
0.452500 0.922500 0.470000
0.590000 0.922500 0.470000
0.727500 0.922500 0.470000
0.865000 0.922500 0.470000
1.000000 0.922500 0.470000
1.000000 0.922500 0.470000
0.040000 1.000000 0.470000
0.177500 1.000000 0.470000
0.315000 1.000000 0.470000
0.452500 1.000000 0.470000
0.590000 1.000000 0.470000
0.727500 1.000000 0.470000
0.865000 1.000000 0.470000
1.000000 1.000000 0.470000
1.000000 1.000000 0.470000
0.040000 1.000000 0.470000
0.177500 1.000000 0.470000
0.315000 1.000000 0.470000
0.452500 1.000000 0.470000
0.590000 1.000000 0.470000
0.727500 1.000000 0.470000
0.865000 1.000000 0.470000
1.000000 1.000000 0.470000
1.000000 1.000000 0.470000
0.040000 0.060000 0.620000
0.177500 0.060000 0.620000
0.315000 0.060000 0.620000
0.452500 0.060000 0.620000
0.590000 0.060000 0.620000
0.727500 0.060000 0.620000
0.865000 0.060000 0.620000
1.000000 0.060000 0.620000
1.000000 0.060000 0.620000
0.040000 0.203750 0.620000
0.177500 0.203750 0.620000
0.315000 0.203750 0.620000
0.452500 0.203750 0.620000
0.590000 0.203750 0.620000
0.727500 0.203750 0.620000
0.865000 0.203750 0.620000
1.000000 0.203750 0.620000
1.000000 0.203750 0.620000
0.040000 0.347500 0.620000
0.177500 0.347500 0.620000
0.315000 0.347500 0.620000
0.452500 0.347500 0.620000
0.590000 0.347500 0.620000
0.727500 0.347500 0.620000
0.865000 0.347500 0.620000
1.000000 0.347500 0.620000
1.000000 0.347500 0.620000
0.040000 0.491250 0.620000
0.177500 0.491250 0.620000
0.315000 0.491250 0.620000
0.452500 0.491250 0.620000
0.590000 0.491250 0.620000
0.727500 0.491250 0.620000
0.865000 0.491250 0.620000
1.000000 0.491250 0.620000
1.000000 0.491250 0.620000
0.040000 0.635000 0.620000
0.177500 0.635000 0.620000
0.315000 0.635000 0.620000
0.452500 0.635000 0.620000
0.590000 0.635000 0.620000
0.727500 0.635000 0.620000
0.865000 0.635000 0.620000
1.000000 0.635000 0.620000
1.000000 0.635000 0.620000
0.040000 0.778750 0.620000
0.177500 0.778750 0.620000
0.315000 0.778750 0.620000
0.452500 0.778750 0.620000
0.590000 0.778750 0.620000
0.727500 0.778750 0.620000
0.865000 0.778750 0.620000
1.000000 0.778750 0.620000
1.000000 0.778750 0.620000
0.040000 0.922500 0.620000
0.177500 0.922500 0.620000
0.315000 0.922500 0.620000
0.452500 0.922500 0.620000
0.590000 0.922500 0.620000
0.727500 0.922500 0.620000
0.865000 0.922500 0.620000
1.000000 0.922500 0.620000
1.000000 0.922500 0.620000
0.040000 1.000000 0.620000
0.177500 1.000000 0.620000
0.315000 1.000000 0.620000
0.452500 1.000000 0.620000
0.590000 1.000000 0.620000
0.727500 1.000000 0.620000
0.865000 1.000000 0.620000
1.000000 1.000000 0.620000
1.000000 1.000000 0.620000
0.040000 1.000000 0.620000
0.177500 1.000000 0.620000
0.315000 1.000000 0.620000
0.452500 1.000000 0.620000
0.590000 1.000000 0.620000
0.727500 1.000000 0.620000
0.865000 1.000000 0.620000
1.000000 1.000000 0.620000
1.000000 1.000000 0.620000
0.040000 0.060000 0.770000
0.177500 0.060000 0.770000
0.315000 0.060000 0.770000
0.452500 0.060000 0.770000
0.590000 0.060000 0.770000
0.727500 0.060000 0.770000
0.865000 0.060000 0.770000
1.000000 0.060000 0.770000
1.000000 0.060000 0.770000
0.040000 0.203750 0.770000
0.177500 0.203750 0.770000
0.315000 0.203750 0.770000
0.452500 0.203750 0.770000
0.590000 0.203750 0.770000
0.727500 0.203750 0.770000
0.865000 0.203750 0.770000
1.000000 0.203750 0.770000
1.000000 0.203750 0.770000
0.040000 0.347500 0.770000
0.177500 0.347500 0.770000
0.315000 0.347500 0.770000
0.452500 0.347500 0.770000
0.590000 0.347500 0.770000
0.727500 0.347500 0.770000
0.865000 0.347500 0.770000
1.000000 0.347500 0.770000
1.000000 0.347500 0.770000
0.040000 0.491250 0.770000
0.177500 0.491250 0.770000
0.315000 0.491250 0.770000
0.452500 0.491250 0.770000
0.590000 0.491250 0.770000
0.727500 0.491250 0.770000
0.865000 0.491250 0.770000
1.000000 0.491250 0.770000
1.000000 0.491250 0.770000
0.040000 0.635000 0.770000
0.177500 0.635000 0.770000
0.315000 0.635000 0.770000
0.452500 0.635000 0.770000
0.590000 0.635000 0.770000
0.727500 0.635000 0.770000
0.865000 0.635000 0.770000
1.000000 0.635000 0.770000
1.000000 0.635000 0.770000
0.040000 0.778750 0.770000
0.177500 0.778750 0.770000
0.315000 0.778750 0.770000
0.452500 0.778750 0.770000
0.590000 0.778750 0.770000
0.727500 0.778750 0.770000
0.865000 0.778750 0.770000
1.000000 0.778750 0.770000
1.000000 0.778750 0.770000
0.040000 0.922500 0.770000
0.177500 0.922500 0.770000
0.315000 0.922500 0.770000
0.452500 0.922500 0.770000
0.590000 0.922500 0.770000
0.727500 0.922500 0.770000
0.865000 0.922500 0.770000
1.000000 0.922500 0.770000
1.000000 0.922500 0.770000
0.040000 1.000000 0.770000
0.177500 1.000000 0.770000
0.315000 1.000000 0.770000
0.452500 1.000000 0.770000
0.590000 1.000000 0.770000
0.727500 1.000000 0.770000
0.865000 1.000000 0.770000
1.000000 1.000000 0.770000
1.000000 1.000000 0.770000
0.040000 1.000000 0.770000
0.177500 1.000000 0.770000
0.315000 1.000000 0.770000
0.452500 1.000000 0.770000
0.590000 1.000000 0.770000
0.727500 1.000000 0.770000
0.865000 1.000000 0.770000
1.000000 1.000000 0.770000
1.000000 1.000000 0.770000
0.040000 0.060000 0.920000
0.177500 0.060000 0.920000
0.315000 0.060000 0.920000
0.452500 0.060000 0.920000
0.590000 0.060000 0.920000
0.727500 0.060000 0.920000
0.865000 0.060000 0.920000
1.000000 0.060000 0.920000
1.000000 0.060000 0.920000
0.040000 0.203750 0.920000
0.177500 0.203750 0.920000
0.315000 0.203750 0.920000
0.452500 0.203750 0.920000
0.590000 0.203750 0.920000
0.727500 0.203750 0.920000
0.865000 0.203750 0.920000
1.000000 0.203750 0.920000
1.000000 0.203750 0.920000
0.040000 0.347500 0.920000
0.177500 0.347500 0.920000
0.315000 0.347500 0.920000
0.452500 0.347500 0.920000
0.590000 0.347500 0.920000
0.727500 0.347500 0.920000
0.865000 0.347500 0.920000
1.000000 0.347500 0.920000
1.000000 0.347500 0.920000
0.040000 0.491250 0.920000
0.177500 0.491250 0.920000
0.315000 0.491250 0.920000
0.452500 0.491250 0.920000
0.590000 0.491250 0.920000
0.727500 0.491250 0.920000
0.865000 0.491250 0.920000
1.000000 0.491250 0.920000
1.000000 0.491250 0.920000
0.040000 0.635000 0.920000
0.177500 0.635000 0.920000
0.315000 0.635000 0.920000
0.452500 0.635000 0.920000
0.590000 0.635000 0.920000
0.727500 0.635000 0.920000
0.865000 0.635000 0.920000
1.000000 0.635000 0.920000
1.000000 0.635000 0.920000
0.040000 0.778750 0.920000
0.177500 0.778750 0.920000
0.315000 0.778750 0.920000
0.452500 0.778750 0.920000
0.590000 0.778750 0.920000
0.727500 0.778750 0.920000
0.865000 0.778750 0.920000
1.000000 0.778750 0.920000
1.000000 0.778750 0.920000
0.040000 0.922500 0.920000
0.177500 0.922500 0.920000
0.315000 0.922500 0.920000
0.452500 0.922500 0.920000
0.590000 0.922500 0.920000
0.727500 0.922500 0.920000
0.865000 0.922500 0.920000
1.000000 0.922500 0.920000
1.000000 0.922500 0.920000
0.040000 1.000000 0.920000
0.177500 1.000000 0.920000
0.315000 1.000000 0.920000
0.452500 1.000000 0.920000
0.590000 1.000000 0.920000
0.727500 1.000000 0.920000
0.865000 1.000000 0.920000
1.000000 1.000000 0.920000
1.000000 1.000000 0.920000
0.040000 1.000000 0.920000
0.177500 1.000000 0.920000
0.315000 1.000000 0.920000
0.452500 1.000000 0.920000
0.590000 1.000000 0.920000
0.727500 1.000000 0.920000
0.865000 1.000000 0.920000
1.000000 1.000000 0.920000
1.000000 1.000000 0.920000
0.040000 0.060000 1.000000
0.177500 0.060000 1.000000
0.315000 0.060000 1.000000
0.452500 0.060000 1.000000
0.590000 0.060000 1.000000
0.727500 0.060000 1.000000
0.865000 0.060000 1.000000
1.000000 0.060000 1.000000
1.000000 0.060000 1.000000
0.040000 0.203750 1.000000
0.177500 0.203750 1.000000
0.315000 0.203750 1.000000
0.452500 0.203750 1.000000
0.590000 0.203750 1.000000
0.727500 0.203750 1.000000
0.865000 0.203750 1.000000
1.000000 0.203750 1.000000
1.000000 0.203750 1.000000
0.040000 0.347500 1.000000
0.177500 0.347500 1.000000
0.315000 0.347500 1.000000
0.452500 0.347500 1.000000
0.590000 0.347500 1.000000
0.727500 0.347500 1.000000
0.865000 0.347500 1.000000
1.000000 0.347500 1.000000
1.000000 0.347500 1.000000
0.040000 0.491250 1.000000
0.177500 0.491250 1.000000
0.315000 0.491250 1.000000
0.452500 0.491250 1.000000
0.590000 0.491250 1.000000
0.727500 0.491250 1.000000
0.865000 0.491250 1.000000
1.000000 0.491250 1.000000
1.000000 0.491250 1.000000
0.040000 0.635000 1.000000
0.177500 0.635000 1.000000
0.315000 0.635000 1.000000
0.452500 0.635000 1.000000
0.590000 0.635000 1.000000
0.727500 0.635000 1.000000
0.865000 0.635000 1.000000
1.000000 0.635000 1.000000
1.000000 0.635000 1.000000
0.040000 0.778750 1.000000
0.177500 0.778750 1.000000
0.315000 0.778750 1.000000
0.452500 0.778750 1.000000
0.590000 0.778750 1.000000
0.727500 0.778750 1.000000
0.865000 0.778750 1.000000
1.000000 0.778750 1.000000
1.000000 0.778750 1.000000
0.040000 0.922500 1.000000
0.177500 0.922500 1.000000
0.315000 0.922500 1.000000
0.452500 0.922500 1.000000
0.590000 0.922500 1.000000
0.727500 0.922500 1.000000
0.865000 0.922500 1.000000
1.000000 0.922500 1.000000
1.000000 0.922500 1.000000
0.040000 1.000000 1.000000
0.177500 1.000000 1.000000
0.315000 1.000000 1.000000
0.452500 1.000000 1.000000
0.590000 1.000000 1.000000
0.727500 1.000000 1.000000
0.865000 1.000000 1.000000
1.000000 1.000000 1.000000
1.000000 1.000000 1.000000
0.040000 1.000000 1.000000
0.177500 1.000000 1.000000
0.315000 1.000000 1.000000
0.452500 1.000000 1.000000
0.590000 1.000000 1.000000
0.727500 1.000000 1.000000
0.865000 1.000000 1.000000
1.000000 1.000000 1.000000
1.000000 1.000000 1.000000
0.040000 0.060000 1.000000
0.177500 0.060000 1.000000
0.315000 0.060000 1.000000
0.452500 0.060000 1.000000
0.590000 0.060000 1.000000
0.727500 0.060000 1.000000
0.865000 0.060000 1.000000
1.000000 0.060000 1.000000
1.000000 0.060000 1.000000
0.040000 0.203750 1.000000
0.177500 0.203750 1.000000
0.315000 0.203750 1.000000
0.452500 0.203750 1.000000
0.590000 0.203750 1.000000
0.727500 0.203750 1.000000
0.865000 0.203750 1.000000
1.000000 0.203750 1.000000
1.000000 0.203750 1.000000
0.040000 0.347500 1.000000
0.177500 0.347500 1.000000
0.315000 0.347500 1.000000
0.452500 0.347500 1.000000
0.590000 0.347500 1.000000
0.727500 0.347500 1.000000
0.865000 0.347500 1.000000
1.000000 0.347500 1.000000
1.000000 0.347500 1.000000
0.040000 0.491250 1.000000
0.177500 0.491250 1.000000
0.315000 0.491250 1.000000
0.452500 0.491250 1.000000
0.590000 0.491250 1.000000
0.727500 0.491250 1.000000
0.865000 0.491250 1.000000
1.000000 0.491250 1.000000
1.000000 0.491250 1.000000
0.040000 0.635000 1.000000
0.177500 0.635000 1.000000
0.315000 0.635000 1.000000
0.452500 0.635000 1.000000
0.590000 0.635000 1.000000
0.727500 0.635000 1.000000
0.865000 0.635000 1.000000
1.000000 0.635000 1.000000
1.000000 0.635000 1.000000
0.040000 0.778750 1.000000
0.177500 0.778750 1.000000
0.315000 0.778750 1.000000
0.452500 0.778750 1.000000
0.590000 0.778750 1.000000
0.727500 0.778750 1.000000
0.865000 0.778750 1.000000
1.000000 0.778750 1.000000
1.000000 0.778750 1.000000
0.040000 0.922500 1.000000
0.177500 0.922500 1.000000
0.315000 0.922500 1.000000
0.452500 0.922500 1.000000
0.590000 0.922500 1.000000
0.727500 0.922500 1.000000
0.865000 0.922500 1.000000
1.000000 0.922500 1.000000
1.000000 0.922500 1.000000
0.040000 1.000000 1.000000
0.177500 1.000000 1.000000
0.315000 1.000000 1.000000
0.452500 1.000000 1.000000
0.590000 1.000000 1.000000
0.727500 1.000000 1.000000
0.865000 1.000000 1.000000
1.000000 1.000000 1.000000
1.000000 1.000000 1.000000
0.040000 1.000000 1.000000
0.177500 1.000000 1.000000
0.315000 1.000000 1.000000
0.452500 1.000000 1.000000
0.590000 1.000000 1.000000
0.727500 1.000000 1.000000
0.865000 1.000000 1.000000
1.000000 1.000000 1.000000
1.000000 1.000000 1.000000
