app/src/main/assets/luts/arctic_frost.cube
# ApexStudio filter: arctic_frost
LUT_3D_SIZE 9
DOMAIN_MIN 0.0 0.0 0.0
DOMAIN_MAX 1.0 1.0 1.0
0.000000 0.020000 0.180000
0.072500 0.020000 0.180000
0.185000 0.020000 0.180000
0.297500 0.020000 0.180000
0.410000 0.020000 0.180000
0.522500 0.020000 0.180000
0.635000 0.020000 0.180000
0.747500 0.020000 0.180000
0.860000 0.020000 0.180000
0.000000 0.145000 0.180000
0.072500 0.145000 0.180000
0.185000 0.145000 0.180000
0.297500 0.145000 0.180000
0.410000 0.145000 0.180000
0.522500 0.145000 0.180000
0.635000 0.145000 0.180000
0.747500 0.145000 0.180000
0.860000 0.145000 0.180000
0.000000 0.270000 0.180000
0.072500 0.270000 0.180000
0.185000 0.270000 0.180000
0.297500 0.270000 0.180000
0.410000 0.270000 0.180000
0.522500 0.270000 0.180000
0.635000 0.270000 0.180000
0.747500 0.270000 0.180000
0.860000 0.270000 0.180000
0.000000 0.395000 0.180000
0.072500 0.395000 0.180000
0.185000 0.395000 0.180000
0.297500 0.395000 0.180000
0.410000 0.395000 0.180000
0.522500 0.395000 0.180000
0.635000 0.395000 0.180000
0.747500 0.395000 0.180000
0.860000 0.395000 0.180000
0.000000 0.520000 0.180000
0.072500 0.520000 0.180000
0.185000 0.520000 0.180000
0.297500 0.520000 0.180000
0.410000 0.520000 0.180000
0.522500 0.520000 0.180000
0.635000 0.520000 0.180000
0.747500 0.520000 0.180000
0.860000 0.520000 0.180000
0.000000 0.645000 0.180000
0.072500 0.645000 0.180000
0.185000 0.645000 0.180000
0.297500 0.645000 0.180000
0.410000 0.645000 0.180000
0.522500 0.645000 0.180000
0.635000 0.645000 0.180000
0.747500 0.645000 0.180000
0.860000 0.645000 0.180000
0.000000 0.770000 0.180000
0.072500 0.770000 0.180000
0.185000 0.770000 0.180000
0.297500 0.770000 0.180000
0.410000 0.770000 0.180000
0.522500 0.770000 0.180000
0.635000 0.770000 0.180000
0.747500 0.770000 0.180000
0.860000 0.770000 0.180000
0.000000 0.895000 0.180000
0.072500 0.895000 0.180000
0.185000 0.895000 0.180000
0.297500 0.895000 0.180000
0.410000 0.895000 0.180000
0.522500 0.895000 0.180000
0.635000 0.895000 0.180000
0.747500 0.895000 0.180000
0.860000 0.895000 0.180000
0.000000 1.000000 0.180000
0.072500 1.000000 0.180000
0.185000 1.000000 0.180000
0.297500 1.000000 0.180000
0.410000 1.000000 0.180000
0.522500 1.000000 0.180000
0.635000 1.000000 0.180000
0.747500 1.000000 0.180000
0.860000 1.000000 0.180000
0.000000 0.020000 0.348750
0.072500 0.020000 0.348750
0.185000 0.020000 0.348750
0.297500 0.020000 0.348750
0.410000 0.020000 0.348750
0.522500 0.020000 0.348750
0.635000 0.020000 0.348750
0.747500 0.020000 0.348750
0.860000 0.020000 0.348750
0.000000 0.145000 0.348750
0.072500 0.145000 0.348750
0.185000 0.145000 0.348750
0.297500 0.145000 0.348750
0.410000 0.145000 0.348750
0.522500 0.145000 0.348750
0.635000 0.145000 0.348750
0.747500 0.145000 0.348750
0.860000 0.145000 0.348750
0.000000 0.270000 0.348750
0.072500 0.270000 0.348750
0.185000 0.270000 0.348750
0.297500 0.270000 0.348750
0.410000 0.270000 0.348750
0.522500 0.270000 0.348750
0.635000 0.270000 0.348750
0.747500 0.270000 0.348750
0.860000 0.270000 0.348750
0.000000 0.395000 0.348750
0.072500 0.395000 0.348750
0.185000 0.395000 0.348750
0.297500 0.395000 0.348750
0.410000 0.395000 0.348750
0.522500 0.395000 0.348750
0.635000 0.395000 0.348750
0.747500 0.395000 0.348750
0.860000 0.395000 0.348750
0.000000 0.520000 0.348750
0.072500 0.520000 0.348750
0.185000 0.520000 0.348750
0.297500 0.520000 0.348750
0.410000 0.520000 0.348750
0.522500 0.520000 0.348750
0.635000 0.520000 0.348750
0.747500 0.520000 0.348750
0.860000 0.520000 0.348750
0.000000 0.645000 0.348750
0.072500 0.645000 0.348750
0.185000 0.645000 0.348750
0.297500 0.645000 0.348750
0.410000 0.645000 0.348750
0.522500 0.645000 0.348750
0.635000 0.645000 0.348750
0.747500 0.645000 0.348750
0.860000 0.645000 0.348750
0.000000 0.770000 0.348750
0.072500 0.770000 0.348750
0.185000 0.770000 0.348750
0.297500 0.770000 0.348750
0.410000 0.770000 0.348750
0.522500 0.770000 0.348750
0.635000 0.770000 0.348750
0.747500 0.770000 0.348750
0.860000 0.770000 0.348750
0.000000 0.895000 0.348750
0.072500 0.895000 0.348750
0.185000 0.895000 0.348750
0.297500 0.895000 0.348750
0.410000 0.895000 0.348750
0.522500 0.895000 0.348750
0.635000 0.895000 0.348750
0.747500 0.895000 0.348750
0.860000 0.895000 0.348750
0.000000 1.000000 0.348750
0.072500 1.000000 0.348750
0.185000 1.000000 0.348750
0.297500 1.000000 0.348750
0.410000 1.000000 0.348750
0.522500 1.000000 0.348750
0.635000 1.000000 0.348750
0.747500 1.000000 0.348750
0.860000 1.000000 0.348750
0.000000 0.020000 0.517500
0.072500 0.020000 0.517500
0.185000 0.020000 0.517500
0.297500 0.020000 0.517500
0.410000 0.020000 0.517500
0.522500 0.020000 0.517500
0.635000 0.020000 0.517500
0.747500 0.020000 0.517500
0.860000 0.020000 0.517500
0.000000 0.145000 0.517500
0.072500 0.145000 0.517500
0.185000 0.145000 0.517500
0.297500 0.145000 0.517500
0.410000 0.145000 0.517500
0.522500 0.145000 0.517500
0.635000 0.145000 0.517500
0.747500 0.145000 0.517500
0.860000 0.145000 0.517500
0.000000 0.270000 0.517500
0.072500 0.270000 0.517500
0.185000 0.270000 0.517500
0.297500 0.270000 0.517500
0.410000 0.270000 0.517500
0.522500 0.270000 0.517500
0.635000 0.270000 0.517500
0.747500 0.270000 0.517500
0.860000 0.270000 0.517500
0.000000 0.395000 0.517500
0.072500 0.395000 0.517500
0.185000 0.395000 0.517500
0.297500 0.395000 0.517500
0.410000 0.395000 0.517500
0.522500 0.395000 0.517500
0.635000 0.395000 0.517500
0.747500 0.395000 0.517500
0.860000 0.395000 0.517500
0.000000 0.520000 0.517500
0.072500 0.520000 0.517500
0.185000 0.520000 0.517500
0.297500 0.520000 0.517500
0.410000 0.520000 0.517500
0.522500 0.520000 0.517500
0.635000 0.520000 0.517500
0.747500 0.520000 0.517500
0.860000 0.520000 0.517500
0.000000 0.645000 0.517500
0.072500 0.645000 0.517500
0.185000 0.645000 0.517500
0.297500 0.645000 0.517500
0.410000 0.645000 0.517500
0.522500 0.645000 0.517500
0.635000 0.645000 0.517500
0.747500 0.645000 0.517500
0.860000 0.645000 0.517500
0.000000 0.770000 0.517500
0.072500 0.770000 0.517500
0.185000 0.770000 0.517500
0.297500 0.770000 0.517500
0.410000 0.770000 0.517500
0.522500 0.770000 0.517500
0.635000 0.770000 0.517500
0.747500 0.770000 0.517500
0.860000 0.770000 0.517500
0.000000 0.895000 0.517500
0.072500 0.895000 0.517500
0.185000 0.895000 0.517500
0.297500 0.895000 0.517500
0.410000 0.895000 0.517500
0.522500 0.895000 0.517500
0.635000 0.895000 0.517500
0.747500 0.895000 0.517500
0.860000 0.895000 0.517500
0.000000 1.000000 0.517500
0.072500 1.000000 0.517500
0.185000 1.000000 0.517500
0.297500 1.000000 0.517500
0.410000 1.000000 0.517500
0.522500 1.000000 0.517500
0.635000 1.000000 0.517500
0.747500 1.000000 0.517500
0.860000 1.000000 0.517500
0.000000 0.020000 0.686250
0.072500 0.020000 0.686250
0.185000 0.020000 0.686250
0.297500 0.020000 0.686250
0.410000 0.020000 0.686250
0.522500 0.020000 0.686250
0.635000 0.020000 0.686250
0.747500 0.020000 0.686250
0.860000 0.020000 0.686250
0.000000 0.145000 0.686250
0.072500 0.145000 0.686250
0.185000 0.145000 0.686250
0.297500 0.145000 0.686250
0.410000 0.145000 0.686250
0.522500 0.145000 0.686250
0.635000 0.145000 0.686250
0.747500 0.145000 0.686250
0.860000 0.145000 0.686250
0.000000 0.270000 0.686250
0.072500 0.270000 0.686250
0.185000 0.270000 0.686250
0.297500 0.270000 0.686250
0.410000 0.270000 0.686250
0.522500 0.270000 0.686250
0.635000 0.270000 0.686250
0.747500 0.270000 0.686250
0.860000 0.270000 0.686250
0.000000 0.395000 0.686250
0.072500 0.395000 0.686250
0.185000 0.395000 0.686250
0.297500 0.395000 0.686250
0.410000 0.395000 0.686250
0.522500 0.395000 0.686250
0.635000 0.395000 0.686250
0.747500 0.395000 0.686250
0.860000 0.395000 0.686250
0.000000 0.520000 0.686250
0.072500 0.520000 0.686250
0.185000 0.520000 0.686250
0.297500 0.520000 0.686250
0.410000 0.520000 0.686250
0.522500 0.520000 0.686250
0.635000 0.520000 0.686250
0.747500 0.520000 0.686250
0.860000 0.520000 0.686250
0.000000 0.645000 0.686250
0.072500 0.645000 0.686250
0.185000 0.645000 0.686250
0.297500 0.645000 0.686250
0.410000 0.645000 0.686250
0.522500 0.645000 0.686250
0.635000 0.645000 0.686250
0.747500 0.645000 0.686250
0.860000 0.645000 0.686250
0.000000 0.770000 0.686250
0.072500 0.770000 0.686250
0.185000 0.770000 0.686250
0.297500 0.770000 0.686250
0.410000 0.770000 0.686250
0.522500 0.770000 0.686250
0.635000 0.770000 0.686250
0.747500 0.770000 0.686250
0.860000 0.770000 0.686250
0.000000 0.895000 0.686250
0.072500 0.895000 0.686250
0.185000 0.895000 0.686250
0.297500 0.895000 0.686250
0.410000 0.895000 0.686250
0.522500 0.895000 0.686250
0.635000 0.895000 0.686250
0.747500 0.895000 0.686250
0.860000 0.895000 0.686250
0.000000 1.000000 0.686250
0.072500 1.000000 0.686250
0.185000 1.000000 0.686250
0.297500 1.000000 0.686250
0.410000 1.000000 0.686250
0.522500 1.000000 0.686250
0.635000 1.000000 0.686250
0.747500 1.000000 0.686250
0.860000 1.000000 0.686250
0.000000 0.020000 0.855000
0.072500 0.020000 0.855000
0.185000 0.020000 0.855000
0.297500 0.020000 0.855000
0.410000 0.020000 0.855000
0.522500 0.020000 0.855000
0.635000 0.020000 0.855000
0.747500 0.020000 0.855000
0.860000 0.020000 0.855000
0.000000 0.145000 0.855000
0.072500 0.145000 0.855000
0.185000 0.145000 0.855000
0.297500 0.145000 0.855000
0.410000 0.145000 0.855000
0.522500 0.145000 0.855000
0.635000 0.145000 0.855000
0.747500 0.145000 0.855000
0.860000 0.145000 0.855000
0.000000 0.270000 0.855000
0.072500 0.270000 0.855000
0.185000 0.270000 0.855000
0.297500 0.270000 0.855000
0.410000 0.270000 0.855000
0.522500 0.270000 0.855000
0.635000 0.270000 0.855000
0.747500 0.270000 0.855000
0.860000 0.270000 0.855000
0.000000 0.395000 0.855000
0.072500 0.395000 0.855000
0.185000 0.395000 0.855000
0.297500 0.395000 0.855000
0.410000 0.395000 0.855000
0.522500 0.395000 0.855000
0.635000 0.395000 0.855000
0.747500 0.395000 0.855000
0.860000 0.395000 0.855000
0.000000 0.520000 0.855000
0.072500 0.520000 0.855000
0.185000 0.520000 0.855000
0.297500 0.520000 0.855000
0.410000 0.520000 0.855000
0.522500 0.520000 0.855000
0.635000 0.520000 0.855000
0.747500 0.520000 0.855000
0.860000 0.520000 0.855000
0.000000 0.645000 0.855000
0.072500 0.645000 0.855000
0.185000 0.645000 0.855000
0.297500 0.645000 0.855000
0.410000 0.645000 0.855000
0.522500 0.645000 0.855000
0.635000 0.645000 0.855000
0.747500 0.645000 0.855000
0.860000 0.645000 0.855000
0.000000 0.770000 0.855000
0.072500 0.770000 0.855000
0.185000 0.770000 0.855000
0.297500 0.770000 0.855000
0.410000 0.770000 0.855000
0.522500 0.770000 0.855000
0.635000 0.770000 0.855000
0.747500 0.770000 0.855000
0.860000 0.770000 0.855000
0.000000 0.895000 0.855000
0.072500 0.895000 0.855000
0.185000 0.895000 0.855000
0.297500 0.895000 0.855000
0.410000 0.895000 0.855000
0.522500 0.895000 0.855000
0.635000 0.895000 0.855000
0.747500 0.895000 0.855000
0.860000 0.895000 0.855000
0.000000 1.000000 0.855000
0.072500 1.000000 0.855000
0.185000 1.000000 0.855000
0.297500 1.000000 0.855000
0.410000 1.000000 0.855000
0.522500 1.000000 0.855000
0.635000 1.000000 0.855000
0.747500 1.000000 0.855000
0.860000 1.000000 0.855000
0.000000 0.020000 1.000000
0.072500 0.020000 1.000000
0.185000 0.020000 1.000000
0.297500 0.020000 1.000000
0.410000 0.020000 1.000000
0.522500 0.020000 1.000000
0.635000 0.020000 1.000000
0.747500 0.020000 1.000000
0.860000 0.020000 1.000000
0.000000 0.145000 1.000000
0.072500 0.145000 1.000000
0.185000 0.145000 1.000000
0.297500 0.145000 1.000000
0.410000 0.145000 1.000000
0.522500 0.145000 1.000000
0.635000 0.145000 1.000000
0.747500 0.145000 1.000000
0.860000 0.145000 1.000000
0.000000 0.270000 1.000000
0.072500 0.270000 1.000000
0.185000 0.270000 1.000000
0.297500 0.270000 1.000000
0.410000 0.270000 1.000000
0.522500 0.270000 1.000000
0.635000 0.270000 1.000000
0.747500 0.270000 1.000000
0.860000 0.270000 1.000000
0.000000 0.395000 1.000000
0.072500 0.395000 1.000000
0.185000 0.395000 1.000000
0.297500 0.395000 1.000000
0.410000 0.395000 1.000000
0.522500 0.395000 1.000000
0.635000 0.395000 1.000000
0.747500 0.395000 1.000000
0.860000 0.395000 1.000000
0.000000 0.520000 1.000000
0.072500 0.520000 1.000000
0.185000 0.520000 1.000000
0.297500 0.520000 1.000000
0.410000 0.520000 1.000000
0.522500 0.520000 1.000000
0.635000 0.520000 1.000000
0.747500 0.520000 1.000000
0.860000 0.520000 1.000000
0.000000 0.645000 1.000000
0.072500 0.645000 1.000000
0.185000 0.645000 1.000000
0.297500 0.645000 1.000000
0.410000 0.645000 1.000000
0.522500 0.645000 1.000000
0.635000 0.645000 1.000000
0.747500 0.645000 1.000000
0.860000 0.645000 1.000000
0.000000 0.770000 1.000000
0.072500 0.770000 1.000000
0.185000 0.770000 1.000000
0.297500 0.770000 1.000000
0.410000 0.770000 1.000000
0.522500 0.770000 1.000000
0.635000 0.770000 1.000000
0.747500 0.770000 1.000000
0.860000 0.770000 1.000000
0.000000 0.895000 1.000000
0.072500 0.895000 1.000000
0.185000 0.895000 1.000000
0.297500 0.895000 1.000000
0.410000 0.895000 1.000000
0.522500 0.895000 1.000000
0.635000 0.895000 1.000000
0.747500 0.895000 1.000000
0.860000 0.895000 1.000000
0.000000 1.000000 1.000000
0.072500 1.000000 1.000000
0.185000 1.000000 1.000000
0.297500 1.000000 1.000000
0.410000 1.000000 1.000000
0.522500 1.000000 1.000000
0.635000 1.000000 1.000000
0.747500 1.000000 1.000000
0.860000 1.000000 1.000000
0.000000 0.020000 1.000000
0.072500 0.020000 1.000000
0.185000 0.020000 1.000000
0.297500 0.020000 1.000000
0.410000 0.020000 1.000000
0.522500 0.020000 1.000000
0.635000 0.020000 1.000000
0.747500 0.020000 1.000000
0.860000 0.020000 1.000000
0.000000 0.145000 1.000000
0.072500 0.145000 1.000000
0.185000 0.145000 1.000000
0.297500 0.145000 1.000000
0.410000 0.145000 1.000000
0.522500 0.145000 1.000000
0.635000 0.145000 1.000000
0.747500 0.145000 1.000000
0.860000 0.145000 1.000000
0.000000 0.270000 1.000000
0.072500 0.270000 1.000000
0.185000 0.270000 1.000000
0.297500 0.270000 1.000000
0.410000 0.270000 1.000000
0.522500 0.270000 1.000000
0.635000 0.270000 1.000000
0.747500 0.270000 1.000000
0.860000 0.270000 1.000000
0.000000 0.395000 1.000000
0.072500 0.395000 1.000000
0.185000 0.395000 1.000000
0.297500 0.395000 1.000000
0.410000 0.395000 1.000000
0.522500 0.395000 1.000000
0.635000 0.395000 1.000000
0.747500 0.395000 1.000000
0.860000 0.395000 1.000000
0.000000 0.520000 1.000000
0.072500 0.520000 1.000000
0.185000 0.520000 1.000000
0.297500 0.520000 1.000000
0.410000 0.520000 1.000000
0.522500 0.520000 1.000000
0.635000 0.520000 1.000000
0.747500 0.520000 1.000000
0.860000 0.520000 1.000000
0.000000 0.645000 1.000000
0.072500 0.645000 1.000000
0.185000 0.645000 1.000000
0.297500 0.645000 1.000000
0.410000 0.645000 1.000000
0.522500 0.645000 1.000000
0.635000 0.645000 1.000000
0.747500 0.645000 1.000000
0.860000 0.645000 1.000000
0.000000 0.770000 1.000000
0.072500 0.770000 1.000000
0.185000 0.770000 1.000000
0.297500 0.770000 1.000000
0.410000 0.770000 1.000000
0.522500 0.770000 1.000000
0.635000 0.770000 1.000000
0.747500 0.770000 1.000000
0.860000 0.770000 1.000000
0.000000 0.895000 1.000000
0.072500 0.895000 1.000000
0.185000 0.895000 1.000000
0.297500 0.895000 1.000000
0.410000 0.895000 1.000000
0.522500 0.895000 1.000000
0.635000 0.895000 1.000000
0.747500 0.895000 1.000000
0.860000 0.895000 1.000000
0.000000 1.000000 1.000000
0.072500 1.000000 1.000000
0.185000 1.000000 1.000000
0.297500 1.000000 1.000000
0.410000 1.000000 1.000000
0.522500 1.000000 1.000000
0.635000 1.000000 1.000000
0.747500 1.000000 1.000000
0.860000 1.000000 1.000000
0.000000 0.020000 1.000000
0.072500 0.020000 1.000000
0.185000 0.020000 1.000000
0.297500 0.020000 1.000000
0.410000 0.020000 1.000000
0.522500 0.020000 1.000000
0.635000 0.020000 1.000000
0.747500 0.020000 1.000000
0.860000 0.020000 1.000000
0.000000 0.145000 1.000000
0.072500 0.145000 1.000000
0.185000 0.145000 1.000000
0.297500 0.145000 1.000000
0.410000 0.145000 1.000000
0.522500 0.145000 1.000000
0.635000 0.145000 1.000000
0.747500 0.145000 1.000000
0.860000 0.145000 1.000000
0.000000 0.270000 1.000000
0.072500 0.270000 1.000000
0.185000 0.270000 1.000000
0.297500 0.270000 1.000000
0.410000 0.270000 1.000000
0.522500 0.270000 1.000000
0.635000 0.270000 1.000000
0.747500 0.270000 1.000000
0.860000 0.270000 1.000000
0.000000 0.395000 1.000000
0.072500 0.395000 1.000000
0.185000 0.395000 1.000000
0.297500 0.395000 1.000000
0.410000 0.395000 1.000000
0.522500 0.395000 1.000000
0.635000 0.395000 1.000000
0.747500 0.395000 1.000000
0.860000 0.395000 1.000000
0.000000 0.520000 1.000000
0.072500 0.520000 1.000000
0.185000 0.520000 1.000000
0.297500 0.520000 1.000000
0.410000 0.520000 1.000000
0.522500 0.520000 1.000000
0.635000 0.520000 1.000000
0.747500 0.520000 1.000000
0.860000 0.520000 1.000000
0.000000 0.645000 1.000000
0.072500 0.645000 1.000000
0.185000 0.645000 1.000000
0.297500 0.645000 1.000000
0.410000 0.645000 1.000000
0.522500 0.645000 1.000000
0.635000 0.645000 1.000000
0.747500 0.645000 1.000000
0.860000 0.645000 1.000000
0.000000 0.770000 1.000000
0.072500 0.770000 1.000000
0.185000 0.770000 1.000000
0.297500 0.770000 1.000000
0.410000 0.770000 1.000000
0.522500 0.770000 1.000000
0.635000 0.770000 1.000000
0.747500 0.770000 1.000000
0.860000 0.770000 1.000000
0.000000 0.895000 1.000000
0.072500 0.895000 1.000000
0.185000 0.895000 1.000000
0.297500 0.895000 1.000000
0.410000 0.895000 1.000000
0.522500 0.895000 1.000000
0.635000 0.895000 1.000000
0.747500 0.895000 1.000000
0.860000 0.895000 1.000000
0.000000 1.000000 1.000000
0.072500 1.000000 1.000000
0.185000 1.000000 1.000000
0.297500 1.000000 1.000000
0.410000 1.000000 1.000000
0.522500 1.000000 1.000000
0.635000 1.000000 1.000000
0.747500 1.000000 1.000000
0.860000 1.000000 1.000000
0.000000 0.020000 1.000000
0.072500 0.020000 1.000000
0.185000 0.020000 1.000000
0.297500 0.020000 1.000000
0.410000 0.020000 1.000000
0.522500 0.020000 1.000000
0.635000 0.020000 1.000000
0.747500 0.020000 1.000000
0.860000 0.020000 1.000000
0.000000 0.145000 1.000000
0.072500 0.145000 1.000000
0.185000 0.145000 1.000000
0.297500 0.145000 1.000000
0.410000 0.145000 1.000000
0.522500 0.145000 1.000000
0.635000 0.145000 1.000000
0.747500 0.145000 1.000000
0.860000 0.145000 1.000000
0.000000 0.270000 1.000000
0.072500 0.270000 1.000000
0.185000 0.270000 1.000000
0.297500 0.270000 1.000000
0.410000 0.270000 1.000000
0.522500 0.270000 1.000000
0.635000 0.270000 1.000000
0.747500 0.270000 1.000000
0.860000 0.270000 1.000000
0.000000 0.395000 1.000000
0.072500 0.395000 1.000000
0.185000 0.395000 1.000000
0.297500 0.395000 1.000000
0.410000 0.395000 1.000000
0.522500 0.395000 1.000000
0.635000 0.395000 1.000000
0.747500 0.395000 1.000000
0.860000 0.395000 1.000000
0.000000 0.520000 1.000000
0.072500 0.520000 1.000000
0.185000 0.520000 1.000000
0.297500 0.520000 1.000000
0.410000 0.520000 1.000000
0.522500 0.520000 1.000000
0.635000 0.520000 1.000000
0.747500 0.520000 1.000000
0.860000 0.520000 1.000000
0.000000 0.645000 1.000000
0.072500 0.645000 1.000000
0.185000 0.645000 1.000000
0.297500 0.645000 1.000000
0.410000 0.645000 1.000000
0.522500 0.645000 1.000000
0.635000 0.645000 1.000000
0.747500 0.645000 1.000000
0.860000 0.645000 1.000000
0.000000 0.770000 1.000000
0.072500 0.770000 1.000000
0.185000 0.770000 1.000000
0.297500 0.770000 1.000000
0.410000 0.770000 1.000000
0.522500 0.770000 1.000000
0.635000 0.770000 1.000000
0.747500 0.770000 1.000000
0.860000 0.770000 1.000000
0.000000 0.895000 1.000000
0.072500 0.895000 1.000000
0.185000 0.895000 1.000000
0.297500 0.895000 1.000000
0.410000 0.895000 1.000000
0.522500 0.895000 1.000000
0.635000 0.895000 1.000000
0.747500 0.895000 1.000000
0.860000 0.895000 1.000000
0.000000 1.000000 1.000000
0.072500 1.000000 1.000000
0.185000 1.000000 1.000000
0.297500 1.000000 1.000000
0.410000 1.000000 1.000000
0.522500 1.000000 1.000000
0.635000 1.000000 1.000000
0.747500 1.000000 1.000000
0.860000 1.000000 1.000000
