app/src/main/assets/luts/arctic_frost.cube
# ApexStudio filter: arctic_frost
LUT_3D_SIZE 17
DOMAIN_MIN 0.0 0.0 0.0
DOMAIN_MAX 1.0 1.0 1.0
0.000000 0.020000 0.180000
0.016250 0.020000 0.180000
0.072500 0.020000 0.180000
0.128750 0.020000 0.180000
0.185000 0.020000 0.180000
0.241250 0.020000 0.180000
0.297500 0.020000 0.180000
0.353750 0.020000 0.180000
0.410000 0.020000 0.180000
0.466250 0.020000 0.180000
0.522500 0.020000 0.180000
0.578750 0.020000 0.180000
0.635000 0.020000 0.180000
0.691250 0.020000 0.180000
0.747500 0.020000 0.180000
0.803750 0.020000 0.180000
0.860000 0.020000 0.180000
0.000000 0.082500 0.180000
0.016250 0.082500 0.180000
0.072500 0.082500 0.180000
0.128750 0.082500 0.180000
0.185000 0.082500 0.180000
0.241250 0.082500 0.180000
0.297500 0.082500 0.180000
0.353750 0.082500 0.180000
0.410000 0.082500 0.180000
0.466250 0.082500 0.180000
0.522500 0.082500 0.180000
0.578750 0.082500 0.180000
0.635000 0.082500 0.180000
0.691250 0.082500 0.180000
0.747500 0.082500 0.180000
0.803750 0.082500 0.180000
0.860000 0.082500 0.180000
0.000000 0.145000 0.180000
0.016250 0.145000 0.180000
0.072500 0.145000 0.180000
0.128750 0.145000 0.180000
0.185000 0.145000 0.180000
0.241250 0.145000 0.180000
0.297500 0.145000 0.180000
0.353750 0.145000 0.180000
0.410000 0.145000 0.180000
0.466250 0.145000 0.180000
0.522500 0.145000 0.180000
0.578750 0.145000 0.180000
0.635000 0.145000 0.180000
0.691250 0.145000 0.180000
0.747500 0.145000 0.180000
0.803750 0.145000 0.180000
0.860000 0.145000 0.180000
0.000000 0.207500 0.180000
0.016250 0.207500 0.180000
0.072500 0.207500 0.180000
0.128750 0.207500 0.180000
0.185000 0.207500 0.180000
0.241250 0.207500 0.180000
0.297500 0.207500 0.180000
0.353750 0.207500 0.180000
0.410000 0.207500 0.180000
0.466250 0.207500 0.180000
0.522500 0.207500 0.180000
0.578750 0.207500 0.180000
0.635000 0.207500 0.180000
0.691250 0.207500 0.180000
0.747500 0.207500 0.180000
0.803750 0.207500 0.180000
0.860000 0.207500 0.180000
0.000000 0.270000 0.180000
0.016250 0.270000 0.180000
0.072500 0.270000 0.180000
0.128750 0.270000 0.180000
0.185000 0.270000 0.180000
0.241250 0.270000 0.180000
0.297500 0.270000 0.180000
0.353750 0.270000 0.180000
0.410000 0.270000 0.180000
0.466250 0.270000 0.180000
0.522500 0.270000 0.180000
0.578750 0.270000 0.180000
0.635000 0.270000 0.180000
0.691250 0.270000 0.180000
0.747500 0.270000 0.180000
0.803750 0.270000 0.180000
0.860000 0.270000 0.180000
0.000000 0.332500 0.180000
0.016250 0.332500 0.180000
0.072500 0.332500 0.180000
0.128750 0.332500 0.180000
0.185000 0.332500 0.180000
0.241250 0.332500 0.180000
0.297500 0.332500 0.180000
0.353750 0.332500 0.180000
0.410000 0.332500 0.180000
0.466250 0.332500 0.180000
0.522500 0.332500 0.180000
0.578750 0.332500 0.180000
0.635000 0.332500 0.180000
0.691250 0.332500 0.180000
0.747500 0.332500 0.180000
0.803750 0.332500 0.180000
0.860000 0.332500 0.180000
0.000000 0.395000 0.180000
0.016250 0.395000 0.180000
0.072500 0.395000 0.180000
0.128750 0.395000 0.180000
0.185000 0.395000 0.180000
0.241250 0.395000 0.180000
0.297500 0.395000 0.180000
0.353750 0.395000 0.180000
0.410000 0.395000 0.180000
0.466250 0.395000 0.180000
0.522500 0.395000 0.180000
0.578750 0.395000 0.180000
0.635000 0.395000 0.180000
0.691250 0.395000 0.180000
0.747500 0.395000 0.180000
0.803750 0.395000 0.180000
0.860000 0.395000 0.180000
0.000000 0.457500 0.180000
0.016250 0.457500 0.180000
0.072500 0.457500 0.180000
0.128750 0.457500 0.180000
0.185000 0.457500 0.180000
0.241250 0.457500 0.180000
0.297500 0.457500 0.180000
0.353750 0.457500 0.180000
0.410000 0.457500 0.180000
0.466250 0.457500 0.180000
0.522500 0.457500 0.180000
0.578750 0.457500 0.180000
0.635000 0.457500 0.180000
0.691250 0.457500 0.180000
0.747500 0.457500 0.180000
0.803750 0.457500 0.180000
0.860000 0.457500 0.180000
0.000000 0.520000 0.180000
0.016250 0.520000 0.180000
0.072500 0.520000 0.180000
0.128750 0.520000 0.180000
0.185000 0.520000 0.180000
0.241250 0.520000 0.180000
0.297500 0.520000 0.180000
0.353750 0.520000 0.180000
0.410000 0.520000 0.180000
0.466250 0.520000 0.180000
0.522500 0.520000 0.180000
0.578750 0.520000 0.180000
0.635000 0.520000 0.180000
0.691250 0.520000 0.180000
0.747500 0.520000 0.180000
0.803750 0.520000 0.180000
0.860000 0.520000 0.180000
0.000000 0.582500 0.180000
0.016250 0.582500 0.180000
0.072500 0.582500 0.180000
0.128750 0.582500 0.180000
0.185000 0.582500 0.180000
0.241250 0.582500 0.180000
0.297500 0.582500 0.180000
0.353750 0.582500 0.180000
0.410000 0.582500 0.180000
0.466250 0.582500 0.180000
0.522500 0.582500 0.180000
0.578750 0.582500 0.180000
0.635000 0.582500 0.180000
0.691250 0.582500 0.180000
0.747500 0.582500 0.180000
0.803750 0.582500 0.180000
0.860000 0.582500 0.180000
0.000000 0.645000 0.180000
0.016250 0.645000 0.180000
0.072500 0.645000 0.180000
0.128750 0.645000 0.180000
0.185000 0.645000 0.180000
0.241250 0.645000 0.180000
0.297500 0.645000 0.180000
0.353750 0.645000 0.180000
0.410000 0.645000 0.180000
0.466250 0.645000 0.180000
0.522500 0.645000 0.180000
0.578750 0.645000 0.180000
0.635000 0.645000 0.180000
0.691250 0.645000 0.180000
0.747500 0.645000 0.180000
0.803750 0.645000 0.180000
0.860000 0.645000 0.180000
0.000000 0.707500 0.180000
0.016250 0.707500 0.180000
0.072500 0.707500 0.180000
0.128750 0.707500 0.180000
0.185000 0.707500 0.180000
0.241250 0.707500 0.180000
0.297500 0.707500 0.180000
0.353750 0.707500 0.180000
0.410000 0.707500 0.180000
0.466250 0.707500 0.180000
0.522500 0.707500 0.180000
0.578750 0.707500 0.180000
0.635000 0.707500 0.180000
0.691250 0.707500 0.180000
0.747500 0.707500 0.180000
0.803750 0.707500 0.180000
0.860000 0.707500 0.180000
0.000000 0.770000 0.180000
0.016250 0.770000 0.180000
0.072500 0.770000 0.180000
0.128750 0.770000 0.180000
0.185000 0.770000 0.180000
0.241250 0.770000 0.180000
0.297500 0.770000 0.180000
0.353750 0.770000 0.180000
0.410000 0.770000 0.180000
0.466250 0.770000 0.180000
0.522500 0.770000 0.180000
0.578750 0.770000 0.180000
0.635000 0.770000 0.180000
0.691250 0.770000 0.180000
0.747500 0.770000 0.180000
0.803750 0.770000 0.180000
0.860000 0.770000 0.180000
0.000000 0.832500 0.180000
0.016250 0.832500 0.180000
0.072500 0.832500 0.180000
0.128750 0.832500 0.180000
0.185000 0.832500 0.180000
0.241250 0.832500 0.180000
0.297500 0.832500 0.180000
0.353750 0.832500 0.180000
0.410000 0.832500 0.180000
0.466250 0.832500 0.180000
0.522500 0.832500 0.180000
0.578750 0.832500 0.180000
0.635000 0.832500 0.180000
0.691250 0.832500 0.180000
0.747500 0.832500 0.180000
0.803750 0.832500 0.180000
0.860000 0.832500 0.180000
0.000000 0.895000 0.180000
0.016250 0.895000 0.180000
0.072500 0.895000 0.180000
0.128750 0.895000 0.180000
0.185000 0.895000 0.180000
0.241250 0.895000 0.180000
0.297500 0.895000 0.180000
0.353750 0.895000 0.180000
0.410000 0.895000 0.180000
0.466250 0.895000 0.180000
0.522500 0.895000 0.180000
0.578750 0.895000 0.180000
0.635000 0.895000 0.180000
0.691250 0.895000 0.180000
0.747500 0.895000 0.180000
0.803750 0.895000 0.180000
0.860000 0.895000 0.180000
0.000000 0.957500 0.180000
0.016250 0.957500 0.180000
0.072500 0.957500 0.180000
0.128750 0.957500 0.180000
0.185000 0.957500 0.180000
0.241250 0.957500 0.180000
0.297500 0.957500 0.180000
0.353750 0.957500 0.180000
0.410000 0.957500 0.180000
0.466250 0.957500 0.180000
0.522500 0.957500 0.180000
0.578750 0.957500 0.180000
0.635000 0.957500 0.180000
0.691250 0.957500 0.180000
0.747500 0.957500 0.180000
0.803750 0.957500 0.180000
0.860000 0.957500 0.180000
0.000000 1.000000 0.180000
0.016250 1.000000 0.180000
0.072500 1.000000 0.180000
0.128750 1.000000 0.180000
0.185000 1.000000 0.180000
0.241250 1.000000 0.180000
0.297500 1.000000 0.180000
0.353750 1.000000 0.180000
0.410000 1.000000 0.180000
0.466250 1.000000 0.180000
0.522500 1.000000 0.180000
0.578750 1.000000 0.180000
0.635000 1.000000 0.180000
0.691250 1.000000 0.180000
0.747500 1.000000 0.180000
0.803750 1.000000 0.180000
0.860000 1.000000 0.180000
0.000000 0.020000 0.264375
0.016250 0.020000 0.264375
0.072500 0.020000 0.264375
0.128750 0.020000 0.264375
0.185000 0.020000 0.264375
0.241250 0.020000 0.264375
0.297500 0.020000 0.264375
0.353750 0.020000 0.264375
0.410000 0.020000 0.264375
0.466250 0.020000 0.264375
0.522500 0.020000 0.264375
0.578750 0.020000 0.264375
0.635000 0.020000 0.264375
0.691250 0.020000 0.264375
0.747500 0.020000 0.264375
0.803750 0.020000 0.264375
0.860000 0.020000 0.264375
0.000000 0.082500 0.264375
0.016250 0.082500 0.264375
0.072500 0.082500 0.264375
0.128750 0.082500 0.264375
0.185000 0.082500 0.264375
0.241250 0.082500 0.264375
0.297500 0.082500 0.264375
0.353750 0.082500 0.264375
0.410000 0.082500 0.264375
0.466250 0.082500 0.264375
0.522500 0.082500 0.264375
0.578750 0.082500 0.264375
0.635000 0.082500 0.264375
0.691250 0.082500 0.264375
0.747500 0.082500 0.264375
0.803750 0.082500 0.264375
0.860000 0.082500 0.264375
0.000000 0.145000 0.264375
0.016250 0.145000 0.264375
0.072500 0.145000 0.264375
0.128750 0.145000 0.264375
0.185000 0.145000 0.264375
0.241250 0.145000 0.264375
0.297500 0.145000 0.264375
0.353750 0.145000 0.264375
0.410000 0.145000 0.264375
0.466250 0.145000 0.264375
0.522500 0.145000 0.264375
0.578750 0.145000 0.264375
0.635000 0.145000 0.264375
0.691250 0.145000 0.264375
0.747500 0.145000 0.264375
0.803750 0.145000 0.264375
0.860000 0.145000 0.264375
0.000000 0.207500 0.264375
0.016250 0.207500 0.264375
0.072500 0.207500 0.264375
0.128750 0.207500 0.264375
0.185000 0.207500 0.264375
0.241250 0.207500 0.264375
0.297500 0.207500 0.264375
0.353750 0.207500 0.264375
0.410000 0.207500 0.264375
0.466250 0.207500 0.264375
0.522500 0.207500 0.264375
0.578750 0.207500 0.264375
0.635000 0.207500 0.264375
0.691250 0.207500 0.264375
0.747500 0.207500 0.264375
0.803750 0.207500 0.264375
0.860000 0.207500 0.264375
0.000000 0.270000 0.264375
0.016250 0.270000 0.264375
0.072500 0.270000 0.264375
0.128750 0.270000 0.264375
0.185000 0.270000 0.264375
0.241250 0.270000 0.264375
0.297500 0.270000 0.264375
0.353750 0.270000 0.264375
0.410000 0.270000 0.264375
0.466250 0.270000 0.264375
0.522500 0.270000 0.264375
0.578750 0.270000 0.264375
0.635000 0.270000 0.264375
0.691250 0.270000 0.264375
0.747500 0.270000 0.264375
0.803750 0.270000 0.264375
0.860000 0.270000 0.264375
0.000000 0.332500 0.264375
0.016250 0.332500 0.264375
0.072500 0.332500 0.264375
0.128750 0.332500 0.264375
0.185000 0.332500 0.264375
0.241250 0.332500 0.264375
0.297500 0.332500 0.264375
0.353750 0.332500 0.264375
0.410000 0.332500 0.264375
0.466250 0.332500 0.264375
0.522500 0.332500 0.264375
0.578750 0.332500 0.264375
0.635000 0.332500 0.264375
0.691250 0.332500 0.264375
0.747500 0.332500 0.264375
0.803750 0.332500 0.264375
0.860000 0.332500 0.264375
0.000000 0.395000 0.264375
0.016250 0.395000 0.264375
0.072500 0.395000 0.264375
0.128750 0.395000 0.264375
0.185000 0.395000 0.264375
0.241250 0.395000 0.264375
0.297500 0.395000 0.264375
0.353750 0.395000 0.264375
0.410000 0.395000 0.264375
0.466250 0.395000 0.264375
0.522500 0.395000 0.264375
0.578750 0.395000 0.264375
0.635000 0.395000 0.264375
0.691250 0.395000 0.264375
0.747500 0.395000 0.264375
0.803750 0.395000 0.264375
0.860000 0.395000 0.264375
0.000000 0.457500 0.264375
0.016250 0.457500 0.264375
0.072500 0.457500 0.264375
0.128750 0.457500 0.264375
0.185000 0.457500 0.264375
0.241250 0.457500 0.264375
0.297500 0.457500 0.264375
0.353750 0.457500 0.264375
0.410000 0.457500 0.264375
0.466250 0.457500 0.264375
0.522500 0.457500 0.264375
0.578750 0.457500 0.264375
0.635000 0.457500 0.264375
0.691250 0.457500 0.264375
0.747500 0.457500 0.264375
0.803750 0.457500 0.264375
0.860000 0.457500 0.264375
0.000000 0.520000 0.264375
0.016250 0.520000 0.264375
0.072500 0.520000 0.264375
0.128750 0.520000 0.264375
0.185000 0.520000 0.264375
0.241250 0.520000 0.264375
0.297500 0.520000 0.264375
0.353750 0.520000 0.264375
0.410000 0.520000 0.264375
0.466250 0.520000 0.264375
0.522500 0.520000 0.264375
0.578750 0.520000 0.264375
0.635000 0.520000 0.264375
0.691250 0.520000 0.264375
0.747500 0.520000 0.264375
0.803750 0.520000 0.264375
0.860000 0.520000 0.264375
0.000000 0.582500 0.264375
0.016250 0.582500 0.264375
0.072500 0.582500 0.264375
0.128750 0.582500 0.264375
0.185000 0.582500 0.264375
0.241250 0.582500 0.264375
0.297500 0.582500 0.264375
0.353750 0.582500 0.264375
0.410000 0.582500 0.264375
0.466250 0.582500 0.264375
0.522500 0.582500 0.264375
0.578750 0.582500 0.264375
0.635000 0.582500 0.264375
0.691250 0.582500 0.264375
0.747500 0.582500 0.264375
0.803750 0.582500 0.264375
0.860000 0.582500 0.264375
0.000000 0.645000 0.264375
0.016250 0.645000 0.264375
0.072500 0.645000 0.264375
0.128750 0.645000 0.264375
0.185000 0.645000 0.264375
0.241250 0.645000 0.264375
0.297500 0.645000 0.264375
0.353750 0.645000 0.264375
0.410000 0.645000 0.264375
0.466250 0.645000 0.264375
0.522500 0.645000 0.264375
0.578750 0.645000 0.264375
0.635000 0.645000 0.264375
0.691250 0.645000 0.264375
0.747500 0.645000 0.264375
0.803750 0.645000 0.264375
0.860000 0.645000 0.264375
0.000000 0.707500 0.264375
0.016250 0.707500 0.264375
0.072500 0.707500 0.264375
0.128750 0.707500 0.264375
0.185000 0.707500 0.264375
0.241250 0.707500 0.264375
0.297500 0.707500 0.264375
0.353750 0.707500 0.264375
0.410000 0.707500 0.264375
0.466250 0.707500 0.264375
0.522500 0.707500 0.264375
0.578750 0.707500 0.264375
0.635000 0.707500 0.264375
0.691250 0.707500 0.264375
0.747500 0.707500 0.264375
0.803750 0.707500 0.264375
0.860000 0.707500 0.264375
0.000000 0.770000 0.264375
0.016250 0.770000 0.264375
0.072500 0.770000 0.264375
0.128750 0.770000 0.264375
0.185000 0.770000 0.264375
0.241250 0.770000 0.264375
0.297500 0.770000 0.264375
0.353750 0.770000 0.264375
0.410000 0.770000 0.264375
0.466250 0.770000 0.264375
0.522500 0.770000 0.264375
0.578750 0.770000 0.264375
0.635000 0.770000 0.264375
0.691250 0.770000 0.264375
0.747500 0.770000 0.264375
0.803750 0.770000 0.264375
0.860000 0.770000 0.264375
0.000000 0.832500 0.264375
0.016250 0.832500 0.264375
0.072500 0.832500 0.264375
0.128750 0.832500 0.264375
0.185000 0.832500 0.264375
0.241250 0.832500 0.264375
0.297500 0.832500 0.264375
0.353750 0.832500 0.264375
0.410000 0.832500 0.264375
0.466250 0.832500 0.264375
0.522500 0.832500 0.264375
0.578750 0.832500 0.264375
0.635000 0.832500 0.264375
0.691250 0.832500 0.264375
0.747500 0.832500 0.264375
0.803750 0.832500 0.264375
0.860000 0.832500 0.264375
0.000000 0.895000 0.264375
0.016250 0.895000 0.264375
0.072500 0.895000 0.264375
0.128750 0.895000 0.264375
0.185000 0.895000 0.264375
0.241250 0.895000 0.264375
0.297500 0.895000 0.264375
0.353750 0.895000 0.264375
0.410000 0.895000 0.264375
0.466250 0.895000 0.264375
0.522500 0.895000 0.264375
0.578750 0.895000 0.264375
0.635000 0.895000 0.264375
0.691250 0.895000 0.264375
0.747500 0.895000 0.264375
0.803750 0.895000 0.264375
0.860000 0.895000 0.264375
0.000000 0.957500 0.264375
0.016250 0.957500 0.264375
0.072500 0.957500 0.264375
0.128750 0.957500 0.264375
0.185000 0.957500 0.264375
0.241250 0.957500 0.264375
0.297500 0.957500 0.264375
0.353750 0.957500 0.264375
0.410000 0.957500 0.264375
0.466250 0.957500 0.264375
0.522500 0.957500 0.264375
0.578750 0.957500 0.264375
0.635000 0.957500 0.264375
0.691250 0.957500 0.264375
0.747500 0.957500 0.264375
0.803750 0.957500 0.264375
0.860000 0.957500 0.264375
0.000000 1.000000 0.264375
0.016250 1.000000 0.264375
0.072500 1.000000 0.264375
0.128750 1.000000 0.264375
0.185000 1.000000 0.264375
0.241250 1.000000 0.264375
0.297500 1.000000 0.264375
0.353750 1.000000 0.264375
0.410000 1.000000 0.264375
0.466250 1.000000 0.264375
0.522500 1.000000 0.264375
0.578750 1.000000 0.264375
0.635000 1.000000 0.264375
0.691250 1.000000 0.264375
0.747500 1.000000 0.264375
0.803750 1.000000 0.264375
0.860000 1.000000 0.264375
0.000000 0.020000 0.348750
0.016250 0.020000 0.348750
0.072500 0.020000 0.348750
0.128750 0.020000 0.348750
0.185000 0.020000 0.348750
0.241250 0.020000 0.348750
0.297500 0.020000 0.348750
0.353750 0.020000 0.348750
0.410000 0.020000 0.348750
0.466250 0.020000 0.348750
0.522500 0.020000 0.348750
0.578750 0.020000 0.348750
0.635000 0.020000 0.348750
0.691250 0.020000 0.348750
0.747500 0.020000 0.348750
0.803750 0.020000 0.348750
0.860000 0.020000 0.348750
0.000000 0.082500 0.348750
0.016250 0.082500 0.348750
0.072500 0.082500 0.348750
0.128750 0.082500 0.348750
0.185000 0.082500 0.348750
0.241250 0.082500 0.348750
0.297500 0.082500 0.348750
0.353750 0.082500 0.348750
0.410000 0.082500 0.348750
0.466250 0.082500 0.348750
0.522500 0.082500 0.348750
0.578750 0.082500 0.348750
0.635000 0.082500 0.348750
0.691250 0.082500 0.348750
0.747500 0.082500 0.348750
0.803750 0.082500 0.348750
0.860000 0.082500 0.348750
0.000000 0.145000 0.348750
0.016250 0.145000 0.348750
0.072500 0.145000 0.348750
0.128750 0.145000 0.348750
0.185000 0.145000 0.348750
0.241250 0.145000 0.348750
0.297500 0.145000 0.348750
0.353750 0.145000 0.348750
0.410000 0.145000 0.348750
0.466250 0.145000 0.348750
0.522500 0.145000 0.348750
0.578750 0.145000 0.348750
0.635000 0.145000 0.348750
0.691250 0.145000 0.348750
0.747500 0.145000 0.348750
0.803750 0.145000 0.348750
0.860000 0.145000 0.348750
0.000000 0.207500 0.348750
0.016250 0.207500 0.348750
0.072500 0.207500 0.348750
0.128750 0.207500 0.348750
0.185000 0.207500 0.348750
0.241250 0.207500 0.348750
0.297500 0.207500 0.348750
0.353750 0.207500 0.348750
0.410000 0.207500 0.348750
0.466250 0.207500 0.348750
0.522500 0.207500 0.348750
0.578750 0.207500 0.348750
0.635000 0.207500 0.348750
0.691250 0.207500 0.348750
0.747500 0.207500 0.348750
0.803750 0.207500 0.348750
0.860000 0.207500 0.348750
0.000000 0.270000 0.348750
0.016250 0.270000 0.348750
0.072500 0.270000 0.348750
0.128750 0.270000 0.348750
0.185000 0.270000 0.348750
0.241250 0.270000 0.348750
0.297500 0.270000 0.348750
0.353750 0.270000 0.348750
0.410000 0.270000 0.348750
0.466250 0.270000 0.348750
0.522500 0.270000 0.348750
0.578750 0.270000 0.348750
0.635000 0.270000 0.348750
0.691250 0.270000 0.348750
0.747500 0.270000 0.348750
0.803750 0.270000 0.348750
0.860000 0.270000 0.348750
0.000000 0.332500 0.348750
0.016250 0.332500 0.348750
0.072500 0.332500 0.348750
0.128750 0.332500 0.348750
0.185000 0.332500 0.348750
0.241250 0.332500 0.348750
0.297500 0.332500 0.348750
0.353750 0.332500 0.348750
0.410000 0.332500 0.348750
0.466250 0.332500 0.348750
0.522500 0.332500 0.348750
0.578750 0.332500 0.348750
0.635000 0.332500 0.348750
0.691250 0.332500 0.348750
0.747500 0.332500 0.348750
0.803750 0.332500 0.348750
0.860000 0.332500 0.348750
0.000000 0.395000 0.348750
0.016250 0.395000 0.348750
0.072500 0.395000 0.348750
0.128750 0.395000 0.348750
0.185000 0.395000 0.348750
0.241250 0.395000 0.348750
0.297500 0.395000 0.348750
0.353750 0.395000 0.348750
0.410000 0.395000 0.348750
0.466250 0.395000 0.348750
0.522500 0.395000 0.348750
0.578750 0.395000 0.348750
0.635000 0.395000 0.348750
0.691250 0.395000 0.348750
0.747500 0.395000 0.348750
0.803750 0.395000 0.348750
0.860000 0.395000 0.348750
0.000000 0.457500 0.348750
0.016250 0.457500 0.348750
0.072500 0.457500 0.348750
0.128750 0.457500 0.348750
0.185000 0.457500 0.348750
0.241250 0.457500 0.348750
0.297500 0.457500 0.348750
0.353750 0.457500 0.348750
0.410000 0.457500 0.348750
0.466250 0.457500 0.348750
0.522500 0.457500 0.348750
0.578750 0.457500 0.348750
0.635000 0.457500 0.348750
0.691250 0.457500 0.348750
0.747500 0.457500 0.348750
0.803750 0.457500 0.348750
0.860000 0.457500 0.348750
0.000000 0.520000 0.348750
0.016250 0.520000 0.348750
0.072500 0.520000 0.348750
0.128750 0.520000 0.348750
0.185000 0.520000 0.348750
0.241250 0.520000 0.348750
0.297500 0.520000 0.348750
0.353750 0.520000 0.348750
0.410000 0.520000 0.348750
0.466250 0.520000 0.348750
0.522500 0.520000 0.348750
0.578750 0.520000 0.348750
0.635000 0.520000 0.348750
0.691250 0.520000 0.348750
0.747500 0.520000 0.348750
0.803750 0.520000 0.348750
0.860000 0.520000 0.348750
0.000000 0.582500 0.348750
0.016250 0.582500 0.348750
0.072500 0.582500 0.348750
0.128750 0.582500 0.348750
0.185000 0.582500 0.348750
0.241250 0.582500 0.348750
0.297500 0.582500 0.348750
0.353750 0.582500 0.348750
0.410000 0.582500 0.348750
0.466250 0.582500 0.348750
0.522500 0.582500 0.348750
0.578750 0.582500 0.348750
0.635000 0.582500 0.348750
0.691250 0.582500 0.348750
0.747500 0.582500 0.348750
0.803750 0.582500 0.348750
0.860000 0.582500 0.348750
0.000000 0.645000 0.348750
0.016250 0.645000 0.348750
0.072500 0.645000 0.348750
0.128750 0.645000 0.348750
0.185000 0.645000 0.348750
0.241250 0.645000 0.348750
0.297500 0.645000 0.348750
0.353750 0.645000 0.348750
0.410000 0.645000 0.348750
0.466250 0.645000 0.348750
0.522500 0.645000 0.348750
0.578750 0.645000 0.348750
0.635000 0.645000 0.348750
0.691250 0.645000 0.348750
0.747500 0.645000 0.348750
0.803750 0.645000 0.348750
0.860000 0.645000 0.348750
0.000000 0.707500 0.348750
0.016250 0.707500 0.348750
0.072500 0.707500 0.348750
0.128750 0.707500 0.348750
0.185000 0.707500 0.348750
0.241250 0.707500 0.348750
0.297500 0.707500 0.348750
0.353750 0.707500 0.348750
0.410000 0.707500 0.348750
0.466250 0.707500 0.348750
0.522500 0.707500 0.348750
0.578750 0.707500 0.348750
0.635000 0.707500 0.348750
0.691250 0.707500 0.348750
0.747500 0.707500 0.348750
0.803750 0.707500 0.348750
0.860000 0.707500 0.348750
0.000000 0.770000 0.348750
0.016250 0.770000 0.348750
0.072500 0.770000 0.348750
0.128750 0.770000 0.348750
0.185000 0.770000 0.348750
0.241250 0.770000 0.348750
0.297500 0.770000 0.348750
0.353750 0.770000 0.348750
0.410000 0.770000 0.348750
0.466250 0.770000 0.348750
0.522500 0.770000 0.348750
0.578750 0.770000 0.348750
0.635000 0.770000 0.348750
0.691250 0.770000 0.348750
0.747500 0.770000 0.348750
0.803750 0.770000 0.348750
0.860000 0.770000 0.348750
0.000000 0.832500 0.348750
0.016250 0.832500 0.348750
0.072500 0.832500 0.348750
0.128750 0.832500 0.348750
0.185000 0.832500 0.348750
0.241250 0.832500 0.348750
0.297500 0.832500 0.348750
0.353750 0.832500 0.348750
0.410000 0.832500 0.348750
0.466250 0.832500 0.348750
0.522500 0.832500 0.348750
0.578750 0.832500 0.348750
0.635000 0.832500 0.348750
0.691250 0.832500 0.348750
0.747500 0.832500 0.348750
0.803750 0.832500 0.348750
0.860000 0.832500 0.348750
0.000000 0.895000 0.348750
0.016250 0.895000 0.348750
0.072500 0.895000 0.348750
0.128750 0.895000 0.348750
0.185000 0.895000 0.348750
0.241250 0.895000 0.348750
0.297500 0.895000 0.348750
0.353750 0.895000 0.348750
0.410000 0.895000 0.348750
0.466250 0.895000 0.348750
0.522500 0.895000 0.348750
0.578750 0.895000 0.348750
0.635000 0.895000 0.348750
0.691250 0.895000 0.348750
0.747500 0.895000 0.348750
0.803750 0.895000 0.348750
0.860000 0.895000 0.348750
0.000000 0.957500 0.348750
0.016250 0.957500 0.348750
0.072500 0.957500 0.348750
0.128750 0.957500 0.348750
0.185000 0.957500 0.348750
0.241250 0.957500 0.348750
0.297500 0.957500 0.348750
0.353750 0.957500 0.348750
0.410000 0.957500 0.348750
0.466250 0.957500 0.348750
0.522500 0.957500 0.348750
0.578750 0.957500 0.348750
0.635000 0.957500 0.348750
0.691250 0.957500 0.348750
0.747500 0.957500 0.348750
0.803750 0.957500 0.348750
0.860000 0.957500 0.348750
0.000000 1.000000 0.348750
0.016250 1.000000 0.348750
0.072500 1.000000 0.348750
0.128750 1.000000 0.348750
0.185000 1.000000 0.348750
0.241250 1.000000 0.348750
0.297500 1.000000 0.348750
0.353750 1.000000 0.348750
0.410000 1.000000 0.348750
0.466250 1.000000 0.348750
0.522500 1.000000 0.348750
0.578750 1.000000 0.348750
0.635000 1.000000 0.348750
0.691250 1.000000 0.348750
0.747500 1.000000 0.348750
0.803750 1.000000 0.348750
0.860000 1.000000 0.348750
0.000000 0.020000 0.433125
0.016250 0.020000 0.433125
0.072500 0.020000 0.433125
0.128750 0.020000 0.433125
0.185000 0.020000 0.433125
0.241250 0.020000 0.433125
0.297500 0.020000 0.433125
0.353750 0.020000 0.433125
0.410000 0.020000 0.433125
0.466250 0.020000 0.433125
0.522500 0.020000 0.433125
0.578750 0.020000 0.433125
0.635000 0.020000 0.433125
0.691250 0.020000 0.433125
0.747500 0.020000 0.433125
0.803750 0.020000 0.433125
0.860000 0.020000 0.433125
0.000000 0.082500 0.433125
