app/src/main/assets/luts/arctic_frost.cube
# ApexStudio filter: arctic_frost
LUT_3D_SIZE 5
DOMAIN_MIN 0.0 0.0 0.0
DOMAIN_MAX 1.0 1.0 1.0
0.000000 0.020000 0.180000
0.185000 0.020000 0.180000
0.410000 0.020000 0.180000
0.635000 0.020000 0.180000
0.860000 0.020000 0.180000
0.000000 0.270000 0.180000
0.185000 0.270000 0.180000
0.410000 0.270000 0.180000
0.635000 0.270000 0.180000
0.860000 0.270000 0.180000
0.000000 0.520000 0.180000
0.185000 0.520000 0.180000
0.410000 0.520000 0.180000
0.635000 0.520000 0.180000
0.860000 0.520000 0.180000
0.000000 0.770000 0.180000
0.185000 0.770000 0.180000
0.410000 0.770000 0.180000
0.635000 0.770000 0.180000
0.860000 0.770000 0.180000
0.000000 1.000000 0.180000
0.185000 1.000000 0.180000
0.410000 1.000000 0.180000
0.635000 1.000000 0.180000
0.860000 1.000000 0.180000
0.000000 0.020000 0.517500
0.185000 0.020000 0.517500
0.410000 0.020000 0.517500
0.635000 0.020000 0.517500
0.860000 0.020000 0.517500
0.000000 0.270000 0.517500
0.185000 0.270000 0.517500
0.410000 0.270000 0.517500
0.635000 0.270000 0.517500
0.860000 0.270000 0.517500
0.000000 0.520000 0.517500
0.185000 0.520000 0.517500
0.410000 0.520000 0.517500
0.635000 0.520000 0.517500
0.860000 0.520000 0.517500
0.000000 0.770000 0.517500
0.185000 0.770000 0.517500
0.410000 0.770000 0.517500
0.635000 0.770000 0.517500
0.860000 0.770000 0.517500
0.000000 1.000000 0.517500
0.185000 1.000000 0.517500
0.410000 1.000000 0.517500
0.635000 1.000000 0.517500
0.860000 1.000000 0.517500
0.000000 0.020000 0.855000
0.185000 0.020000 0.855000
0.410000 0.020000 0.855000
0.635000 0.020000 0.855000
0.860000 0.020000 0.855000
0.000000 0.270000 0.855000
0.185000 0.270000 0.855000
0.410000 0.270000 0.855000
0.635000 0.270000 0.855000
0.860000 0.270000 0.855000
0.000000 0.520000 0.855000
0.185000 0.520000 0.855000
0.410000 0.520000 0.855000
0.635000 0.520000 0.855000
0.860000 0.520000 0.855000
0.000000 0.770000 0.855000
0.185000 0.770000 0.855000
0.410000 0.770000 0.855000
0.635000 0.770000 0.855000
0.860000 0.770000 0.855000
0.000000 1.000000 0.855000
0.185000 1.000000 0.855000
0.410000 1.000000 0.855000
0.635000 1.000000 0.855000
0.860000 1.000000 0.855000
0.000000 0.020000 1.000000
0.185000 0.020000 1.000000
0.410000 0.020000 1.000000
0.635000 0.020000 1.000000
0.860000 0.020000 1.000000
0.000000 0.270000 1.000000
0.185000 0.270000 1.000000
0.410000 0.270000 1.000000
0.635000 0.270000 1.000000
0.860000 0.270000 1.000000
0.000000 0.520000 1.000000
0.185000 0.520000 1.000000
0.410000 0.520000 1.000000
0.635000 0.520000 1.000000
0.860000 0.520000 1.000000
0.000000 0.770000 1.000000
0.185000 0.770000 1.000000
0.410000 0.770000 1.000000
0.635000 0.770000 1.000000
0.860000 0.770000 1.000000
0.000000 1.000000 1.000000
0.185000 1.000000 1.000000
0.410000 1.000000 1.000000
0.635000 1.000000 1.000000
0.860000 1.000000 1.000000
0.000000 0.020000 1.000000
0.185000 0.020000 1.000000
0.410000 0.020000 1.000000
0.635000 0.020000 1.000000
0.860000 0.020000 1.000000
0.000000 0.270000 1.000000
0.185000 0.270000 1.000000
0.410000 0.270000 1.000000
0.635000 0.270000 1.000000
0.860000 0.270000 1.000000
0.000000 0.520000 1.000000
0.185000 0.520000 1.000000
0.410000 0.520000 1.000000
0.635000 0.520000 1.000000
0.860000 0.520000 1.000000
0.000000 0.770000 1.000000
0.185000 0.770000 1.000000
0.410000 0.770000 1.000000
0.635000 0.770000 1.000000
0.860000 0.770000 1.000000
0.000000 1.000000 1.000000
0.185000 1.000000 1.000000
0.410000 1.000000 1.000000
0.635000 1.000000 1.000000
0.860000 1.000000 1.000000
