app/src/main/assets/luts/blockbuster_warm.cube
# ApexStudio filter: blockbuster_warm
LUT_3D_SIZE 17
DOMAIN_MIN 0.0 0.0 0.0
DOMAIN_MAX 1.0 1.0 1.0
0.049113 0.000000 0.000000
0.115322 0.000000 0.000000
0.183610 0.000000 0.000000
0.253222 0.000000 0.000000
0.323817 0.000000 0.000000
0.395195 0.000000 0.000000
0.467227 0.000000 0.000000
0.539821 0.000000 0.000000
0.612908 0.000000 0.000000
0.686434 0.000000 0.000000
0.760357 0.000000 0.000000
0.834641 0.000000 0.000000
0.909258 0.000000 0.000000
0.984183 0.000000 0.000000
1.000000 0.000000 0.000000
1.000000 0.000000 0.000000
1.000000 0.000000 0.000000
0.049113 0.065625 0.000000
0.115322 0.065625 0.000000
0.183610 0.065625 0.000000
0.253222 0.065625 0.000000
0.323817 0.065625 0.000000
0.395195 0.065625 0.000000
0.467227 0.065625 0.000000
0.539821 0.065625 0.000000
0.612908 0.065625 0.000000
0.686434 0.065625 0.000000
0.760357 0.065625 0.000000
0.834641 0.065625 0.000000
0.909258 0.065625 0.000000
0.984183 0.065625 0.000000
1.000000 0.065625 0.000000
1.000000 0.065625 0.000000
1.000000 0.065625 0.000000
0.049113 0.131250 0.000000
0.115322 0.131250 0.000000
0.183610 0.131250 0.000000
0.253222 0.131250 0.000000
0.323817 0.131250 0.000000
0.395195 0.131250 0.000000
0.467227 0.131250 0.000000
0.539821 0.131250 0.000000
0.612908 0.131250 0.000000
0.686434 0.131250 0.000000
0.760357 0.131250 0.000000
0.834641 0.131250 0.000000
0.909258 0.131250 0.000000
0.984183 0.131250 0.000000
1.000000 0.131250 0.000000
1.000000 0.131250 0.000000
1.000000 0.131250 0.000000
0.049113 0.196875 0.000000
0.115322 0.196875 0.000000
0.183610 0.196875 0.000000
0.253222 0.196875 0.000000
0.323817 0.196875 0.000000
0.395195 0.196875 0.000000
0.467227 0.196875 0.000000
0.539821 0.196875 0.000000
0.612908 0.196875 0.000000
0.686434 0.196875 0.000000
0.760357 0.196875 0.000000
0.834641 0.196875 0.000000
0.909258 0.196875 0.000000
0.984183 0.196875 0.000000
1.000000 0.196875 0.000000
1.000000 0.196875 0.000000
1.000000 0.196875 0.000000
0.049113 0.262500 0.000000
0.115322 0.262500 0.000000
0.183610 0.262500 0.000000
0.253222 0.262500 0.000000
0.323817 0.262500 0.000000
0.395195 0.262500 0.000000
0.467227 0.262500 0.000000
0.539821 0.262500 0.000000
0.612908 0.262500 0.000000
0.686434 0.262500 0.000000
0.760357 0.262500 0.000000
0.834641 0.262500 0.000000
0.909258 0.262500 0.000000
0.984183 0.262500 0.000000
1.000000 0.262500 0.000000
1.000000 0.262500 0.000000
1.000000 0.262500 0.000000
0.049113 0.328125 0.000000
0.115322 0.328125 0.000000
0.183610 0.328125 0.000000
0.253222 0.328125 0.000000
0.323817 0.328125 0.000000
0.395195 0.328125 0.000000
0.467227 0.328125 0.000000
0.539821 0.328125 0.000000
0.612908 0.328125 0.000000
0.686434 0.328125 0.000000
0.760357 0.328125 0.000000
0.834641 0.328125 0.000000
0.909258 0.328125 0.000000
0.984183 0.328125 0.000000
1.000000 0.328125 0.000000
1.000000 0.328125 0.000000
1.000000 0.328125 0.000000
0.049113 0.393750 0.000000
0.115322 0.393750 0.000000
0.183610 0.393750 0.000000
0.253222 0.393750 0.000000
0.323817 0.393750 0.000000
0.395195 0.393750 0.000000
0.467227 0.393750 0.000000
0.539821 0.393750 0.000000
0.612908 0.393750 0.000000
0.686434 0.393750 0.000000
0.760357 0.393750 0.000000
0.834641 0.393750 0.000000
0.909258 0.393750 0.000000
0.984183 0.393750 0.000000
1.000000 0.393750 0.000000
1.000000 0.393750 0.000000
1.000000 0.393750 0.000000
0.049113 0.459375 0.000000
0.115322 0.459375 0.000000
0.183610 0.459375 0.000000
0.253222 0.459375 0.000000
0.323817 0.459375 0.000000
0.395195 0.459375 0.000000
0.467227 0.459375 0.000000
0.539821 0.459375 0.000000
0.612908 0.459375 0.000000
0.686434 0.459375 0.000000
0.760357 0.459375 0.000000
0.834641 0.459375 0.000000
0.909258 0.459375 0.000000
0.984183 0.459375 0.000000
1.000000 0.459375 0.000000
1.000000 0.459375 0.000000
1.000000 0.459375 0.000000
0.049113 0.525000 0.000000
0.115322 0.525000 0.000000
0.183610 0.525000 0.000000
0.253222 0.525000 0.000000
0.323817 0.525000 0.000000
0.395195 0.525000 0.000000
0.467227 0.525000 0.000000
0.539821 0.525000 0.000000
0.612908 0.525000 0.000000
0.686434 0.525000 0.000000
0.760357 0.525000 0.000000
0.834641 0.525000 0.000000
0.909258 0.525000 0.000000
0.984183 0.525000 0.000000
1.000000 0.525000 0.000000
1.000000 0.525000 0.000000
1.000000 0.525000 0.000000
0.049113 0.590625 0.000000
0.115322 0.590625 0.000000
0.183610 0.590625 0.000000
0.253222 0.590625 0.000000
0.323817 0.590625 0.000000
0.395195 0.590625 0.000000
0.467227 0.590625 0.000000
0.539821 0.590625 0.000000
0.612908 0.590625 0.000000
0.686434 0.590625 0.000000
0.760357 0.590625 0.000000
0.834641 0.590625 0.000000
0.909258 0.590625 0.000000
0.984183 0.590625 0.000000
1.000000 0.590625 0.000000
1.000000 0.590625 0.000000
1.000000 0.590625 0.000000
0.049113 0.656250 0.000000
0.115322 0.656250 0.000000
0.183610 0.656250 0.000000
0.253222 0.656250 0.000000
0.323817 0.656250 0.000000
0.395195 0.656250 0.000000
0.467227 0.656250 0.000000
0.539821 0.656250 0.000000
0.612908 0.656250 0.000000
0.686434 0.656250 0.000000
0.760357 0.656250 0.000000
0.834641 0.656250 0.000000
0.909258 0.656250 0.000000
0.984183 0.656250 0.000000
1.000000 0.656250 0.000000
1.000000 0.656250 0.000000
1.000000 0.656250 0.000000
0.049113 0.721875 0.000000
0.115322 0.721875 0.000000
0.183610 0.721875 0.000000
0.253222 0.721875 0.000000
0.323817 0.721875 0.000000
0.395195 0.721875 0.000000
0.467227 0.721875 0.000000
0.539821 0.721875 0.000000
0.612908 0.721875 0.000000
0.686434 0.721875 0.000000
0.760357 0.721875 0.000000
0.834641 0.721875 0.000000
0.909258 0.721875 0.000000
0.984183 0.721875 0.000000
1.000000 0.721875 0.000000
1.000000 0.721875 0.000000
1.000000 0.721875 0.000000
0.049113 0.787500 0.000000
0.115322 0.787500 0.000000
0.183610 0.787500 0.000000
0.253222 0.787500 0.000000
0.323817 0.787500 0.000000
0.395195 0.787500 0.000000
0.467227 0.787500 0.000000
0.539821 0.787500 0.000000
0.612908 0.787500 0.000000
0.686434 0.787500 0.000000
0.760357 0.787500 0.000000
0.834641 0.787500 0.000000
0.909258 0.787500 0.000000
0.984183 0.787500 0.000000
1.000000 0.787500 0.000000
1.000000 0.787500 0.000000
1.000000 0.787500 0.000000
0.049113 0.853125 0.000000
0.115322 0.853125 0.000000
0.183610 0.853125 0.000000
0.253222 0.853125 0.000000
0.323817 0.853125 0.000000
0.395195 0.853125 0.000000
0.467227 0.853125 0.000000
0.539821 0.853125 0.000000
0.612908 0.853125 0.000000
0.686434 0.853125 0.000000
0.760357 0.853125 0.000000
0.834641 0.853125 0.000000
0.909258 0.853125 0.000000
0.984183 0.853125 0.000000
1.000000 0.853125 0.000000
1.000000 0.853125 0.000000
1.000000 0.853125 0.000000
0.049113 0.918750 0.000000
0.115322 0.918750 0.000000
0.183610 0.918750 0.000000
0.253222 0.918750 0.000000
0.323817 0.918750 0.000000
0.395195 0.918750 0.000000
0.467227 0.918750 0.000000
0.539821 0.918750 0.000000
0.612908 0.918750 0.000000
0.686434 0.918750 0.000000
0.760357 0.918750 0.000000
0.834641 0.918750 0.000000
0.909258 0.918750 0.000000
0.984183 0.918750 0.000000
1.000000 0.918750 0.000000
1.000000 0.918750 0.000000
1.000000 0.918750 0.000000
0.049113 0.984375 0.000000
0.115322 0.984375 0.000000
0.183610 0.984375 0.000000
0.253222 0.984375 0.000000
0.323817 0.984375 0.000000
0.395195 0.984375 0.000000
0.467227 0.984375 0.000000
0.539821 0.984375 0.000000
0.612908 0.984375 0.000000
0.686434 0.984375 0.000000
0.760357 0.984375 0.000000
0.834641 0.984375 0.000000
0.909258 0.984375 0.000000
0.984183 0.984375 0.000000
1.000000 0.984375 0.000000
1.000000 0.984375 0.000000
1.000000 0.984375 0.000000
0.049113 1.000000 0.000000
0.115322 1.000000 0.000000
0.183610 1.000000 0.000000
0.253222 1.000000 0.000000
0.323817 1.000000 0.000000
0.395195 1.000000 0.000000
0.467227 1.000000 0.000000
0.539821 1.000000 0.000000
0.612908 1.000000 0.000000
0.686434 1.000000 0.000000
0.760357 1.000000 0.000000
0.834641 1.000000 0.000000
0.909258 1.000000 0.000000
0.984183 1.000000 0.000000
1.000000 1.000000 0.000000
1.000000 1.000000 0.000000
1.000000 1.000000 0.000000
0.049113 0.000000 0.000000
0.115322 0.000000 0.000000
0.183610 0.000000 0.000000
0.253222 0.000000 0.000000
0.323817 0.000000 0.000000
0.395195 0.000000 0.000000
0.467227 0.000000 0.000000
0.539821 0.000000 0.000000
0.612908 0.000000 0.000000
0.686434 0.000000 0.000000
0.760357 0.000000 0.000000
0.834641 0.000000 0.000000
0.909258 0.000000 0.000000
0.984183 0.000000 0.000000
1.000000 0.000000 0.000000
1.000000 0.000000 0.000000
1.000000 0.000000 0.000000
0.049113 0.065625 0.000000
0.115322 0.065625 0.000000
0.183610 0.065625 0.000000
0.253222 0.065625 0.000000
0.323817 0.065625 0.000000
0.395195 0.065625 0.000000
0.467227 0.065625 0.000000
0.539821 0.065625 0.000000
0.612908 0.065625 0.000000
0.686434 0.065625 0.000000
0.760357 0.065625 0.000000
0.834641 0.065625 0.000000
0.909258 0.065625 0.000000
0.984183 0.065625 0.000000
1.000000 0.065625 0.000000
1.000000 0.065625 0.000000
1.000000 0.065625 0.000000
0.049113 0.131250 0.000000
0.115322 0.131250 0.000000
0.183610 0.131250 0.000000
0.253222 0.131250 0.000000
0.323817 0.131250 0.000000
0.395195 0.131250 0.000000
0.467227 0.131250 0.000000
0.539821 0.131250 0.000000
0.612908 0.131250 0.000000
0.686434 0.131250 0.000000
0.760357 0.131250 0.000000
0.834641 0.131250 0.000000
0.909258 0.131250 0.000000
0.984183 0.131250 0.000000
1.000000 0.131250 0.000000
1.000000 0.131250 0.000000
1.000000 0.131250 0.000000
0.049113 0.196875 0.000000
0.115322 0.196875 0.000000
0.183610 0.196875 0.000000
0.253222 0.196875 0.000000
0.323817 0.196875 0.000000
0.395195 0.196875 0.000000
0.467227 0.196875 0.000000
0.539821 0.196875 0.000000
0.612908 0.196875 0.000000
0.686434 0.196875 0.000000
0.760357 0.196875 0.000000
0.834641 0.196875 0.000000
0.909258 0.196875 0.000000
0.984183 0.196875 0.000000
1.000000 0.196875 0.000000
1.000000 0.196875 0.000000
1.000000 0.196875 0.000000
0.049113 0.262500 0.000000
0.115322 0.262500 0.000000
0.183610 0.262500 0.000000
0.253222 0.262500 0.000000
0.323817 0.262500 0.000000
0.395195 0.262500 0.000000
0.467227 0.262500 0.000000
0.539821 0.262500 0.000000
0.612908 0.262500 0.000000
0.686434 0.262500 0.000000
0.760357 0.262500 0.000000
0.834641 0.262500 0.000000
0.909258 0.262500 0.000000
0.984183 0.262500 0.000000
1.000000 0.262500 0.000000
1.000000 0.262500 0.000000
1.000000 0.262500 0.000000
0.049113 0.328125 0.000000
0.115322 0.328125 0.000000
0.183610 0.328125 0.000000
0.253222 0.328125 0.000000
0.323817 0.328125 0.000000
0.395195 0.328125 0.000000
0.467227 0.328125 0.000000
0.539821 0.328125 0.000000
0.612908 0.328125 0.000000
0.686434 0.328125 0.000000
0.760357 0.328125 0.000000
0.834641 0.328125 0.000000
0.909258 0.328125 0.000000
0.984183 0.328125 0.000000
1.000000 0.328125 0.000000
1.000000 0.328125 0.000000
1.000000 0.328125 0.000000
0.049113 0.393750 0.000000
0.115322 0.393750 0.000000
0.183610 0.393750 0.000000
0.253222 0.393750 0.000000
0.323817 0.393750 0.000000
0.395195 0.393750 0.000000
0.467227 0.393750 0.000000
0.539821 0.393750 0.000000
0.612908 0.393750 0.000000
0.686434 0.393750 0.000000
0.760357 0.393750 0.000000
0.834641 0.393750 0.000000
0.909258 0.393750 0.000000
0.984183 0.393750 0.000000
1.000000 0.393750 0.000000
1.000000 0.393750 0.000000
1.000000 0.393750 0.000000
0.049113 0.459375 0.000000
0.115322 0.459375 0.000000
0.183610 0.459375 0.000000
0.253222 0.459375 0.000000
0.323817 0.459375 0.000000
0.395195 0.459375 0.000000
0.467227 0.459375 0.000000
0.539821 0.459375 0.000000
0.612908 0.459375 0.000000
0.686434 0.459375 0.000000
0.760357 0.459375 0.000000
0.834641 0.459375 0.000000
0.909258 0.459375 0.000000
0.984183 0.459375 0.000000
1.000000 0.459375 0.000000
1.000000 0.459375 0.000000
1.000000 0.459375 0.000000
0.049113 0.525000 0.000000
0.115322 0.525000 0.000000
0.183610 0.525000 0.000000
0.253222 0.525000 0.000000
0.323817 0.525000 0.000000
0.395195 0.525000 0.000000
0.467227 0.525000 0.000000
0.539821 0.525000 0.000000
0.612908 0.525000 0.000000
0.686434 0.525000 0.000000
0.760357 0.525000 0.000000
0.834641 0.525000 0.000000
0.909258 0.525000 0.000000
0.984183 0.525000 0.000000
1.000000 0.525000 0.000000
1.000000 0.525000 0.000000
1.000000 0.525000 0.000000
0.049113 0.590625 0.000000
0.115322 0.590625 0.000000
0.183610 0.590625 0.000000
0.253222 0.590625 0.000000
0.323817 0.590625 0.000000
0.395195 0.590625 0.000000
0.467227 0.590625 0.000000
0.539821 0.590625 0.000000
0.612908 0.590625 0.000000
0.686434 0.590625 0.000000
0.760357 0.590625 0.000000
0.834641 0.590625 0.000000
0.909258 0.590625 0.000000
0.984183 0.590625 0.000000
1.000000 0.590625 0.000000
1.000000 0.590625 0.000000
1.000000 0.590625 0.000000
0.049113 0.656250 0.000000
0.115322 0.656250 0.000000
0.183610 0.656250 0.000000
0.253222 0.656250 0.000000
0.323817 0.656250 0.000000
0.395195 0.656250 0.000000
0.467227 0.656250 0.000000
0.539821 0.656250 0.000000
0.612908 0.656250 0.000000
0.686434 0.656250 0.000000
0.760357 0.656250 0.000000
0.834641 0.656250 0.000000
0.909258 0.656250 0.000000
0.984183 0.656250 0.000000
1.000000 0.656250 0.000000
1.000000 0.656250 0.000000
1.000000 0.656250 0.000000
0.049113 0.721875 0.000000
0.115322 0.721875 0.000000
0.183610 0.721875 0.000000
0.253222 0.721875 0.000000
0.323817 0.721875 0.000000
0.395195 0.721875 0.000000
0.467227 0.721875 0.000000
0.539821 0.721875 0.000000
0.612908 0.721875 0.000000
0.686434 0.721875 0.000000
0.760357 0.721875 0.000000
0.834641 0.721875 0.000000
0.909258 0.721875 0.000000
0.984183 0.721875 0.000000
1.000000 0.721875 0.000000
1.000000 0.721875 0.000000
1.000000 0.721875 0.000000
0.049113 0.787500 0.000000
0.115322 0.787500 0.000000
0.183610 0.787500 0.000000
0.253222 0.787500 0.000000
0.323817 0.787500 0.000000
0.395195 0.787500 0.000000
0.467227 0.787500 0.000000
0.539821 0.787500 0.000000
0.612908 0.787500 0.000000
0.686434 0.787500 0.000000
0.760357 0.787500 0.000000
0.834641 0.787500 0.000000
0.909258 0.787500 0.000000
0.984183 0.787500 0.000000
1.000000 0.787500 0.000000
1.000000 0.787500 0.000000
1.000000 0.787500 0.000000
0.049113 0.853125 0.000000
0.115322 0.853125 0.000000
0.183610 0.853125 0.000000
0.253222 0.853125 0.000000
0.323817 0.853125 0.000000
0.395195 0.853125 0.000000
0.467227 0.853125 0.000000
0.539821 0.853125 0.000000
0.612908 0.853125 0.000000
0.686434 0.853125 0.000000
0.760357 0.853125 0.000000
0.834641 0.853125 0.000000
0.909258 0.853125 0.000000
0.984183 0.853125 0.000000
1.000000 0.853125 0.000000
1.000000 0.853125 0.000000
1.000000 0.853125 0.000000
0.049113 0.918750 0.000000
0.115322 0.918750 0.000000
0.183610 0.918750 0.000000
0.253222 0.918750 0.000000
0.323817 0.918750 0.000000
0.395195 0.918750 0.000000
0.467227 0.918750 0.000000
0.539821 0.918750 0.000000
0.612908 0.918750 0.000000
0.686434 0.918750 0.000000
0.760357 0.918750 0.000000
0.834641 0.918750 0.000000
0.909258 0.918750 0.000000
0.984183 0.918750 0.000000
1.000000 0.918750 0.000000
1.000000 0.918750 0.000000
1.000000 0.918750 0.000000
0.049113 0.984375 0.000000
0.115322 0.984375 0.000000
0.183610 0.984375 0.000000
0.253222 0.984375 0.000000
0.323817 0.984375 0.000000
0.395195 0.984375 0.000000
0.467227 0.984375 0.000000
0.539821 0.984375 0.000000
0.612908 0.984375 0.000000
0.686434 0.984375 0.000000
0.760357 0.984375 0.000000
0.834641 0.984375 0.000000
0.909258 0.984375 0.000000
0.984183 0.984375 0.000000
1.000000 0.984375 0.000000
1.000000 0.984375 0.000000
1.000000 0.984375 0.000000
0.049113 1.000000 0.000000
0.115322 1.000000 0.000000
0.183610 1.000000 0.000000
0.253222 1.000000 0.000000
0.323817 1.000000 0.000000
0.395195 1.000000 0.000000
0.467227 1.000000 0.000000
0.539821 1.000000 0.000000
0.612908 1.000000 0.000000
0.686434 1.000000 0.000000
0.760357 1.000000 0.000000
0.834641 1.000000 0.000000
0.909258 1.000000 0.000000
0.984183 1.000000 0.000000
1.000000 1.000000 0.000000
1.000000 1.000000 0.000000
1.000000 1.000000 0.000000
0.049113 0.000000 0.050707
0.115322 0.000000 0.050707
0.183610 0.000000 0.050707
0.253222 0.000000 0.050707
0.323817 0.000000 0.050707
0.395195 0.000000 0.050707
0.467227 0.000000 0.050707
0.539821 0.000000 0.050707
0.612908 0.000000 0.050707
0.686434 0.000000 0.050707
0.760357 0.000000 0.050707
0.834641 0.000000 0.050707
0.909258 0.000000 0.050707
0.984183 0.000000 0.050707
1.000000 0.000000 0.050707
1.000000 0.000000 0.050707
1.000000 0.000000 0.050707
0.049113 0.065625 0.050707
0.115322 0.065625 0.050707
0.183610 0.065625 0.050707
0.253222 0.065625 0.050707
0.323817 0.065625 0.050707
0.395195 0.065625 0.050707
0.467227 0.065625 0.050707
0.539821 0.065625 0.050707
0.612908 0.065625 0.050707
0.686434 0.065625 0.050707
0.760357 0.065625 0.050707
0.834641 0.065625 0.050707
0.909258 0.065625 0.050707
0.984183 0.065625 0.050707
1.000000 0.065625 0.050707
1.000000 0.065625 0.050707
1.000000 0.065625 0.050707
0.049113 0.131250 0.050707
0.115322 0.131250 0.050707
0.183610 0.131250 0.050707
0.253222 0.131250 0.050707
0.323817 0.131250 0.050707
0.395195 0.131250 0.050707
0.467227 0.131250 0.050707
0.539821 0.131250 0.050707
0.612908 0.131250 0.050707
0.686434 0.131250 0.050707
0.760357 0.131250 0.050707
0.834641 0.131250 0.050707
0.909258 0.131250 0.050707
0.984183 0.131250 0.050707
1.000000 0.131250 0.050707
1.000000 0.131250 0.050707
1.000000 0.131250 0.050707
0.049113 0.196875 0.050707
0.115322 0.196875 0.050707
0.183610 0.196875 0.050707
0.253222 0.196875 0.050707
0.323817 0.196875 0.050707
0.395195 0.196875 0.050707
0.467227 0.196875 0.050707
0.539821 0.196875 0.050707
0.612908 0.196875 0.050707
0.686434 0.196875 0.050707
0.760357 0.196875 0.050707
0.834641 0.196875 0.050707
0.909258 0.196875 0.050707
0.984183 0.196875 0.050707
1.000000 0.196875 0.050707
1.000000 0.196875 0.050707
1.000000 0.196875 0.050707
0.049113 0.262500 0.050707
0.115322 0.262500 0.050707
0.183610 0.262500 0.050707
0.253222 0.262500 0.050707
0.323817 0.262500 0.050707
0.395195 0.262500 0.050707
0.467227 0.262500 0.050707
0.539821 0.262500 0.050707
0.612908 0.262500 0.050707
0.686434 0.262500 0.050707
0.760357 0.262500 0.050707
0.834641 0.262500 0.050707
0.909258 0.262500 0.050707
0.984183 0.262500 0.050707
1.000000 0.262500 0.050707
1.000000 0.262500 0.050707
1.000000 0.262500 0.050707
0.049113 0.328125 0.050707
0.115322 0.328125 0.050707
0.183610 0.328125 0.050707
0.253222 0.328125 0.050707
0.323817 0.328125 0.050707
0.395195 0.328125 0.050707
0.467227 0.328125 0.050707
0.539821 0.328125 0.050707
0.612908 0.328125 0.050707
0.686434 0.328125 0.050707
0.760357 0.328125 0.050707
0.834641 0.328125 0.050707
0.909258 0.328125 0.050707
0.984183 0.328125 0.050707
1.000000 0.328125 0.050707
1.000000 0.328125 0.050707
1.000000 0.328125 0.050707
0.049113 0.393750 0.050707
0.115322 0.393750 0.050707
0.183610 0.393750 0.050707
0.253222 0.393750 0.050707
0.323817 0.393750 0.050707
0.395195 0.393750 0.050707
0.467227 0.393750 0.050707
0.539821 0.393750 0.050707
0.612908 0.393750 0.050707
0.686434 0.393750 0.050707
0.760357 0.393750 0.050707
0.834641 0.393750 0.050707
0.909258 0.393750 0.050707
0.984183 0.393750 0.050707
1.000000 0.393750 0.050707
1.000000 0.393750 0.050707
1.000000 0.393750 0.050707
0.049113 0.459375 0.050707
0.115322 0.459375 0.050707
0.183610 0.459375 0.050707
0.253222 0.459375 0.050707
0.323817 0.459375 0.050707
0.395195 0.459375 0.050707
0.467227 0.459375 0.050707
0.539821 0.459375 0.050707
0.612908 0.459375 0.050707
0.686434 0.459375 0.050707
0.760357 0.459375 0.050707
0.834641 0.459375 0.050707
0.909258 0.459375 0.050707
0.984183 0.459375 0.050707
1.000000 0.459375 0.050707
1.000000 0.459375 0.050707
1.000000 0.459375 0.050707
0.049113 0.525000 0.050707
0.115322 0.525000 0.050707
0.183610 0.525000 0.050707
0.253222 0.525000 0.050707
0.323817 0.525000 0.050707
0.395195 0.525000 0.050707
0.467227 0.525000 0.050707
0.539821 0.525000 0.050707
0.612908 0.525000 0.050707
0.686434 0.525000 0.050707
0.760357 0.525000 0.050707
0.834641 0.525000 0.050707
0.909258 0.525000 0.050707
0.984183 0.525000 0.050707
1.000000 0.525000 0.050707
1.000000 0.525000 0.050707
1.000000 0.525000 0.050707
0.049113 0.590625 0.050707
0.115322 0.590625 0.050707
0.183610 0.590625 0.050707
0.253222 0.590625 0.050707
0.323817 0.590625 0.050707
0.395195 0.590625 0.050707
0.467227 0.590625 0.050707
0.539821 0.590625 0.050707
0.612908 0.590625 0.050707
0.686434 0.590625 0.050707
0.760357 0.590625 0.050707
0.834641 0.590625 0.050707
0.909258 0.590625 0.050707
0.984183 0.590625 0.050707
1.000000 0.590625 0.050707
1.000000 0.590625 0.050707
1.000000 0.590625 0.050707
0.049113 0.656250 0.050707
0.115322 0.656250 0.050707
0.183610 0.656250 0.050707
0.253222 0.656250 0.050707
0.323817 0.656250 0.050707
0.395195 0.656250 0.050707
0.467227 0.656250 0.050707
0.539821 0.656250 0.050707
0.612908 0.656250 0.050707
0.686434 0.656250 0.050707
0.760357 0.656250 0.050707
0.834641 0.656250 0.050707
0.909258 0.656250 0.050707
0.984183 0.656250 0.050707
1.000000 0.656250 0.050707
1.000000 0.656250 0.050707
1.000000 0.656250 0.050707
0.049113 0.721875 0.050707
0.115322 0.721875 0.050707
0.183610 0.721875 0.050707
0.253222 0.721875 0.050707
0.323817 0.721875 0.050707
0.395195 0.721875 0.050707
0.467227 0.721875 0.050707
0.539821 0.721875 0.050707
0.612908 0.721875 0.050707
0.686434 0.721875 0.050707
0.760357 0.721875 0.050707
0.834641 0.721875 0.050707
0.909258 0.721875 0.050707
0.984183 0.721875 0.050707
1.000000 0.721875 0.050707
1.000000 0.721875 0.050707
1.000000 0.721875 0.050707
0.049113 0.787500 0.050707
0.115322 0.787500 0.050707
0.183610 0.787500 0.050707
0.253222 0.787500 0.050707
0.323817 0.787500 0.050707
0.395195 0.787500 0.050707
0.467227 0.787500 0.050707
0.539821 0.787500 0.050707
0.612908 0.787500 0.050707
0.686434 0.787500 0.050707
0.760357 0.787500 0.050707
0.834641 0.787500 0.050707
0.909258 0.787500 0.050707
0.984183 0.787500 0.050707
1.000000 0.787500 0.050707
1.000000 0.787500 0.050707
1.000000 0.787500 0.050707
0.049113 0.853125 0.050707
0.115322 0.853125 0.050707
0.183610 0.853125 0.050707
0.253222 0.853125 0.050707
0.323817 0.853125 0.050707
0.395195 0.853125 0.050707
0.467227 0.853125 0.050707
0.539821 0.853125 0.050707
0.612908 0.853125 0.050707
0.686434 0.853125 0.050707
0.760357 0.853125 0.050707
0.834641 0.853125 0.050707
0.909258 0.853125 0.050707
0.984183 0.853125 0.050707
1.000000 0.853125 0.050707
1.000000 0.853125 0.050707
1.000000 0.853125 0.050707
0.049113 0.918750 0.050707
0.115322 0.918750 0.050707
0.183610 0.918750 0.050707
0.253222 0.918750 0.050707
0.323817 0.918750 0.050707
0.395195 0.918750 0.050707
0.467227 0.918750 0.050707
0.539821 0.918750 0.050707
0.612908 0.918750 0.050707
0.686434 0.918750 0.050707
0.760357 0.918750 0.050707
0.834641 0.918750 0.050707
0.909258 0.918750 0.050707
0.984183 0.918750 0.050707
1.000000 0.918750 0.050707
1.000000 0.918750 0.050707
1.000000 0.918750 0.050707
0.049113 0.984375 0.050707
0.115322 0.984375 0.050707
0.183610 0.984375 0.050707
0.253222 0.984375 0.050707
0.323817 0.984375 0.050707
0.395195 0.984375 0.050707
0.467227 0.984375 0.050707
0.539821 0.984375 0.050707
0.612908 0.984375 0.050707
0.686434 0.984375 0.050707
0.760357 0.984375 0.050707
0.834641 0.984375 0.050707
0.909258 0.984375 0.050707
0.984183 0.984375 0.050707
1.000000 0.984375 0.050707
1.000000 0.984375 0.050707
1.000000 0.984375 0.050707
0.049113 1.000000 0.050707
0.115322 1.000000 0.050707
0.183610 1.000000 0.050707
0.253222 1.000000 0.050707
0.323817 1.000000 0.050707
0.395195 1.000000 0.050707
0.467227 1.000000 0.050707
0.539821 1.000000 0.050707
0.612908 1.000000 0.050707
0.686434 1.000000 0.050707
0.760357 1.000000 0.050707
0.834641 1.000000 0.050707
0.909258 1.000000 0.050707
0.984183 1.000000 0.050707
1.000000 1.000000 0.050707
1.000000 1.000000 0.050707
1.000000 1.000000 0.050707
0.049113 0.000000 0.111913
0.115322 0.000000 0.111913
0.183610 0.000000 0.111913
0.253222 0.000000 0.111913
0.323817 0.000000 0.111913
0.395195 0.000000 0.111913
0.467227 0.000000 0.111913
0.539821 0.000000 0.111913
0.612908 0.000000 0.111913
0.686434 0.000000 0.111913
0.760357 0.000000 0.111913
0.834641 0.000000 0.111913
0.909258 0.000000 0.111913
0.984183 0.000000 0.111913
1.000000 0.000000 0.111913
1.000000 0.000000 0.111913
1.000000 0.000000 0.111913
0.049113 0.065625 0.111913
