app/src/main/assets/luts/blockbuster_warm.cube
# ApexStudio filter: blockbuster_warm
LUT_3D_SIZE 9
DOMAIN_MIN 0.0 0.0 0.0
DOMAIN_MAX 1.0 1.0 1.0
0.049113 0.000000 0.000000
0.183610 0.000000 0.000000
0.323817 0.000000 0.000000
0.467227 0.000000 0.000000
0.612908 0.000000 0.000000
0.760357 0.000000 0.000000
0.909258 0.000000 0.000000
1.000000 0.000000 0.000000
1.000000 0.000000 0.000000
0.049113 0.131250 0.000000
0.183610 0.131250 0.000000
0.323817 0.131250 0.000000
0.467227 0.131250 0.000000
0.612908 0.131250 0.000000
0.760357 0.131250 0.000000
0.909258 0.131250 0.000000
1.000000 0.131250 0.000000
1.000000 0.131250 0.000000
0.049113 0.262500 0.000000
0.183610 0.262500 0.000000
0.323817 0.262500 0.000000
0.467227 0.262500 0.000000
0.612908 0.262500 0.000000
0.760357 0.262500 0.000000
0.909258 0.262500 0.000000
1.000000 0.262500 0.000000
1.000000 0.262500 0.000000
0.049113 0.393750 0.000000
0.183610 0.393750 0.000000
0.323817 0.393750 0.000000
0.467227 0.393750 0.000000
0.612908 0.393750 0.000000
0.760357 0.393750 0.000000
0.909258 0.393750 0.000000
1.000000 0.393750 0.000000
1.000000 0.393750 0.000000
0.049113 0.525000 0.000000
0.183610 0.525000 0.000000
0.323817 0.525000 0.000000
0.467227 0.525000 0.000000
0.612908 0.525000 0.000000
0.760357 0.525000 0.000000
0.909258 0.525000 0.000000
1.000000 0.525000 0.000000
1.000000 0.525000 0.000000
0.049113 0.656250 0.000000
0.183610 0.656250 0.000000
0.323817 0.656250 0.000000
0.467227 0.656250 0.000000
0.612908 0.656250 0.000000
0.760357 0.656250 0.000000
0.909258 0.656250 0.000000
1.000000 0.656250 0.000000
1.000000 0.656250 0.000000
0.049113 0.787500 0.000000
0.183610 0.787500 0.000000
0.323817 0.787500 0.000000
0.467227 0.787500 0.000000
0.612908 0.787500 0.000000
0.760357 0.787500 0.000000
0.909258 0.787500 0.000000
1.000000 0.787500 0.000000
1.000000 0.787500 0.000000
0.049113 0.918750 0.000000
0.183610 0.918750 0.000000
0.323817 0.918750 0.000000
0.467227 0.918750 0.000000
0.612908 0.918750 0.000000
0.760357 0.918750 0.000000
0.909258 0.918750 0.000000
1.000000 0.918750 0.000000
1.000000 0.918750 0.000000
0.049113 1.000000 0.000000
0.183610 1.000000 0.000000
0.323817 1.000000 0.000000
0.467227 1.000000 0.000000
0.612908 1.000000 0.000000
0.760357 1.000000 0.000000
0.909258 1.000000 0.000000
1.000000 1.000000 0.000000
1.000000 1.000000 0.000000
0.049113 0.000000 0.050707
0.183610 0.000000 0.050707
0.323817 0.000000 0.050707
0.467227 0.000000 0.050707
0.612908 0.000000 0.050707
0.760357 0.000000 0.050707
0.909258 0.000000 0.050707
1.000000 0.000000 0.050707
1.000000 0.000000 0.050707
0.049113 0.131250 0.050707
0.183610 0.131250 0.050707
0.323817 0.131250 0.050707
0.467227 0.131250 0.050707
0.612908 0.131250 0.050707
0.760357 0.131250 0.050707
0.909258 0.131250 0.050707
1.000000 0.131250 0.050707
1.000000 0.131250 0.050707
0.049113 0.262500 0.050707
0.183610 0.262500 0.050707
0.323817 0.262500 0.050707
0.467227 0.262500 0.050707
0.612908 0.262500 0.050707
0.760357 0.262500 0.050707
0.909258 0.262500 0.050707
1.000000 0.262500 0.050707
1.000000 0.262500 0.050707
0.049113 0.393750 0.050707
0.183610 0.393750 0.050707
0.323817 0.393750 0.050707
0.467227 0.393750 0.050707
0.612908 0.393750 0.050707
0.760357 0.393750 0.050707
0.909258 0.393750 0.050707
1.000000 0.393750 0.050707
1.000000 0.393750 0.050707
0.049113 0.525000 0.050707
0.183610 0.525000 0.050707
0.323817 0.525000 0.050707
0.467227 0.525000 0.050707
0.612908 0.525000 0.050707
0.760357 0.525000 0.050707
0.909258 0.525000 0.050707
1.000000 0.525000 0.050707
1.000000 0.525000 0.050707
0.049113 0.656250 0.050707
0.183610 0.656250 0.050707
0.323817 0.656250 0.050707
0.467227 0.656250 0.050707
0.612908 0.656250 0.050707
0.760357 0.656250 0.050707
0.909258 0.656250 0.050707
1.000000 0.656250 0.050707
1.000000 0.656250 0.050707
0.049113 0.787500 0.050707
0.183610 0.787500 0.050707
0.323817 0.787500 0.050707
0.467227 0.787500 0.050707
0.612908 0.787500 0.050707
0.760357 0.787500 0.050707
0.909258 0.787500 0.050707
1.000000 0.787500 0.050707
1.000000 0.787500 0.050707
0.049113 0.918750 0.050707
0.183610 0.918750 0.050707
0.323817 0.918750 0.050707
0.467227 0.918750 0.050707
0.612908 0.918750 0.050707
0.760357 0.918750 0.050707
0.909258 0.918750 0.050707
1.000000 0.918750 0.050707
1.000000 0.918750 0.050707
0.049113 1.000000 0.050707
0.183610 1.000000 0.050707
0.323817 1.000000 0.050707
0.467227 1.000000 0.050707
0.612908 1.000000 0.050707
0.760357 1.000000 0.050707
0.909258 1.000000 0.050707
1.000000 1.000000 0.050707
1.000000 1.000000 0.050707
0.049113 0.000000 0.169757
0.183610 0.000000 0.169757
0.323817 0.000000 0.169757
0.467227 0.000000 0.169757
0.612908 0.000000 0.169757
0.760357 0.000000 0.169757
0.909258 0.000000 0.169757
1.000000 0.000000 0.169757
1.000000 0.000000 0.169757
0.049113 0.131250 0.169757
0.183610 0.131250 0.169757
0.323817 0.131250 0.169757
0.467227 0.131250 0.169757
0.612908 0.131250 0.169757
0.760357 0.131250 0.169757
0.909258 0.131250 0.169757
1.000000 0.131250 0.169757
1.000000 0.131250 0.169757
0.049113 0.262500 0.169757
0.183610 0.262500 0.169757
0.323817 0.262500 0.169757
0.467227 0.262500 0.169757
0.612908 0.262500 0.169757
0.760357 0.262500 0.169757
0.909258 0.262500 0.169757
1.000000 0.262500 0.169757
1.000000 0.262500 0.169757
0.049113 0.393750 0.169757
0.183610 0.393750 0.169757
0.323817 0.393750 0.169757
0.467227 0.393750 0.169757
0.612908 0.393750 0.169757
0.760357 0.393750 0.169757
0.909258 0.393750 0.169757
1.000000 0.393750 0.169757
1.000000 0.393750 0.169757
0.049113 0.525000 0.169757
0.183610 0.525000 0.169757
0.323817 0.525000 0.169757
0.467227 0.525000 0.169757
0.612908 0.525000 0.169757
0.760357 0.525000 0.169757
0.909258 0.525000 0.169757
1.000000 0.525000 0.169757
1.000000 0.525000 0.169757
0.049113 0.656250 0.169757
0.183610 0.656250 0.169757
0.323817 0.656250 0.169757
0.467227 0.656250 0.169757
0.612908 0.656250 0.169757
0.760357 0.656250 0.169757
0.909258 0.656250 0.169757
1.000000 0.656250 0.169757
1.000000 0.656250 0.169757
0.049113 0.787500 0.169757
0.183610 0.787500 0.169757
0.323817 0.787500 0.169757
0.467227 0.787500 0.169757
0.612908 0.787500 0.169757
0.760357 0.787500 0.169757
0.909258 0.787500 0.169757
1.000000 0.787500 0.169757
1.000000 0.787500 0.169757
0.049113 0.918750 0.169757
0.183610 0.918750 0.169757
0.323817 0.918750 0.169757
0.467227 0.918750 0.169757
0.612908 0.918750 0.169757
0.760357 0.918750 0.169757
0.909258 0.918750 0.169757
1.000000 0.918750 0.169757
1.000000 0.918750 0.169757
0.049113 1.000000 0.169757
0.183610 1.000000 0.169757
0.323817 1.000000 0.169757
0.467227 1.000000 0.169757
0.612908 1.000000 0.169757
0.760357 1.000000 0.169757
0.909258 1.000000 0.169757
1.000000 1.000000 0.169757
1.000000 1.000000 0.169757
0.049113 0.000000 0.280181
0.183610 0.000000 0.280181
0.323817 0.000000 0.280181
0.467227 0.000000 0.280181
0.612908 0.000000 0.280181
0.760357 0.000000 0.280181
0.909258 0.000000 0.280181
1.000000 0.000000 0.280181
1.000000 0.000000 0.280181
0.049113 0.131250 0.280181
0.183610 0.131250 0.280181
0.323817 0.131250 0.280181
0.467227 0.131250 0.280181
0.612908 0.131250 0.280181
0.760357 0.131250 0.280181
0.909258 0.131250 0.280181
1.000000 0.131250 0.280181
1.000000 0.131250 0.280181
0.049113 0.262500 0.280181
0.183610 0.262500 0.280181
0.323817 0.262500 0.280181
0.467227 0.262500 0.280181
0.612908 0.262500 0.280181
0.760357 0.262500 0.280181
0.909258 0.262500 0.280181
1.000000 0.262500 0.280181
1.000000 0.262500 0.280181
0.049113 0.393750 0.280181
0.183610 0.393750 0.280181
0.323817 0.393750 0.280181
0.467227 0.393750 0.280181
0.612908 0.393750 0.280181
0.760357 0.393750 0.280181
0.909258 0.393750 0.280181
1.000000 0.393750 0.280181
1.000000 0.393750 0.280181
0.049113 0.525000 0.280181
0.183610 0.525000 0.280181
0.323817 0.525000 0.280181
0.467227 0.525000 0.280181
0.612908 0.525000 0.280181
0.760357 0.525000 0.280181
0.909258 0.525000 0.280181
1.000000 0.525000 0.280181
1.000000 0.525000 0.280181
0.049113 0.656250 0.280181
0.183610 0.656250 0.280181
0.323817 0.656250 0.280181
0.467227 0.656250 0.280181
0.612908 0.656250 0.280181
0.760357 0.656250 0.280181
0.909258 0.656250 0.280181
1.000000 0.656250 0.280181
1.000000 0.656250 0.280181
0.049113 0.787500 0.280181
0.183610 0.787500 0.280181
0.323817 0.787500 0.280181
0.467227 0.787500 0.280181
0.612908 0.787500 0.280181
0.760357 0.787500 0.280181
0.909258 0.787500 0.280181
1.000000 0.787500 0.280181
1.000000 0.787500 0.280181
0.049113 0.918750 0.280181
0.183610 0.918750 0.280181
0.323817 0.918750 0.280181
0.467227 0.918750 0.280181
0.612908 0.918750 0.280181
0.760357 0.918750 0.280181
0.909258 0.918750 0.280181
1.000000 0.918750 0.280181
1.000000 0.918750 0.280181
0.049113 1.000000 0.280181
0.183610 1.000000 0.280181
0.323817 1.000000 0.280181
0.467227 1.000000 0.280181
0.612908 1.000000 0.280181
0.760357 1.000000 0.280181
0.909258 1.000000 0.280181
1.000000 1.000000 0.280181
1.000000 1.000000 0.280181
0.049113 0.000000 0.386294
0.183610 0.000000 0.386294
0.323817 0.000000 0.386294
0.467227 0.000000 0.386294
0.612908 0.000000 0.386294
0.760357 0.000000 0.386294
0.909258 0.000000 0.386294
1.000000 0.000000 0.386294
1.000000 0.000000 0.386294
0.049113 0.131250 0.386294
0.183610 0.131250 0.386294
0.323817 0.131250 0.386294
0.467227 0.131250 0.386294
0.612908 0.131250 0.386294
0.760357 0.131250 0.386294
0.909258 0.131250 0.386294
1.000000 0.131250 0.386294
1.000000 0.131250 0.386294
0.049113 0.262500 0.386294
0.183610 0.262500 0.386294
0.323817 0.262500 0.386294
0.467227 0.262500 0.386294
0.612908 0.262500 0.386294
0.760357 0.262500 0.386294
0.909258 0.262500 0.386294
1.000000 0.262500 0.386294
1.000000 0.262500 0.386294
0.049113 0.393750 0.386294
0.183610 0.393750 0.386294
0.323817 0.393750 0.386294
0.467227 0.393750 0.386294
0.612908 0.393750 0.386294
0.760357 0.393750 0.386294
0.909258 0.393750 0.386294
1.000000 0.393750 0.386294
1.000000 0.393750 0.386294
0.049113 0.525000 0.386294
0.183610 0.525000 0.386294
0.323817 0.525000 0.386294
0.467227 0.525000 0.386294
0.612908 0.525000 0.386294
0.760357 0.525000 0.386294
0.909258 0.525000 0.386294
1.000000 0.525000 0.386294
1.000000 0.525000 0.386294
0.049113 0.656250 0.386294
0.183610 0.656250 0.386294
0.323817 0.656250 0.386294
0.467227 0.656250 0.386294
0.612908 0.656250 0.386294
0.760357 0.656250 0.386294
0.909258 0.656250 0.386294
1.000000 0.656250 0.386294
1.000000 0.656250 0.386294
0.049113 0.787500 0.386294
0.183610 0.787500 0.386294
0.323817 0.787500 0.386294
0.467227 0.787500 0.386294
0.612908 0.787500 0.386294
0.760357 0.787500 0.386294
0.909258 0.787500 0.386294
1.000000 0.787500 0.386294
1.000000 0.787500 0.386294
0.049113 0.918750 0.386294
0.183610 0.918750 0.386294
0.323817 0.918750 0.386294
0.467227 0.918750 0.386294
0.612908 0.918750 0.386294
0.760357 0.918750 0.386294
0.909258 0.918750 0.386294
1.000000 0.918750 0.386294
1.000000 0.918750 0.386294
0.049113 1.000000 0.386294
0.183610 1.000000 0.386294
0.323817 1.000000 0.386294
0.467227 1.000000 0.386294
0.612908 1.000000 0.386294
0.760357 1.000000 0.386294
0.909258 1.000000 0.386294
1.000000 1.000000 0.386294
1.000000 1.000000 0.386294
0.049113 0.000000 0.489530
0.183610 0.000000 0.489530
0.323817 0.000000 0.489530
0.467227 0.000000 0.489530
0.612908 0.000000 0.489530
0.760357 0.000000 0.489530
0.909258 0.000000 0.489530
1.000000 0.000000 0.489530
1.000000 0.000000 0.489530
0.049113 0.131250 0.489530
0.183610 0.131250 0.489530
0.323817 0.131250 0.489530
0.467227 0.131250 0.489530
0.612908 0.131250 0.489530
0.760357 0.131250 0.489530
0.909258 0.131250 0.489530
1.000000 0.131250 0.489530
1.000000 0.131250 0.489530
0.049113 0.262500 0.489530
0.183610 0.262500 0.489530
0.323817 0.262500 0.489530
0.467227 0.262500 0.489530
0.612908 0.262500 0.489530
0.760357 0.262500 0.489530
0.909258 0.262500 0.489530
1.000000 0.262500 0.489530
1.000000 0.262500 0.489530
0.049113 0.393750 0.489530
0.183610 0.393750 0.489530
0.323817 0.393750 0.489530
0.467227 0.393750 0.489530
0.612908 0.393750 0.489530
0.760357 0.393750 0.489530
0.909258 0.393750 0.489530
1.000000 0.393750 0.489530
1.000000 0.393750 0.489530
0.049113 0.525000 0.489530
0.183610 0.525000 0.489530
0.323817 0.525000 0.489530
0.467227 0.525000 0.489530
0.612908 0.525000 0.489530
0.760357 0.525000 0.489530
0.909258 0.525000 0.489530
1.000000 0.525000 0.489530
1.000000 0.525000 0.489530
0.049113 0.656250 0.489530
0.183610 0.656250 0.489530
0.323817 0.656250 0.489530
0.467227 0.656250 0.489530
0.612908 0.656250 0.489530
0.760357 0.656250 0.489530
0.909258 0.656250 0.489530
1.000000 0.656250 0.489530
1.000000 0.656250 0.489530
0.049113 0.787500 0.489530
0.183610 0.787500 0.489530
0.323817 0.787500 0.489530
0.467227 0.787500 0.489530
0.612908 0.787500 0.489530
0.760357 0.787500 0.489530
0.909258 0.787500 0.489530
1.000000 0.787500 0.489530
1.000000 0.787500 0.489530
0.049113 0.918750 0.489530
0.183610 0.918750 0.489530
0.323817 0.918750 0.489530
0.467227 0.918750 0.489530
0.612908 0.918750 0.489530
0.760357 0.918750 0.489530
0.909258 0.918750 0.489530
1.000000 0.918750 0.489530
1.000000 0.918750 0.489530
0.049113 1.000000 0.489530
0.183610 1.000000 0.489530
0.323817 1.000000 0.489530
0.467227 1.000000 0.489530
0.612908 1.000000 0.489530
0.760357 1.000000 0.489530
0.909258 1.000000 0.489530
1.000000 1.000000 0.489530
1.000000 1.000000 0.489530
0.049113 0.000000 0.590616
0.183610 0.000000 0.590616
0.323817 0.000000 0.590616
0.467227 0.000000 0.590616
0.612908 0.000000 0.590616
0.760357 0.000000 0.590616
0.909258 0.000000 0.590616
1.000000 0.000000 0.590616
1.000000 0.000000 0.590616
0.049113 0.131250 0.590616
0.183610 0.131250 0.590616
0.323817 0.131250 0.590616
0.467227 0.131250 0.590616
0.612908 0.131250 0.590616
0.760357 0.131250 0.590616
0.909258 0.131250 0.590616
1.000000 0.131250 0.590616
1.000000 0.131250 0.590616
0.049113 0.262500 0.590616
0.183610 0.262500 0.590616
0.323817 0.262500 0.590616
0.467227 0.262500 0.590616
0.612908 0.262500 0.590616
0.760357 0.262500 0.590616
0.909258 0.262500 0.590616
1.000000 0.262500 0.590616
1.000000 0.262500 0.590616
0.049113 0.393750 0.590616
0.183610 0.393750 0.590616
0.323817 0.393750 0.590616
0.467227 0.393750 0.590616
0.612908 0.393750 0.590616
0.760357 0.393750 0.590616
0.909258 0.393750 0.590616
1.000000 0.393750 0.590616
1.000000 0.393750 0.590616
0.049113 0.525000 0.590616
0.183610 0.525000 0.590616
0.323817 0.525000 0.590616
0.467227 0.525000 0.590616
0.612908 0.525000 0.590616
0.760357 0.525000 0.590616
0.909258 0.525000 0.590616
1.000000 0.525000 0.590616
1.000000 0.525000 0.590616
0.049113 0.656250 0.590616
0.183610 0.656250 0.590616
0.323817 0.656250 0.590616
0.467227 0.656250 0.590616
0.612908 0.656250 0.590616
0.760357 0.656250 0.590616
0.909258 0.656250 0.590616
1.000000 0.656250 0.590616
1.000000 0.656250 0.590616
0.049113 0.787500 0.590616
0.183610 0.787500 0.590616
0.323817 0.787500 0.590616
0.467227 0.787500 0.590616
0.612908 0.787500 0.590616
0.760357 0.787500 0.590616
0.909258 0.787500 0.590616
1.000000 0.787500 0.590616
1.000000 0.787500 0.590616
0.049113 0.918750 0.590616
0.183610 0.918750 0.590616
0.323817 0.918750 0.590616
0.467227 0.918750 0.590616
0.612908 0.918750 0.590616
0.760357 0.918750 0.590616
0.909258 0.918750 0.590616
1.000000 0.918750 0.590616
1.000000 0.918750 0.590616
0.049113 1.000000 0.590616
0.183610 1.000000 0.590616
0.323817 1.000000 0.590616
0.467227 1.000000 0.590616
0.612908 1.000000 0.590616
0.760357 1.000000 0.590616
0.909258 1.000000 0.590616
1.000000 1.000000 0.590616
1.000000 1.000000 0.590616
0.049113 0.000000 0.689991
0.183610 0.000000 0.689991
0.323817 0.000000 0.689991
0.467227 0.000000 0.689991
0.612908 0.000000 0.689991
0.760357 0.000000 0.689991
0.909258 0.000000 0.689991
1.000000 0.000000 0.689991
1.000000 0.000000 0.689991
0.049113 0.131250 0.689991
0.183610 0.131250 0.689991
0.323817 0.131250 0.689991
0.467227 0.131250 0.689991
0.612908 0.131250 0.689991
0.760357 0.131250 0.689991
0.909258 0.131250 0.689991
1.000000 0.131250 0.689991
1.000000 0.131250 0.689991
0.049113 0.262500 0.689991
0.183610 0.262500 0.689991
0.323817 0.262500 0.689991
0.467227 0.262500 0.689991
0.612908 0.262500 0.689991
0.760357 0.262500 0.689991
0.909258 0.262500 0.689991
1.000000 0.262500 0.689991
1.000000 0.262500 0.689991
0.049113 0.393750 0.689991
0.183610 0.393750 0.689991
0.323817 0.393750 0.689991
0.467227 0.393750 0.689991
0.612908 0.393750 0.689991
0.760357 0.393750 0.689991
0.909258 0.393750 0.689991
1.000000 0.393750 0.689991
1.000000 0.393750 0.689991
0.049113 0.525000 0.689991
0.183610 0.525000 0.689991
0.323817 0.525000 0.689991
0.467227 0.525000 0.689991
0.612908 0.525000 0.689991
0.760357 0.525000 0.689991
0.909258 0.525000 0.689991
1.000000 0.525000 0.689991
1.000000 0.525000 0.689991
0.049113 0.656250 0.689991
0.183610 0.656250 0.689991
0.323817 0.656250 0.689991
0.467227 0.656250 0.689991
0.612908 0.656250 0.689991
0.760357 0.656250 0.689991
0.909258 0.656250 0.689991
1.000000 0.656250 0.689991
1.000000 0.656250 0.689991
0.049113 0.787500 0.689991
0.183610 0.787500 0.689991
0.323817 0.787500 0.689991
0.467227 0.787500 0.689991
0.612908 0.787500 0.689991
0.760357 0.787500 0.689991
0.909258 0.787500 0.689991
1.000000 0.787500 0.689991
1.000000 0.787500 0.689991
0.049113 0.918750 0.689991
0.183610 0.918750 0.689991
0.323817 0.918750 0.689991
0.467227 0.918750 0.689991
0.612908 0.918750 0.689991
0.760357 0.918750 0.689991
0.909258 0.918750 0.689991
1.000000 0.918750 0.689991
1.000000 0.918750 0.689991
0.049113 1.000000 0.689991
0.183610 1.000000 0.689991
0.323817 1.000000 0.689991
0.467227 1.000000 0.689991
0.612908 1.000000 0.689991
0.760357 1.000000 0.689991
0.909258 1.000000 0.689991
1.000000 1.000000 0.689991
1.000000 1.000000 0.689991
0.049113 0.000000 0.787950
0.183610 0.000000 0.787950
0.323817 0.000000 0.787950
0.467227 0.000000 0.787950
0.612908 0.000000 0.787950
0.760357 0.000000 0.787950
0.909258 0.000000 0.787950
1.000000 0.000000 0.787950
1.000000 0.000000 0.787950
0.049113 0.131250 0.787950
0.183610 0.131250 0.787950
0.323817 0.131250 0.787950
0.467227 0.131250 0.787950
0.612908 0.131250 0.787950
0.760357 0.131250 0.787950
0.909258 0.131250 0.787950
1.000000 0.131250 0.787950
1.000000 0.131250 0.787950
0.049113 0.262500 0.787950
0.183610 0.262500 0.787950
0.323817 0.262500 0.787950
0.467227 0.262500 0.787950
0.612908 0.262500 0.787950
0.760357 0.262500 0.787950
0.909258 0.262500 0.787950
1.000000 0.262500 0.787950
1.000000 0.262500 0.787950
0.049113 0.393750 0.787950
0.183610 0.393750 0.787950
0.323817 0.393750 0.787950
0.467227 0.393750 0.787950
0.612908 0.393750 0.787950
0.760357 0.393750 0.787950
0.909258 0.393750 0.787950
1.000000 0.393750 0.787950
1.000000 0.393750 0.787950
0.049113 0.525000 0.787950
0.183610 0.525000 0.787950
0.323817 0.525000 0.787950
0.467227 0.525000 0.787950
0.612908 0.525000 0.787950
0.760357 0.525000 0.787950
0.909258 0.525000 0.787950
1.000000 0.525000 0.787950
1.000000 0.525000 0.787950
0.049113 0.656250 0.787950
0.183610 0.656250 0.787950
0.323817 0.656250 0.787950
0.467227 0.656250 0.787950
0.612908 0.656250 0.787950
0.760357 0.656250 0.787950
0.909258 0.656250 0.787950
1.000000 0.656250 0.787950
1.000000 0.656250 0.787950
0.049113 0.787500 0.787950
0.183610 0.787500 0.787950
0.323817 0.787500 0.787950
0.467227 0.787500 0.787950
0.612908 0.787500 0.787950
0.760357 0.787500 0.787950
0.909258 0.787500 0.787950
1.000000 0.787500 0.787950
1.000000 0.787500 0.787950
0.049113 0.918750 0.787950
0.183610 0.918750 0.787950
0.323817 0.918750 0.787950
0.467227 0.918750 0.787950
0.612908 0.918750 0.787950
0.760357 0.918750 0.787950
0.909258 0.918750 0.787950
1.000000 0.918750 0.787950
1.000000 0.918750 0.787950
0.049113 1.000000 0.787950
0.183610 1.000000 0.787950
0.323817 1.000000 0.787950
0.467227 1.000000 0.787950
0.612908 1.000000 0.787950
0.760357 1.000000 0.787950
0.909258 1.000000 0.787950
1.000000 1.000000 0.787950
1.000000 1.000000 0.787950
