app/src/main/assets/luts/blockbuster_warm.cube
# ApexStudio filter: blockbuster_warm
LUT_3D_SIZE 5
DOMAIN_MIN 0.0 0.0 0.0
DOMAIN_MAX 1.0 1.0 1.0
0.049113 0.000000 0.000000
0.323817 0.000000 0.000000
0.612908 0.000000 0.000000
0.909258 0.000000 0.000000
1.000000 0.000000 0.000000
0.049113 0.262500 0.000000
0.323817 0.262500 0.000000
0.612908 0.262500 0.000000
0.909258 0.262500 0.000000
1.000000 0.262500 0.000000
0.049113 0.525000 0.000000
0.323817 0.525000 0.000000
0.612908 0.525000 0.000000
0.909258 0.525000 0.000000
1.000000 0.525000 0.000000
0.049113 0.787500 0.000000
0.323817 0.787500 0.000000
0.612908 0.787500 0.000000
0.909258 0.787500 0.000000
1.000000 0.787500 0.000000
0.049113 1.000000 0.000000
0.323817 1.000000 0.000000
0.612908 1.000000 0.000000
0.909258 1.000000 0.000000
1.000000 1.000000 0.000000
0.049113 0.000000 0.169757
0.323817 0.000000 0.169757
0.612908 0.000000 0.169757
0.909258 0.000000 0.169757
1.000000 0.000000 0.169757
0.049113 0.262500 0.169757
0.323817 0.262500 0.169757
0.612908 0.262500 0.169757
0.909258 0.262500 0.169757
1.000000 0.262500 0.169757
0.049113 0.525000 0.169757
0.323817 0.525000 0.169757
0.612908 0.525000 0.169757
0.909258 0.525000 0.169757
1.000000 0.525000 0.169757
0.049113 0.787500 0.169757
0.323817 0.787500 0.169757
0.612908 0.787500 0.169757
0.909258 0.787500 0.169757
1.000000 0.787500 0.169757
0.049113 1.000000 0.169757
0.323817 1.000000 0.169757
0.612908 1.000000 0.169757
0.909258 1.000000 0.169757
1.000000 1.000000 0.169757
0.049113 0.000000 0.386294
0.323817 0.000000 0.386294
0.612908 0.000000 0.386294
0.909258 0.000000 0.386294
1.000000 0.000000 0.386294
0.049113 0.262500 0.386294
0.323817 0.262500 0.386294
0.612908 0.262500 0.386294
0.909258 0.262500 0.386294
1.000000 0.262500 0.386294
0.049113 0.525000 0.386294
0.323817 0.525000 0.386294
0.612908 0.525000 0.386294
0.909258 0.525000 0.386294
1.000000 0.525000 0.386294
0.049113 0.787500 0.386294
0.323817 0.787500 0.386294
0.612908 0.787500 0.386294
0.909258 0.787500 0.386294
1.000000 0.787500 0.386294
0.049113 1.000000 0.386294
0.323817 1.000000 0.386294
0.612908 1.000000 0.386294
0.909258 1.000000 0.386294
1.000000 1.000000 0.386294
0.049113 0.000000 0.590616
0.323817 0.000000 0.590616
0.612908 0.000000 0.590616
0.909258 0.000000 0.590616
1.000000 0.000000 0.590616
0.049113 0.262500 0.590616
0.323817 0.262500 0.590616
0.612908 0.262500 0.590616
0.909258 0.262500 0.590616
1.000000 0.262500 0.590616
0.049113 0.525000 0.590616
0.323817 0.525000 0.590616
0.612908 0.525000 0.590616
0.909258 0.525000 0.590616
1.000000 0.525000 0.590616
0.049113 0.787500 0.590616
0.323817 0.787500 0.590616
0.612908 0.787500 0.590616
0.909258 0.787500 0.590616
1.000000 0.787500 0.590616
0.049113 1.000000 0.590616
0.323817 1.000000 0.590616
0.612908 1.000000 0.590616
0.909258 1.000000 0.590616
1.000000 1.000000 0.590616
0.049113 0.000000 0.787950
0.323817 0.000000 0.787950
0.612908 0.000000 0.787950
0.909258 0.000000 0.787950
1.000000 0.000000 0.787950
0.049113 0.262500 0.787950
0.323817 0.262500 0.787950
0.612908 0.262500 0.787950
0.909258 0.262500 0.787950
1.000000 0.262500 0.787950
0.049113 0.525000 0.787950
0.323817 0.525000 0.787950
0.612908 0.525000 0.787950
0.909258 0.525000 0.787950
1.000000 0.525000 0.787950
0.049113 0.787500 0.787950
0.323817 0.787500 0.787950
0.612908 0.787500 0.787950
0.909258 0.787500 0.787950
1.000000 0.787500 0.787950
0.049113 1.000000 0.787950
0.323817 1.000000 0.787950
0.612908 1.000000 0.787950
0.909258 1.000000 0.787950
1.000000 1.000000 0.787950
