app/src/main/assets/luts/blue_hour.cube
# ApexStudio filter: blue_hour
LUT_3D_SIZE 17
DOMAIN_MIN 0.0 0.0 0.0
DOMAIN_MAX 1.0 1.0 1.0
0.000000 0.000000 0.067500
0.000000 0.000000 0.067500
0.057500 0.000000 0.067500
0.120000 0.000000 0.067500
0.182500 0.000000 0.067500
0.245000 0.000000 0.067500
0.307500 0.000000 0.067500
0.370000 0.000000 0.067500
0.432500 0.000000 0.067500
0.495000 0.000000 0.067500
0.557500 0.000000 0.067500
0.620000 0.000000 0.067500
0.682500 0.000000 0.067500
0.745000 0.000000 0.067500
0.807500 0.000000 0.067500
0.870000 0.000000 0.067500
0.932500 0.000000 0.067500
0.000000 0.040000 0.067500
0.000000 0.040000 0.067500
0.057500 0.040000 0.067500
0.120000 0.040000 0.067500
0.182500 0.040000 0.067500
0.245000 0.040000 0.067500
0.307500 0.040000 0.067500
0.370000 0.040000 0.067500
0.432500 0.040000 0.067500
0.495000 0.040000 0.067500
0.557500 0.040000 0.067500
0.620000 0.040000 0.067500
0.682500 0.040000 0.067500
0.745000 0.040000 0.067500
0.807500 0.040000 0.067500
0.870000 0.040000 0.067500
0.932500 0.040000 0.067500
0.000000 0.102500 0.067500
0.000000 0.102500 0.067500
0.057500 0.102500 0.067500
0.120000 0.102500 0.067500
0.182500 0.102500 0.067500
0.245000 0.102500 0.067500
0.307500 0.102500 0.067500
0.370000 0.102500 0.067500
0.432500 0.102500 0.067500
0.495000 0.102500 0.067500
0.557500 0.102500 0.067500
0.620000 0.102500 0.067500
0.682500 0.102500 0.067500
0.745000 0.102500 0.067500
0.807500 0.102500 0.067500
0.870000 0.102500 0.067500
0.932500 0.102500 0.067500
0.000000 0.165000 0.067500
0.000000 0.165000 0.067500
0.057500 0.165000 0.067500
0.120000 0.165000 0.067500
0.182500 0.165000 0.067500
0.245000 0.165000 0.067500
0.307500 0.165000 0.067500
0.370000 0.165000 0.067500
0.432500 0.165000 0.067500
0.495000 0.165000 0.067500
0.557500 0.165000 0.067500
0.620000 0.165000 0.067500
0.682500 0.165000 0.067500
0.745000 0.165000 0.067500
0.807500 0.165000 0.067500
0.870000 0.165000 0.067500
0.932500 0.165000 0.067500
0.000000 0.227500 0.067500
0.000000 0.227500 0.067500
0.057500 0.227500 0.067500
0.120000 0.227500 0.067500
0.182500 0.227500 0.067500
0.245000 0.227500 0.067500
0.307500 0.227500 0.067500
0.370000 0.227500 0.067500
0.432500 0.227500 0.067500
0.495000 0.227500 0.067500
0.557500 0.227500 0.067500
0.620000 0.227500 0.067500
0.682500 0.227500 0.067500
0.745000 0.227500 0.067500
0.807500 0.227500 0.067500
0.870000 0.227500 0.067500
0.932500 0.227500 0.067500
0.000000 0.290000 0.067500
0.000000 0.290000 0.067500
0.057500 0.290000 0.067500
0.120000 0.290000 0.067500
0.182500 0.290000 0.067500
0.245000 0.290000 0.067500
0.307500 0.290000 0.067500
0.370000 0.290000 0.067500
0.432500 0.290000 0.067500
0.495000 0.290000 0.067500
0.557500 0.290000 0.067500
0.620000 0.290000 0.067500
0.682500 0.290000 0.067500
0.745000 0.290000 0.067500
0.807500 0.290000 0.067500
0.870000 0.290000 0.067500
0.932500 0.290000 0.067500
0.000000 0.352500 0.067500
0.000000 0.352500 0.067500
0.057500 0.352500 0.067500
0.120000 0.352500 0.067500
0.182500 0.352500 0.067500
0.245000 0.352500 0.067500
0.307500 0.352500 0.067500
0.370000 0.352500 0.067500
0.432500 0.352500 0.067500
0.495000 0.352500 0.067500
0.557500 0.352500 0.067500
0.620000 0.352500 0.067500
0.682500 0.352500 0.067500
0.745000 0.352500 0.067500
0.807500 0.352500 0.067500
0.870000 0.352500 0.067500
0.932500 0.352500 0.067500
0.000000 0.415000 0.067500
0.000000 0.415000 0.067500
0.057500 0.415000 0.067500
0.120000 0.415000 0.067500
0.182500 0.415000 0.067500
0.245000 0.415000 0.067500
0.307500 0.415000 0.067500
0.370000 0.415000 0.067500
0.432500 0.415000 0.067500
0.495000 0.415000 0.067500
0.557500 0.415000 0.067500
0.620000 0.415000 0.067500
0.682500 0.415000 0.067500
0.745000 0.415000 0.067500
0.807500 0.415000 0.067500
0.870000 0.415000 0.067500
0.932500 0.415000 0.067500
0.000000 0.477500 0.067500
0.000000 0.477500 0.067500
0.057500 0.477500 0.067500
0.120000 0.477500 0.067500
0.182500 0.477500 0.067500
0.245000 0.477500 0.067500
0.307500 0.477500 0.067500
0.370000 0.477500 0.067500
0.432500 0.477500 0.067500
0.495000 0.477500 0.067500
0.557500 0.477500 0.067500
0.620000 0.477500 0.067500
0.682500 0.477500 0.067500
0.745000 0.477500 0.067500
0.807500 0.477500 0.067500
0.870000 0.477500 0.067500
0.932500 0.477500 0.067500
0.000000 0.540000 0.067500
0.000000 0.540000 0.067500
0.057500 0.540000 0.067500
0.120000 0.540000 0.067500
0.182500 0.540000 0.067500
0.245000 0.540000 0.067500
0.307500 0.540000 0.067500
0.370000 0.540000 0.067500
0.432500 0.540000 0.067500
0.495000 0.540000 0.067500
0.557500 0.540000 0.067500
0.620000 0.540000 0.067500
0.682500 0.540000 0.067500
0.745000 0.540000 0.067500
0.807500 0.540000 0.067500
0.870000 0.540000 0.067500
0.932500 0.540000 0.067500
0.000000 0.602500 0.067500
0.000000 0.602500 0.067500
0.057500 0.602500 0.067500
0.120000 0.602500 0.067500
0.182500 0.602500 0.067500
0.245000 0.602500 0.067500
0.307500 0.602500 0.067500
0.370000 0.602500 0.067500
0.432500 0.602500 0.067500
0.495000 0.602500 0.067500
0.557500 0.602500 0.067500
0.620000 0.602500 0.067500
0.682500 0.602500 0.067500
0.745000 0.602500 0.067500
0.807500 0.602500 0.067500
0.870000 0.602500 0.067500
0.932500 0.602500 0.067500
0.000000 0.665000 0.067500
0.000000 0.665000 0.067500
0.057500 0.665000 0.067500
0.120000 0.665000 0.067500
0.182500 0.665000 0.067500
0.245000 0.665000 0.067500
0.307500 0.665000 0.067500
0.370000 0.665000 0.067500
0.432500 0.665000 0.067500
0.495000 0.665000 0.067500
0.557500 0.665000 0.067500
0.620000 0.665000 0.067500
0.682500 0.665000 0.067500
0.745000 0.665000 0.067500
0.807500 0.665000 0.067500
0.870000 0.665000 0.067500
0.932500 0.665000 0.067500
0.000000 0.727500 0.067500
0.000000 0.727500 0.067500
0.057500 0.727500 0.067500
0.120000 0.727500 0.067500
0.182500 0.727500 0.067500
0.245000 0.727500 0.067500
0.307500 0.727500 0.067500
0.370000 0.727500 0.067500
0.432500 0.727500 0.067500
0.495000 0.727500 0.067500
0.557500 0.727500 0.067500
0.620000 0.727500 0.067500
0.682500 0.727500 0.067500
0.745000 0.727500 0.067500
0.807500 0.727500 0.067500
0.870000 0.727500 0.067500
0.932500 0.727500 0.067500
0.000000 0.790000 0.067500
0.000000 0.790000 0.067500
0.057500 0.790000 0.067500
0.120000 0.790000 0.067500
0.182500 0.790000 0.067500
0.245000 0.790000 0.067500
0.307500 0.790000 0.067500
0.370000 0.790000 0.067500
0.432500 0.790000 0.067500
0.495000 0.790000 0.067500
0.557500 0.790000 0.067500
0.620000 0.790000 0.067500
0.682500 0.790000 0.067500
0.745000 0.790000 0.067500
0.807500 0.790000 0.067500
0.870000 0.790000 0.067500
0.932500 0.790000 0.067500
0.000000 0.852500 0.067500
0.000000 0.852500 0.067500
0.057500 0.852500 0.067500
0.120000 0.852500 0.067500
0.182500 0.852500 0.067500
0.245000 0.852500 0.067500
0.307500 0.852500 0.067500
0.370000 0.852500 0.067500
0.432500 0.852500 0.067500
0.495000 0.852500 0.067500
0.557500 0.852500 0.067500
0.620000 0.852500 0.067500
0.682500 0.852500 0.067500
0.745000 0.852500 0.067500
0.807500 0.852500 0.067500
0.870000 0.852500 0.067500
0.932500 0.852500 0.067500
0.000000 0.915000 0.067500
0.000000 0.915000 0.067500
0.057500 0.915000 0.067500
0.120000 0.915000 0.067500
0.182500 0.915000 0.067500
0.245000 0.915000 0.067500
0.307500 0.915000 0.067500
0.370000 0.915000 0.067500
0.432500 0.915000 0.067500
0.495000 0.915000 0.067500
0.557500 0.915000 0.067500
0.620000 0.915000 0.067500
0.682500 0.915000 0.067500
0.745000 0.915000 0.067500
0.807500 0.915000 0.067500
0.870000 0.915000 0.067500
0.932500 0.915000 0.067500
0.000000 0.977500 0.067500
0.000000 0.977500 0.067500
0.057500 0.977500 0.067500
0.120000 0.977500 0.067500
0.182500 0.977500 0.067500
0.245000 0.977500 0.067500
0.307500 0.977500 0.067500
0.370000 0.977500 0.067500
0.432500 0.977500 0.067500
0.495000 0.977500 0.067500
0.557500 0.977500 0.067500
0.620000 0.977500 0.067500
0.682500 0.977500 0.067500
0.745000 0.977500 0.067500
0.807500 0.977500 0.067500
0.870000 0.977500 0.067500
0.932500 0.977500 0.067500
0.000000 0.000000 0.130000
0.000000 0.000000 0.130000
0.057500 0.000000 0.130000
0.120000 0.000000 0.130000
0.182500 0.000000 0.130000
0.245000 0.000000 0.130000
0.307500 0.000000 0.130000
0.370000 0.000000 0.130000
0.432500 0.000000 0.130000
0.495000 0.000000 0.130000
0.557500 0.000000 0.130000
0.620000 0.000000 0.130000
0.682500 0.000000 0.130000
0.745000 0.000000 0.130000
0.807500 0.000000 0.130000
0.870000 0.000000 0.130000
0.932500 0.000000 0.130000
0.000000 0.040000 0.130000
0.000000 0.040000 0.130000
0.057500 0.040000 0.130000
0.120000 0.040000 0.130000
0.182500 0.040000 0.130000
0.245000 0.040000 0.130000
0.307500 0.040000 0.130000
0.370000 0.040000 0.130000
0.432500 0.040000 0.130000
0.495000 0.040000 0.130000
0.557500 0.040000 0.130000
0.620000 0.040000 0.130000
0.682500 0.040000 0.130000
0.745000 0.040000 0.130000
0.807500 0.040000 0.130000
0.870000 0.040000 0.130000
0.932500 0.040000 0.130000
0.000000 0.102500 0.130000
0.000000 0.102500 0.130000
0.057500 0.102500 0.130000
0.120000 0.102500 0.130000
0.182500 0.102500 0.130000
0.245000 0.102500 0.130000
0.307500 0.102500 0.130000
0.370000 0.102500 0.130000
0.432500 0.102500 0.130000
0.495000 0.102500 0.130000
0.557500 0.102500 0.130000
0.620000 0.102500 0.130000
0.682500 0.102500 0.130000
0.745000 0.102500 0.130000
0.807500 0.102500 0.130000
0.870000 0.102500 0.130000
0.932500 0.102500 0.130000
0.000000 0.165000 0.130000
0.000000 0.165000 0.130000
0.057500 0.165000 0.130000
0.120000 0.165000 0.130000
0.182500 0.165000 0.130000
0.245000 0.165000 0.130000
0.307500 0.165000 0.130000
0.370000 0.165000 0.130000
0.432500 0.165000 0.130000
0.495000 0.165000 0.130000
0.557500 0.165000 0.130000
0.620000 0.165000 0.130000
0.682500 0.165000 0.130000
0.745000 0.165000 0.130000
0.807500 0.165000 0.130000
0.870000 0.165000 0.130000
0.932500 0.165000 0.130000
0.000000 0.227500 0.130000
0.000000 0.227500 0.130000
0.057500 0.227500 0.130000
0.120000 0.227500 0.130000
0.182500 0.227500 0.130000
0.245000 0.227500 0.130000
0.307500 0.227500 0.130000
0.370000 0.227500 0.130000
0.432500 0.227500 0.130000
0.495000 0.227500 0.130000
0.557500 0.227500 0.130000
0.620000 0.227500 0.130000
0.682500 0.227500 0.130000
0.745000 0.227500 0.130000
0.807500 0.227500 0.130000
0.870000 0.227500 0.130000
0.932500 0.227500 0.130000
0.000000 0.290000 0.130000
0.000000 0.290000 0.130000
0.057500 0.290000 0.130000
0.120000 0.290000 0.130000
0.182500 0.290000 0.130000
0.245000 0.290000 0.130000
0.307500 0.290000 0.130000
0.370000 0.290000 0.130000
0.432500 0.290000 0.130000
0.495000 0.290000 0.130000
0.557500 0.290000 0.130000
0.620000 0.290000 0.130000
0.682500 0.290000 0.130000
0.745000 0.290000 0.130000
0.807500 0.290000 0.130000
0.870000 0.290000 0.130000
0.932500 0.290000 0.130000
0.000000 0.352500 0.130000
0.000000 0.352500 0.130000
0.057500 0.352500 0.130000
0.120000 0.352500 0.130000
0.182500 0.352500 0.130000
0.245000 0.352500 0.130000
0.307500 0.352500 0.130000
0.370000 0.352500 0.130000
0.432500 0.352500 0.130000
0.495000 0.352500 0.130000
0.557500 0.352500 0.130000
0.620000 0.352500 0.130000
0.682500 0.352500 0.130000
0.745000 0.352500 0.130000
0.807500 0.352500 0.130000
0.870000 0.352500 0.130000
0.932500 0.352500 0.130000
0.000000 0.415000 0.130000
0.000000 0.415000 0.130000
0.057500 0.415000 0.130000
0.120000 0.415000 0.130000
0.182500 0.415000 0.130000
0.245000 0.415000 0.130000
0.307500 0.415000 0.130000
0.370000 0.415000 0.130000
0.432500 0.415000 0.130000
0.495000 0.415000 0.130000
0.557500 0.415000 0.130000
0.620000 0.415000 0.130000
0.682500 0.415000 0.130000
0.745000 0.415000 0.130000
0.807500 0.415000 0.130000
0.870000 0.415000 0.130000
0.932500 0.415000 0.130000
0.000000 0.477500 0.130000
0.000000 0.477500 0.130000
0.057500 0.477500 0.130000
0.120000 0.477500 0.130000
0.182500 0.477500 0.130000
0.245000 0.477500 0.130000
0.307500 0.477500 0.130000
0.370000 0.477500 0.130000
0.432500 0.477500 0.130000
0.495000 0.477500 0.130000
0.557500 0.477500 0.130000
0.620000 0.477500 0.130000
0.682500 0.477500 0.130000
0.745000 0.477500 0.130000
0.807500 0.477500 0.130000
0.870000 0.477500 0.130000
0.932500 0.477500 0.130000
0.000000 0.540000 0.130000
0.000000 0.540000 0.130000
0.057500 0.540000 0.130000
0.120000 0.540000 0.130000
0.182500 0.540000 0.130000
0.245000 0.540000 0.130000
0.307500 0.540000 0.130000
0.370000 0.540000 0.130000
0.432500 0.540000 0.130000
0.495000 0.540000 0.130000
0.557500 0.540000 0.130000
0.620000 0.540000 0.130000
0.682500 0.540000 0.130000
0.745000 0.540000 0.130000
0.807500 0.540000 0.130000
0.870000 0.540000 0.130000
0.932500 0.540000 0.130000
0.000000 0.602500 0.130000
0.000000 0.602500 0.130000
0.057500 0.602500 0.130000
0.120000 0.602500 0.130000
0.182500 0.602500 0.130000
0.245000 0.602500 0.130000
0.307500 0.602500 0.130000
0.370000 0.602500 0.130000
0.432500 0.602500 0.130000
0.495000 0.602500 0.130000
0.557500 0.602500 0.130000
0.620000 0.602500 0.130000
0.682500 0.602500 0.130000
0.745000 0.602500 0.130000
0.807500 0.602500 0.130000
0.870000 0.602500 0.130000
0.932500 0.602500 0.130000
0.000000 0.665000 0.130000
0.000000 0.665000 0.130000
0.057500 0.665000 0.130000
0.120000 0.665000 0.130000
0.182500 0.665000 0.130000
0.245000 0.665000 0.130000
0.307500 0.665000 0.130000
0.370000 0.665000 0.130000
0.432500 0.665000 0.130000
0.495000 0.665000 0.130000
0.557500 0.665000 0.130000
0.620000 0.665000 0.130000
0.682500 0.665000 0.130000
0.745000 0.665000 0.130000
0.807500 0.665000 0.130000
0.870000 0.665000 0.130000
0.932500 0.665000 0.130000
0.000000 0.727500 0.130000
0.000000 0.727500 0.130000
0.057500 0.727500 0.130000
0.120000 0.727500 0.130000
0.182500 0.727500 0.130000
0.245000 0.727500 0.130000
0.307500 0.727500 0.130000
0.370000 0.727500 0.130000
0.432500 0.727500 0.130000
0.495000 0.727500 0.130000
0.557500 0.727500 0.130000
0.620000 0.727500 0.130000
0.682500 0.727500 0.130000
0.745000 0.727500 0.130000
0.807500 0.727500 0.130000
0.870000 0.727500 0.130000
0.932500 0.727500 0.130000
0.000000 0.790000 0.130000
0.000000 0.790000 0.130000
0.057500 0.790000 0.130000
0.120000 0.790000 0.130000
0.182500 0.790000 0.130000
0.245000 0.790000 0.130000
0.307500 0.790000 0.130000
0.370000 0.790000 0.130000
0.432500 0.790000 0.130000
0.495000 0.790000 0.130000
0.557500 0.790000 0.130000
0.620000 0.790000 0.130000
0.682500 0.790000 0.130000
0.745000 0.790000 0.130000
0.807500 0.790000 0.130000
0.870000 0.790000 0.130000
0.932500 0.790000 0.130000
0.000000 0.852500 0.130000
0.000000 0.852500 0.130000
0.057500 0.852500 0.130000
0.120000 0.852500 0.130000
0.182500 0.852500 0.130000
0.245000 0.852500 0.130000
0.307500 0.852500 0.130000
0.370000 0.852500 0.130000
0.432500 0.852500 0.130000
0.495000 0.852500 0.130000
0.557500 0.852500 0.130000
0.620000 0.852500 0.130000
0.682500 0.852500 0.130000
0.745000 0.852500 0.130000
0.807500 0.852500 0.130000
0.870000 0.852500 0.130000
0.932500 0.852500 0.130000
0.000000 0.915000 0.130000
0.000000 0.915000 0.130000
0.057500 0.915000 0.130000
0.120000 0.915000 0.130000
0.182500 0.915000 0.130000
0.245000 0.915000 0.130000
0.307500 0.915000 0.130000
0.370000 0.915000 0.130000
0.432500 0.915000 0.130000
0.495000 0.915000 0.130000
0.557500 0.915000 0.130000
0.620000 0.915000 0.130000
0.682500 0.915000 0.130000
0.745000 0.915000 0.130000
0.807500 0.915000 0.130000
0.870000 0.915000 0.130000
0.932500 0.915000 0.130000
0.000000 0.977500 0.130000
0.000000 0.977500 0.130000
0.057500 0.977500 0.130000
0.120000 0.977500 0.130000
0.182500 0.977500 0.130000
0.245000 0.977500 0.130000
0.307500 0.977500 0.130000
0.370000 0.977500 0.130000
0.432500 0.977500 0.130000
0.495000 0.977500 0.130000
0.557500 0.977500 0.130000
0.620000 0.977500 0.130000
0.682500 0.977500 0.130000
0.745000 0.977500 0.130000
0.807500 0.977500 0.130000
0.870000 0.977500 0.130000
0.932500 0.977500 0.130000
0.000000 0.000000 0.192500
0.000000 0.000000 0.192500
0.057500 0.000000 0.192500
0.120000 0.000000 0.192500
0.182500 0.000000 0.192500
0.245000 0.000000 0.192500
0.307500 0.000000 0.192500
0.370000 0.000000 0.192500
0.432500 0.000000 0.192500
0.495000 0.000000 0.192500
0.557500 0.000000 0.192500
0.620000 0.000000 0.192500
0.682500 0.000000 0.192500
0.745000 0.000000 0.192500
0.807500 0.000000 0.192500
0.870000 0.000000 0.192500
0.932500 0.000000 0.192500
0.000000 0.040000 0.192500
0.000000 0.040000 0.192500
0.057500 0.040000 0.192500
0.120000 0.040000 0.192500
0.182500 0.040000 0.192500
0.245000 0.040000 0.192500
0.307500 0.040000 0.192500
0.370000 0.040000 0.192500
0.432500 0.040000 0.192500
0.495000 0.040000 0.192500
0.557500 0.040000 0.192500
0.620000 0.040000 0.192500
0.682500 0.040000 0.192500
0.745000 0.040000 0.192500
0.807500 0.040000 0.192500
0.870000 0.040000 0.192500
0.932500 0.040000 0.192500
0.000000 0.102500 0.192500
0.000000 0.102500 0.192500
0.057500 0.102500 0.192500
0.120000 0.102500 0.192500
0.182500 0.102500 0.192500
0.245000 0.102500 0.192500
0.307500 0.102500 0.192500
0.370000 0.102500 0.192500
0.432500 0.102500 0.192500
0.495000 0.102500 0.192500
0.557500 0.102500 0.192500
0.620000 0.102500 0.192500
0.682500 0.102500 0.192500
0.745000 0.102500 0.192500
0.807500 0.102500 0.192500
0.870000 0.102500 0.192500
0.932500 0.102500 0.192500
0.000000 0.165000 0.192500
0.000000 0.165000 0.192500
0.057500 0.165000 0.192500
0.120000 0.165000 0.192500
0.182500 0.165000 0.192500
0.245000 0.165000 0.192500
0.307500 0.165000 0.192500
0.370000 0.165000 0.192500
0.432500 0.165000 0.192500
0.495000 0.165000 0.192500
0.557500 0.165000 0.192500
0.620000 0.165000 0.192500
0.682500 0.165000 0.192500
0.745000 0.165000 0.192500
0.807500 0.165000 0.192500
0.870000 0.165000 0.192500
0.932500 0.165000 0.192500
0.000000 0.227500 0.192500
0.000000 0.227500 0.192500
0.057500 0.227500 0.192500
0.120000 0.227500 0.192500
0.182500 0.227500 0.192500
0.245000 0.227500 0.192500
0.307500 0.227500 0.192500
0.370000 0.227500 0.192500
0.432500 0.227500 0.192500
0.495000 0.227500 0.192500
0.557500 0.227500 0.192500
0.620000 0.227500 0.192500
0.682500 0.227500 0.192500
0.745000 0.227500 0.192500
0.807500 0.227500 0.192500
0.870000 0.227500 0.192500
0.932500 0.227500 0.192500
0.000000 0.290000 0.192500
0.000000 0.290000 0.192500
0.057500 0.290000 0.192500
0.120000 0.290000 0.192500
0.182500 0.290000 0.192500
0.245000 0.290000 0.192500
0.307500 0.290000 0.192500
0.370000 0.290000 0.192500
0.432500 0.290000 0.192500
0.495000 0.290000 0.192500
0.557500 0.290000 0.192500
0.620000 0.290000 0.192500
0.682500 0.290000 0.192500
0.745000 0.290000 0.192500
0.807500 0.290000 0.192500
0.870000 0.290000 0.192500
0.932500 0.290000 0.192500
0.000000 0.352500 0.192500
0.000000 0.352500 0.192500
0.057500 0.352500 0.192500
0.120000 0.352500 0.192500
0.182500 0.352500 0.192500
0.245000 0.352500 0.192500
0.307500 0.352500 0.192500
0.370000 0.352500 0.192500
0.432500 0.352500 0.192500
0.495000 0.352500 0.192500
0.557500 0.352500 0.192500
0.620000 0.352500 0.192500
0.682500 0.352500 0.192500
0.745000 0.352500 0.192500
0.807500 0.352500 0.192500
0.870000 0.352500 0.192500
0.932500 0.352500 0.192500
0.000000 0.415000 0.192500
0.000000 0.415000 0.192500
0.057500 0.415000 0.192500
0.120000 0.415000 0.192500
0.182500 0.415000 0.192500
0.245000 0.415000 0.192500
0.307500 0.415000 0.192500
0.370000 0.415000 0.192500
0.432500 0.415000 0.192500
0.495000 0.415000 0.192500
0.557500 0.415000 0.192500
0.620000 0.415000 0.192500
0.682500 0.415000 0.192500
0.745000 0.415000 0.192500
0.807500 0.415000 0.192500
0.870000 0.415000 0.192500
0.932500 0.415000 0.192500
0.000000 0.477500 0.192500
0.000000 0.477500 0.192500
0.057500 0.477500 0.192500
0.120000 0.477500 0.192500
0.182500 0.477500 0.192500
0.245000 0.477500 0.192500
0.307500 0.477500 0.192500
0.370000 0.477500 0.192500
0.432500 0.477500 0.192500
0.495000 0.477500 0.192500
0.557500 0.477500 0.192500
0.620000 0.477500 0.192500
0.682500 0.477500 0.192500
0.745000 0.477500 0.192500
0.807500 0.477500 0.192500
0.870000 0.477500 0.192500
0.932500 0.477500 0.192500
0.000000 0.540000 0.192500
0.000000 0.540000 0.192500
0.057500 0.540000 0.192500
0.120000 0.540000 0.192500
0.182500 0.540000 0.192500
0.245000 0.540000 0.192500
0.307500 0.540000 0.192500
0.370000 0.540000 0.192500
0.432500 0.540000 0.192500
0.495000 0.540000 0.192500
0.557500 0.540000 0.192500
0.620000 0.540000 0.192500
0.682500 0.540000 0.192500
0.745000 0.540000 0.192500
0.807500 0.540000 0.192500
0.870000 0.540000 0.192500
0.932500 0.540000 0.192500
0.000000 0.602500 0.192500
0.000000 0.602500 0.192500
0.057500 0.602500 0.192500
0.120000 0.602500 0.192500
0.182500 0.602500 0.192500
0.245000 0.602500 0.192500
0.307500 0.602500 0.192500
0.370000 0.602500 0.192500
0.432500 0.602500 0.192500
0.495000 0.602500 0.192500
0.557500 0.602500 0.192500
0.620000 0.602500 0.192500
0.682500 0.602500 0.192500
0.745000 0.602500 0.192500
0.807500 0.602500 0.192500
0.870000 0.602500 0.192500
0.932500 0.602500 0.192500
0.000000 0.665000 0.192500
0.000000 0.665000 0.192500
0.057500 0.665000 0.192500
0.120000 0.665000 0.192500
0.182500 0.665000 0.192500
0.245000 0.665000 0.192500
0.307500 0.665000 0.192500
0.370000 0.665000 0.192500
0.432500 0.665000 0.192500
0.495000 0.665000 0.192500
0.557500 0.665000 0.192500
0.620000 0.665000 0.192500
0.682500 0.665000 0.192500
0.745000 0.665000 0.192500
0.807500 0.665000 0.192500
0.870000 0.665000 0.192500
0.932500 0.665000 0.192500
0.000000 0.727500 0.192500
0.000000 0.727500 0.192500
0.057500 0.727500 0.192500
0.120000 0.727500 0.192500
0.182500 0.727500 0.192500
0.245000 0.727500 0.192500
0.307500 0.727500 0.192500
0.370000 0.727500 0.192500
0.432500 0.727500 0.192500
0.495000 0.727500 0.192500
0.557500 0.727500 0.192500
0.620000 0.727500 0.192500
0.682500 0.727500 0.192500
0.745000 0.727500 0.192500
0.807500 0.727500 0.192500
0.870000 0.727500 0.192500
0.932500 0.727500 0.192500
0.000000 0.790000 0.192500
0.000000 0.790000 0.192500
0.057500 0.790000 0.192500
0.120000 0.790000 0.192500
0.182500 0.790000 0.192500
0.245000 0.790000 0.192500
0.307500 0.790000 0.192500
0.370000 0.790000 0.192500
0.432500 0.790000 0.192500
0.495000 0.790000 0.192500
0.557500 0.790000 0.192500
0.620000 0.790000 0.192500
0.682500 0.790000 0.192500
0.745000 0.790000 0.192500
0.807500 0.790000 0.192500
0.870000 0.790000 0.192500
0.932500 0.790000 0.192500
0.000000 0.852500 0.192500
0.000000 0.852500 0.192500
0.057500 0.852500 0.192500
0.120000 0.852500 0.192500
0.182500 0.852500 0.192500
0.245000 0.852500 0.192500
0.307500 0.852500 0.192500
0.370000 0.852500 0.192500
0.432500 0.852500 0.192500
0.495000 0.852500 0.192500
0.557500 0.852500 0.192500
0.620000 0.852500 0.192500
0.682500 0.852500 0.192500
0.745000 0.852500 0.192500
0.807500 0.852500 0.192500
0.870000 0.852500 0.192500
0.932500 0.852500 0.192500
0.000000 0.915000 0.192500
0.000000 0.915000 0.192500
0.057500 0.915000 0.192500
0.120000 0.915000 0.192500
0.182500 0.915000 0.192500
0.245000 0.915000 0.192500
0.307500 0.915000 0.192500
0.370000 0.915000 0.192500
0.432500 0.915000 0.192500
0.495000 0.915000 0.192500
0.557500 0.915000 0.192500
0.620000 0.915000 0.192500
0.682500 0.915000 0.192500
0.745000 0.915000 0.192500
0.807500 0.915000 0.192500
0.870000 0.915000 0.192500
0.932500 0.915000 0.192500
0.000000 0.977500 0.192500
0.000000 0.977500 0.192500
0.057500 0.977500 0.192500
0.120000 0.977500 0.192500
0.182500 0.977500 0.192500
0.245000 0.977500 0.192500
0.307500 0.977500 0.192500
0.370000 0.977500 0.192500
0.432500 0.977500 0.192500
0.495000 0.977500 0.192500
0.557500 0.977500 0.192500
0.620000 0.977500 0.192500
0.682500 0.977500 0.192500
0.745000 0.977500 0.192500
0.807500 0.977500 0.192500
0.870000 0.977500 0.192500
0.932500 0.977500 0.192500
0.000000 0.000000 0.255000
0.000000 0.000000 0.255000
0.057500 0.000000 0.255000
0.120000 0.000000 0.255000
0.182500 0.000000 0.255000
0.245000 0.000000 0.255000
0.307500 0.000000 0.255000
0.370000 0.000000 0.255000
0.432500 0.000000 0.255000
0.495000 0.000000 0.255000
0.557500 0.000000 0.255000
0.620000 0.000000 0.255000
0.682500 0.000000 0.255000
0.745000 0.000000 0.255000
0.807500 0.000000 0.255000
0.870000 0.000000 0.255000
0.932500 0.000000 0.255000
0.000000 0.040000 0.255000
