app/src/main/assets/luts/camcorder_90s.cube
# ApexStudio filter: camcorder_90s
LUT_3D_SIZE 17
DOMAIN_MIN 0.0 0.0 0.0
DOMAIN_MAX 1.0 1.0 1.0
0.020000 0.050000 0.000000
0.085625 0.050000 0.000000
0.151250 0.050000 0.000000
0.216875 0.050000 0.000000
0.282500 0.050000 0.000000
0.348125 0.050000 0.000000
0.413750 0.050000 0.000000
0.479375 0.050000 0.000000
0.545000 0.050000 0.000000
0.610625 0.050000 0.000000
0.676250 0.050000 0.000000
0.741875 0.050000 0.000000
0.807500 0.050000 0.000000
0.873125 0.050000 0.000000
0.938750 0.050000 0.000000
1.000000 0.050000 0.000000
1.000000 0.050000 0.000000
0.020000 0.118750 0.000000
0.085625 0.118750 0.000000
0.151250 0.118750 0.000000
0.216875 0.118750 0.000000
0.282500 0.118750 0.000000
0.348125 0.118750 0.000000
0.413750 0.118750 0.000000
0.479375 0.118750 0.000000
0.545000 0.118750 0.000000
0.610625 0.118750 0.000000
0.676250 0.118750 0.000000
0.741875 0.118750 0.000000
0.807500 0.118750 0.000000
0.873125 0.118750 0.000000
0.938750 0.118750 0.000000
1.000000 0.118750 0.000000
1.000000 0.118750 0.000000
0.020000 0.187500 0.000000
0.085625 0.187500 0.000000
0.151250 0.187500 0.000000
0.216875 0.187500 0.000000
0.282500 0.187500 0.000000
0.348125 0.187500 0.000000
0.413750 0.187500 0.000000
0.479375 0.187500 0.000000
0.545000 0.187500 0.000000
0.610625 0.187500 0.000000
0.676250 0.187500 0.000000
0.741875 0.187500 0.000000
0.807500 0.187500 0.000000
0.873125 0.187500 0.000000
0.938750 0.187500 0.000000
1.000000 0.187500 0.000000
1.000000 0.187500 0.000000
0.020000 0.256250 0.000000
0.085625 0.256250 0.000000
0.151250 0.256250 0.000000
0.216875 0.256250 0.000000
0.282500 0.256250 0.000000
0.348125 0.256250 0.000000
0.413750 0.256250 0.000000
0.479375 0.256250 0.000000
0.545000 0.256250 0.000000
0.610625 0.256250 0.000000
0.676250 0.256250 0.000000
0.741875 0.256250 0.000000
0.807500 0.256250 0.000000
0.873125 0.256250 0.000000
0.938750 0.256250 0.000000
1.000000 0.256250 0.000000
1.000000 0.256250 0.000000
0.020000 0.325000 0.000000
0.085625 0.325000 0.000000
0.151250 0.325000 0.000000
0.216875 0.325000 0.000000
0.282500 0.325000 0.000000
0.348125 0.325000 0.000000
0.413750 0.325000 0.000000
0.479375 0.325000 0.000000
0.545000 0.325000 0.000000
0.610625 0.325000 0.000000
0.676250 0.325000 0.000000
0.741875 0.325000 0.000000
0.807500 0.325000 0.000000
0.873125 0.325000 0.000000
0.938750 0.325000 0.000000
1.000000 0.325000 0.000000
1.000000 0.325000 0.000000
0.020000 0.393750 0.000000
0.085625 0.393750 0.000000
0.151250 0.393750 0.000000
0.216875 0.393750 0.000000
0.282500 0.393750 0.000000
0.348125 0.393750 0.000000
0.413750 0.393750 0.000000
0.479375 0.393750 0.000000
0.545000 0.393750 0.000000
0.610625 0.393750 0.000000
0.676250 0.393750 0.000000
0.741875 0.393750 0.000000
0.807500 0.393750 0.000000
0.873125 0.393750 0.000000
0.938750 0.393750 0.000000
1.000000 0.393750 0.000000
1.000000 0.393750 0.000000
0.020000 0.462500 0.000000
0.085625 0.462500 0.000000
0.151250 0.462500 0.000000
0.216875 0.462500 0.000000
0.282500 0.462500 0.000000
0.348125 0.462500 0.000000
0.413750 0.462500 0.000000
0.479375 0.462500 0.000000
0.545000 0.462500 0.000000
0.610625 0.462500 0.000000
0.676250 0.462500 0.000000
0.741875 0.462500 0.000000
0.807500 0.462500 0.000000
0.873125 0.462500 0.000000
0.938750 0.462500 0.000000
1.000000 0.462500 0.000000
1.000000 0.462500 0.000000
0.020000 0.531250 0.000000
0.085625 0.531250 0.000000
0.151250 0.531250 0.000000
0.216875 0.531250 0.000000
0.282500 0.531250 0.000000
0.348125 0.531250 0.000000
0.413750 0.531250 0.000000
0.479375 0.531250 0.000000
0.545000 0.531250 0.000000
0.610625 0.531250 0.000000
0.676250 0.531250 0.000000
0.741875 0.531250 0.000000
0.807500 0.531250 0.000000
0.873125 0.531250 0.000000
0.938750 0.531250 0.000000
1.000000 0.531250 0.000000
1.000000 0.531250 0.000000
0.020000 0.600000 0.000000
0.085625 0.600000 0.000000
0.151250 0.600000 0.000000
0.216875 0.600000 0.000000
0.282500 0.600000 0.000000
0.348125 0.600000 0.000000
0.413750 0.600000 0.000000
0.479375 0.600000 0.000000
0.545000 0.600000 0.000000
0.610625 0.600000 0.000000
0.676250 0.600000 0.000000
0.741875 0.600000 0.000000
0.807500 0.600000 0.000000
0.873125 0.600000 0.000000
0.938750 0.600000 0.000000
1.000000 0.600000 0.000000
1.000000 0.600000 0.000000
0.020000 0.668750 0.000000
0.085625 0.668750 0.000000
0.151250 0.668750 0.000000
0.216875 0.668750 0.000000
0.282500 0.668750 0.000000
0.348125 0.668750 0.000000
0.413750 0.668750 0.000000
0.479375 0.668750 0.000000
0.545000 0.668750 0.000000
0.610625 0.668750 0.000000
0.676250 0.668750 0.000000
0.741875 0.668750 0.000000
0.807500 0.668750 0.000000
0.873125 0.668750 0.000000
0.938750 0.668750 0.000000
1.000000 0.668750 0.000000
1.000000 0.668750 0.000000
0.020000 0.737500 0.000000
0.085625 0.737500 0.000000
0.151250 0.737500 0.000000
0.216875 0.737500 0.000000
0.282500 0.737500 0.000000
0.348125 0.737500 0.000000
0.413750 0.737500 0.000000
0.479375 0.737500 0.000000
0.545000 0.737500 0.000000
0.610625 0.737500 0.000000
0.676250 0.737500 0.000000
0.741875 0.737500 0.000000
0.807500 0.737500 0.000000
0.873125 0.737500 0.000000
0.938750 0.737500 0.000000
1.000000 0.737500 0.000000
1.000000 0.737500 0.000000
0.020000 0.806250 0.000000
0.085625 0.806250 0.000000
0.151250 0.806250 0.000000
0.216875 0.806250 0.000000
0.282500 0.806250 0.000000
0.348125 0.806250 0.000000
0.413750 0.806250 0.000000
0.479375 0.806250 0.000000
0.545000 0.806250 0.000000
0.610625 0.806250 0.000000
0.676250 0.806250 0.000000
0.741875 0.806250 0.000000
0.807500 0.806250 0.000000
0.873125 0.806250 0.000000
0.938750 0.806250 0.000000
1.000000 0.806250 0.000000
1.000000 0.806250 0.000000
0.020000 0.875000 0.000000
0.085625 0.875000 0.000000
0.151250 0.875000 0.000000
0.216875 0.875000 0.000000
0.282500 0.875000 0.000000
0.348125 0.875000 0.000000
0.413750 0.875000 0.000000
0.479375 0.875000 0.000000
0.545000 0.875000 0.000000
0.610625 0.875000 0.000000
0.676250 0.875000 0.000000
0.741875 0.875000 0.000000
0.807500 0.875000 0.000000
0.873125 0.875000 0.000000
0.938750 0.875000 0.000000
1.000000 0.875000 0.000000
1.000000 0.875000 0.000000
0.020000 0.943750 0.000000
0.085625 0.943750 0.000000
0.151250 0.943750 0.000000
0.216875 0.943750 0.000000
0.282500 0.943750 0.000000
0.348125 0.943750 0.000000
0.413750 0.943750 0.000000
0.479375 0.943750 0.000000
0.545000 0.943750 0.000000
0.610625 0.943750 0.000000
0.676250 0.943750 0.000000
0.741875 0.943750 0.000000
0.807500 0.943750 0.000000
0.873125 0.943750 0.000000
0.938750 0.943750 0.000000
1.000000 0.943750 0.000000
1.000000 0.943750 0.000000
0.020000 1.000000 0.000000
0.085625 1.000000 0.000000
0.151250 1.000000 0.000000
0.216875 1.000000 0.000000
0.282500 1.000000 0.000000
0.348125 1.000000 0.000000
0.413750 1.000000 0.000000
0.479375 1.000000 0.000000
0.545000 1.000000 0.000000
0.610625 1.000000 0.000000
0.676250 1.000000 0.000000
0.741875 1.000000 0.000000
0.807500 1.000000 0.000000
0.873125 1.000000 0.000000
0.938750 1.000000 0.000000
1.000000 1.000000 0.000000
1.000000 1.000000 0.000000
0.020000 1.000000 0.000000
0.085625 1.000000 0.000000
0.151250 1.000000 0.000000
0.216875 1.000000 0.000000
0.282500 1.000000 0.000000
0.348125 1.000000 0.000000
0.413750 1.000000 0.000000
0.479375 1.000000 0.000000
0.545000 1.000000 0.000000
0.610625 1.000000 0.000000
0.676250 1.000000 0.000000
0.741875 1.000000 0.000000
0.807500 1.000000 0.000000
0.873125 1.000000 0.000000
0.938750 1.000000 0.000000
1.000000 1.000000 0.000000
1.000000 1.000000 0.000000
0.020000 1.000000 0.000000
0.085625 1.000000 0.000000
0.151250 1.000000 0.000000
0.216875 1.000000 0.000000
0.282500 1.000000 0.000000
0.348125 1.000000 0.000000
0.413750 1.000000 0.000000
0.479375 1.000000 0.000000
0.545000 1.000000 0.000000
0.610625 1.000000 0.000000
0.676250 1.000000 0.000000
0.741875 1.000000 0.000000
0.807500 1.000000 0.000000
0.873125 1.000000 0.000000
0.938750 1.000000 0.000000
1.000000 1.000000 0.000000
1.000000 1.000000 0.000000
0.020000 0.050000 0.016250
0.085625 0.050000 0.016250
0.151250 0.050000 0.016250
0.216875 0.050000 0.016250
0.282500 0.050000 0.016250
0.348125 0.050000 0.016250
0.413750 0.050000 0.016250
0.479375 0.050000 0.016250
0.545000 0.050000 0.016250
0.610625 0.050000 0.016250
0.676250 0.050000 0.016250
0.741875 0.050000 0.016250
0.807500 0.050000 0.016250
0.873125 0.050000 0.016250
0.938750 0.050000 0.016250
1.000000 0.050000 0.016250
1.000000 0.050000 0.016250
0.020000 0.118750 0.016250
0.085625 0.118750 0.016250
0.151250 0.118750 0.016250
0.216875 0.118750 0.016250
0.282500 0.118750 0.016250
0.348125 0.118750 0.016250
0.413750 0.118750 0.016250
0.479375 0.118750 0.016250
0.545000 0.118750 0.016250
0.610625 0.118750 0.016250
0.676250 0.118750 0.016250
0.741875 0.118750 0.016250
0.807500 0.118750 0.016250
0.873125 0.118750 0.016250
0.938750 0.118750 0.016250
1.000000 0.118750 0.016250
1.000000 0.118750 0.016250
0.020000 0.187500 0.016250
0.085625 0.187500 0.016250
0.151250 0.187500 0.016250
0.216875 0.187500 0.016250
0.282500 0.187500 0.016250
0.348125 0.187500 0.016250
0.413750 0.187500 0.016250
0.479375 0.187500 0.016250
0.545000 0.187500 0.016250
0.610625 0.187500 0.016250
0.676250 0.187500 0.016250
0.741875 0.187500 0.016250
0.807500 0.187500 0.016250
0.873125 0.187500 0.016250
0.938750 0.187500 0.016250
1.000000 0.187500 0.016250
1.000000 0.187500 0.016250
0.020000 0.256250 0.016250
0.085625 0.256250 0.016250
0.151250 0.256250 0.016250
0.216875 0.256250 0.016250
0.282500 0.256250 0.016250
0.348125 0.256250 0.016250
0.413750 0.256250 0.016250
0.479375 0.256250 0.016250
0.545000 0.256250 0.016250
0.610625 0.256250 0.016250
0.676250 0.256250 0.016250
0.741875 0.256250 0.016250
0.807500 0.256250 0.016250
0.873125 0.256250 0.016250
0.938750 0.256250 0.016250
1.000000 0.256250 0.016250
1.000000 0.256250 0.016250
0.020000 0.325000 0.016250
0.085625 0.325000 0.016250
0.151250 0.325000 0.016250
0.216875 0.325000 0.016250
0.282500 0.325000 0.016250
0.348125 0.325000 0.016250
0.413750 0.325000 0.016250
0.479375 0.325000 0.016250
0.545000 0.325000 0.016250
0.610625 0.325000 0.016250
0.676250 0.325000 0.016250
0.741875 0.325000 0.016250
0.807500 0.325000 0.016250
0.873125 0.325000 0.016250
0.938750 0.325000 0.016250
1.000000 0.325000 0.016250
1.000000 0.325000 0.016250
0.020000 0.393750 0.016250
0.085625 0.393750 0.016250
0.151250 0.393750 0.016250
0.216875 0.393750 0.016250
0.282500 0.393750 0.016250
0.348125 0.393750 0.016250
0.413750 0.393750 0.016250
0.479375 0.393750 0.016250
0.545000 0.393750 0.016250
0.610625 0.393750 0.016250
0.676250 0.393750 0.016250
0.741875 0.393750 0.016250
0.807500 0.393750 0.016250
0.873125 0.393750 0.016250
0.938750 0.393750 0.016250
1.000000 0.393750 0.016250
1.000000 0.393750 0.016250
0.020000 0.462500 0.016250
0.085625 0.462500 0.016250
0.151250 0.462500 0.016250
0.216875 0.462500 0.016250
0.282500 0.462500 0.016250
0.348125 0.462500 0.016250
0.413750 0.462500 0.016250
0.479375 0.462500 0.016250
0.545000 0.462500 0.016250
0.610625 0.462500 0.016250
0.676250 0.462500 0.016250
0.741875 0.462500 0.016250
0.807500 0.462500 0.016250
0.873125 0.462500 0.016250
0.938750 0.462500 0.016250
1.000000 0.462500 0.016250
1.000000 0.462500 0.016250
0.020000 0.531250 0.016250
0.085625 0.531250 0.016250
0.151250 0.531250 0.016250
0.216875 0.531250 0.016250
0.282500 0.531250 0.016250
0.348125 0.531250 0.016250
0.413750 0.531250 0.016250
0.479375 0.531250 0.016250
0.545000 0.531250 0.016250
0.610625 0.531250 0.016250
0.676250 0.531250 0.016250
0.741875 0.531250 0.016250
0.807500 0.531250 0.016250
0.873125 0.531250 0.016250
0.938750 0.531250 0.016250
1.000000 0.531250 0.016250
1.000000 0.531250 0.016250
0.020000 0.600000 0.016250
0.085625 0.600000 0.016250
0.151250 0.600000 0.016250
0.216875 0.600000 0.016250
0.282500 0.600000 0.016250
0.348125 0.600000 0.016250
0.413750 0.600000 0.016250
0.479375 0.600000 0.016250
0.545000 0.600000 0.016250
0.610625 0.600000 0.016250
0.676250 0.600000 0.016250
0.741875 0.600000 0.016250
0.807500 0.600000 0.016250
0.873125 0.600000 0.016250
0.938750 0.600000 0.016250
1.000000 0.600000 0.016250
1.000000 0.600000 0.016250
0.020000 0.668750 0.016250
0.085625 0.668750 0.016250
0.151250 0.668750 0.016250
0.216875 0.668750 0.016250
0.282500 0.668750 0.016250
0.348125 0.668750 0.016250
0.413750 0.668750 0.016250
0.479375 0.668750 0.016250
0.545000 0.668750 0.016250
0.610625 0.668750 0.016250
0.676250 0.668750 0.016250
0.741875 0.668750 0.016250
0.807500 0.668750 0.016250
0.873125 0.668750 0.016250
0.938750 0.668750 0.016250
1.000000 0.668750 0.016250
1.000000 0.668750 0.016250
0.020000 0.737500 0.016250
0.085625 0.737500 0.016250
0.151250 0.737500 0.016250
0.216875 0.737500 0.016250
0.282500 0.737500 0.016250
0.348125 0.737500 0.016250
0.413750 0.737500 0.016250
0.479375 0.737500 0.016250
0.545000 0.737500 0.016250
0.610625 0.737500 0.016250
0.676250 0.737500 0.016250
0.741875 0.737500 0.016250
0.807500 0.737500 0.016250
0.873125 0.737500 0.016250
0.938750 0.737500 0.016250
1.000000 0.737500 0.016250
1.000000 0.737500 0.016250
0.020000 0.806250 0.016250
0.085625 0.806250 0.016250
0.151250 0.806250 0.016250
0.216875 0.806250 0.016250
0.282500 0.806250 0.016250
0.348125 0.806250 0.016250
0.413750 0.806250 0.016250
0.479375 0.806250 0.016250
0.545000 0.806250 0.016250
0.610625 0.806250 0.016250
0.676250 0.806250 0.016250
0.741875 0.806250 0.016250
0.807500 0.806250 0.016250
0.873125 0.806250 0.016250
0.938750 0.806250 0.016250
1.000000 0.806250 0.016250
1.000000 0.806250 0.016250
0.020000 0.875000 0.016250
0.085625 0.875000 0.016250
0.151250 0.875000 0.016250
0.216875 0.875000 0.016250
0.282500 0.875000 0.016250
0.348125 0.875000 0.016250
0.413750 0.875000 0.016250
0.479375 0.875000 0.016250
0.545000 0.875000 0.016250
0.610625 0.875000 0.016250
0.676250 0.875000 0.016250
0.741875 0.875000 0.016250
0.807500 0.875000 0.016250
0.873125 0.875000 0.016250
0.938750 0.875000 0.016250
1.000000 0.875000 0.016250
1.000000 0.875000 0.016250
0.020000 0.943750 0.016250
0.085625 0.943750 0.016250
0.151250 0.943750 0.016250
0.216875 0.943750 0.016250
0.282500 0.943750 0.016250
0.348125 0.943750 0.016250
0.413750 0.943750 0.016250
0.479375 0.943750 0.016250
0.545000 0.943750 0.016250
0.610625 0.943750 0.016250
0.676250 0.943750 0.016250
0.741875 0.943750 0.016250
0.807500 0.943750 0.016250
0.873125 0.943750 0.016250
0.938750 0.943750 0.016250
1.000000 0.943750 0.016250
1.000000 0.943750 0.016250
0.020000 1.000000 0.016250
0.085625 1.000000 0.016250
0.151250 1.000000 0.016250
0.216875 1.000000 0.016250
0.282500 1.000000 0.016250
0.348125 1.000000 0.016250
0.413750 1.000000 0.016250
0.479375 1.000000 0.016250
0.545000 1.000000 0.016250
0.610625 1.000000 0.016250
0.676250 1.000000 0.016250
0.741875 1.000000 0.016250
0.807500 1.000000 0.016250
0.873125 1.000000 0.016250
0.938750 1.000000 0.016250
1.000000 1.000000 0.016250
1.000000 1.000000 0.016250
0.020000 1.000000 0.016250
0.085625 1.000000 0.016250
0.151250 1.000000 0.016250
0.216875 1.000000 0.016250
0.282500 1.000000 0.016250
0.348125 1.000000 0.016250
0.413750 1.000000 0.016250
0.479375 1.000000 0.016250
0.545000 1.000000 0.016250
0.610625 1.000000 0.016250
0.676250 1.000000 0.016250
0.741875 1.000000 0.016250
0.807500 1.000000 0.016250
0.873125 1.000000 0.016250
0.938750 1.000000 0.016250
1.000000 1.000000 0.016250
1.000000 1.000000 0.016250
0.020000 1.000000 0.016250
0.085625 1.000000 0.016250
0.151250 1.000000 0.016250
0.216875 1.000000 0.016250
0.282500 1.000000 0.016250
0.348125 1.000000 0.016250
0.413750 1.000000 0.016250
0.479375 1.000000 0.016250
0.545000 1.000000 0.016250
0.610625 1.000000 0.016250
0.676250 1.000000 0.016250
0.741875 1.000000 0.016250
0.807500 1.000000 0.016250
0.873125 1.000000 0.016250
0.938750 1.000000 0.016250
1.000000 1.000000 0.016250
1.000000 1.000000 0.016250
0.020000 0.050000 0.072500
0.085625 0.050000 0.072500
0.151250 0.050000 0.072500
0.216875 0.050000 0.072500
0.282500 0.050000 0.072500
0.348125 0.050000 0.072500
0.413750 0.050000 0.072500
0.479375 0.050000 0.072500
0.545000 0.050000 0.072500
0.610625 0.050000 0.072500
0.676250 0.050000 0.072500
0.741875 0.050000 0.072500
0.807500 0.050000 0.072500
0.873125 0.050000 0.072500
0.938750 0.050000 0.072500
1.000000 0.050000 0.072500
1.000000 0.050000 0.072500
0.020000 0.118750 0.072500
0.085625 0.118750 0.072500
0.151250 0.118750 0.072500
0.216875 0.118750 0.072500
0.282500 0.118750 0.072500
0.348125 0.118750 0.072500
0.413750 0.118750 0.072500
0.479375 0.118750 0.072500
0.545000 0.118750 0.072500
0.610625 0.118750 0.072500
0.676250 0.118750 0.072500
0.741875 0.118750 0.072500
0.807500 0.118750 0.072500
0.873125 0.118750 0.072500
0.938750 0.118750 0.072500
1.000000 0.118750 0.072500
1.000000 0.118750 0.072500
0.020000 0.187500 0.072500
0.085625 0.187500 0.072500
0.151250 0.187500 0.072500
0.216875 0.187500 0.072500
0.282500 0.187500 0.072500
0.348125 0.187500 0.072500
0.413750 0.187500 0.072500
0.479375 0.187500 0.072500
0.545000 0.187500 0.072500
0.610625 0.187500 0.072500
0.676250 0.187500 0.072500
0.741875 0.187500 0.072500
0.807500 0.187500 0.072500
0.873125 0.187500 0.072500
0.938750 0.187500 0.072500
1.000000 0.187500 0.072500
1.000000 0.187500 0.072500
0.020000 0.256250 0.072500
0.085625 0.256250 0.072500
0.151250 0.256250 0.072500
0.216875 0.256250 0.072500
0.282500 0.256250 0.072500
0.348125 0.256250 0.072500
0.413750 0.256250 0.072500
0.479375 0.256250 0.072500
0.545000 0.256250 0.072500
0.610625 0.256250 0.072500
0.676250 0.256250 0.072500
0.741875 0.256250 0.072500
0.807500 0.256250 0.072500
0.873125 0.256250 0.072500
0.938750 0.256250 0.072500
1.000000 0.256250 0.072500
1.000000 0.256250 0.072500
0.020000 0.325000 0.072500
0.085625 0.325000 0.072500
0.151250 0.325000 0.072500
0.216875 0.325000 0.072500
0.282500 0.325000 0.072500
0.348125 0.325000 0.072500
0.413750 0.325000 0.072500
0.479375 0.325000 0.072500
0.545000 0.325000 0.072500
0.610625 0.325000 0.072500
0.676250 0.325000 0.072500
0.741875 0.325000 0.072500
0.807500 0.325000 0.072500
0.873125 0.325000 0.072500
0.938750 0.325000 0.072500
1.000000 0.325000 0.072500
1.000000 0.325000 0.072500
0.020000 0.393750 0.072500
0.085625 0.393750 0.072500
0.151250 0.393750 0.072500
0.216875 0.393750 0.072500
0.282500 0.393750 0.072500
0.348125 0.393750 0.072500
0.413750 0.393750 0.072500
0.479375 0.393750 0.072500
0.545000 0.393750 0.072500
0.610625 0.393750 0.072500
0.676250 0.393750 0.072500
0.741875 0.393750 0.072500
0.807500 0.393750 0.072500
0.873125 0.393750 0.072500
0.938750 0.393750 0.072500
1.000000 0.393750 0.072500
1.000000 0.393750 0.072500
0.020000 0.462500 0.072500
0.085625 0.462500 0.072500
0.151250 0.462500 0.072500
0.216875 0.462500 0.072500
0.282500 0.462500 0.072500
0.348125 0.462500 0.072500
0.413750 0.462500 0.072500
0.479375 0.462500 0.072500
0.545000 0.462500 0.072500
0.610625 0.462500 0.072500
0.676250 0.462500 0.072500
0.741875 0.462500 0.072500
0.807500 0.462500 0.072500
0.873125 0.462500 0.072500
0.938750 0.462500 0.072500
1.000000 0.462500 0.072500
1.000000 0.462500 0.072500
0.020000 0.531250 0.072500
0.085625 0.531250 0.072500
0.151250 0.531250 0.072500
0.216875 0.531250 0.072500
0.282500 0.531250 0.072500
0.348125 0.531250 0.072500
0.413750 0.531250 0.072500
0.479375 0.531250 0.072500
0.545000 0.531250 0.072500
0.610625 0.531250 0.072500
0.676250 0.531250 0.072500
0.741875 0.531250 0.072500
0.807500 0.531250 0.072500
0.873125 0.531250 0.072500
0.938750 0.531250 0.072500
1.000000 0.531250 0.072500
1.000000 0.531250 0.072500
0.020000 0.600000 0.072500
0.085625 0.600000 0.072500
0.151250 0.600000 0.072500
0.216875 0.600000 0.072500
0.282500 0.600000 0.072500
0.348125 0.600000 0.072500
0.413750 0.600000 0.072500
0.479375 0.600000 0.072500
0.545000 0.600000 0.072500
0.610625 0.600000 0.072500
0.676250 0.600000 0.072500
0.741875 0.600000 0.072500
0.807500 0.600000 0.072500
0.873125 0.600000 0.072500
0.938750 0.600000 0.072500
1.000000 0.600000 0.072500
1.000000 0.600000 0.072500
0.020000 0.668750 0.072500
0.085625 0.668750 0.072500
0.151250 0.668750 0.072500
0.216875 0.668750 0.072500
0.282500 0.668750 0.072500
0.348125 0.668750 0.072500
0.413750 0.668750 0.072500
0.479375 0.668750 0.072500
0.545000 0.668750 0.072500
0.610625 0.668750 0.072500
0.676250 0.668750 0.072500
0.741875 0.668750 0.072500
0.807500 0.668750 0.072500
0.873125 0.668750 0.072500
0.938750 0.668750 0.072500
1.000000 0.668750 0.072500
1.000000 0.668750 0.072500
0.020000 0.737500 0.072500
0.085625 0.737500 0.072500
0.151250 0.737500 0.072500
0.216875 0.737500 0.072500
0.282500 0.737500 0.072500
0.348125 0.737500 0.072500
0.413750 0.737500 0.072500
0.479375 0.737500 0.072500
0.545000 0.737500 0.072500
0.610625 0.737500 0.072500
0.676250 0.737500 0.072500
0.741875 0.737500 0.072500
0.807500 0.737500 0.072500
0.873125 0.737500 0.072500
0.938750 0.737500 0.072500
1.000000 0.737500 0.072500
1.000000 0.737500 0.072500
0.020000 0.806250 0.072500
0.085625 0.806250 0.072500
0.151250 0.806250 0.072500
0.216875 0.806250 0.072500
0.282500 0.806250 0.072500
0.348125 0.806250 0.072500
0.413750 0.806250 0.072500
0.479375 0.806250 0.072500
0.545000 0.806250 0.072500
0.610625 0.806250 0.072500
0.676250 0.806250 0.072500
0.741875 0.806250 0.072500
0.807500 0.806250 0.072500
0.873125 0.806250 0.072500
0.938750 0.806250 0.072500
1.000000 0.806250 0.072500
1.000000 0.806250 0.072500
0.020000 0.875000 0.072500
0.085625 0.875000 0.072500
0.151250 0.875000 0.072500
0.216875 0.875000 0.072500
0.282500 0.875000 0.072500
0.348125 0.875000 0.072500
0.413750 0.875000 0.072500
0.479375 0.875000 0.072500
0.545000 0.875000 0.072500
0.610625 0.875000 0.072500
0.676250 0.875000 0.072500
0.741875 0.875000 0.072500
0.807500 0.875000 0.072500
0.873125 0.875000 0.072500
0.938750 0.875000 0.072500
1.000000 0.875000 0.072500
1.000000 0.875000 0.072500
0.020000 0.943750 0.072500
0.085625 0.943750 0.072500
0.151250 0.943750 0.072500
0.216875 0.943750 0.072500
0.282500 0.943750 0.072500
0.348125 0.943750 0.072500
0.413750 0.943750 0.072500
0.479375 0.943750 0.072500
0.545000 0.943750 0.072500
0.610625 0.943750 0.072500
0.676250 0.943750 0.072500
0.741875 0.943750 0.072500
0.807500 0.943750 0.072500
0.873125 0.943750 0.072500
0.938750 0.943750 0.072500
1.000000 0.943750 0.072500
1.000000 0.943750 0.072500
0.020000 1.000000 0.072500
0.085625 1.000000 0.072500
0.151250 1.000000 0.072500
0.216875 1.000000 0.072500
0.282500 1.000000 0.072500
0.348125 1.000000 0.072500
0.413750 1.000000 0.072500
0.479375 1.000000 0.072500
0.545000 1.000000 0.072500
0.610625 1.000000 0.072500
0.676250 1.000000 0.072500
0.741875 1.000000 0.072500
0.807500 1.000000 0.072500
0.873125 1.000000 0.072500
0.938750 1.000000 0.072500
1.000000 1.000000 0.072500
1.000000 1.000000 0.072500
0.020000 1.000000 0.072500
0.085625 1.000000 0.072500
0.151250 1.000000 0.072500
0.216875 1.000000 0.072500
0.282500 1.000000 0.072500
0.348125 1.000000 0.072500
0.413750 1.000000 0.072500
0.479375 1.000000 0.072500
0.545000 1.000000 0.072500
0.610625 1.000000 0.072500
0.676250 1.000000 0.072500
0.741875 1.000000 0.072500
0.807500 1.000000 0.072500
0.873125 1.000000 0.072500
0.938750 1.000000 0.072500
1.000000 1.000000 0.072500
1.000000 1.000000 0.072500
0.020000 1.000000 0.072500
0.085625 1.000000 0.072500
0.151250 1.000000 0.072500
0.216875 1.000000 0.072500
0.282500 1.000000 0.072500
0.348125 1.000000 0.072500
0.413750 1.000000 0.072500
0.479375 1.000000 0.072500
0.545000 1.000000 0.072500
0.610625 1.000000 0.072500
0.676250 1.000000 0.072500
0.741875 1.000000 0.072500
0.807500 1.000000 0.072500
0.873125 1.000000 0.072500
0.938750 1.000000 0.072500
1.000000 1.000000 0.072500
1.000000 1.000000 0.072500
0.020000 0.050000 0.128750
0.085625 0.050000 0.128750
0.151250 0.050000 0.128750
0.216875 0.050000 0.128750
0.282500 0.050000 0.128750
0.348125 0.050000 0.128750
0.413750 0.050000 0.128750
0.479375 0.050000 0.128750
0.545000 0.050000 0.128750
0.610625 0.050000 0.128750
0.676250 0.050000 0.128750
0.741875 0.050000 0.128750
0.807500 0.050000 0.128750
0.873125 0.050000 0.128750
0.938750 0.050000 0.128750
1.000000 0.050000 0.128750
1.000000 0.050000 0.128750
0.020000 0.118750 0.128750
