app/src/main/assets/luts/camcorder_90s.cube
# ApexStudio filter: camcorder_90s
LUT_3D_SIZE 5
DOMAIN_MIN 0.0 0.0 0.0
DOMAIN_MAX 1.0 1.0 1.0
0.020000 0.050000 0.000000
0.282500 0.050000 0.000000
0.545000 0.050000 0.000000
0.807500 0.050000 0.000000
1.000000 0.050000 0.000000
0.020000 0.325000 0.000000
0.282500 0.325000 0.000000
0.545000 0.325000 0.000000
0.807500 0.325000 0.000000
1.000000 0.325000 0.000000
0.020000 0.600000 0.000000
0.282500 0.600000 0.000000
0.545000 0.600000 0.000000
0.807500 0.600000 0.000000
1.000000 0.600000 0.000000
0.020000 0.875000 0.000000
0.282500 0.875000 0.000000
0.545000 0.875000 0.000000
0.807500 0.875000 0.000000
1.000000 0.875000 0.000000
0.020000 1.000000 0.000000
0.282500 1.000000 0.000000
0.545000 1.000000 0.000000
0.807500 1.000000 0.000000
1.000000 1.000000 0.000000
0.020000 0.050000 0.185000
0.282500 0.050000 0.185000
0.545000 0.050000 0.185000
0.807500 0.050000 0.185000
1.000000 0.050000 0.185000
0.020000 0.325000 0.185000
0.282500 0.325000 0.185000
0.545000 0.325000 0.185000
0.807500 0.325000 0.185000
1.000000 0.325000 0.185000
0.020000 0.600000 0.185000
0.282500 0.600000 0.185000
0.545000 0.600000 0.185000
0.807500 0.600000 0.185000
1.000000 0.600000 0.185000
0.020000 0.875000 0.185000
0.282500 0.875000 0.185000
0.545000 0.875000 0.185000
0.807500 0.875000 0.185000
1.000000 0.875000 0.185000
0.020000 1.000000 0.185000
0.282500 1.000000 0.185000
0.545000 1.000000 0.185000
0.807500 1.000000 0.185000
1.000000 1.000000 0.185000
0.020000 0.050000 0.410000
0.282500 0.050000 0.410000
0.545000 0.050000 0.410000
0.807500 0.050000 0.410000
1.000000 0.050000 0.410000
0.020000 0.325000 0.410000
0.282500 0.325000 0.410000
0.545000 0.325000 0.410000
0.807500 0.325000 0.410000
1.000000 0.325000 0.410000
0.020000 0.600000 0.410000
0.282500 0.600000 0.410000
0.545000 0.600000 0.410000
0.807500 0.600000 0.410000
1.000000 0.600000 0.410000
0.020000 0.875000 0.410000
0.282500 0.875000 0.410000
0.545000 0.875000 0.410000
0.807500 0.875000 0.410000
1.000000 0.875000 0.410000
0.020000 1.000000 0.410000
0.282500 1.000000 0.410000
0.545000 1.000000 0.410000
0.807500 1.000000 0.410000
1.000000 1.000000 0.410000
0.020000 0.050000 0.635000
0.282500 0.050000 0.635000
0.545000 0.050000 0.635000
0.807500 0.050000 0.635000
1.000000 0.050000 0.635000
0.020000 0.325000 0.635000
0.282500 0.325000 0.635000
0.545000 0.325000 0.635000
0.807500 0.325000 0.635000
1.000000 0.325000 0.635000
0.020000 0.600000 0.635000
0.282500 0.600000 0.635000
0.545000 0.600000 0.635000
0.807500 0.600000 0.635000
1.000000 0.600000 0.635000
0.020000 0.875000 0.635000
0.282500 0.875000 0.635000
0.545000 0.875000 0.635000
0.807500 0.875000 0.635000
1.000000 0.875000 0.635000
0.020000 1.000000 0.635000
0.282500 1.000000 0.635000
0.545000 1.000000 0.635000
0.807500 1.000000 0.635000
1.000000 1.000000 0.635000
0.020000 0.050000 0.860000
0.282500 0.050000 0.860000
0.545000 0.050000 0.860000
0.807500 0.050000 0.860000
1.000000 0.050000 0.860000
0.020000 0.325000 0.860000
0.282500 0.325000 0.860000
0.545000 0.325000 0.860000
0.807500 0.325000 0.860000
1.000000 0.325000 0.860000
0.020000 0.600000 0.860000
0.282500 0.600000 0.860000
0.545000 0.600000 0.860000
0.807500 0.600000 0.860000
1.000000 0.600000 0.860000
0.020000 0.875000 0.860000
0.282500 0.875000 0.860000
0.545000 0.875000 0.860000
0.807500 0.875000 0.860000
1.000000 0.875000 0.860000
0.020000 1.000000 0.860000
0.282500 1.000000 0.860000
0.545000 1.000000 0.860000
0.807500 1.000000 0.860000
1.000000 1.000000 0.860000
