app/src/main/assets/luts/cassette_faded.cube
# ApexStudio filter: cassette_faded
LUT_3D_SIZE 5
DOMAIN_MIN 0.0 0.0 0.0
DOMAIN_MAX 1.0 1.0 1.0
0.050000 0.040000 0.020000
0.287500 0.040000 0.020000
0.525000 0.040000 0.020000
0.762500 0.040000 0.020000
1.000000 0.040000 0.020000
0.050000 0.265000 0.020000
0.287500 0.265000 0.020000
0.525000 0.265000 0.020000
0.762500 0.265000 0.020000
1.000000 0.265000 0.020000
0.050000 0.490000 0.020000
0.287500 0.490000 0.020000
0.525000 0.490000 0.020000
0.762500 0.490000 0.020000
1.000000 0.490000 0.020000
0.050000 0.715000 0.020000
0.287500 0.715000 0.020000
0.525000 0.715000 0.020000
0.762500 0.715000 0.020000
1.000000 0.715000 0.020000
0.050000 0.940000 0.020000
0.287500 0.940000 0.020000
0.525000 0.940000 0.020000
0.762500 0.940000 0.020000
1.000000 0.940000 0.020000
0.050000 0.040000 0.232500
0.287500 0.040000 0.232500
0.525000 0.040000 0.232500
0.762500 0.040000 0.232500
1.000000 0.040000 0.232500
0.050000 0.265000 0.232500
0.287500 0.265000 0.232500
0.525000 0.265000 0.232500
0.762500 0.265000 0.232500
1.000000 0.265000 0.232500
0.050000 0.490000 0.232500
0.287500 0.490000 0.232500
0.525000 0.490000 0.232500
0.762500 0.490000 0.232500
1.000000 0.490000 0.232500
0.050000 0.715000 0.232500
0.287500 0.715000 0.232500
0.525000 0.715000 0.232500
0.762500 0.715000 0.232500
1.000000 0.715000 0.232500
0.050000 0.940000 0.232500
0.287500 0.940000 0.232500
0.525000 0.940000 0.232500
0.762500 0.940000 0.232500
1.000000 0.940000 0.232500
0.050000 0.040000 0.445000
0.287500 0.040000 0.445000
0.525000 0.040000 0.445000
0.762500 0.040000 0.445000
1.000000 0.040000 0.445000
0.050000 0.265000 0.445000
0.287500 0.265000 0.445000
0.525000 0.265000 0.445000
0.762500 0.265000 0.445000
1.000000 0.265000 0.445000
0.050000 0.490000 0.445000
0.287500 0.490000 0.445000
0.525000 0.490000 0.445000
0.762500 0.490000 0.445000
1.000000 0.490000 0.445000
0.050000 0.715000 0.445000
0.287500 0.715000 0.445000
0.525000 0.715000 0.445000
0.762500 0.715000 0.445000
1.000000 0.715000 0.445000
0.050000 0.940000 0.445000
0.287500 0.940000 0.445000
0.525000 0.940000 0.445000
0.762500 0.940000 0.445000
1.000000 0.940000 0.445000
0.050000 0.040000 0.657500
0.287500 0.040000 0.657500
0.525000 0.040000 0.657500
0.762500 0.040000 0.657500
1.000000 0.040000 0.657500
0.050000 0.265000 0.657500
0.287500 0.265000 0.657500
0.525000 0.265000 0.657500
0.762500 0.265000 0.657500
1.000000 0.265000 0.657500
0.050000 0.490000 0.657500
0.287500 0.490000 0.657500
0.525000 0.490000 0.657500
0.762500 0.490000 0.657500
1.000000 0.490000 0.657500
0.050000 0.715000 0.657500
0.287500 0.715000 0.657500
0.525000 0.715000 0.657500
0.762500 0.715000 0.657500
1.000000 0.715000 0.657500
0.050000 0.940000 0.657500
0.287500 0.940000 0.657500
0.525000 0.940000 0.657500
0.762500 0.940000 0.657500
1.000000 0.940000 0.657500
0.050000 0.040000 0.870000
0.287500 0.040000 0.870000
0.525000 0.040000 0.870000
0.762500 0.040000 0.870000
1.000000 0.040000 0.870000
0.050000 0.265000 0.870000
0.287500 0.265000 0.870000
0.525000 0.265000 0.870000
0.762500 0.265000 0.870000
1.000000 0.265000 0.870000
0.050000 0.490000 0.870000
0.287500 0.490000 0.870000
0.525000 0.490000 0.870000
0.762500 0.490000 0.870000
1.000000 0.490000 0.870000
0.050000 0.715000 0.870000
0.287500 0.715000 0.870000
0.525000 0.715000 0.870000
0.762500 0.715000 0.870000
1.000000 0.715000 0.870000
0.050000 0.940000 0.870000
0.287500 0.940000 0.870000
0.525000 0.940000 0.870000
0.762500 0.940000 0.870000
1.000000 0.940000 0.870000
