app/src/main/assets/luts/cassette_faded.cube
# ApexStudio filter: cassette_faded
LUT_3D_SIZE 9
DOMAIN_MIN 0.0 0.0 0.0
DOMAIN_MAX 1.0 1.0 1.0
0.050000 0.040000 0.020000
0.168750 0.040000 0.020000
0.287500 0.040000 0.020000
0.406250 0.040000 0.020000
0.525000 0.040000 0.020000
0.643750 0.040000 0.020000
0.762500 0.040000 0.020000
0.881250 0.040000 0.020000
1.000000 0.040000 0.020000
0.050000 0.152500 0.020000
0.168750 0.152500 0.020000
0.287500 0.152500 0.020000
0.406250 0.152500 0.020000
0.525000 0.152500 0.020000
0.643750 0.152500 0.020000
0.762500 0.152500 0.020000
0.881250 0.152500 0.020000
1.000000 0.152500 0.020000
0.050000 0.265000 0.020000
0.168750 0.265000 0.020000
0.287500 0.265000 0.020000
0.406250 0.265000 0.020000
0.525000 0.265000 0.020000
0.643750 0.265000 0.020000
0.762500 0.265000 0.020000
0.881250 0.265000 0.020000
1.000000 0.265000 0.020000
0.050000 0.377500 0.020000
0.168750 0.377500 0.020000
0.287500 0.377500 0.020000
0.406250 0.377500 0.020000
0.525000 0.377500 0.020000
0.643750 0.377500 0.020000
0.762500 0.377500 0.020000
0.881250 0.377500 0.020000
1.000000 0.377500 0.020000
0.050000 0.490000 0.020000
0.168750 0.490000 0.020000
0.287500 0.490000 0.020000
0.406250 0.490000 0.020000
0.525000 0.490000 0.020000
0.643750 0.490000 0.020000
0.762500 0.490000 0.020000
0.881250 0.490000 0.020000
1.000000 0.490000 0.020000
0.050000 0.602500 0.020000
0.168750 0.602500 0.020000
0.287500 0.602500 0.020000
0.406250 0.602500 0.020000
0.525000 0.602500 0.020000
0.643750 0.602500 0.020000
0.762500 0.602500 0.020000
0.881250 0.602500 0.020000
1.000000 0.602500 0.020000
0.050000 0.715000 0.020000
0.168750 0.715000 0.020000
0.287500 0.715000 0.020000
0.406250 0.715000 0.020000
0.525000 0.715000 0.020000
0.643750 0.715000 0.020000
0.762500 0.715000 0.020000
0.881250 0.715000 0.020000
1.000000 0.715000 0.020000
0.050000 0.827500 0.020000
0.168750 0.827500 0.020000
0.287500 0.827500 0.020000
0.406250 0.827500 0.020000
0.525000 0.827500 0.020000
0.643750 0.827500 0.020000
0.762500 0.827500 0.020000
0.881250 0.827500 0.020000
1.000000 0.827500 0.020000
0.050000 0.940000 0.020000
0.168750 0.940000 0.020000
0.287500 0.940000 0.020000
0.406250 0.940000 0.020000
0.525000 0.940000 0.020000
0.643750 0.940000 0.020000
0.762500 0.940000 0.020000
0.881250 0.940000 0.020000
1.000000 0.940000 0.020000
0.050000 0.040000 0.126250
0.168750 0.040000 0.126250
0.287500 0.040000 0.126250
0.406250 0.040000 0.126250
0.525000 0.040000 0.126250
0.643750 0.040000 0.126250
0.762500 0.040000 0.126250
0.881250 0.040000 0.126250
1.000000 0.040000 0.126250
0.050000 0.152500 0.126250
0.168750 0.152500 0.126250
0.287500 0.152500 0.126250
0.406250 0.152500 0.126250
0.525000 0.152500 0.126250
0.643750 0.152500 0.126250
0.762500 0.152500 0.126250
0.881250 0.152500 0.126250
1.000000 0.152500 0.126250
0.050000 0.265000 0.126250
0.168750 0.265000 0.126250
0.287500 0.265000 0.126250
0.406250 0.265000 0.126250
0.525000 0.265000 0.126250
0.643750 0.265000 0.126250
0.762500 0.265000 0.126250
0.881250 0.265000 0.126250
1.000000 0.265000 0.126250
0.050000 0.377500 0.126250
0.168750 0.377500 0.126250
0.287500 0.377500 0.126250
0.406250 0.377500 0.126250
0.525000 0.377500 0.126250
0.643750 0.377500 0.126250
0.762500 0.377500 0.126250
0.881250 0.377500 0.126250
1.000000 0.377500 0.126250
0.050000 0.490000 0.126250
0.168750 0.490000 0.126250
0.287500 0.490000 0.126250
0.406250 0.490000 0.126250
0.525000 0.490000 0.126250
0.643750 0.490000 0.126250
0.762500 0.490000 0.126250
0.881250 0.490000 0.126250
1.000000 0.490000 0.126250
0.050000 0.602500 0.126250
0.168750 0.602500 0.126250
0.287500 0.602500 0.126250
0.406250 0.602500 0.126250
0.525000 0.602500 0.126250
0.643750 0.602500 0.126250
0.762500 0.602500 0.126250
0.881250 0.602500 0.126250
1.000000 0.602500 0.126250
0.050000 0.715000 0.126250
0.168750 0.715000 0.126250
0.287500 0.715000 0.126250
0.406250 0.715000 0.126250
0.525000 0.715000 0.126250
0.643750 0.715000 0.126250
0.762500 0.715000 0.126250
0.881250 0.715000 0.126250
1.000000 0.715000 0.126250
0.050000 0.827500 0.126250
0.168750 0.827500 0.126250
0.287500 0.827500 0.126250
0.406250 0.827500 0.126250
0.525000 0.827500 0.126250
0.643750 0.827500 0.126250
0.762500 0.827500 0.126250
0.881250 0.827500 0.126250
1.000000 0.827500 0.126250
0.050000 0.940000 0.126250
0.168750 0.940000 0.126250
0.287500 0.940000 0.126250
0.406250 0.940000 0.126250
0.525000 0.940000 0.126250
0.643750 0.940000 0.126250
0.762500 0.940000 0.126250
0.881250 0.940000 0.126250
1.000000 0.940000 0.126250
0.050000 0.040000 0.232500
0.168750 0.040000 0.232500
0.287500 0.040000 0.232500
0.406250 0.040000 0.232500
0.525000 0.040000 0.232500
0.643750 0.040000 0.232500
0.762500 0.040000 0.232500
0.881250 0.040000 0.232500
1.000000 0.040000 0.232500
0.050000 0.152500 0.232500
0.168750 0.152500 0.232500
0.287500 0.152500 0.232500
0.406250 0.152500 0.232500
0.525000 0.152500 0.232500
0.643750 0.152500 0.232500
0.762500 0.152500 0.232500
0.881250 0.152500 0.232500
1.000000 0.152500 0.232500
0.050000 0.265000 0.232500
0.168750 0.265000 0.232500
0.287500 0.265000 0.232500
0.406250 0.265000 0.232500
0.525000 0.265000 0.232500
0.643750 0.265000 0.232500
0.762500 0.265000 0.232500
0.881250 0.265000 0.232500
1.000000 0.265000 0.232500
0.050000 0.377500 0.232500
0.168750 0.377500 0.232500
0.287500 0.377500 0.232500
0.406250 0.377500 0.232500
0.525000 0.377500 0.232500
0.643750 0.377500 0.232500
0.762500 0.377500 0.232500
0.881250 0.377500 0.232500
1.000000 0.377500 0.232500
0.050000 0.490000 0.232500
0.168750 0.490000 0.232500
0.287500 0.490000 0.232500
0.406250 0.490000 0.232500
0.525000 0.490000 0.232500
0.643750 0.490000 0.232500
0.762500 0.490000 0.232500
0.881250 0.490000 0.232500
1.000000 0.490000 0.232500
0.050000 0.602500 0.232500
0.168750 0.602500 0.232500
0.287500 0.602500 0.232500
0.406250 0.602500 0.232500
0.525000 0.602500 0.232500
0.643750 0.602500 0.232500
0.762500 0.602500 0.232500
0.881250 0.602500 0.232500
1.000000 0.602500 0.232500
0.050000 0.715000 0.232500
0.168750 0.715000 0.232500
0.287500 0.715000 0.232500
0.406250 0.715000 0.232500
0.525000 0.715000 0.232500
0.643750 0.715000 0.232500
0.762500 0.715000 0.232500
0.881250 0.715000 0.232500
1.000000 0.715000 0.232500
0.050000 0.827500 0.232500
0.168750 0.827500 0.232500
0.287500 0.827500 0.232500
0.406250 0.827500 0.232500
0.525000 0.827500 0.232500
0.643750 0.827500 0.232500
0.762500 0.827500 0.232500
0.881250 0.827500 0.232500
1.000000 0.827500 0.232500
0.050000 0.940000 0.232500
0.168750 0.940000 0.232500
0.287500 0.940000 0.232500
0.406250 0.940000 0.232500
0.525000 0.940000 0.232500
0.643750 0.940000 0.232500
0.762500 0.940000 0.232500
0.881250 0.940000 0.232500
1.000000 0.940000 0.232500
0.050000 0.040000 0.338750
0.168750 0.040000 0.338750
0.287500 0.040000 0.338750
0.406250 0.040000 0.338750
0.525000 0.040000 0.338750
0.643750 0.040000 0.338750
0.762500 0.040000 0.338750
0.881250 0.040000 0.338750
1.000000 0.040000 0.338750
0.050000 0.152500 0.338750
0.168750 0.152500 0.338750
0.287500 0.152500 0.338750
0.406250 0.152500 0.338750
0.525000 0.152500 0.338750
0.643750 0.152500 0.338750
0.762500 0.152500 0.338750
0.881250 0.152500 0.338750
1.000000 0.152500 0.338750
0.050000 0.265000 0.338750
0.168750 0.265000 0.338750
0.287500 0.265000 0.338750
0.406250 0.265000 0.338750
0.525000 0.265000 0.338750
0.643750 0.265000 0.338750
0.762500 0.265000 0.338750
0.881250 0.265000 0.338750
1.000000 0.265000 0.338750
0.050000 0.377500 0.338750
0.168750 0.377500 0.338750
0.287500 0.377500 0.338750
0.406250 0.377500 0.338750
0.525000 0.377500 0.338750
0.643750 0.377500 0.338750
0.762500 0.377500 0.338750
0.881250 0.377500 0.338750
1.000000 0.377500 0.338750
0.050000 0.490000 0.338750
0.168750 0.490000 0.338750
0.287500 0.490000 0.338750
0.406250 0.490000 0.338750
0.525000 0.490000 0.338750
0.643750 0.490000 0.338750
0.762500 0.490000 0.338750
0.881250 0.490000 0.338750
1.000000 0.490000 0.338750
0.050000 0.602500 0.338750
0.168750 0.602500 0.338750
0.287500 0.602500 0.338750
0.406250 0.602500 0.338750
0.525000 0.602500 0.338750
0.643750 0.602500 0.338750
0.762500 0.602500 0.338750
0.881250 0.602500 0.338750
1.000000 0.602500 0.338750
0.050000 0.715000 0.338750
0.168750 0.715000 0.338750
0.287500 0.715000 0.338750
0.406250 0.715000 0.338750
0.525000 0.715000 0.338750
0.643750 0.715000 0.338750
0.762500 0.715000 0.338750
0.881250 0.715000 0.338750
1.000000 0.715000 0.338750
0.050000 0.827500 0.338750
0.168750 0.827500 0.338750
0.287500 0.827500 0.338750
0.406250 0.827500 0.338750
0.525000 0.827500 0.338750
0.643750 0.827500 0.338750
0.762500 0.827500 0.338750
0.881250 0.827500 0.338750
1.000000 0.827500 0.338750
0.050000 0.940000 0.338750
0.168750 0.940000 0.338750
0.287500 0.940000 0.338750
0.406250 0.940000 0.338750
0.525000 0.940000 0.338750
0.643750 0.940000 0.338750
0.762500 0.940000 0.338750
0.881250 0.940000 0.338750
1.000000 0.940000 0.338750
0.050000 0.040000 0.445000
0.168750 0.040000 0.445000
0.287500 0.040000 0.445000
0.406250 0.040000 0.445000
0.525000 0.040000 0.445000
0.643750 0.040000 0.445000
0.762500 0.040000 0.445000
0.881250 0.040000 0.445000
1.000000 0.040000 0.445000
0.050000 0.152500 0.445000
0.168750 0.152500 0.445000
0.287500 0.152500 0.445000
0.406250 0.152500 0.445000
0.525000 0.152500 0.445000
0.643750 0.152500 0.445000
0.762500 0.152500 0.445000
0.881250 0.152500 0.445000
1.000000 0.152500 0.445000
0.050000 0.265000 0.445000
0.168750 0.265000 0.445000
0.287500 0.265000 0.445000
0.406250 0.265000 0.445000
0.525000 0.265000 0.445000
0.643750 0.265000 0.445000
0.762500 0.265000 0.445000
0.881250 0.265000 0.445000
1.000000 0.265000 0.445000
0.050000 0.377500 0.445000
0.168750 0.377500 0.445000
0.287500 0.377500 0.445000
0.406250 0.377500 0.445000
0.525000 0.377500 0.445000
0.643750 0.377500 0.445000
0.762500 0.377500 0.445000
0.881250 0.377500 0.445000
1.000000 0.377500 0.445000
0.050000 0.490000 0.445000
0.168750 0.490000 0.445000
0.287500 0.490000 0.445000
0.406250 0.490000 0.445000
0.525000 0.490000 0.445000
0.643750 0.490000 0.445000
0.762500 0.490000 0.445000
0.881250 0.490000 0.445000
1.000000 0.490000 0.445000
0.050000 0.602500 0.445000
0.168750 0.602500 0.445000
0.287500 0.602500 0.445000
0.406250 0.602500 0.445000
0.525000 0.602500 0.445000
0.643750 0.602500 0.445000
0.762500 0.602500 0.445000
0.881250 0.602500 0.445000
1.000000 0.602500 0.445000
0.050000 0.715000 0.445000
0.168750 0.715000 0.445000
0.287500 0.715000 0.445000
0.406250 0.715000 0.445000
0.525000 0.715000 0.445000
0.643750 0.715000 0.445000
0.762500 0.715000 0.445000
0.881250 0.715000 0.445000
1.000000 0.715000 0.445000
0.050000 0.827500 0.445000
0.168750 0.827500 0.445000
0.287500 0.827500 0.445000
0.406250 0.827500 0.445000
0.525000 0.827500 0.445000
0.643750 0.827500 0.445000
0.762500 0.827500 0.445000
0.881250 0.827500 0.445000
1.000000 0.827500 0.445000
0.050000 0.940000 0.445000
0.168750 0.940000 0.445000
0.287500 0.940000 0.445000
0.406250 0.940000 0.445000
0.525000 0.940000 0.445000
0.643750 0.940000 0.445000
0.762500 0.940000 0.445000
0.881250 0.940000 0.445000
1.000000 0.940000 0.445000
0.050000 0.040000 0.551250
0.168750 0.040000 0.551250
0.287500 0.040000 0.551250
0.406250 0.040000 0.551250
0.525000 0.040000 0.551250
0.643750 0.040000 0.551250
0.762500 0.040000 0.551250
0.881250 0.040000 0.551250
1.000000 0.040000 0.551250
0.050000 0.152500 0.551250
0.168750 0.152500 0.551250
0.287500 0.152500 0.551250
0.406250 0.152500 0.551250
0.525000 0.152500 0.551250
0.643750 0.152500 0.551250
0.762500 0.152500 0.551250
0.881250 0.152500 0.551250
1.000000 0.152500 0.551250
0.050000 0.265000 0.551250
0.168750 0.265000 0.551250
0.287500 0.265000 0.551250
0.406250 0.265000 0.551250
0.525000 0.265000 0.551250
0.643750 0.265000 0.551250
0.762500 0.265000 0.551250
0.881250 0.265000 0.551250
1.000000 0.265000 0.551250
0.050000 0.377500 0.551250
0.168750 0.377500 0.551250
0.287500 0.377500 0.551250
0.406250 0.377500 0.551250
0.525000 0.377500 0.551250
0.643750 0.377500 0.551250
0.762500 0.377500 0.551250
0.881250 0.377500 0.551250
1.000000 0.377500 0.551250
0.050000 0.490000 0.551250
0.168750 0.490000 0.551250
0.287500 0.490000 0.551250
0.406250 0.490000 0.551250
0.525000 0.490000 0.551250
0.643750 0.490000 0.551250
0.762500 0.490000 0.551250
0.881250 0.490000 0.551250
1.000000 0.490000 0.551250
0.050000 0.602500 0.551250
0.168750 0.602500 0.551250
0.287500 0.602500 0.551250
0.406250 0.602500 0.551250
0.525000 0.602500 0.551250
0.643750 0.602500 0.551250
0.762500 0.602500 0.551250
0.881250 0.602500 0.551250
1.000000 0.602500 0.551250
0.050000 0.715000 0.551250
0.168750 0.715000 0.551250
0.287500 0.715000 0.551250
0.406250 0.715000 0.551250
0.525000 0.715000 0.551250
0.643750 0.715000 0.551250
0.762500 0.715000 0.551250
0.881250 0.715000 0.551250
1.000000 0.715000 0.551250
0.050000 0.827500 0.551250
0.168750 0.827500 0.551250
0.287500 0.827500 0.551250
0.406250 0.827500 0.551250
0.525000 0.827500 0.551250
0.643750 0.827500 0.551250
0.762500 0.827500 0.551250
0.881250 0.827500 0.551250
1.000000 0.827500 0.551250
0.050000 0.940000 0.551250
0.168750 0.940000 0.551250
0.287500 0.940000 0.551250
0.406250 0.940000 0.551250
0.525000 0.940000 0.551250
0.643750 0.940000 0.551250
0.762500 0.940000 0.551250
0.881250 0.940000 0.551250
1.000000 0.940000 0.551250
0.050000 0.040000 0.657500
0.168750 0.040000 0.657500
0.287500 0.040000 0.657500
0.406250 0.040000 0.657500
0.525000 0.040000 0.657500
0.643750 0.040000 0.657500
0.762500 0.040000 0.657500
0.881250 0.040000 0.657500
1.000000 0.040000 0.657500
0.050000 0.152500 0.657500
0.168750 0.152500 0.657500
0.287500 0.152500 0.657500
0.406250 0.152500 0.657500
0.525000 0.152500 0.657500
0.643750 0.152500 0.657500
0.762500 0.152500 0.657500
0.881250 0.152500 0.657500
1.000000 0.152500 0.657500
0.050000 0.265000 0.657500
0.168750 0.265000 0.657500
0.287500 0.265000 0.657500
0.406250 0.265000 0.657500
0.525000 0.265000 0.657500
0.643750 0.265000 0.657500
0.762500 0.265000 0.657500
0.881250 0.265000 0.657500
1.000000 0.265000 0.657500
0.050000 0.377500 0.657500
0.168750 0.377500 0.657500
0.287500 0.377500 0.657500
0.406250 0.377500 0.657500
0.525000 0.377500 0.657500
0.643750 0.377500 0.657500
0.762500 0.377500 0.657500
0.881250 0.377500 0.657500
1.000000 0.377500 0.657500
0.050000 0.490000 0.657500
0.168750 0.490000 0.657500
0.287500 0.490000 0.657500
0.406250 0.490000 0.657500
0.525000 0.490000 0.657500
0.643750 0.490000 0.657500
0.762500 0.490000 0.657500
0.881250 0.490000 0.657500
1.000000 0.490000 0.657500
0.050000 0.602500 0.657500
0.168750 0.602500 0.657500
0.287500 0.602500 0.657500
0.406250 0.602500 0.657500
0.525000 0.602500 0.657500
0.643750 0.602500 0.657500
0.762500 0.602500 0.657500
0.881250 0.602500 0.657500
1.000000 0.602500 0.657500
0.050000 0.715000 0.657500
0.168750 0.715000 0.657500
0.287500 0.715000 0.657500
0.406250 0.715000 0.657500
0.525000 0.715000 0.657500
0.643750 0.715000 0.657500
0.762500 0.715000 0.657500
0.881250 0.715000 0.657500
1.000000 0.715000 0.657500
0.050000 0.827500 0.657500
0.168750 0.827500 0.657500
0.287500 0.827500 0.657500
0.406250 0.827500 0.657500
0.525000 0.827500 0.657500
0.643750 0.827500 0.657500
0.762500 0.827500 0.657500
0.881250 0.827500 0.657500
1.000000 0.827500 0.657500
0.050000 0.940000 0.657500
0.168750 0.940000 0.657500
0.287500 0.940000 0.657500
0.406250 0.940000 0.657500
0.525000 0.940000 0.657500
0.643750 0.940000 0.657500
0.762500 0.940000 0.657500
0.881250 0.940000 0.657500
1.000000 0.940000 0.657500
0.050000 0.040000 0.763750
0.168750 0.040000 0.763750
0.287500 0.040000 0.763750
0.406250 0.040000 0.763750
0.525000 0.040000 0.763750
0.643750 0.040000 0.763750
0.762500 0.040000 0.763750
0.881250 0.040000 0.763750
1.000000 0.040000 0.763750
0.050000 0.152500 0.763750
0.168750 0.152500 0.763750
0.287500 0.152500 0.763750
0.406250 0.152500 0.763750
0.525000 0.152500 0.763750
0.643750 0.152500 0.763750
0.762500 0.152500 0.763750
0.881250 0.152500 0.763750
1.000000 0.152500 0.763750
0.050000 0.265000 0.763750
0.168750 0.265000 0.763750
0.287500 0.265000 0.763750
0.406250 0.265000 0.763750
0.525000 0.265000 0.763750
0.643750 0.265000 0.763750
0.762500 0.265000 0.763750
0.881250 0.265000 0.763750
1.000000 0.265000 0.763750
0.050000 0.377500 0.763750
0.168750 0.377500 0.763750
0.287500 0.377500 0.763750
0.406250 0.377500 0.763750
0.525000 0.377500 0.763750
0.643750 0.377500 0.763750
0.762500 0.377500 0.763750
0.881250 0.377500 0.763750
1.000000 0.377500 0.763750
0.050000 0.490000 0.763750
0.168750 0.490000 0.763750
0.287500 0.490000 0.763750
0.406250 0.490000 0.763750
0.525000 0.490000 0.763750
0.643750 0.490000 0.763750
0.762500 0.490000 0.763750
0.881250 0.490000 0.763750
1.000000 0.490000 0.763750
0.050000 0.602500 0.763750
0.168750 0.602500 0.763750
0.287500 0.602500 0.763750
0.406250 0.602500 0.763750
0.525000 0.602500 0.763750
0.643750 0.602500 0.763750
0.762500 0.602500 0.763750
0.881250 0.602500 0.763750
1.000000 0.602500 0.763750
0.050000 0.715000 0.763750
0.168750 0.715000 0.763750
0.287500 0.715000 0.763750
0.406250 0.715000 0.763750
0.525000 0.715000 0.763750
0.643750 0.715000 0.763750
0.762500 0.715000 0.763750
0.881250 0.715000 0.763750
1.000000 0.715000 0.763750
0.050000 0.827500 0.763750
0.168750 0.827500 0.763750
0.287500 0.827500 0.763750
0.406250 0.827500 0.763750
0.525000 0.827500 0.763750
0.643750 0.827500 0.763750
0.762500 0.827500 0.763750
0.881250 0.827500 0.763750
1.000000 0.827500 0.763750
0.050000 0.940000 0.763750
0.168750 0.940000 0.763750
0.287500 0.940000 0.763750
0.406250 0.940000 0.763750
0.525000 0.940000 0.763750
0.643750 0.940000 0.763750
0.762500 0.940000 0.763750
0.881250 0.940000 0.763750
1.000000 0.940000 0.763750
0.050000 0.040000 0.870000
0.168750 0.040000 0.870000
0.287500 0.040000 0.870000
0.406250 0.040000 0.870000
0.525000 0.040000 0.870000
0.643750 0.040000 0.870000
0.762500 0.040000 0.870000
0.881250 0.040000 0.870000
1.000000 0.040000 0.870000
0.050000 0.152500 0.870000
0.168750 0.152500 0.870000
0.287500 0.152500 0.870000
0.406250 0.152500 0.870000
0.525000 0.152500 0.870000
0.643750 0.152500 0.870000
0.762500 0.152500 0.870000
0.881250 0.152500 0.870000
1.000000 0.152500 0.870000
0.050000 0.265000 0.870000
0.168750 0.265000 0.870000
0.287500 0.265000 0.870000
0.406250 0.265000 0.870000
0.525000 0.265000 0.870000
0.643750 0.265000 0.870000
0.762500 0.265000 0.870000
0.881250 0.265000 0.870000
1.000000 0.265000 0.870000
0.050000 0.377500 0.870000
0.168750 0.377500 0.870000
0.287500 0.377500 0.870000
0.406250 0.377500 0.870000
0.525000 0.377500 0.870000
0.643750 0.377500 0.870000
0.762500 0.377500 0.870000
0.881250 0.377500 0.870000
1.000000 0.377500 0.870000
0.050000 0.490000 0.870000
0.168750 0.490000 0.870000
0.287500 0.490000 0.870000
0.406250 0.490000 0.870000
0.525000 0.490000 0.870000
0.643750 0.490000 0.870000
0.762500 0.490000 0.870000
0.881250 0.490000 0.870000
1.000000 0.490000 0.870000
0.050000 0.602500 0.870000
0.168750 0.602500 0.870000
0.287500 0.602500 0.870000
0.406250 0.602500 0.870000
0.525000 0.602500 0.870000
0.643750 0.602500 0.870000
0.762500 0.602500 0.870000
0.881250 0.602500 0.870000
1.000000 0.602500 0.870000
0.050000 0.715000 0.870000
0.168750 0.715000 0.870000
0.287500 0.715000 0.870000
0.406250 0.715000 0.870000
0.525000 0.715000 0.870000
0.643750 0.715000 0.870000
0.762500 0.715000 0.870000
0.881250 0.715000 0.870000
1.000000 0.715000 0.870000
0.050000 0.827500 0.870000
0.168750 0.827500 0.870000
0.287500 0.827500 0.870000
0.406250 0.827500 0.870000
0.525000 0.827500 0.870000
0.643750 0.827500 0.870000
0.762500 0.827500 0.870000
0.881250 0.827500 0.870000
1.000000 0.827500 0.870000
0.050000 0.940000 0.870000
0.168750 0.940000 0.870000
0.287500 0.940000 0.870000
0.406250 0.940000 0.870000
0.525000 0.940000 0.870000
0.643750 0.940000 0.870000
0.762500 0.940000 0.870000
0.881250 0.940000 0.870000
1.000000 0.940000 0.870000
