app/src/main/assets/luts/cassette_faded.cube
# ApexStudio filter: cassette_faded
LUT_3D_SIZE 17
DOMAIN_MIN 0.0 0.0 0.0
DOMAIN_MAX 1.0 1.0 1.0
0.050000 0.040000 0.020000
0.109375 0.040000 0.020000
0.168750 0.040000 0.020000
0.228125 0.040000 0.020000
0.287500 0.040000 0.020000
0.346875 0.040000 0.020000
0.406250 0.040000 0.020000
0.465625 0.040000 0.020000
0.525000 0.040000 0.020000
0.584375 0.040000 0.020000
0.643750 0.040000 0.020000
0.703125 0.040000 0.020000
0.762500 0.040000 0.020000
0.821875 0.040000 0.020000
0.881250 0.040000 0.020000
0.940625 0.040000 0.020000
1.000000 0.040000 0.020000
0.050000 0.096250 0.020000
0.109375 0.096250 0.020000
0.168750 0.096250 0.020000
0.228125 0.096250 0.020000
0.287500 0.096250 0.020000
0.346875 0.096250 0.020000
0.406250 0.096250 0.020000
0.465625 0.096250 0.020000
0.525000 0.096250 0.020000
0.584375 0.096250 0.020000
0.643750 0.096250 0.020000
0.703125 0.096250 0.020000
0.762500 0.096250 0.020000
0.821875 0.096250 0.020000
0.881250 0.096250 0.020000
0.940625 0.096250 0.020000
1.000000 0.096250 0.020000
0.050000 0.152500 0.020000
0.109375 0.152500 0.020000
0.168750 0.152500 0.020000
0.228125 0.152500 0.020000
0.287500 0.152500 0.020000
0.346875 0.152500 0.020000
0.406250 0.152500 0.020000
0.465625 0.152500 0.020000
0.525000 0.152500 0.020000
0.584375 0.152500 0.020000
0.643750 0.152500 0.020000
0.703125 0.152500 0.020000
0.762500 0.152500 0.020000
0.821875 0.152500 0.020000
0.881250 0.152500 0.020000
0.940625 0.152500 0.020000
1.000000 0.152500 0.020000
0.050000 0.208750 0.020000
0.109375 0.208750 0.020000
0.168750 0.208750 0.020000
0.228125 0.208750 0.020000
0.287500 0.208750 0.020000
0.346875 0.208750 0.020000
0.406250 0.208750 0.020000
0.465625 0.208750 0.020000
0.525000 0.208750 0.020000
0.584375 0.208750 0.020000
0.643750 0.208750 0.020000
0.703125 0.208750 0.020000
0.762500 0.208750 0.020000
0.821875 0.208750 0.020000
0.881250 0.208750 0.020000
0.940625 0.208750 0.020000
1.000000 0.208750 0.020000
0.050000 0.265000 0.020000
0.109375 0.265000 0.020000
0.168750 0.265000 0.020000
0.228125 0.265000 0.020000
0.287500 0.265000 0.020000
0.346875 0.265000 0.020000
0.406250 0.265000 0.020000
0.465625 0.265000 0.020000
0.525000 0.265000 0.020000
0.584375 0.265000 0.020000
0.643750 0.265000 0.020000
0.703125 0.265000 0.020000
0.762500 0.265000 0.020000
0.821875 0.265000 0.020000
0.881250 0.265000 0.020000
0.940625 0.265000 0.020000
1.000000 0.265000 0.020000
0.050000 0.321250 0.020000
0.109375 0.321250 0.020000
0.168750 0.321250 0.020000
0.228125 0.321250 0.020000
0.287500 0.321250 0.020000
0.346875 0.321250 0.020000
0.406250 0.321250 0.020000
0.465625 0.321250 0.020000
0.525000 0.321250 0.020000
0.584375 0.321250 0.020000
0.643750 0.321250 0.020000
0.703125 0.321250 0.020000
0.762500 0.321250 0.020000
0.821875 0.321250 0.020000
0.881250 0.321250 0.020000
0.940625 0.321250 0.020000
1.000000 0.321250 0.020000
0.050000 0.377500 0.020000
0.109375 0.377500 0.020000
0.168750 0.377500 0.020000
0.228125 0.377500 0.020000
0.287500 0.377500 0.020000
0.346875 0.377500 0.020000
0.406250 0.377500 0.020000
0.465625 0.377500 0.020000
0.525000 0.377500 0.020000
0.584375 0.377500 0.020000
0.643750 0.377500 0.020000
0.703125 0.377500 0.020000
0.762500 0.377500 0.020000
0.821875 0.377500 0.020000
0.881250 0.377500 0.020000
0.940625 0.377500 0.020000
1.000000 0.377500 0.020000
0.050000 0.433750 0.020000
0.109375 0.433750 0.020000
0.168750 0.433750 0.020000
0.228125 0.433750 0.020000
0.287500 0.433750 0.020000
0.346875 0.433750 0.020000
0.406250 0.433750 0.020000
0.465625 0.433750 0.020000
0.525000 0.433750 0.020000
0.584375 0.433750 0.020000
0.643750 0.433750 0.020000
0.703125 0.433750 0.020000
0.762500 0.433750 0.020000
0.821875 0.433750 0.020000
0.881250 0.433750 0.020000
0.940625 0.433750 0.020000
1.000000 0.433750 0.020000
0.050000 0.490000 0.020000
0.109375 0.490000 0.020000
0.168750 0.490000 0.020000
0.228125 0.490000 0.020000
0.287500 0.490000 0.020000
0.346875 0.490000 0.020000
0.406250 0.490000 0.020000
0.465625 0.490000 0.020000
0.525000 0.490000 0.020000
0.584375 0.490000 0.020000
0.643750 0.490000 0.020000
0.703125 0.490000 0.020000
0.762500 0.490000 0.020000
0.821875 0.490000 0.020000
0.881250 0.490000 0.020000
0.940625 0.490000 0.020000
1.000000 0.490000 0.020000
0.050000 0.546250 0.020000
0.109375 0.546250 0.020000
0.168750 0.546250 0.020000
0.228125 0.546250 0.020000
0.287500 0.546250 0.020000
0.346875 0.546250 0.020000
0.406250 0.546250 0.020000
0.465625 0.546250 0.020000
0.525000 0.546250 0.020000
0.584375 0.546250 0.020000
0.643750 0.546250 0.020000
0.703125 0.546250 0.020000
0.762500 0.546250 0.020000
0.821875 0.546250 0.020000
0.881250 0.546250 0.020000
0.940625 0.546250 0.020000
1.000000 0.546250 0.020000
0.050000 0.602500 0.020000
0.109375 0.602500 0.020000
0.168750 0.602500 0.020000
0.228125 0.602500 0.020000
0.287500 0.602500 0.020000
0.346875 0.602500 0.020000
0.406250 0.602500 0.020000
0.465625 0.602500 0.020000
0.525000 0.602500 0.020000
0.584375 0.602500 0.020000
0.643750 0.602500 0.020000
0.703125 0.602500 0.020000
0.762500 0.602500 0.020000
0.821875 0.602500 0.020000
0.881250 0.602500 0.020000
0.940625 0.602500 0.020000
1.000000 0.602500 0.020000
0.050000 0.658750 0.020000
0.109375 0.658750 0.020000
0.168750 0.658750 0.020000
0.228125 0.658750 0.020000
0.287500 0.658750 0.020000
0.346875 0.658750 0.020000
0.406250 0.658750 0.020000
0.465625 0.658750 0.020000
0.525000 0.658750 0.020000
0.584375 0.658750 0.020000
0.643750 0.658750 0.020000
0.703125 0.658750 0.020000
0.762500 0.658750 0.020000
0.821875 0.658750 0.020000
0.881250 0.658750 0.020000
0.940625 0.658750 0.020000
1.000000 0.658750 0.020000
0.050000 0.715000 0.020000
0.109375 0.715000 0.020000
0.168750 0.715000 0.020000
0.228125 0.715000 0.020000
0.287500 0.715000 0.020000
0.346875 0.715000 0.020000
0.406250 0.715000 0.020000
0.465625 0.715000 0.020000
0.525000 0.715000 0.020000
0.584375 0.715000 0.020000
0.643750 0.715000 0.020000
0.703125 0.715000 0.020000
0.762500 0.715000 0.020000
0.821875 0.715000 0.020000
0.881250 0.715000 0.020000
0.940625 0.715000 0.020000
1.000000 0.715000 0.020000
0.050000 0.771250 0.020000
0.109375 0.771250 0.020000
0.168750 0.771250 0.020000
0.228125 0.771250 0.020000
0.287500 0.771250 0.020000
0.346875 0.771250 0.020000
0.406250 0.771250 0.020000
0.465625 0.771250 0.020000
0.525000 0.771250 0.020000
0.584375 0.771250 0.020000
0.643750 0.771250 0.020000
0.703125 0.771250 0.020000
0.762500 0.771250 0.020000
0.821875 0.771250 0.020000
0.881250 0.771250 0.020000
0.940625 0.771250 0.020000
1.000000 0.771250 0.020000
0.050000 0.827500 0.020000
0.109375 0.827500 0.020000
0.168750 0.827500 0.020000
0.228125 0.827500 0.020000
0.287500 0.827500 0.020000
0.346875 0.827500 0.020000
0.406250 0.827500 0.020000
0.465625 0.827500 0.020000
0.525000 0.827500 0.020000
0.584375 0.827500 0.020000
0.643750 0.827500 0.020000
0.703125 0.827500 0.020000
0.762500 0.827500 0.020000
0.821875 0.827500 0.020000
0.881250 0.827500 0.020000
0.940625 0.827500 0.020000
1.000000 0.827500 0.020000
0.050000 0.883750 0.020000
0.109375 0.883750 0.020000
0.168750 0.883750 0.020000
0.228125 0.883750 0.020000
0.287500 0.883750 0.020000
0.346875 0.883750 0.020000
0.406250 0.883750 0.020000
0.465625 0.883750 0.020000
0.525000 0.883750 0.020000
0.584375 0.883750 0.020000
0.643750 0.883750 0.020000
0.703125 0.883750 0.020000
0.762500 0.883750 0.020000
0.821875 0.883750 0.020000
0.881250 0.883750 0.020000
0.940625 0.883750 0.020000
1.000000 0.883750 0.020000
0.050000 0.940000 0.020000
0.109375 0.940000 0.020000
0.168750 0.940000 0.020000
0.228125 0.940000 0.020000
0.287500 0.940000 0.020000
0.346875 0.940000 0.020000
0.406250 0.940000 0.020000
0.465625 0.940000 0.020000
0.525000 0.940000 0.020000
0.584375 0.940000 0.020000
0.643750 0.940000 0.020000
0.703125 0.940000 0.020000
0.762500 0.940000 0.020000
0.821875 0.940000 0.020000
0.881250 0.940000 0.020000
0.940625 0.940000 0.020000
1.000000 0.940000 0.020000
0.050000 0.040000 0.073125
0.109375 0.040000 0.073125
0.168750 0.040000 0.073125
0.228125 0.040000 0.073125
0.287500 0.040000 0.073125
0.346875 0.040000 0.073125
0.406250 0.040000 0.073125
0.465625 0.040000 0.073125
0.525000 0.040000 0.073125
0.584375 0.040000 0.073125
0.643750 0.040000 0.073125
0.703125 0.040000 0.073125
0.762500 0.040000 0.073125
0.821875 0.040000 0.073125
0.881250 0.040000 0.073125
0.940625 0.040000 0.073125
1.000000 0.040000 0.073125
0.050000 0.096250 0.073125
0.109375 0.096250 0.073125
0.168750 0.096250 0.073125
0.228125 0.096250 0.073125
0.287500 0.096250 0.073125
0.346875 0.096250 0.073125
0.406250 0.096250 0.073125
0.465625 0.096250 0.073125
0.525000 0.096250 0.073125
0.584375 0.096250 0.073125
0.643750 0.096250 0.073125
0.703125 0.096250 0.073125
0.762500 0.096250 0.073125
0.821875 0.096250 0.073125
0.881250 0.096250 0.073125
0.940625 0.096250 0.073125
1.000000 0.096250 0.073125
0.050000 0.152500 0.073125
0.109375 0.152500 0.073125
0.168750 0.152500 0.073125
0.228125 0.152500 0.073125
0.287500 0.152500 0.073125
0.346875 0.152500 0.073125
0.406250 0.152500 0.073125
0.465625 0.152500 0.073125
0.525000 0.152500 0.073125
0.584375 0.152500 0.073125
0.643750 0.152500 0.073125
0.703125 0.152500 0.073125
0.762500 0.152500 0.073125
0.821875 0.152500 0.073125
0.881250 0.152500 0.073125
0.940625 0.152500 0.073125
1.000000 0.152500 0.073125
0.050000 0.208750 0.073125
0.109375 0.208750 0.073125
0.168750 0.208750 0.073125
0.228125 0.208750 0.073125
0.287500 0.208750 0.073125
0.346875 0.208750 0.073125
0.406250 0.208750 0.073125
0.465625 0.208750 0.073125
0.525000 0.208750 0.073125
0.584375 0.208750 0.073125
0.643750 0.208750 0.073125
0.703125 0.208750 0.073125
0.762500 0.208750 0.073125
0.821875 0.208750 0.073125
0.881250 0.208750 0.073125
0.940625 0.208750 0.073125
1.000000 0.208750 0.073125
0.050000 0.265000 0.073125
0.109375 0.265000 0.073125
0.168750 0.265000 0.073125
0.228125 0.265000 0.073125
0.287500 0.265000 0.073125
0.346875 0.265000 0.073125
0.406250 0.265000 0.073125
0.465625 0.265000 0.073125
0.525000 0.265000 0.073125
0.584375 0.265000 0.073125
0.643750 0.265000 0.073125
0.703125 0.265000 0.073125
0.762500 0.265000 0.073125
0.821875 0.265000 0.073125
0.881250 0.265000 0.073125
0.940625 0.265000 0.073125
1.000000 0.265000 0.073125
0.050000 0.321250 0.073125
0.109375 0.321250 0.073125
0.168750 0.321250 0.073125
0.228125 0.321250 0.073125
0.287500 0.321250 0.073125
0.346875 0.321250 0.073125
0.406250 0.321250 0.073125
0.465625 0.321250 0.073125
0.525000 0.321250 0.073125
0.584375 0.321250 0.073125
0.643750 0.321250 0.073125
0.703125 0.321250 0.073125
0.762500 0.321250 0.073125
0.821875 0.321250 0.073125
0.881250 0.321250 0.073125
0.940625 0.321250 0.073125
1.000000 0.321250 0.073125
0.050000 0.377500 0.073125
0.109375 0.377500 0.073125
0.168750 0.377500 0.073125
0.228125 0.377500 0.073125
0.287500 0.377500 0.073125
0.346875 0.377500 0.073125
0.406250 0.377500 0.073125
0.465625 0.377500 0.073125
0.525000 0.377500 0.073125
0.584375 0.377500 0.073125
0.643750 0.377500 0.073125
0.703125 0.377500 0.073125
0.762500 0.377500 0.073125
0.821875 0.377500 0.073125
0.881250 0.377500 0.073125
0.940625 0.377500 0.073125
1.000000 0.377500 0.073125
0.050000 0.433750 0.073125
0.109375 0.433750 0.073125
0.168750 0.433750 0.073125
0.228125 0.433750 0.073125
0.287500 0.433750 0.073125
0.346875 0.433750 0.073125
0.406250 0.433750 0.073125
0.465625 0.433750 0.073125
0.525000 0.433750 0.073125
0.584375 0.433750 0.073125
0.643750 0.433750 0.073125
0.703125 0.433750 0.073125
0.762500 0.433750 0.073125
0.821875 0.433750 0.073125
0.881250 0.433750 0.073125
0.940625 0.433750 0.073125
1.000000 0.433750 0.073125
0.050000 0.490000 0.073125
0.109375 0.490000 0.073125
0.168750 0.490000 0.073125
0.228125 0.490000 0.073125
0.287500 0.490000 0.073125
0.346875 0.490000 0.073125
0.406250 0.490000 0.073125
0.465625 0.490000 0.073125
0.525000 0.490000 0.073125
0.584375 0.490000 0.073125
0.643750 0.490000 0.073125
0.703125 0.490000 0.073125
0.762500 0.490000 0.073125
0.821875 0.490000 0.073125
0.881250 0.490000 0.073125
0.940625 0.490000 0.073125
1.000000 0.490000 0.073125
0.050000 0.546250 0.073125
0.109375 0.546250 0.073125
0.168750 0.546250 0.073125
0.228125 0.546250 0.073125
0.287500 0.546250 0.073125
0.346875 0.546250 0.073125
0.406250 0.546250 0.073125
0.465625 0.546250 0.073125
0.525000 0.546250 0.073125
0.584375 0.546250 0.073125
0.643750 0.546250 0.073125
0.703125 0.546250 0.073125
0.762500 0.546250 0.073125
0.821875 0.546250 0.073125
0.881250 0.546250 0.073125
0.940625 0.546250 0.073125
1.000000 0.546250 0.073125
0.050000 0.602500 0.073125
0.109375 0.602500 0.073125
0.168750 0.602500 0.073125
0.228125 0.602500 0.073125
0.287500 0.602500 0.073125
0.346875 0.602500 0.073125
0.406250 0.602500 0.073125
0.465625 0.602500 0.073125
0.525000 0.602500 0.073125
0.584375 0.602500 0.073125
0.643750 0.602500 0.073125
0.703125 0.602500 0.073125
0.762500 0.602500 0.073125
0.821875 0.602500 0.073125
0.881250 0.602500 0.073125
0.940625 0.602500 0.073125
1.000000 0.602500 0.073125
0.050000 0.658750 0.073125
0.109375 0.658750 0.073125
0.168750 0.658750 0.073125
0.228125 0.658750 0.073125
0.287500 0.658750 0.073125
0.346875 0.658750 0.073125
0.406250 0.658750 0.073125
0.465625 0.658750 0.073125
0.525000 0.658750 0.073125
0.584375 0.658750 0.073125
0.643750 0.658750 0.073125
0.703125 0.658750 0.073125
0.762500 0.658750 0.073125
0.821875 0.658750 0.073125
0.881250 0.658750 0.073125
0.940625 0.658750 0.073125
1.000000 0.658750 0.073125
0.050000 0.715000 0.073125
0.109375 0.715000 0.073125
0.168750 0.715000 0.073125
0.228125 0.715000 0.073125
0.287500 0.715000 0.073125
0.346875 0.715000 0.073125
0.406250 0.715000 0.073125
0.465625 0.715000 0.073125
0.525000 0.715000 0.073125
0.584375 0.715000 0.073125
0.643750 0.715000 0.073125
0.703125 0.715000 0.073125
0.762500 0.715000 0.073125
0.821875 0.715000 0.073125
0.881250 0.715000 0.073125
0.940625 0.715000 0.073125
1.000000 0.715000 0.073125
0.050000 0.771250 0.073125
0.109375 0.771250 0.073125
0.168750 0.771250 0.073125
0.228125 0.771250 0.073125
0.287500 0.771250 0.073125
0.346875 0.771250 0.073125
0.406250 0.771250 0.073125
0.465625 0.771250 0.073125
0.525000 0.771250 0.073125
0.584375 0.771250 0.073125
0.643750 0.771250 0.073125
0.703125 0.771250 0.073125
0.762500 0.771250 0.073125
0.821875 0.771250 0.073125
0.881250 0.771250 0.073125
0.940625 0.771250 0.073125
1.000000 0.771250 0.073125
0.050000 0.827500 0.073125
0.109375 0.827500 0.073125
0.168750 0.827500 0.073125
0.228125 0.827500 0.073125
0.287500 0.827500 0.073125
0.346875 0.827500 0.073125
0.406250 0.827500 0.073125
0.465625 0.827500 0.073125
0.525000 0.827500 0.073125
0.584375 0.827500 0.073125
0.643750 0.827500 0.073125
0.703125 0.827500 0.073125
0.762500 0.827500 0.073125
0.821875 0.827500 0.073125
0.881250 0.827500 0.073125
0.940625 0.827500 0.073125
1.000000 0.827500 0.073125
0.050000 0.883750 0.073125
0.109375 0.883750 0.073125
0.168750 0.883750 0.073125
0.228125 0.883750 0.073125
0.287500 0.883750 0.073125
0.346875 0.883750 0.073125
0.406250 0.883750 0.073125
0.465625 0.883750 0.073125
0.525000 0.883750 0.073125
0.584375 0.883750 0.073125
0.643750 0.883750 0.073125
0.703125 0.883750 0.073125
0.762500 0.883750 0.073125
0.821875 0.883750 0.073125
0.881250 0.883750 0.073125
0.940625 0.883750 0.073125
1.000000 0.883750 0.073125
0.050000 0.940000 0.073125
0.109375 0.940000 0.073125
0.168750 0.940000 0.073125
0.228125 0.940000 0.073125
0.287500 0.940000 0.073125
0.346875 0.940000 0.073125
0.406250 0.940000 0.073125
0.465625 0.940000 0.073125
0.525000 0.940000 0.073125
0.584375 0.940000 0.073125
0.643750 0.940000 0.073125
0.703125 0.940000 0.073125
0.762500 0.940000 0.073125
0.821875 0.940000 0.073125
0.881250 0.940000 0.073125
0.940625 0.940000 0.073125
1.000000 0.940000 0.073125
0.050000 0.040000 0.126250
0.109375 0.040000 0.126250
0.168750 0.040000 0.126250
0.228125 0.040000 0.126250
0.287500 0.040000 0.126250
0.346875 0.040000 0.126250
0.406250 0.040000 0.126250
0.465625 0.040000 0.126250
0.525000 0.040000 0.126250
0.584375 0.040000 0.126250
0.643750 0.040000 0.126250
0.703125 0.040000 0.126250
0.762500 0.040000 0.126250
0.821875 0.040000 0.126250
0.881250 0.040000 0.126250
0.940625 0.040000 0.126250
1.000000 0.040000 0.126250
0.050000 0.096250 0.126250
0.109375 0.096250 0.126250
0.168750 0.096250 0.126250
0.228125 0.096250 0.126250
0.287500 0.096250 0.126250
0.346875 0.096250 0.126250
0.406250 0.096250 0.126250
0.465625 0.096250 0.126250
0.525000 0.096250 0.126250
0.584375 0.096250 0.126250
0.643750 0.096250 0.126250
0.703125 0.096250 0.126250
0.762500 0.096250 0.126250
0.821875 0.096250 0.126250
0.881250 0.096250 0.126250
0.940625 0.096250 0.126250
1.000000 0.096250 0.126250
0.050000 0.152500 0.126250
0.109375 0.152500 0.126250
0.168750 0.152500 0.126250
0.228125 0.152500 0.126250
0.287500 0.152500 0.126250
0.346875 0.152500 0.126250
0.406250 0.152500 0.126250
0.465625 0.152500 0.126250
0.525000 0.152500 0.126250
0.584375 0.152500 0.126250
0.643750 0.152500 0.126250
0.703125 0.152500 0.126250
0.762500 0.152500 0.126250
0.821875 0.152500 0.126250
0.881250 0.152500 0.126250
0.940625 0.152500 0.126250
1.000000 0.152500 0.126250
0.050000 0.208750 0.126250
0.109375 0.208750 0.126250
0.168750 0.208750 0.126250
0.228125 0.208750 0.126250
0.287500 0.208750 0.126250
0.346875 0.208750 0.126250
0.406250 0.208750 0.126250
0.465625 0.208750 0.126250
0.525000 0.208750 0.126250
0.584375 0.208750 0.126250
0.643750 0.208750 0.126250
0.703125 0.208750 0.126250
0.762500 0.208750 0.126250
0.821875 0.208750 0.126250
0.881250 0.208750 0.126250
0.940625 0.208750 0.126250
1.000000 0.208750 0.126250
0.050000 0.265000 0.126250
0.109375 0.265000 0.126250
0.168750 0.265000 0.126250
0.228125 0.265000 0.126250
0.287500 0.265000 0.126250
0.346875 0.265000 0.126250
0.406250 0.265000 0.126250
0.465625 0.265000 0.126250
0.525000 0.265000 0.126250
0.584375 0.265000 0.126250
0.643750 0.265000 0.126250
0.703125 0.265000 0.126250
0.762500 0.265000 0.126250
0.821875 0.265000 0.126250
0.881250 0.265000 0.126250
0.940625 0.265000 0.126250
1.000000 0.265000 0.126250
0.050000 0.321250 0.126250
0.109375 0.321250 0.126250
0.168750 0.321250 0.126250
0.228125 0.321250 0.126250
0.287500 0.321250 0.126250
0.346875 0.321250 0.126250
0.406250 0.321250 0.126250
0.465625 0.321250 0.126250
0.525000 0.321250 0.126250
0.584375 0.321250 0.126250
0.643750 0.321250 0.126250
0.703125 0.321250 0.126250
0.762500 0.321250 0.126250
0.821875 0.321250 0.126250
0.881250 0.321250 0.126250
0.940625 0.321250 0.126250
1.000000 0.321250 0.126250
0.050000 0.377500 0.126250
0.109375 0.377500 0.126250
0.168750 0.377500 0.126250
0.228125 0.377500 0.126250
0.287500 0.377500 0.126250
0.346875 0.377500 0.126250
0.406250 0.377500 0.126250
0.465625 0.377500 0.126250
0.525000 0.377500 0.126250
0.584375 0.377500 0.126250
0.643750 0.377500 0.126250
0.703125 0.377500 0.126250
0.762500 0.377500 0.126250
0.821875 0.377500 0.126250
0.881250 0.377500 0.126250
0.940625 0.377500 0.126250
1.000000 0.377500 0.126250
0.050000 0.433750 0.126250
0.109375 0.433750 0.126250
0.168750 0.433750 0.126250
0.228125 0.433750 0.126250
0.287500 0.433750 0.126250
0.346875 0.433750 0.126250
0.406250 0.433750 0.126250
0.465625 0.433750 0.126250
0.525000 0.433750 0.126250
0.584375 0.433750 0.126250
0.643750 0.433750 0.126250
0.703125 0.433750 0.126250
0.762500 0.433750 0.126250
0.821875 0.433750 0.126250
0.881250 0.433750 0.126250
0.940625 0.433750 0.126250
1.000000 0.433750 0.126250
0.050000 0.490000 0.126250
0.109375 0.490000 0.126250
0.168750 0.490000 0.126250
0.228125 0.490000 0.126250
0.287500 0.490000 0.126250
0.346875 0.490000 0.126250
0.406250 0.490000 0.126250
0.465625 0.490000 0.126250
0.525000 0.490000 0.126250
0.584375 0.490000 0.126250
0.643750 0.490000 0.126250
0.703125 0.490000 0.126250
0.762500 0.490000 0.126250
0.821875 0.490000 0.126250
0.881250 0.490000 0.126250
0.940625 0.490000 0.126250
1.000000 0.490000 0.126250
0.050000 0.546250 0.126250
0.109375 0.546250 0.126250
0.168750 0.546250 0.126250
0.228125 0.546250 0.126250
0.287500 0.546250 0.126250
0.346875 0.546250 0.126250
0.406250 0.546250 0.126250
0.465625 0.546250 0.126250
0.525000 0.546250 0.126250
0.584375 0.546250 0.126250
0.643750 0.546250 0.126250
0.703125 0.546250 0.126250
0.762500 0.546250 0.126250
0.821875 0.546250 0.126250
0.881250 0.546250 0.126250
0.940625 0.546250 0.126250
1.000000 0.546250 0.126250
0.050000 0.602500 0.126250
0.109375 0.602500 0.126250
0.168750 0.602500 0.126250
0.228125 0.602500 0.126250
0.287500 0.602500 0.126250
0.346875 0.602500 0.126250
0.406250 0.602500 0.126250
0.465625 0.602500 0.126250
0.525000 0.602500 0.126250
0.584375 0.602500 0.126250
0.643750 0.602500 0.126250
0.703125 0.602500 0.126250
0.762500 0.602500 0.126250
0.821875 0.602500 0.126250
0.881250 0.602500 0.126250
0.940625 0.602500 0.126250
1.000000 0.602500 0.126250
0.050000 0.658750 0.126250
0.109375 0.658750 0.126250
0.168750 0.658750 0.126250
0.228125 0.658750 0.126250
0.287500 0.658750 0.126250
0.346875 0.658750 0.126250
0.406250 0.658750 0.126250
0.465625 0.658750 0.126250
0.525000 0.658750 0.126250
0.584375 0.658750 0.126250
0.643750 0.658750 0.126250
0.703125 0.658750 0.126250
0.762500 0.658750 0.126250
0.821875 0.658750 0.126250
0.881250 0.658750 0.126250
0.940625 0.658750 0.126250
1.000000 0.658750 0.126250
0.050000 0.715000 0.126250
0.109375 0.715000 0.126250
0.168750 0.715000 0.126250
0.228125 0.715000 0.126250
0.287500 0.715000 0.126250
0.346875 0.715000 0.126250
0.406250 0.715000 0.126250
0.465625 0.715000 0.126250
0.525000 0.715000 0.126250
0.584375 0.715000 0.126250
0.643750 0.715000 0.126250
0.703125 0.715000 0.126250
0.762500 0.715000 0.126250
0.821875 0.715000 0.126250
0.881250 0.715000 0.126250
0.940625 0.715000 0.126250
1.000000 0.715000 0.126250
0.050000 0.771250 0.126250
0.109375 0.771250 0.126250
0.168750 0.771250 0.126250
0.228125 0.771250 0.126250
0.287500 0.771250 0.126250
0.346875 0.771250 0.126250
0.406250 0.771250 0.126250
0.465625 0.771250 0.126250
0.525000 0.771250 0.126250
0.584375 0.771250 0.126250
0.643750 0.771250 0.126250
0.703125 0.771250 0.126250
0.762500 0.771250 0.126250
0.821875 0.771250 0.126250
0.881250 0.771250 0.126250
0.940625 0.771250 0.126250
1.000000 0.771250 0.126250
0.050000 0.827500 0.126250
0.109375 0.827500 0.126250
0.168750 0.827500 0.126250
0.228125 0.827500 0.126250
0.287500 0.827500 0.126250
0.346875 0.827500 0.126250
0.406250 0.827500 0.126250
0.465625 0.827500 0.126250
0.525000 0.827500 0.126250
0.584375 0.827500 0.126250
0.643750 0.827500 0.126250
0.703125 0.827500 0.126250
0.762500 0.827500 0.126250
0.821875 0.827500 0.126250
0.881250 0.827500 0.126250
0.940625 0.827500 0.126250
1.000000 0.827500 0.126250
0.050000 0.883750 0.126250
0.109375 0.883750 0.126250
0.168750 0.883750 0.126250
0.228125 0.883750 0.126250
0.287500 0.883750 0.126250
0.346875 0.883750 0.126250
0.406250 0.883750 0.126250
0.465625 0.883750 0.126250
0.525000 0.883750 0.126250
0.584375 0.883750 0.126250
0.643750 0.883750 0.126250
0.703125 0.883750 0.126250
0.762500 0.883750 0.126250
0.821875 0.883750 0.126250
0.881250 0.883750 0.126250
0.940625 0.883750 0.126250
1.000000 0.883750 0.126250
0.050000 0.940000 0.126250
0.109375 0.940000 0.126250
0.168750 0.940000 0.126250
0.228125 0.940000 0.126250
0.287500 0.940000 0.126250
0.346875 0.940000 0.126250
0.406250 0.940000 0.126250
0.465625 0.940000 0.126250
0.525000 0.940000 0.126250
0.584375 0.940000 0.126250
0.643750 0.940000 0.126250
0.703125 0.940000 0.126250
0.762500 0.940000 0.126250
0.821875 0.940000 0.126250
0.881250 0.940000 0.126250
0.940625 0.940000 0.126250
1.000000 0.940000 0.126250
0.050000 0.040000 0.179375
0.109375 0.040000 0.179375
0.168750 0.040000 0.179375
0.228125 0.040000 0.179375
0.287500 0.040000 0.179375
0.346875 0.040000 0.179375
0.406250 0.040000 0.179375
0.465625 0.040000 0.179375
0.525000 0.040000 0.179375
0.584375 0.040000 0.179375
0.643750 0.040000 0.179375
0.703125 0.040000 0.179375
0.762500 0.040000 0.179375
0.821875 0.040000 0.179375
0.881250 0.040000 0.179375
0.940625 0.040000 0.179375
1.000000 0.040000 0.179375
0.050000 0.096250 0.179375
