app/src/main/assets/luts/celestial_glow.cube
# ApexStudio filter: celestial_glow
LUT_3D_SIZE 5
DOMAIN_MIN 0.0 0.0 0.0
DOMAIN_MAX 1.0 1.0 1.0
0.100000 0.080000 0.120000
0.362500 0.080000 0.120000
0.625000 0.080000 0.120000
0.887500 0.080000 0.120000
1.000000 0.080000 0.120000
0.100000 0.367500 0.120000
0.362500 0.367500 0.120000
0.625000 0.367500 0.120000
0.887500 0.367500 0.120000
1.000000 0.367500 0.120000
0.100000 0.655000 0.120000
0.362500 0.655000 0.120000
0.625000 0.655000 0.120000
0.887500 0.655000 0.120000
1.000000 0.655000 0.120000
0.100000 0.942500 0.120000
0.362500 0.942500 0.120000
0.625000 0.942500 0.120000
0.887500 0.942500 0.120000
1.000000 0.942500 0.120000
0.100000 1.000000 0.120000
0.362500 1.000000 0.120000
0.625000 1.000000 0.120000
0.887500 1.000000 0.120000
1.000000 1.000000 0.120000
0.100000 0.080000 0.432500
0.362500 0.080000 0.432500
0.625000 0.080000 0.432500
0.887500 0.080000 0.432500
1.000000 0.080000 0.432500
0.100000 0.367500 0.432500
0.362500 0.367500 0.432500
0.625000 0.367500 0.432500
0.887500 0.367500 0.432500
1.000000 0.367500 0.432500
0.100000 0.655000 0.432500
0.362500 0.655000 0.432500
0.625000 0.655000 0.432500
0.887500 0.655000 0.432500
1.000000 0.655000 0.432500
0.100000 0.942500 0.432500
0.362500 0.942500 0.432500
0.625000 0.942500 0.432500
0.887500 0.942500 0.432500
1.000000 0.942500 0.432500
0.100000 1.000000 0.432500
0.362500 1.000000 0.432500
0.625000 1.000000 0.432500
0.887500 1.000000 0.432500
1.000000 1.000000 0.432500
0.100000 0.080000 0.745000
0.362500 0.080000 0.745000
0.625000 0.080000 0.745000
0.887500 0.080000 0.745000
1.000000 0.080000 0.745000
0.100000 0.367500 0.745000
0.362500 0.367500 0.745000
0.625000 0.367500 0.745000
0.887500 0.367500 0.745000
1.000000 0.367500 0.745000
0.100000 0.655000 0.745000
0.362500 0.655000 0.745000
0.625000 0.655000 0.745000
0.887500 0.655000 0.745000
1.000000 0.655000 0.745000
0.100000 0.942500 0.745000
0.362500 0.942500 0.745000
0.625000 0.942500 0.745000
0.887500 0.942500 0.745000
1.000000 0.942500 0.745000
0.100000 1.000000 0.745000
0.362500 1.000000 0.745000
0.625000 1.000000 0.745000
0.887500 1.000000 0.745000
1.000000 1.000000 0.745000
0.100000 0.080000 1.000000
0.362500 0.080000 1.000000
0.625000 0.080000 1.000000
0.887500 0.080000 1.000000
1.000000 0.080000 1.000000
0.100000 0.367500 1.000000
0.362500 0.367500 1.000000
0.625000 0.367500 1.000000
0.887500 0.367500 1.000000
1.000000 0.367500 1.000000
0.100000 0.655000 1.000000
0.362500 0.655000 1.000000
0.625000 0.655000 1.000000
0.887500 0.655000 1.000000
1.000000 0.655000 1.000000
0.100000 0.942500 1.000000
0.362500 0.942500 1.000000
0.625000 0.942500 1.000000
0.887500 0.942500 1.000000
1.000000 0.942500 1.000000
0.100000 1.000000 1.000000
0.362500 1.000000 1.000000
0.625000 1.000000 1.000000
0.887500 1.000000 1.000000
1.000000 1.000000 1.000000
0.100000 0.080000 1.000000
0.362500 0.080000 1.000000
0.625000 0.080000 1.000000
0.887500 0.080000 1.000000
1.000000 0.080000 1.000000
0.100000 0.367500 1.000000
0.362500 0.367500 1.000000
0.625000 0.367500 1.000000
0.887500 0.367500 1.000000
1.000000 0.367500 1.000000
0.100000 0.655000 1.000000
0.362500 0.655000 1.000000
0.625000 0.655000 1.000000
0.887500 0.655000 1.000000
1.000000 0.655000 1.000000
0.100000 0.942500 1.000000
0.362500 0.942500 1.000000
0.625000 0.942500 1.000000
0.887500 0.942500 1.000000
1.000000 0.942500 1.000000
0.100000 1.000000 1.000000
0.362500 1.000000 1.000000
0.625000 1.000000 1.000000
0.887500 1.000000 1.000000
1.000000 1.000000 1.000000
