app/src/main/assets/luts/celestial_glow.cube
# ApexStudio filter: celestial_glow
LUT_3D_SIZE 17
DOMAIN_MIN 0.0 0.0 0.0
DOMAIN_MAX 1.0 1.0 1.0
0.100000 0.080000 0.120000
0.165625 0.080000 0.120000
0.231250 0.080000 0.120000
0.296875 0.080000 0.120000
0.362500 0.080000 0.120000
0.428125 0.080000 0.120000
0.493750 0.080000 0.120000
0.559375 0.080000 0.120000
0.625000 0.080000 0.120000
0.690625 0.080000 0.120000
0.756250 0.080000 0.120000
0.821875 0.080000 0.120000
0.887500 0.080000 0.120000
0.953125 0.080000 0.120000
1.000000 0.080000 0.120000
1.000000 0.080000 0.120000
1.000000 0.080000 0.120000
0.100000 0.151875 0.120000
0.165625 0.151875 0.120000
0.231250 0.151875 0.120000
0.296875 0.151875 0.120000
0.362500 0.151875 0.120000
0.428125 0.151875 0.120000
0.493750 0.151875 0.120000
0.559375 0.151875 0.120000
0.625000 0.151875 0.120000
0.690625 0.151875 0.120000
0.756250 0.151875 0.120000
0.821875 0.151875 0.120000
0.887500 0.151875 0.120000
0.953125 0.151875 0.120000
1.000000 0.151875 0.120000
1.000000 0.151875 0.120000
1.000000 0.151875 0.120000
0.100000 0.223750 0.120000
0.165625 0.223750 0.120000
0.231250 0.223750 0.120000
0.296875 0.223750 0.120000
0.362500 0.223750 0.120000
0.428125 0.223750 0.120000
0.493750 0.223750 0.120000
0.559375 0.223750 0.120000
0.625000 0.223750 0.120000
0.690625 0.223750 0.120000
0.756250 0.223750 0.120000
0.821875 0.223750 0.120000
0.887500 0.223750 0.120000
0.953125 0.223750 0.120000
1.000000 0.223750 0.120000
1.000000 0.223750 0.120000
1.000000 0.223750 0.120000
0.100000 0.295625 0.120000
0.165625 0.295625 0.120000
0.231250 0.295625 0.120000
0.296875 0.295625 0.120000
0.362500 0.295625 0.120000
0.428125 0.295625 0.120000
0.493750 0.295625 0.120000
0.559375 0.295625 0.120000
0.625000 0.295625 0.120000
0.690625 0.295625 0.120000
0.756250 0.295625 0.120000
0.821875 0.295625 0.120000
0.887500 0.295625 0.120000
0.953125 0.295625 0.120000
1.000000 0.295625 0.120000
1.000000 0.295625 0.120000
1.000000 0.295625 0.120000
0.100000 0.367500 0.120000
0.165625 0.367500 0.120000
0.231250 0.367500 0.120000
0.296875 0.367500 0.120000
0.362500 0.367500 0.120000
0.428125 0.367500 0.120000
0.493750 0.367500 0.120000
0.559375 0.367500 0.120000
0.625000 0.367500 0.120000
0.690625 0.367500 0.120000
0.756250 0.367500 0.120000
0.821875 0.367500 0.120000
0.887500 0.367500 0.120000
0.953125 0.367500 0.120000
1.000000 0.367500 0.120000
1.000000 0.367500 0.120000
1.000000 0.367500 0.120000
0.100000 0.439375 0.120000
0.165625 0.439375 0.120000
0.231250 0.439375 0.120000
0.296875 0.439375 0.120000
0.362500 0.439375 0.120000
0.428125 0.439375 0.120000
0.493750 0.439375 0.120000
0.559375 0.439375 0.120000
0.625000 0.439375 0.120000
0.690625 0.439375 0.120000
0.756250 0.439375 0.120000
0.821875 0.439375 0.120000
0.887500 0.439375 0.120000
0.953125 0.439375 0.120000
1.000000 0.439375 0.120000
1.000000 0.439375 0.120000
1.000000 0.439375 0.120000
0.100000 0.511250 0.120000
0.165625 0.511250 0.120000
0.231250 0.511250 0.120000
0.296875 0.511250 0.120000
0.362500 0.511250 0.120000
0.428125 0.511250 0.120000
0.493750 0.511250 0.120000
0.559375 0.511250 0.120000
0.625000 0.511250 0.120000
0.690625 0.511250 0.120000
0.756250 0.511250 0.120000
0.821875 0.511250 0.120000
0.887500 0.511250 0.120000
0.953125 0.511250 0.120000
1.000000 0.511250 0.120000
1.000000 0.511250 0.120000
1.000000 0.511250 0.120000
0.100000 0.583125 0.120000
0.165625 0.583125 0.120000
0.231250 0.583125 0.120000
0.296875 0.583125 0.120000
0.362500 0.583125 0.120000
0.428125 0.583125 0.120000
0.493750 0.583125 0.120000
0.559375 0.583125 0.120000
0.625000 0.583125 0.120000
0.690625 0.583125 0.120000
0.756250 0.583125 0.120000
0.821875 0.583125 0.120000
0.887500 0.583125 0.120000
0.953125 0.583125 0.120000
1.000000 0.583125 0.120000
1.000000 0.583125 0.120000
1.000000 0.583125 0.120000
0.100000 0.655000 0.120000
0.165625 0.655000 0.120000
0.231250 0.655000 0.120000
0.296875 0.655000 0.120000
0.362500 0.655000 0.120000
0.428125 0.655000 0.120000
0.493750 0.655000 0.120000
0.559375 0.655000 0.120000
0.625000 0.655000 0.120000
0.690625 0.655000 0.120000
0.756250 0.655000 0.120000
0.821875 0.655000 0.120000
0.887500 0.655000 0.120000
0.953125 0.655000 0.120000
1.000000 0.655000 0.120000
1.000000 0.655000 0.120000
1.000000 0.655000 0.120000
0.100000 0.726875 0.120000
0.165625 0.726875 0.120000
0.231250 0.726875 0.120000
0.296875 0.726875 0.120000
0.362500 0.726875 0.120000
0.428125 0.726875 0.120000
0.493750 0.726875 0.120000
0.559375 0.726875 0.120000
0.625000 0.726875 0.120000
0.690625 0.726875 0.120000
0.756250 0.726875 0.120000
0.821875 0.726875 0.120000
0.887500 0.726875 0.120000
0.953125 0.726875 0.120000
1.000000 0.726875 0.120000
1.000000 0.726875 0.120000
1.000000 0.726875 0.120000
0.100000 0.798750 0.120000
0.165625 0.798750 0.120000
0.231250 0.798750 0.120000
0.296875 0.798750 0.120000
0.362500 0.798750 0.120000
0.428125 0.798750 0.120000
0.493750 0.798750 0.120000
0.559375 0.798750 0.120000
0.625000 0.798750 0.120000
0.690625 0.798750 0.120000
0.756250 0.798750 0.120000
0.821875 0.798750 0.120000
0.887500 0.798750 0.120000
0.953125 0.798750 0.120000
1.000000 0.798750 0.120000
1.000000 0.798750 0.120000
1.000000 0.798750 0.120000
0.100000 0.870625 0.120000
0.165625 0.870625 0.120000
0.231250 0.870625 0.120000
0.296875 0.870625 0.120000
0.362500 0.870625 0.120000
0.428125 0.870625 0.120000
0.493750 0.870625 0.120000
0.559375 0.870625 0.120000
0.625000 0.870625 0.120000
0.690625 0.870625 0.120000
0.756250 0.870625 0.120000
0.821875 0.870625 0.120000
0.887500 0.870625 0.120000
0.953125 0.870625 0.120000
1.000000 0.870625 0.120000
1.000000 0.870625 0.120000
1.000000 0.870625 0.120000
0.100000 0.942500 0.120000
0.165625 0.942500 0.120000
0.231250 0.942500 0.120000
0.296875 0.942500 0.120000
0.362500 0.942500 0.120000
0.428125 0.942500 0.120000
0.493750 0.942500 0.120000
0.559375 0.942500 0.120000
0.625000 0.942500 0.120000
0.690625 0.942500 0.120000
0.756250 0.942500 0.120000
0.821875 0.942500 0.120000
0.887500 0.942500 0.120000
0.953125 0.942500 0.120000
1.000000 0.942500 0.120000
1.000000 0.942500 0.120000
1.000000 0.942500 0.120000
0.100000 1.000000 0.120000
0.165625 1.000000 0.120000
0.231250 1.000000 0.120000
0.296875 1.000000 0.120000
0.362500 1.000000 0.120000
0.428125 1.000000 0.120000
0.493750 1.000000 0.120000
0.559375 1.000000 0.120000
0.625000 1.000000 0.120000
0.690625 1.000000 0.120000
0.756250 1.000000 0.120000
0.821875 1.000000 0.120000
0.887500 1.000000 0.120000
0.953125 1.000000 0.120000
1.000000 1.000000 0.120000
1.000000 1.000000 0.120000
1.000000 1.000000 0.120000
0.100000 1.000000 0.120000
0.165625 1.000000 0.120000
0.231250 1.000000 0.120000
0.296875 1.000000 0.120000
0.362500 1.000000 0.120000
0.428125 1.000000 0.120000
0.493750 1.000000 0.120000
0.559375 1.000000 0.120000
0.625000 1.000000 0.120000
0.690625 1.000000 0.120000
0.756250 1.000000 0.120000
0.821875 1.000000 0.120000
0.887500 1.000000 0.120000
0.953125 1.000000 0.120000
1.000000 1.000000 0.120000
1.000000 1.000000 0.120000
1.000000 1.000000 0.120000
0.100000 1.000000 0.120000
0.165625 1.000000 0.120000
0.231250 1.000000 0.120000
0.296875 1.000000 0.120000
0.362500 1.000000 0.120000
0.428125 1.000000 0.120000
0.493750 1.000000 0.120000
0.559375 1.000000 0.120000
0.625000 1.000000 0.120000
0.690625 1.000000 0.120000
0.756250 1.000000 0.120000
0.821875 1.000000 0.120000
0.887500 1.000000 0.120000
0.953125 1.000000 0.120000
1.000000 1.000000 0.120000
1.000000 1.000000 0.120000
1.000000 1.000000 0.120000
0.100000 1.000000 0.120000
0.165625 1.000000 0.120000
0.231250 1.000000 0.120000
0.296875 1.000000 0.120000
0.362500 1.000000 0.120000
0.428125 1.000000 0.120000
0.493750 1.000000 0.120000
0.559375 1.000000 0.120000
0.625000 1.000000 0.120000
0.690625 1.000000 0.120000
0.756250 1.000000 0.120000
0.821875 1.000000 0.120000
0.887500 1.000000 0.120000
0.953125 1.000000 0.120000
1.000000 1.000000 0.120000
1.000000 1.000000 0.120000
1.000000 1.000000 0.120000
0.100000 0.080000 0.198125
0.165625 0.080000 0.198125
0.231250 0.080000 0.198125
0.296875 0.080000 0.198125
0.362500 0.080000 0.198125
0.428125 0.080000 0.198125
0.493750 0.080000 0.198125
0.559375 0.080000 0.198125
0.625000 0.080000 0.198125
0.690625 0.080000 0.198125
0.756250 0.080000 0.198125
0.821875 0.080000 0.198125
0.887500 0.080000 0.198125
0.953125 0.080000 0.198125
1.000000 0.080000 0.198125
1.000000 0.080000 0.198125
1.000000 0.080000 0.198125
0.100000 0.151875 0.198125
0.165625 0.151875 0.198125
0.231250 0.151875 0.198125
0.296875 0.151875 0.198125
0.362500 0.151875 0.198125
0.428125 0.151875 0.198125
0.493750 0.151875 0.198125
0.559375 0.151875 0.198125
0.625000 0.151875 0.198125
0.690625 0.151875 0.198125
0.756250 0.151875 0.198125
0.821875 0.151875 0.198125
0.887500 0.151875 0.198125
0.953125 0.151875 0.198125
1.000000 0.151875 0.198125
1.000000 0.151875 0.198125
1.000000 0.151875 0.198125
0.100000 0.223750 0.198125
0.165625 0.223750 0.198125
0.231250 0.223750 0.198125
0.296875 0.223750 0.198125
0.362500 0.223750 0.198125
0.428125 0.223750 0.198125
0.493750 0.223750 0.198125
0.559375 0.223750 0.198125
0.625000 0.223750 0.198125
0.690625 0.223750 0.198125
0.756250 0.223750 0.198125
0.821875 0.223750 0.198125
0.887500 0.223750 0.198125
0.953125 0.223750 0.198125
1.000000 0.223750 0.198125
1.000000 0.223750 0.198125
1.000000 0.223750 0.198125
0.100000 0.295625 0.198125
0.165625 0.295625 0.198125
0.231250 0.295625 0.198125
0.296875 0.295625 0.198125
0.362500 0.295625 0.198125
0.428125 0.295625 0.198125
0.493750 0.295625 0.198125
0.559375 0.295625 0.198125
0.625000 0.295625 0.198125
0.690625 0.295625 0.198125
0.756250 0.295625 0.198125
0.821875 0.295625 0.198125
0.887500 0.295625 0.198125
0.953125 0.295625 0.198125
1.000000 0.295625 0.198125
1.000000 0.295625 0.198125
1.000000 0.295625 0.198125
0.100000 0.367500 0.198125
0.165625 0.367500 0.198125
0.231250 0.367500 0.198125
0.296875 0.367500 0.198125
0.362500 0.367500 0.198125
0.428125 0.367500 0.198125
0.493750 0.367500 0.198125
0.559375 0.367500 0.198125
0.625000 0.367500 0.198125
0.690625 0.367500 0.198125
0.756250 0.367500 0.198125
0.821875 0.367500 0.198125
0.887500 0.367500 0.198125
0.953125 0.367500 0.198125
1.000000 0.367500 0.198125
1.000000 0.367500 0.198125
1.000000 0.367500 0.198125
0.100000 0.439375 0.198125
0.165625 0.439375 0.198125
0.231250 0.439375 0.198125
0.296875 0.439375 0.198125
0.362500 0.439375 0.198125
0.428125 0.439375 0.198125
0.493750 0.439375 0.198125
0.559375 0.439375 0.198125
0.625000 0.439375 0.198125
0.690625 0.439375 0.198125
0.756250 0.439375 0.198125
0.821875 0.439375 0.198125
0.887500 0.439375 0.198125
0.953125 0.439375 0.198125
1.000000 0.439375 0.198125
1.000000 0.439375 0.198125
1.000000 0.439375 0.198125
0.100000 0.511250 0.198125
0.165625 0.511250 0.198125
0.231250 0.511250 0.198125
0.296875 0.511250 0.198125
0.362500 0.511250 0.198125
0.428125 0.511250 0.198125
0.493750 0.511250 0.198125
0.559375 0.511250 0.198125
0.625000 0.511250 0.198125
0.690625 0.511250 0.198125
0.756250 0.511250 0.198125
0.821875 0.511250 0.198125
0.887500 0.511250 0.198125
0.953125 0.511250 0.198125
1.000000 0.511250 0.198125
1.000000 0.511250 0.198125
1.000000 0.511250 0.198125
0.100000 0.583125 0.198125
0.165625 0.583125 0.198125
0.231250 0.583125 0.198125
0.296875 0.583125 0.198125
0.362500 0.583125 0.198125
0.428125 0.583125 0.198125
0.493750 0.583125 0.198125
0.559375 0.583125 0.198125
0.625000 0.583125 0.198125
0.690625 0.583125 0.198125
0.756250 0.583125 0.198125
0.821875 0.583125 0.198125
0.887500 0.583125 0.198125
0.953125 0.583125 0.198125
1.000000 0.583125 0.198125
1.000000 0.583125 0.198125
1.000000 0.583125 0.198125
0.100000 0.655000 0.198125
0.165625 0.655000 0.198125
0.231250 0.655000 0.198125
0.296875 0.655000 0.198125
0.362500 0.655000 0.198125
0.428125 0.655000 0.198125
0.493750 0.655000 0.198125
0.559375 0.655000 0.198125
0.625000 0.655000 0.198125
0.690625 0.655000 0.198125
0.756250 0.655000 0.198125
0.821875 0.655000 0.198125
0.887500 0.655000 0.198125
0.953125 0.655000 0.198125
1.000000 0.655000 0.198125
1.000000 0.655000 0.198125
1.000000 0.655000 0.198125
0.100000 0.726875 0.198125
0.165625 0.726875 0.198125
0.231250 0.726875 0.198125
0.296875 0.726875 0.198125
0.362500 0.726875 0.198125
0.428125 0.726875 0.198125
0.493750 0.726875 0.198125
0.559375 0.726875 0.198125
0.625000 0.726875 0.198125
0.690625 0.726875 0.198125
0.756250 0.726875 0.198125
0.821875 0.726875 0.198125
0.887500 0.726875 0.198125
0.953125 0.726875 0.198125
1.000000 0.726875 0.198125
1.000000 0.726875 0.198125
1.000000 0.726875 0.198125
0.100000 0.798750 0.198125
0.165625 0.798750 0.198125
0.231250 0.798750 0.198125
0.296875 0.798750 0.198125
0.362500 0.798750 0.198125
0.428125 0.798750 0.198125
0.493750 0.798750 0.198125
0.559375 0.798750 0.198125
0.625000 0.798750 0.198125
0.690625 0.798750 0.198125
0.756250 0.798750 0.198125
0.821875 0.798750 0.198125
0.887500 0.798750 0.198125
0.953125 0.798750 0.198125
1.000000 0.798750 0.198125
1.000000 0.798750 0.198125
1.000000 0.798750 0.198125
0.100000 0.870625 0.198125
0.165625 0.870625 0.198125
0.231250 0.870625 0.198125
0.296875 0.870625 0.198125
0.362500 0.870625 0.198125
0.428125 0.870625 0.198125
0.493750 0.870625 0.198125
0.559375 0.870625 0.198125
0.625000 0.870625 0.198125
0.690625 0.870625 0.198125
0.756250 0.870625 0.198125
0.821875 0.870625 0.198125
0.887500 0.870625 0.198125
0.953125 0.870625 0.198125
1.000000 0.870625 0.198125
1.000000 0.870625 0.198125
1.000000 0.870625 0.198125
0.100000 0.942500 0.198125
0.165625 0.942500 0.198125
0.231250 0.942500 0.198125
0.296875 0.942500 0.198125
0.362500 0.942500 0.198125
0.428125 0.942500 0.198125
0.493750 0.942500 0.198125
0.559375 0.942500 0.198125
0.625000 0.942500 0.198125
0.690625 0.942500 0.198125
0.756250 0.942500 0.198125
0.821875 0.942500 0.198125
0.887500 0.942500 0.198125
0.953125 0.942500 0.198125
1.000000 0.942500 0.198125
1.000000 0.942500 0.198125
1.000000 0.942500 0.198125
0.100000 1.000000 0.198125
0.165625 1.000000 0.198125
0.231250 1.000000 0.198125
0.296875 1.000000 0.198125
0.362500 1.000000 0.198125
0.428125 1.000000 0.198125
0.493750 1.000000 0.198125
0.559375 1.000000 0.198125
0.625000 1.000000 0.198125
0.690625 1.000000 0.198125
0.756250 1.000000 0.198125
0.821875 1.000000 0.198125
0.887500 1.000000 0.198125
0.953125 1.000000 0.198125
1.000000 1.000000 0.198125
1.000000 1.000000 0.198125
1.000000 1.000000 0.198125
0.100000 1.000000 0.198125
0.165625 1.000000 0.198125
0.231250 1.000000 0.198125
0.296875 1.000000 0.198125
0.362500 1.000000 0.198125
0.428125 1.000000 0.198125
0.493750 1.000000 0.198125
0.559375 1.000000 0.198125
0.625000 1.000000 0.198125
0.690625 1.000000 0.198125
0.756250 1.000000 0.198125
0.821875 1.000000 0.198125
0.887500 1.000000 0.198125
0.953125 1.000000 0.198125
1.000000 1.000000 0.198125
1.000000 1.000000 0.198125
1.000000 1.000000 0.198125
0.100000 1.000000 0.198125
0.165625 1.000000 0.198125
0.231250 1.000000 0.198125
0.296875 1.000000 0.198125
0.362500 1.000000 0.198125
0.428125 1.000000 0.198125
0.493750 1.000000 0.198125
0.559375 1.000000 0.198125
0.625000 1.000000 0.198125
0.690625 1.000000 0.198125
0.756250 1.000000 0.198125
0.821875 1.000000 0.198125
0.887500 1.000000 0.198125
0.953125 1.000000 0.198125
1.000000 1.000000 0.198125
1.000000 1.000000 0.198125
1.000000 1.000000 0.198125
0.100000 1.000000 0.198125
0.165625 1.000000 0.198125
0.231250 1.000000 0.198125
0.296875 1.000000 0.198125
0.362500 1.000000 0.198125
0.428125 1.000000 0.198125
0.493750 1.000000 0.198125
0.559375 1.000000 0.198125
0.625000 1.000000 0.198125
0.690625 1.000000 0.198125
0.756250 1.000000 0.198125
0.821875 1.000000 0.198125
0.887500 1.000000 0.198125
0.953125 1.000000 0.198125
1.000000 1.000000 0.198125
1.000000 1.000000 0.198125
1.000000 1.000000 0.198125
0.100000 0.080000 0.276250
0.165625 0.080000 0.276250
0.231250 0.080000 0.276250
0.296875 0.080000 0.276250
0.362500 0.080000 0.276250
0.428125 0.080000 0.276250
0.493750 0.080000 0.276250
0.559375 0.080000 0.276250
0.625000 0.080000 0.276250
0.690625 0.080000 0.276250
0.756250 0.080000 0.276250
0.821875 0.080000 0.276250
0.887500 0.080000 0.276250
0.953125 0.080000 0.276250
1.000000 0.080000 0.276250
1.000000 0.080000 0.276250
1.000000 0.080000 0.276250
0.100000 0.151875 0.276250
0.165625 0.151875 0.276250
0.231250 0.151875 0.276250
0.296875 0.151875 0.276250
0.362500 0.151875 0.276250
0.428125 0.151875 0.276250
0.493750 0.151875 0.276250
0.559375 0.151875 0.276250
0.625000 0.151875 0.276250
0.690625 0.151875 0.276250
0.756250 0.151875 0.276250
0.821875 0.151875 0.276250
0.887500 0.151875 0.276250
0.953125 0.151875 0.276250
1.000000 0.151875 0.276250
1.000000 0.151875 0.276250
1.000000 0.151875 0.276250
0.100000 0.223750 0.276250
0.165625 0.223750 0.276250
0.231250 0.223750 0.276250
0.296875 0.223750 0.276250
0.362500 0.223750 0.276250
0.428125 0.223750 0.276250
0.493750 0.223750 0.276250
0.559375 0.223750 0.276250
0.625000 0.223750 0.276250
0.690625 0.223750 0.276250
0.756250 0.223750 0.276250
0.821875 0.223750 0.276250
0.887500 0.223750 0.276250
0.953125 0.223750 0.276250
1.000000 0.223750 0.276250
1.000000 0.223750 0.276250
1.000000 0.223750 0.276250
0.100000 0.295625 0.276250
0.165625 0.295625 0.276250
0.231250 0.295625 0.276250
0.296875 0.295625 0.276250
0.362500 0.295625 0.276250
0.428125 0.295625 0.276250
0.493750 0.295625 0.276250
0.559375 0.295625 0.276250
0.625000 0.295625 0.276250
0.690625 0.295625 0.276250
0.756250 0.295625 0.276250
0.821875 0.295625 0.276250
0.887500 0.295625 0.276250
0.953125 0.295625 0.276250
1.000000 0.295625 0.276250
1.000000 0.295625 0.276250
1.000000 0.295625 0.276250
0.100000 0.367500 0.276250
0.165625 0.367500 0.276250
0.231250 0.367500 0.276250
0.296875 0.367500 0.276250
0.362500 0.367500 0.276250
0.428125 0.367500 0.276250
0.493750 0.367500 0.276250
0.559375 0.367500 0.276250
0.625000 0.367500 0.276250
0.690625 0.367500 0.276250
0.756250 0.367500 0.276250
0.821875 0.367500 0.276250
0.887500 0.367500 0.276250
0.953125 0.367500 0.276250
1.000000 0.367500 0.276250
1.000000 0.367500 0.276250
1.000000 0.367500 0.276250
0.100000 0.439375 0.276250
0.165625 0.439375 0.276250
0.231250 0.439375 0.276250
0.296875 0.439375 0.276250
0.362500 0.439375 0.276250
0.428125 0.439375 0.276250
0.493750 0.439375 0.276250
0.559375 0.439375 0.276250
0.625000 0.439375 0.276250
0.690625 0.439375 0.276250
0.756250 0.439375 0.276250
0.821875 0.439375 0.276250
0.887500 0.439375 0.276250
0.953125 0.439375 0.276250
1.000000 0.439375 0.276250
1.000000 0.439375 0.276250
1.000000 0.439375 0.276250
0.100000 0.511250 0.276250
0.165625 0.511250 0.276250
0.231250 0.511250 0.276250
0.296875 0.511250 0.276250
0.362500 0.511250 0.276250
0.428125 0.511250 0.276250
0.493750 0.511250 0.276250
0.559375 0.511250 0.276250
0.625000 0.511250 0.276250
0.690625 0.511250 0.276250
0.756250 0.511250 0.276250
0.821875 0.511250 0.276250
0.887500 0.511250 0.276250
0.953125 0.511250 0.276250
1.000000 0.511250 0.276250
1.000000 0.511250 0.276250
1.000000 0.511250 0.276250
0.100000 0.583125 0.276250
0.165625 0.583125 0.276250
0.231250 0.583125 0.276250
0.296875 0.583125 0.276250
0.362500 0.583125 0.276250
0.428125 0.583125 0.276250
0.493750 0.583125 0.276250
0.559375 0.583125 0.276250
0.625000 0.583125 0.276250
0.690625 0.583125 0.276250
0.756250 0.583125 0.276250
0.821875 0.583125 0.276250
0.887500 0.583125 0.276250
0.953125 0.583125 0.276250
1.000000 0.583125 0.276250
1.000000 0.583125 0.276250
1.000000 0.583125 0.276250
0.100000 0.655000 0.276250
0.165625 0.655000 0.276250
0.231250 0.655000 0.276250
0.296875 0.655000 0.276250
0.362500 0.655000 0.276250
0.428125 0.655000 0.276250
0.493750 0.655000 0.276250
0.559375 0.655000 0.276250
0.625000 0.655000 0.276250
0.690625 0.655000 0.276250
0.756250 0.655000 0.276250
0.821875 0.655000 0.276250
0.887500 0.655000 0.276250
0.953125 0.655000 0.276250
1.000000 0.655000 0.276250
1.000000 0.655000 0.276250
1.000000 0.655000 0.276250
0.100000 0.726875 0.276250
0.165625 0.726875 0.276250
0.231250 0.726875 0.276250
0.296875 0.726875 0.276250
0.362500 0.726875 0.276250
0.428125 0.726875 0.276250
0.493750 0.726875 0.276250
0.559375 0.726875 0.276250
0.625000 0.726875 0.276250
0.690625 0.726875 0.276250
0.756250 0.726875 0.276250
0.821875 0.726875 0.276250
0.887500 0.726875 0.276250
0.953125 0.726875 0.276250
1.000000 0.726875 0.276250
1.000000 0.726875 0.276250
1.000000 0.726875 0.276250
0.100000 0.798750 0.276250
0.165625 0.798750 0.276250
0.231250 0.798750 0.276250
0.296875 0.798750 0.276250
0.362500 0.798750 0.276250
0.428125 0.798750 0.276250
0.493750 0.798750 0.276250
0.559375 0.798750 0.276250
0.625000 0.798750 0.276250
0.690625 0.798750 0.276250
0.756250 0.798750 0.276250
0.821875 0.798750 0.276250
0.887500 0.798750 0.276250
0.953125 0.798750 0.276250
1.000000 0.798750 0.276250
1.000000 0.798750 0.276250
1.000000 0.798750 0.276250
0.100000 0.870625 0.276250
0.165625 0.870625 0.276250
0.231250 0.870625 0.276250
0.296875 0.870625 0.276250
0.362500 0.870625 0.276250
0.428125 0.870625 0.276250
0.493750 0.870625 0.276250
0.559375 0.870625 0.276250
0.625000 0.870625 0.276250
0.690625 0.870625 0.276250
0.756250 0.870625 0.276250
0.821875 0.870625 0.276250
0.887500 0.870625 0.276250
0.953125 0.870625 0.276250
1.000000 0.870625 0.276250
1.000000 0.870625 0.276250
1.000000 0.870625 0.276250
0.100000 0.942500 0.276250
0.165625 0.942500 0.276250
0.231250 0.942500 0.276250
0.296875 0.942500 0.276250
0.362500 0.942500 0.276250
0.428125 0.942500 0.276250
0.493750 0.942500 0.276250
0.559375 0.942500 0.276250
0.625000 0.942500 0.276250
0.690625 0.942500 0.276250
0.756250 0.942500 0.276250
0.821875 0.942500 0.276250
0.887500 0.942500 0.276250
0.953125 0.942500 0.276250
1.000000 0.942500 0.276250
1.000000 0.942500 0.276250
1.000000 0.942500 0.276250
0.100000 1.000000 0.276250
0.165625 1.000000 0.276250
0.231250 1.000000 0.276250
0.296875 1.000000 0.276250
0.362500 1.000000 0.276250
0.428125 1.000000 0.276250
0.493750 1.000000 0.276250
0.559375 1.000000 0.276250
0.625000 1.000000 0.276250
0.690625 1.000000 0.276250
0.756250 1.000000 0.276250
0.821875 1.000000 0.276250
0.887500 1.000000 0.276250
0.953125 1.000000 0.276250
1.000000 1.000000 0.276250
1.000000 1.000000 0.276250
1.000000 1.000000 0.276250
0.100000 1.000000 0.276250
0.165625 1.000000 0.276250
0.231250 1.000000 0.276250
0.296875 1.000000 0.276250
0.362500 1.000000 0.276250
0.428125 1.000000 0.276250
0.493750 1.000000 0.276250
0.559375 1.000000 0.276250
0.625000 1.000000 0.276250
0.690625 1.000000 0.276250
0.756250 1.000000 0.276250
0.821875 1.000000 0.276250
0.887500 1.000000 0.276250
0.953125 1.000000 0.276250
1.000000 1.000000 0.276250
1.000000 1.000000 0.276250
1.000000 1.000000 0.276250
0.100000 1.000000 0.276250
0.165625 1.000000 0.276250
0.231250 1.000000 0.276250
0.296875 1.000000 0.276250
0.362500 1.000000 0.276250
0.428125 1.000000 0.276250
0.493750 1.000000 0.276250
0.559375 1.000000 0.276250
0.625000 1.000000 0.276250
0.690625 1.000000 0.276250
0.756250 1.000000 0.276250
0.821875 1.000000 0.276250
0.887500 1.000000 0.276250
0.953125 1.000000 0.276250
1.000000 1.000000 0.276250
1.000000 1.000000 0.276250
1.000000 1.000000 0.276250
0.100000 1.000000 0.276250
0.165625 1.000000 0.276250
0.231250 1.000000 0.276250
0.296875 1.000000 0.276250
0.362500 1.000000 0.276250
0.428125 1.000000 0.276250
0.493750 1.000000 0.276250
0.559375 1.000000 0.276250
0.625000 1.000000 0.276250
0.690625 1.000000 0.276250
0.756250 1.000000 0.276250
0.821875 1.000000 0.276250
0.887500 1.000000 0.276250
0.953125 1.000000 0.276250
1.000000 1.000000 0.276250
1.000000 1.000000 0.276250
1.000000 1.000000 0.276250
0.100000 0.080000 0.354375
0.165625 0.080000 0.354375
0.231250 0.080000 0.354375
0.296875 0.080000 0.354375
0.362500 0.080000 0.354375
0.428125 0.080000 0.354375
0.493750 0.080000 0.354375
0.559375 0.080000 0.354375
0.625000 0.080000 0.354375
0.690625 0.080000 0.354375
0.756250 0.080000 0.354375
0.821875 0.080000 0.354375
0.887500 0.080000 0.354375
0.953125 0.080000 0.354375
1.000000 0.080000 0.354375
1.000000 0.080000 0.354375
1.000000 0.080000 0.354375
0.100000 0.151875 0.354375
