app/src/main/assets/luts/celestial_glow.cube
# ApexStudio filter: celestial_glow
LUT_3D_SIZE 9
DOMAIN_MIN 0.0 0.0 0.0
DOMAIN_MAX 1.0 1.0 1.0
0.100000 0.080000 0.120000
0.231250 0.080000 0.120000
0.362500 0.080000 0.120000
0.493750 0.080000 0.120000
0.625000 0.080000 0.120000
0.756250 0.080000 0.120000
0.887500 0.080000 0.120000
1.000000 0.080000 0.120000
1.000000 0.080000 0.120000
0.100000 0.223750 0.120000
0.231250 0.223750 0.120000
0.362500 0.223750 0.120000
0.493750 0.223750 0.120000
0.625000 0.223750 0.120000
0.756250 0.223750 0.120000
0.887500 0.223750 0.120000
1.000000 0.223750 0.120000
1.000000 0.223750 0.120000
0.100000 0.367500 0.120000
0.231250 0.367500 0.120000
0.362500 0.367500 0.120000
0.493750 0.367500 0.120000
0.625000 0.367500 0.120000
0.756250 0.367500 0.120000
0.887500 0.367500 0.120000
1.000000 0.367500 0.120000
1.000000 0.367500 0.120000
0.100000 0.511250 0.120000
0.231250 0.511250 0.120000
0.362500 0.511250 0.120000
0.493750 0.511250 0.120000
0.625000 0.511250 0.120000
0.756250 0.511250 0.120000
0.887500 0.511250 0.120000
1.000000 0.511250 0.120000
1.000000 0.511250 0.120000
0.100000 0.655000 0.120000
0.231250 0.655000 0.120000
0.362500 0.655000 0.120000
0.493750 0.655000 0.120000
0.625000 0.655000 0.120000
0.756250 0.655000 0.120000
0.887500 0.655000 0.120000
1.000000 0.655000 0.120000
1.000000 0.655000 0.120000
0.100000 0.798750 0.120000
0.231250 0.798750 0.120000
0.362500 0.798750 0.120000
0.493750 0.798750 0.120000
0.625000 0.798750 0.120000
0.756250 0.798750 0.120000
0.887500 0.798750 0.120000
1.000000 0.798750 0.120000
1.000000 0.798750 0.120000
0.100000 0.942500 0.120000
0.231250 0.942500 0.120000
0.362500 0.942500 0.120000
0.493750 0.942500 0.120000
0.625000 0.942500 0.120000
0.756250 0.942500 0.120000
0.887500 0.942500 0.120000
1.000000 0.942500 0.120000
1.000000 0.942500 0.120000
0.100000 1.000000 0.120000
0.231250 1.000000 0.120000
0.362500 1.000000 0.120000
0.493750 1.000000 0.120000
0.625000 1.000000 0.120000
0.756250 1.000000 0.120000
0.887500 1.000000 0.120000
1.000000 1.000000 0.120000
1.000000 1.000000 0.120000
0.100000 1.000000 0.120000
0.231250 1.000000 0.120000
0.362500 1.000000 0.120000
0.493750 1.000000 0.120000
0.625000 1.000000 0.120000
0.756250 1.000000 0.120000
0.887500 1.000000 0.120000
1.000000 1.000000 0.120000
1.000000 1.000000 0.120000
0.100000 0.080000 0.276250
0.231250 0.080000 0.276250
0.362500 0.080000 0.276250
0.493750 0.080000 0.276250
0.625000 0.080000 0.276250
0.756250 0.080000 0.276250
0.887500 0.080000 0.276250
1.000000 0.080000 0.276250
1.000000 0.080000 0.276250
0.100000 0.223750 0.276250
0.231250 0.223750 0.276250
0.362500 0.223750 0.276250
0.493750 0.223750 0.276250
0.625000 0.223750 0.276250
0.756250 0.223750 0.276250
0.887500 0.223750 0.276250
1.000000 0.223750 0.276250
1.000000 0.223750 0.276250
0.100000 0.367500 0.276250
0.231250 0.367500 0.276250
0.362500 0.367500 0.276250
0.493750 0.367500 0.276250
0.625000 0.367500 0.276250
0.756250 0.367500 0.276250
0.887500 0.367500 0.276250
1.000000 0.367500 0.276250
1.000000 0.367500 0.276250
0.100000 0.511250 0.276250
0.231250 0.511250 0.276250
0.362500 0.511250 0.276250
0.493750 0.511250 0.276250
0.625000 0.511250 0.276250
0.756250 0.511250 0.276250
0.887500 0.511250 0.276250
1.000000 0.511250 0.276250
1.000000 0.511250 0.276250
0.100000 0.655000 0.276250
0.231250 0.655000 0.276250
0.362500 0.655000 0.276250
0.493750 0.655000 0.276250
0.625000 0.655000 0.276250
0.756250 0.655000 0.276250
0.887500 0.655000 0.276250
1.000000 0.655000 0.276250
1.000000 0.655000 0.276250
0.100000 0.798750 0.276250
0.231250 0.798750 0.276250
0.362500 0.798750 0.276250
0.493750 0.798750 0.276250
0.625000 0.798750 0.276250
0.756250 0.798750 0.276250
0.887500 0.798750 0.276250
1.000000 0.798750 0.276250
1.000000 0.798750 0.276250
0.100000 0.942500 0.276250
0.231250 0.942500 0.276250
0.362500 0.942500 0.276250
0.493750 0.942500 0.276250
0.625000 0.942500 0.276250
0.756250 0.942500 0.276250
0.887500 0.942500 0.276250
1.000000 0.942500 0.276250
1.000000 0.942500 0.276250
0.100000 1.000000 0.276250
0.231250 1.000000 0.276250
0.362500 1.000000 0.276250
0.493750 1.000000 0.276250
0.625000 1.000000 0.276250
0.756250 1.000000 0.276250
0.887500 1.000000 0.276250
1.000000 1.000000 0.276250
1.000000 1.000000 0.276250
0.100000 1.000000 0.276250
0.231250 1.000000 0.276250
0.362500 1.000000 0.276250
0.493750 1.000000 0.276250
0.625000 1.000000 0.276250
0.756250 1.000000 0.276250
0.887500 1.000000 0.276250
1.000000 1.000000 0.276250
1.000000 1.000000 0.276250
0.100000 0.080000 0.432500
0.231250 0.080000 0.432500
0.362500 0.080000 0.432500
0.493750 0.080000 0.432500
0.625000 0.080000 0.432500
0.756250 0.080000 0.432500
0.887500 0.080000 0.432500
1.000000 0.080000 0.432500
1.000000 0.080000 0.432500
0.100000 0.223750 0.432500
0.231250 0.223750 0.432500
0.362500 0.223750 0.432500
0.493750 0.223750 0.432500
0.625000 0.223750 0.432500
0.756250 0.223750 0.432500
0.887500 0.223750 0.432500
1.000000 0.223750 0.432500
1.000000 0.223750 0.432500
0.100000 0.367500 0.432500
0.231250 0.367500 0.432500
0.362500 0.367500 0.432500
0.493750 0.367500 0.432500
0.625000 0.367500 0.432500
0.756250 0.367500 0.432500
0.887500 0.367500 0.432500
1.000000 0.367500 0.432500
1.000000 0.367500 0.432500
0.100000 0.511250 0.432500
0.231250 0.511250 0.432500
0.362500 0.511250 0.432500
0.493750 0.511250 0.432500
0.625000 0.511250 0.432500
0.756250 0.511250 0.432500
0.887500 0.511250 0.432500
1.000000 0.511250 0.432500
1.000000 0.511250 0.432500
0.100000 0.655000 0.432500
0.231250 0.655000 0.432500
0.362500 0.655000 0.432500
0.493750 0.655000 0.432500
0.625000 0.655000 0.432500
0.756250 0.655000 0.432500
0.887500 0.655000 0.432500
1.000000 0.655000 0.432500
1.000000 0.655000 0.432500
0.100000 0.798750 0.432500
0.231250 0.798750 0.432500
0.362500 0.798750 0.432500
0.493750 0.798750 0.432500
0.625000 0.798750 0.432500
0.756250 0.798750 0.432500
0.887500 0.798750 0.432500
1.000000 0.798750 0.432500
1.000000 0.798750 0.432500
0.100000 0.942500 0.432500
0.231250 0.942500 0.432500
0.362500 0.942500 0.432500
0.493750 0.942500 0.432500
0.625000 0.942500 0.432500
0.756250 0.942500 0.432500
0.887500 0.942500 0.432500
1.000000 0.942500 0.432500
1.000000 0.942500 0.432500
0.100000 1.000000 0.432500
0.231250 1.000000 0.432500
0.362500 1.000000 0.432500
0.493750 1.000000 0.432500
0.625000 1.000000 0.432500
0.756250 1.000000 0.432500
0.887500 1.000000 0.432500
1.000000 1.000000 0.432500
1.000000 1.000000 0.432500
0.100000 1.000000 0.432500
0.231250 1.000000 0.432500
0.362500 1.000000 0.432500
0.493750 1.000000 0.432500
0.625000 1.000000 0.432500
0.756250 1.000000 0.432500
0.887500 1.000000 0.432500
1.000000 1.000000 0.432500
1.000000 1.000000 0.432500
0.100000 0.080000 0.588750
0.231250 0.080000 0.588750
0.362500 0.080000 0.588750
0.493750 0.080000 0.588750
0.625000 0.080000 0.588750
0.756250 0.080000 0.588750
0.887500 0.080000 0.588750
1.000000 0.080000 0.588750
1.000000 0.080000 0.588750
0.100000 0.223750 0.588750
0.231250 0.223750 0.588750
0.362500 0.223750 0.588750
0.493750 0.223750 0.588750
0.625000 0.223750 0.588750
0.756250 0.223750 0.588750
0.887500 0.223750 0.588750
1.000000 0.223750 0.588750
1.000000 0.223750 0.588750
0.100000 0.367500 0.588750
0.231250 0.367500 0.588750
0.362500 0.367500 0.588750
0.493750 0.367500 0.588750
0.625000 0.367500 0.588750
0.756250 0.367500 0.588750
0.887500 0.367500 0.588750
1.000000 0.367500 0.588750
1.000000 0.367500 0.588750
0.100000 0.511250 0.588750
0.231250 0.511250 0.588750
0.362500 0.511250 0.588750
0.493750 0.511250 0.588750
0.625000 0.511250 0.588750
0.756250 0.511250 0.588750
0.887500 0.511250 0.588750
1.000000 0.511250 0.588750
1.000000 0.511250 0.588750
0.100000 0.655000 0.588750
0.231250 0.655000 0.588750
0.362500 0.655000 0.588750
0.493750 0.655000 0.588750
0.625000 0.655000 0.588750
0.756250 0.655000 0.588750
0.887500 0.655000 0.588750
1.000000 0.655000 0.588750
1.000000 0.655000 0.588750
0.100000 0.798750 0.588750
0.231250 0.798750 0.588750
0.362500 0.798750 0.588750
0.493750 0.798750 0.588750
0.625000 0.798750 0.588750
0.756250 0.798750 0.588750
0.887500 0.798750 0.588750
1.000000 0.798750 0.588750
1.000000 0.798750 0.588750
0.100000 0.942500 0.588750
0.231250 0.942500 0.588750
0.362500 0.942500 0.588750
0.493750 0.942500 0.588750
0.625000 0.942500 0.588750
0.756250 0.942500 0.588750
0.887500 0.942500 0.588750
1.000000 0.942500 0.588750
1.000000 0.942500 0.588750
0.100000 1.000000 0.588750
0.231250 1.000000 0.588750
0.362500 1.000000 0.588750
0.493750 1.000000 0.588750
0.625000 1.000000 0.588750
0.756250 1.000000 0.588750
0.887500 1.000000 0.588750
1.000000 1.000000 0.588750
1.000000 1.000000 0.588750
0.100000 1.000000 0.588750
0.231250 1.000000 0.588750
0.362500 1.000000 0.588750
0.493750 1.000000 0.588750
0.625000 1.000000 0.588750
0.756250 1.000000 0.588750
0.887500 1.000000 0.588750
1.000000 1.000000 0.588750
1.000000 1.000000 0.588750
0.100000 0.080000 0.745000
0.231250 0.080000 0.745000
0.362500 0.080000 0.745000
0.493750 0.080000 0.745000
0.625000 0.080000 0.745000
0.756250 0.080000 0.745000
0.887500 0.080000 0.745000
1.000000 0.080000 0.745000
1.000000 0.080000 0.745000
0.100000 0.223750 0.745000
0.231250 0.223750 0.745000
0.362500 0.223750 0.745000
0.493750 0.223750 0.745000
0.625000 0.223750 0.745000
0.756250 0.223750 0.745000
0.887500 0.223750 0.745000
1.000000 0.223750 0.745000
1.000000 0.223750 0.745000
0.100000 0.367500 0.745000
0.231250 0.367500 0.745000
0.362500 0.367500 0.745000
0.493750 0.367500 0.745000
0.625000 0.367500 0.745000
0.756250 0.367500 0.745000
0.887500 0.367500 0.745000
1.000000 0.367500 0.745000
1.000000 0.367500 0.745000
0.100000 0.511250 0.745000
0.231250 0.511250 0.745000
0.362500 0.511250 0.745000
0.493750 0.511250 0.745000
0.625000 0.511250 0.745000
0.756250 0.511250 0.745000
0.887500 0.511250 0.745000
1.000000 0.511250 0.745000
1.000000 0.511250 0.745000
0.100000 0.655000 0.745000
0.231250 0.655000 0.745000
0.362500 0.655000 0.745000
0.493750 0.655000 0.745000
0.625000 0.655000 0.745000
0.756250 0.655000 0.745000
0.887500 0.655000 0.745000
1.000000 0.655000 0.745000
1.000000 0.655000 0.745000
0.100000 0.798750 0.745000
0.231250 0.798750 0.745000
0.362500 0.798750 0.745000
0.493750 0.798750 0.745000
0.625000 0.798750 0.745000
0.756250 0.798750 0.745000
0.887500 0.798750 0.745000
1.000000 0.798750 0.745000
1.000000 0.798750 0.745000
0.100000 0.942500 0.745000
0.231250 0.942500 0.745000
0.362500 0.942500 0.745000
0.493750 0.942500 0.745000
0.625000 0.942500 0.745000
0.756250 0.942500 0.745000
0.887500 0.942500 0.745000
1.000000 0.942500 0.745000
1.000000 0.942500 0.745000
0.100000 1.000000 0.745000
0.231250 1.000000 0.745000
0.362500 1.000000 0.745000
0.493750 1.000000 0.745000
0.625000 1.000000 0.745000
0.756250 1.000000 0.745000
0.887500 1.000000 0.745000
1.000000 1.000000 0.745000
1.000000 1.000000 0.745000
0.100000 1.000000 0.745000
0.231250 1.000000 0.745000
0.362500 1.000000 0.745000
0.493750 1.000000 0.745000
0.625000 1.000000 0.745000
0.756250 1.000000 0.745000
0.887500 1.000000 0.745000
1.000000 1.000000 0.745000
1.000000 1.000000 0.745000
0.100000 0.080000 0.901250
0.231250 0.080000 0.901250
0.362500 0.080000 0.901250
0.493750 0.080000 0.901250
0.625000 0.080000 0.901250
0.756250 0.080000 0.901250
0.887500 0.080000 0.901250
1.000000 0.080000 0.901250
1.000000 0.080000 0.901250
0.100000 0.223750 0.901250
0.231250 0.223750 0.901250
0.362500 0.223750 0.901250
0.493750 0.223750 0.901250
0.625000 0.223750 0.901250
0.756250 0.223750 0.901250
0.887500 0.223750 0.901250
1.000000 0.223750 0.901250
1.000000 0.223750 0.901250
0.100000 0.367500 0.901250
0.231250 0.367500 0.901250
0.362500 0.367500 0.901250
0.493750 0.367500 0.901250
0.625000 0.367500 0.901250
0.756250 0.367500 0.901250
0.887500 0.367500 0.901250
1.000000 0.367500 0.901250
1.000000 0.367500 0.901250
0.100000 0.511250 0.901250
0.231250 0.511250 0.901250
0.362500 0.511250 0.901250
0.493750 0.511250 0.901250
0.625000 0.511250 0.901250
0.756250 0.511250 0.901250
0.887500 0.511250 0.901250
1.000000 0.511250 0.901250
1.000000 0.511250 0.901250
0.100000 0.655000 0.901250
0.231250 0.655000 0.901250
0.362500 0.655000 0.901250
0.493750 0.655000 0.901250
0.625000 0.655000 0.901250
0.756250 0.655000 0.901250
0.887500 0.655000 0.901250
1.000000 0.655000 0.901250
1.000000 0.655000 0.901250
0.100000 0.798750 0.901250
0.231250 0.798750 0.901250
0.362500 0.798750 0.901250
0.493750 0.798750 0.901250
0.625000 0.798750 0.901250
0.756250 0.798750 0.901250
0.887500 0.798750 0.901250
1.000000 0.798750 0.901250
1.000000 0.798750 0.901250
0.100000 0.942500 0.901250
0.231250 0.942500 0.901250
0.362500 0.942500 0.901250
0.493750 0.942500 0.901250
0.625000 0.942500 0.901250
0.756250 0.942500 0.901250
0.887500 0.942500 0.901250
1.000000 0.942500 0.901250
1.000000 0.942500 0.901250
0.100000 1.000000 0.901250
0.231250 1.000000 0.901250
0.362500 1.000000 0.901250
0.493750 1.000000 0.901250
0.625000 1.000000 0.901250
0.756250 1.000000 0.901250
0.887500 1.000000 0.901250
1.000000 1.000000 0.901250
1.000000 1.000000 0.901250
0.100000 1.000000 0.901250
0.231250 1.000000 0.901250
0.362500 1.000000 0.901250
0.493750 1.000000 0.901250
0.625000 1.000000 0.901250
0.756250 1.000000 0.901250
0.887500 1.000000 0.901250
1.000000 1.000000 0.901250
1.000000 1.000000 0.901250
0.100000 0.080000 1.000000
0.231250 0.080000 1.000000
0.362500 0.080000 1.000000
0.493750 0.080000 1.000000
0.625000 0.080000 1.000000
0.756250 0.080000 1.000000
0.887500 0.080000 1.000000
1.000000 0.080000 1.000000
1.000000 0.080000 1.000000
0.100000 0.223750 1.000000
0.231250 0.223750 1.000000
0.362500 0.223750 1.000000
0.493750 0.223750 1.000000
0.625000 0.223750 1.000000
0.756250 0.223750 1.000000
0.887500 0.223750 1.000000
1.000000 0.223750 1.000000
1.000000 0.223750 1.000000
0.100000 0.367500 1.000000
0.231250 0.367500 1.000000
0.362500 0.367500 1.000000
0.493750 0.367500 1.000000
0.625000 0.367500 1.000000
0.756250 0.367500 1.000000
0.887500 0.367500 1.000000
1.000000 0.367500 1.000000
1.000000 0.367500 1.000000
0.100000 0.511250 1.000000
0.231250 0.511250 1.000000
0.362500 0.511250 1.000000
0.493750 0.511250 1.000000
0.625000 0.511250 1.000000
0.756250 0.511250 1.000000
0.887500 0.511250 1.000000
1.000000 0.511250 1.000000
1.000000 0.511250 1.000000
0.100000 0.655000 1.000000
0.231250 0.655000 1.000000
0.362500 0.655000 1.000000
0.493750 0.655000 1.000000
0.625000 0.655000 1.000000
0.756250 0.655000 1.000000
0.887500 0.655000 1.000000
1.000000 0.655000 1.000000
1.000000 0.655000 1.000000
0.100000 0.798750 1.000000
0.231250 0.798750 1.000000
0.362500 0.798750 1.000000
0.493750 0.798750 1.000000
0.625000 0.798750 1.000000
0.756250 0.798750 1.000000
0.887500 0.798750 1.000000
1.000000 0.798750 1.000000
1.000000 0.798750 1.000000
0.100000 0.942500 1.000000
0.231250 0.942500 1.000000
0.362500 0.942500 1.000000
0.493750 0.942500 1.000000
0.625000 0.942500 1.000000
0.756250 0.942500 1.000000
0.887500 0.942500 1.000000
1.000000 0.942500 1.000000
1.000000 0.942500 1.000000
0.100000 1.000000 1.000000
0.231250 1.000000 1.000000
0.362500 1.000000 1.000000
0.493750 1.000000 1.000000
0.625000 1.000000 1.000000
0.756250 1.000000 1.000000
0.887500 1.000000 1.000000
1.000000 1.000000 1.000000
1.000000 1.000000 1.000000
0.100000 1.000000 1.000000
0.231250 1.000000 1.000000
0.362500 1.000000 1.000000
0.493750 1.000000 1.000000
0.625000 1.000000 1.000000
0.756250 1.000000 1.000000
0.887500 1.000000 1.000000
1.000000 1.000000 1.000000
1.000000 1.000000 1.000000
0.100000 0.080000 1.000000
0.231250 0.080000 1.000000
0.362500 0.080000 1.000000
0.493750 0.080000 1.000000
0.625000 0.080000 1.000000
0.756250 0.080000 1.000000
0.887500 0.080000 1.000000
1.000000 0.080000 1.000000
1.000000 0.080000 1.000000
0.100000 0.223750 1.000000
0.231250 0.223750 1.000000
0.362500 0.223750 1.000000
0.493750 0.223750 1.000000
0.625000 0.223750 1.000000
0.756250 0.223750 1.000000
0.887500 0.223750 1.000000
1.000000 0.223750 1.000000
1.000000 0.223750 1.000000
0.100000 0.367500 1.000000
0.231250 0.367500 1.000000
0.362500 0.367500 1.000000
0.493750 0.367500 1.000000
0.625000 0.367500 1.000000
0.756250 0.367500 1.000000
0.887500 0.367500 1.000000
1.000000 0.367500 1.000000
1.000000 0.367500 1.000000
0.100000 0.511250 1.000000
0.231250 0.511250 1.000000
0.362500 0.511250 1.000000
0.493750 0.511250 1.000000
0.625000 0.511250 1.000000
0.756250 0.511250 1.000000
0.887500 0.511250 1.000000
1.000000 0.511250 1.000000
1.000000 0.511250 1.000000
0.100000 0.655000 1.000000
0.231250 0.655000 1.000000
0.362500 0.655000 1.000000
0.493750 0.655000 1.000000
0.625000 0.655000 1.000000
0.756250 0.655000 1.000000
0.887500 0.655000 1.000000
1.000000 0.655000 1.000000
1.000000 0.655000 1.000000
0.100000 0.798750 1.000000
0.231250 0.798750 1.000000
0.362500 0.798750 1.000000
0.493750 0.798750 1.000000
0.625000 0.798750 1.000000
0.756250 0.798750 1.000000
0.887500 0.798750 1.000000
1.000000 0.798750 1.000000
1.000000 0.798750 1.000000
0.100000 0.942500 1.000000
0.231250 0.942500 1.000000
0.362500 0.942500 1.000000
0.493750 0.942500 1.000000
0.625000 0.942500 1.000000
0.756250 0.942500 1.000000
0.887500 0.942500 1.000000
1.000000 0.942500 1.000000
1.000000 0.942500 1.000000
0.100000 1.000000 1.000000
0.231250 1.000000 1.000000
0.362500 1.000000 1.000000
0.493750 1.000000 1.000000
0.625000 1.000000 1.000000
0.756250 1.000000 1.000000
0.887500 1.000000 1.000000
1.000000 1.000000 1.000000
1.000000 1.000000 1.000000
0.100000 1.000000 1.000000
0.231250 1.000000 1.000000
0.362500 1.000000 1.000000
0.493750 1.000000 1.000000
0.625000 1.000000 1.000000
0.756250 1.000000 1.000000
0.887500 1.000000 1.000000
1.000000 1.000000 1.000000
1.000000 1.000000 1.000000
0.100000 0.080000 1.000000
0.231250 0.080000 1.000000
0.362500 0.080000 1.000000
0.493750 0.080000 1.000000
0.625000 0.080000 1.000000
0.756250 0.080000 1.000000
0.887500 0.080000 1.000000
1.000000 0.080000 1.000000
1.000000 0.080000 1.000000
0.100000 0.223750 1.000000
0.231250 0.223750 1.000000
0.362500 0.223750 1.000000
0.493750 0.223750 1.000000
0.625000 0.223750 1.000000
0.756250 0.223750 1.000000
0.887500 0.223750 1.000000
1.000000 0.223750 1.000000
1.000000 0.223750 1.000000
0.100000 0.367500 1.000000
0.231250 0.367500 1.000000
0.362500 0.367500 1.000000
0.493750 0.367500 1.000000
0.625000 0.367500 1.000000
0.756250 0.367500 1.000000
0.887500 0.367500 1.000000
1.000000 0.367500 1.000000
1.000000 0.367500 1.000000
0.100000 0.511250 1.000000
0.231250 0.511250 1.000000
0.362500 0.511250 1.000000
0.493750 0.511250 1.000000
0.625000 0.511250 1.000000
0.756250 0.511250 1.000000
0.887500 0.511250 1.000000
1.000000 0.511250 1.000000
1.000000 0.511250 1.000000
0.100000 0.655000 1.000000
0.231250 0.655000 1.000000
0.362500 0.655000 1.000000
0.493750 0.655000 1.000000
0.625000 0.655000 1.000000
0.756250 0.655000 1.000000
0.887500 0.655000 1.000000
1.000000 0.655000 1.000000
1.000000 0.655000 1.000000
0.100000 0.798750 1.000000
0.231250 0.798750 1.000000
0.362500 0.798750 1.000000
0.493750 0.798750 1.000000
0.625000 0.798750 1.000000
0.756250 0.798750 1.000000
0.887500 0.798750 1.000000
1.000000 0.798750 1.000000
1.000000 0.798750 1.000000
0.100000 0.942500 1.000000
0.231250 0.942500 1.000000
0.362500 0.942500 1.000000
0.493750 0.942500 1.000000
0.625000 0.942500 1.000000
0.756250 0.942500 1.000000
0.887500 0.942500 1.000000
1.000000 0.942500 1.000000
1.000000 0.942500 1.000000
0.100000 1.000000 1.000000
0.231250 1.000000 1.000000
0.362500 1.000000 1.000000
0.493750 1.000000 1.000000
0.625000 1.000000 1.000000
0.756250 1.000000 1.000000
0.887500 1.000000 1.000000
1.000000 1.000000 1.000000
1.000000 1.000000 1.000000
0.100000 1.000000 1.000000
0.231250 1.000000 1.000000
0.362500 1.000000 1.000000
0.493750 1.000000 1.000000
0.625000 1.000000 1.000000
0.756250 1.000000 1.000000
0.887500 1.000000 1.000000
1.000000 1.000000 1.000000
1.000000 1.000000 1.000000
