app/src/main/assets/luts/cherry_dusk.cube
# ApexStudio filter: cherry_dusk
LUT_3D_SIZE 5
DOMAIN_MIN 0.0 0.0 0.0
DOMAIN_MAX 1.0 1.0 1.0
0.100000 0.000000 0.080000
0.400000 0.000000 0.080000
0.700000 0.000000 0.080000
1.000000 0.000000 0.080000
1.000000 0.000000 0.080000
0.100000 0.237500 0.080000
0.400000 0.237500 0.080000
0.700000 0.237500 0.080000
1.000000 0.237500 0.080000
1.000000 0.237500 0.080000
0.100000 0.475000 0.080000
0.400000 0.475000 0.080000
0.700000 0.475000 0.080000
1.000000 0.475000 0.080000
1.000000 0.475000 0.080000
0.100000 0.712500 0.080000
0.400000 0.712500 0.080000
0.700000 0.712500 0.080000
1.000000 0.712500 0.080000
1.000000 0.712500 0.080000
0.100000 0.950000 0.080000
0.400000 0.950000 0.080000
0.700000 0.950000 0.080000
1.000000 0.950000 0.080000
1.000000 0.950000 0.080000
0.100000 0.000000 0.355000
0.400000 0.000000 0.355000
0.700000 0.000000 0.355000
1.000000 0.000000 0.355000
1.000000 0.000000 0.355000
0.100000 0.237500 0.355000
0.400000 0.237500 0.355000
0.700000 0.237500 0.355000
1.000000 0.237500 0.355000
1.000000 0.237500 0.355000
0.100000 0.475000 0.355000
0.400000 0.475000 0.355000
0.700000 0.475000 0.355000
1.000000 0.475000 0.355000
1.000000 0.475000 0.355000
0.100000 0.712500 0.355000
0.400000 0.712500 0.355000
0.700000 0.712500 0.355000
1.000000 0.712500 0.355000
1.000000 0.712500 0.355000
0.100000 0.950000 0.355000
0.400000 0.950000 0.355000
0.700000 0.950000 0.355000
1.000000 0.950000 0.355000
1.000000 0.950000 0.355000
0.100000 0.000000 0.630000
0.400000 0.000000 0.630000
0.700000 0.000000 0.630000
1.000000 0.000000 0.630000
1.000000 0.000000 0.630000
0.100000 0.237500 0.630000
0.400000 0.237500 0.630000
0.700000 0.237500 0.630000
1.000000 0.237500 0.630000
1.000000 0.237500 0.630000
0.100000 0.475000 0.630000
0.400000 0.475000 0.630000
0.700000 0.475000 0.630000
1.000000 0.475000 0.630000
1.000000 0.475000 0.630000
0.100000 0.712500 0.630000
0.400000 0.712500 0.630000
0.700000 0.712500 0.630000
1.000000 0.712500 0.630000
1.000000 0.712500 0.630000
0.100000 0.950000 0.630000
0.400000 0.950000 0.630000
0.700000 0.950000 0.630000
1.000000 0.950000 0.630000
1.000000 0.950000 0.630000
0.100000 0.000000 0.905000
0.400000 0.000000 0.905000
0.700000 0.000000 0.905000
1.000000 0.000000 0.905000
1.000000 0.000000 0.905000
0.100000 0.237500 0.905000
0.400000 0.237500 0.905000
0.700000 0.237500 0.905000
1.000000 0.237500 0.905000
1.000000 0.237500 0.905000
0.100000 0.475000 0.905000
0.400000 0.475000 0.905000
0.700000 0.475000 0.905000
1.000000 0.475000 0.905000
1.000000 0.475000 0.905000
0.100000 0.712500 0.905000
0.400000 0.712500 0.905000
0.700000 0.712500 0.905000
1.000000 0.712500 0.905000
1.000000 0.712500 0.905000
0.100000 0.950000 0.905000
0.400000 0.950000 0.905000
0.700000 0.950000 0.905000
1.000000 0.950000 0.905000
1.000000 0.950000 0.905000
0.100000 0.000000 1.000000
0.400000 0.000000 1.000000
0.700000 0.000000 1.000000
1.000000 0.000000 1.000000
1.000000 0.000000 1.000000
0.100000 0.237500 1.000000
0.400000 0.237500 1.000000
0.700000 0.237500 1.000000
1.000000 0.237500 1.000000
1.000000 0.237500 1.000000
0.100000 0.475000 1.000000
0.400000 0.475000 1.000000
0.700000 0.475000 1.000000
1.000000 0.475000 1.000000
1.000000 0.475000 1.000000
0.100000 0.712500 1.000000
0.400000 0.712500 1.000000
0.700000 0.712500 1.000000
1.000000 0.712500 1.000000
1.000000 0.712500 1.000000
0.100000 0.950000 1.000000
0.400000 0.950000 1.000000
0.700000 0.950000 1.000000
1.000000 0.950000 1.000000
1.000000 0.950000 1.000000
