app/src/main/assets/luts/cherry_dusk.cube
# ApexStudio filter: cherry_dusk
LUT_3D_SIZE 17
DOMAIN_MIN 0.0 0.0 0.0
DOMAIN_MAX 1.0 1.0 1.0
0.100000 0.000000 0.080000
0.175000 0.000000 0.080000
0.250000 0.000000 0.080000
0.325000 0.000000 0.080000
0.400000 0.000000 0.080000
0.475000 0.000000 0.080000
0.550000 0.000000 0.080000
0.625000 0.000000 0.080000
0.700000 0.000000 0.080000
0.775000 0.000000 0.080000
0.850000 0.000000 0.080000
0.925000 0.000000 0.080000
1.000000 0.000000 0.080000
1.000000 0.000000 0.080000
1.000000 0.000000 0.080000
1.000000 0.000000 0.080000
1.000000 0.000000 0.080000
0.100000 0.059375 0.080000
0.175000 0.059375 0.080000
0.250000 0.059375 0.080000
0.325000 0.059375 0.080000
0.400000 0.059375 0.080000
0.475000 0.059375 0.080000
0.550000 0.059375 0.080000
0.625000 0.059375 0.080000
0.700000 0.059375 0.080000
0.775000 0.059375 0.080000
0.850000 0.059375 0.080000
0.925000 0.059375 0.080000
1.000000 0.059375 0.080000
1.000000 0.059375 0.080000
1.000000 0.059375 0.080000
1.000000 0.059375 0.080000
1.000000 0.059375 0.080000
0.100000 0.118750 0.080000
0.175000 0.118750 0.080000
0.250000 0.118750 0.080000
0.325000 0.118750 0.080000
0.400000 0.118750 0.080000
0.475000 0.118750 0.080000
0.550000 0.118750 0.080000
0.625000 0.118750 0.080000
0.700000 0.118750 0.080000
0.775000 0.118750 0.080000
0.850000 0.118750 0.080000
0.925000 0.118750 0.080000
1.000000 0.118750 0.080000
1.000000 0.118750 0.080000
1.000000 0.118750 0.080000
1.000000 0.118750 0.080000
1.000000 0.118750 0.080000
0.100000 0.178125 0.080000
0.175000 0.178125 0.080000
0.250000 0.178125 0.080000
0.325000 0.178125 0.080000
0.400000 0.178125 0.080000
0.475000 0.178125 0.080000
0.550000 0.178125 0.080000
0.625000 0.178125 0.080000
0.700000 0.178125 0.080000
0.775000 0.178125 0.080000
0.850000 0.178125 0.080000
0.925000 0.178125 0.080000
1.000000 0.178125 0.080000
1.000000 0.178125 0.080000
1.000000 0.178125 0.080000
1.000000 0.178125 0.080000
1.000000 0.178125 0.080000
0.100000 0.237500 0.080000
0.175000 0.237500 0.080000
0.250000 0.237500 0.080000
0.325000 0.237500 0.080000
0.400000 0.237500 0.080000
0.475000 0.237500 0.080000
0.550000 0.237500 0.080000
0.625000 0.237500 0.080000
0.700000 0.237500 0.080000
0.775000 0.237500 0.080000
0.850000 0.237500 0.080000
0.925000 0.237500 0.080000
1.000000 0.237500 0.080000
1.000000 0.237500 0.080000
1.000000 0.237500 0.080000
1.000000 0.237500 0.080000
1.000000 0.237500 0.080000
0.100000 0.296875 0.080000
0.175000 0.296875 0.080000
0.250000 0.296875 0.080000
0.325000 0.296875 0.080000
0.400000 0.296875 0.080000
0.475000 0.296875 0.080000
0.550000 0.296875 0.080000
0.625000 0.296875 0.080000
0.700000 0.296875 0.080000
0.775000 0.296875 0.080000
0.850000 0.296875 0.080000
0.925000 0.296875 0.080000
1.000000 0.296875 0.080000
1.000000 0.296875 0.080000
1.000000 0.296875 0.080000
1.000000 0.296875 0.080000
1.000000 0.296875 0.080000
0.100000 0.356250 0.080000
0.175000 0.356250 0.080000
0.250000 0.356250 0.080000
0.325000 0.356250 0.080000
0.400000 0.356250 0.080000
0.475000 0.356250 0.080000
0.550000 0.356250 0.080000
0.625000 0.356250 0.080000
0.700000 0.356250 0.080000
0.775000 0.356250 0.080000
0.850000 0.356250 0.080000
0.925000 0.356250 0.080000
1.000000 0.356250 0.080000
1.000000 0.356250 0.080000
1.000000 0.356250 0.080000
1.000000 0.356250 0.080000
1.000000 0.356250 0.080000
0.100000 0.415625 0.080000
0.175000 0.415625 0.080000
0.250000 0.415625 0.080000
0.325000 0.415625 0.080000
0.400000 0.415625 0.080000
0.475000 0.415625 0.080000
0.550000 0.415625 0.080000
0.625000 0.415625 0.080000
0.700000 0.415625 0.080000
0.775000 0.415625 0.080000
0.850000 0.415625 0.080000
0.925000 0.415625 0.080000
1.000000 0.415625 0.080000
1.000000 0.415625 0.080000
1.000000 0.415625 0.080000
1.000000 0.415625 0.080000
1.000000 0.415625 0.080000
0.100000 0.475000 0.080000
0.175000 0.475000 0.080000
0.250000 0.475000 0.080000
0.325000 0.475000 0.080000
0.400000 0.475000 0.080000
0.475000 0.475000 0.080000
0.550000 0.475000 0.080000
0.625000 0.475000 0.080000
0.700000 0.475000 0.080000
0.775000 0.475000 0.080000
0.850000 0.475000 0.080000
0.925000 0.475000 0.080000
1.000000 0.475000 0.080000
1.000000 0.475000 0.080000
1.000000 0.475000 0.080000
1.000000 0.475000 0.080000
1.000000 0.475000 0.080000
0.100000 0.534375 0.080000
0.175000 0.534375 0.080000
0.250000 0.534375 0.080000
0.325000 0.534375 0.080000
0.400000 0.534375 0.080000
0.475000 0.534375 0.080000
0.550000 0.534375 0.080000
0.625000 0.534375 0.080000
0.700000 0.534375 0.080000
0.775000 0.534375 0.080000
0.850000 0.534375 0.080000
0.925000 0.534375 0.080000
1.000000 0.534375 0.080000
1.000000 0.534375 0.080000
1.000000 0.534375 0.080000
1.000000 0.534375 0.080000
1.000000 0.534375 0.080000
0.100000 0.593750 0.080000
0.175000 0.593750 0.080000
0.250000 0.593750 0.080000
0.325000 0.593750 0.080000
0.400000 0.593750 0.080000
0.475000 0.593750 0.080000
0.550000 0.593750 0.080000
0.625000 0.593750 0.080000
0.700000 0.593750 0.080000
0.775000 0.593750 0.080000
0.850000 0.593750 0.080000
0.925000 0.593750 0.080000
1.000000 0.593750 0.080000
1.000000 0.593750 0.080000
1.000000 0.593750 0.080000
1.000000 0.593750 0.080000
1.000000 0.593750 0.080000
0.100000 0.653125 0.080000
0.175000 0.653125 0.080000
0.250000 0.653125 0.080000
0.325000 0.653125 0.080000
0.400000 0.653125 0.080000
0.475000 0.653125 0.080000
0.550000 0.653125 0.080000
0.625000 0.653125 0.080000
0.700000 0.653125 0.080000
0.775000 0.653125 0.080000
0.850000 0.653125 0.080000
0.925000 0.653125 0.080000
1.000000 0.653125 0.080000
1.000000 0.653125 0.080000
1.000000 0.653125 0.080000
1.000000 0.653125 0.080000
1.000000 0.653125 0.080000
0.100000 0.712500 0.080000
0.175000 0.712500 0.080000
0.250000 0.712500 0.080000
0.325000 0.712500 0.080000
0.400000 0.712500 0.080000
0.475000 0.712500 0.080000
0.550000 0.712500 0.080000
0.625000 0.712500 0.080000
0.700000 0.712500 0.080000
0.775000 0.712500 0.080000
0.850000 0.712500 0.080000
0.925000 0.712500 0.080000
1.000000 0.712500 0.080000
1.000000 0.712500 0.080000
1.000000 0.712500 0.080000
1.000000 0.712500 0.080000
1.000000 0.712500 0.080000
0.100000 0.771875 0.080000
0.175000 0.771875 0.080000
0.250000 0.771875 0.080000
0.325000 0.771875 0.080000
0.400000 0.771875 0.080000
0.475000 0.771875 0.080000
0.550000 0.771875 0.080000
0.625000 0.771875 0.080000
0.700000 0.771875 0.080000
0.775000 0.771875 0.080000
0.850000 0.771875 0.080000
0.925000 0.771875 0.080000
1.000000 0.771875 0.080000
1.000000 0.771875 0.080000
1.000000 0.771875 0.080000
1.000000 0.771875 0.080000
1.000000 0.771875 0.080000
0.100000 0.831250 0.080000
0.175000 0.831250 0.080000
0.250000 0.831250 0.080000
0.325000 0.831250 0.080000
0.400000 0.831250 0.080000
0.475000 0.831250 0.080000
0.550000 0.831250 0.080000
0.625000 0.831250 0.080000
0.700000 0.831250 0.080000
0.775000 0.831250 0.080000
0.850000 0.831250 0.080000
0.925000 0.831250 0.080000
1.000000 0.831250 0.080000
1.000000 0.831250 0.080000
1.000000 0.831250 0.080000
1.000000 0.831250 0.080000
1.000000 0.831250 0.080000
0.100000 0.890625 0.080000
0.175000 0.890625 0.080000
0.250000 0.890625 0.080000
0.325000 0.890625 0.080000
0.400000 0.890625 0.080000
0.475000 0.890625 0.080000
0.550000 0.890625 0.080000
0.625000 0.890625 0.080000
0.700000 0.890625 0.080000
0.775000 0.890625 0.080000
0.850000 0.890625 0.080000
0.925000 0.890625 0.080000
1.000000 0.890625 0.080000
1.000000 0.890625 0.080000
1.000000 0.890625 0.080000
1.000000 0.890625 0.080000
1.000000 0.890625 0.080000
0.100000 0.950000 0.080000
0.175000 0.950000 0.080000
0.250000 0.950000 0.080000
0.325000 0.950000 0.080000
0.400000 0.950000 0.080000
0.475000 0.950000 0.080000
0.550000 0.950000 0.080000
0.625000 0.950000 0.080000
0.700000 0.950000 0.080000
0.775000 0.950000 0.080000
0.850000 0.950000 0.080000
0.925000 0.950000 0.080000
1.000000 0.950000 0.080000
1.000000 0.950000 0.080000
1.000000 0.950000 0.080000
1.000000 0.950000 0.080000
1.000000 0.950000 0.080000
0.100000 0.000000 0.148750
0.175000 0.000000 0.148750
0.250000 0.000000 0.148750
0.325000 0.000000 0.148750
0.400000 0.000000 0.148750
0.475000 0.000000 0.148750
0.550000 0.000000 0.148750
0.625000 0.000000 0.148750
0.700000 0.000000 0.148750
0.775000 0.000000 0.148750
0.850000 0.000000 0.148750
0.925000 0.000000 0.148750
1.000000 0.000000 0.148750
1.000000 0.000000 0.148750
1.000000 0.000000 0.148750
1.000000 0.000000 0.148750
1.000000 0.000000 0.148750
0.100000 0.059375 0.148750
0.175000 0.059375 0.148750
0.250000 0.059375 0.148750
0.325000 0.059375 0.148750
0.400000 0.059375 0.148750
0.475000 0.059375 0.148750
0.550000 0.059375 0.148750
0.625000 0.059375 0.148750
0.700000 0.059375 0.148750
0.775000 0.059375 0.148750
0.850000 0.059375 0.148750
0.925000 0.059375 0.148750
1.000000 0.059375 0.148750
1.000000 0.059375 0.148750
1.000000 0.059375 0.148750
1.000000 0.059375 0.148750
1.000000 0.059375 0.148750
0.100000 0.118750 0.148750
0.175000 0.118750 0.148750
0.250000 0.118750 0.148750
0.325000 0.118750 0.148750
0.400000 0.118750 0.148750
0.475000 0.118750 0.148750
0.550000 0.118750 0.148750
0.625000 0.118750 0.148750
0.700000 0.118750 0.148750
0.775000 0.118750 0.148750
0.850000 0.118750 0.148750
0.925000 0.118750 0.148750
1.000000 0.118750 0.148750
1.000000 0.118750 0.148750
1.000000 0.118750 0.148750
1.000000 0.118750 0.148750
1.000000 0.118750 0.148750
0.100000 0.178125 0.148750
0.175000 0.178125 0.148750
0.250000 0.178125 0.148750
0.325000 0.178125 0.148750
0.400000 0.178125 0.148750
0.475000 0.178125 0.148750
0.550000 0.178125 0.148750
0.625000 0.178125 0.148750
0.700000 0.178125 0.148750
0.775000 0.178125 0.148750
0.850000 0.178125 0.148750
0.925000 0.178125 0.148750
1.000000 0.178125 0.148750
1.000000 0.178125 0.148750
1.000000 0.178125 0.148750
1.000000 0.178125 0.148750
1.000000 0.178125 0.148750
0.100000 0.237500 0.148750
0.175000 0.237500 0.148750
0.250000 0.237500 0.148750
0.325000 0.237500 0.148750
0.400000 0.237500 0.148750
0.475000 0.237500 0.148750
0.550000 0.237500 0.148750
0.625000 0.237500 0.148750
0.700000 0.237500 0.148750
0.775000 0.237500 0.148750
0.850000 0.237500 0.148750
0.925000 0.237500 0.148750
1.000000 0.237500 0.148750
1.000000 0.237500 0.148750
1.000000 0.237500 0.148750
1.000000 0.237500 0.148750
1.000000 0.237500 0.148750
0.100000 0.296875 0.148750
0.175000 0.296875 0.148750
0.250000 0.296875 0.148750
0.325000 0.296875 0.148750
0.400000 0.296875 0.148750
0.475000 0.296875 0.148750
0.550000 0.296875 0.148750
0.625000 0.296875 0.148750
0.700000 0.296875 0.148750
0.775000 0.296875 0.148750
0.850000 0.296875 0.148750
0.925000 0.296875 0.148750
1.000000 0.296875 0.148750
1.000000 0.296875 0.148750
1.000000 0.296875 0.148750
1.000000 0.296875 0.148750
1.000000 0.296875 0.148750
0.100000 0.356250 0.148750
0.175000 0.356250 0.148750
0.250000 0.356250 0.148750
0.325000 0.356250 0.148750
0.400000 0.356250 0.148750
0.475000 0.356250 0.148750
0.550000 0.356250 0.148750
0.625000 0.356250 0.148750
0.700000 0.356250 0.148750
0.775000 0.356250 0.148750
0.850000 0.356250 0.148750
0.925000 0.356250 0.148750
1.000000 0.356250 0.148750
1.000000 0.356250 0.148750
1.000000 0.356250 0.148750
1.000000 0.356250 0.148750
1.000000 0.356250 0.148750
0.100000 0.415625 0.148750
0.175000 0.415625 0.148750
0.250000 0.415625 0.148750
0.325000 0.415625 0.148750
0.400000 0.415625 0.148750
0.475000 0.415625 0.148750
0.550000 0.415625 0.148750
0.625000 0.415625 0.148750
0.700000 0.415625 0.148750
0.775000 0.415625 0.148750
0.850000 0.415625 0.148750
0.925000 0.415625 0.148750
1.000000 0.415625 0.148750
1.000000 0.415625 0.148750
1.000000 0.415625 0.148750
1.000000 0.415625 0.148750
1.000000 0.415625 0.148750
0.100000 0.475000 0.148750
0.175000 0.475000 0.148750
0.250000 0.475000 0.148750
0.325000 0.475000 0.148750
0.400000 0.475000 0.148750
0.475000 0.475000 0.148750
0.550000 0.475000 0.148750
0.625000 0.475000 0.148750
0.700000 0.475000 0.148750
0.775000 0.475000 0.148750
0.850000 0.475000 0.148750
0.925000 0.475000 0.148750
1.000000 0.475000 0.148750
1.000000 0.475000 0.148750
1.000000 0.475000 0.148750
1.000000 0.475000 0.148750
1.000000 0.475000 0.148750
0.100000 0.534375 0.148750
0.175000 0.534375 0.148750
0.250000 0.534375 0.148750
0.325000 0.534375 0.148750
0.400000 0.534375 0.148750
0.475000 0.534375 0.148750
0.550000 0.534375 0.148750
0.625000 0.534375 0.148750
0.700000 0.534375 0.148750
0.775000 0.534375 0.148750
0.850000 0.534375 0.148750
0.925000 0.534375 0.148750
1.000000 0.534375 0.148750
1.000000 0.534375 0.148750
1.000000 0.534375 0.148750
1.000000 0.534375 0.148750
1.000000 0.534375 0.148750
0.100000 0.593750 0.148750
0.175000 0.593750 0.148750
0.250000 0.593750 0.148750
0.325000 0.593750 0.148750
0.400000 0.593750 0.148750
0.475000 0.593750 0.148750
0.550000 0.593750 0.148750
0.625000 0.593750 0.148750
0.700000 0.593750 0.148750
0.775000 0.593750 0.148750
0.850000 0.593750 0.148750
0.925000 0.593750 0.148750
1.000000 0.593750 0.148750
1.000000 0.593750 0.148750
1.000000 0.593750 0.148750
1.000000 0.593750 0.148750
1.000000 0.593750 0.148750
0.100000 0.653125 0.148750
0.175000 0.653125 0.148750
0.250000 0.653125 0.148750
0.325000 0.653125 0.148750
0.400000 0.653125 0.148750
0.475000 0.653125 0.148750
0.550000 0.653125 0.148750
0.625000 0.653125 0.148750
0.700000 0.653125 0.148750
0.775000 0.653125 0.148750
0.850000 0.653125 0.148750
0.925000 0.653125 0.148750
1.000000 0.653125 0.148750
1.000000 0.653125 0.148750
1.000000 0.653125 0.148750
1.000000 0.653125 0.148750
1.000000 0.653125 0.148750
0.100000 0.712500 0.148750
0.175000 0.712500 0.148750
0.250000 0.712500 0.148750
0.325000 0.712500 0.148750
0.400000 0.712500 0.148750
0.475000 0.712500 0.148750
0.550000 0.712500 0.148750
0.625000 0.712500 0.148750
0.700000 0.712500 0.148750
0.775000 0.712500 0.148750
0.850000 0.712500 0.148750
0.925000 0.712500 0.148750
1.000000 0.712500 0.148750
1.000000 0.712500 0.148750
1.000000 0.712500 0.148750
1.000000 0.712500 0.148750
1.000000 0.712500 0.148750
0.100000 0.771875 0.148750
0.175000 0.771875 0.148750
0.250000 0.771875 0.148750
0.325000 0.771875 0.148750
0.400000 0.771875 0.148750
0.475000 0.771875 0.148750
0.550000 0.771875 0.148750
0.625000 0.771875 0.148750
0.700000 0.771875 0.148750
0.775000 0.771875 0.148750
0.850000 0.771875 0.148750
0.925000 0.771875 0.148750
1.000000 0.771875 0.148750
1.000000 0.771875 0.148750
1.000000 0.771875 0.148750
1.000000 0.771875 0.148750
1.000000 0.771875 0.148750
0.100000 0.831250 0.148750
0.175000 0.831250 0.148750
0.250000 0.831250 0.148750
0.325000 0.831250 0.148750
0.400000 0.831250 0.148750
0.475000 0.831250 0.148750
0.550000 0.831250 0.148750
0.625000 0.831250 0.148750
0.700000 0.831250 0.148750
0.775000 0.831250 0.148750
0.850000 0.831250 0.148750
0.925000 0.831250 0.148750
1.000000 0.831250 0.148750
1.000000 0.831250 0.148750
1.000000 0.831250 0.148750
1.000000 0.831250 0.148750
1.000000 0.831250 0.148750
0.100000 0.890625 0.148750
0.175000 0.890625 0.148750
0.250000 0.890625 0.148750
0.325000 0.890625 0.148750
0.400000 0.890625 0.148750
0.475000 0.890625 0.148750
0.550000 0.890625 0.148750
0.625000 0.890625 0.148750
0.700000 0.890625 0.148750
0.775000 0.890625 0.148750
0.850000 0.890625 0.148750
0.925000 0.890625 0.148750
1.000000 0.890625 0.148750
1.000000 0.890625 0.148750
1.000000 0.890625 0.148750
1.000000 0.890625 0.148750
1.000000 0.890625 0.148750
0.100000 0.950000 0.148750
0.175000 0.950000 0.148750
0.250000 0.950000 0.148750
0.325000 0.950000 0.148750
0.400000 0.950000 0.148750
0.475000 0.950000 0.148750
0.550000 0.950000 0.148750
0.625000 0.950000 0.148750
0.700000 0.950000 0.148750
0.775000 0.950000 0.148750
0.850000 0.950000 0.148750
0.925000 0.950000 0.148750
1.000000 0.950000 0.148750
1.000000 0.950000 0.148750
1.000000 0.950000 0.148750
1.000000 0.950000 0.148750
1.000000 0.950000 0.148750
0.100000 0.000000 0.217500
0.175000 0.000000 0.217500
0.250000 0.000000 0.217500
0.325000 0.000000 0.217500
0.400000 0.000000 0.217500
0.475000 0.000000 0.217500
0.550000 0.000000 0.217500
0.625000 0.000000 0.217500
0.700000 0.000000 0.217500
0.775000 0.000000 0.217500
0.850000 0.000000 0.217500
0.925000 0.000000 0.217500
1.000000 0.000000 0.217500
1.000000 0.000000 0.217500
1.000000 0.000000 0.217500
1.000000 0.000000 0.217500
1.000000 0.000000 0.217500
0.100000 0.059375 0.217500
0.175000 0.059375 0.217500
0.250000 0.059375 0.217500
0.325000 0.059375 0.217500
0.400000 0.059375 0.217500
0.475000 0.059375 0.217500
0.550000 0.059375 0.217500
0.625000 0.059375 0.217500
0.700000 0.059375 0.217500
0.775000 0.059375 0.217500
0.850000 0.059375 0.217500
0.925000 0.059375 0.217500
1.000000 0.059375 0.217500
1.000000 0.059375 0.217500
1.000000 0.059375 0.217500
1.000000 0.059375 0.217500
1.000000 0.059375 0.217500
0.100000 0.118750 0.217500
0.175000 0.118750 0.217500
0.250000 0.118750 0.217500
0.325000 0.118750 0.217500
0.400000 0.118750 0.217500
0.475000 0.118750 0.217500
0.550000 0.118750 0.217500
0.625000 0.118750 0.217500
0.700000 0.118750 0.217500
0.775000 0.118750 0.217500
0.850000 0.118750 0.217500
0.925000 0.118750 0.217500
1.000000 0.118750 0.217500
1.000000 0.118750 0.217500
1.000000 0.118750 0.217500
1.000000 0.118750 0.217500
1.000000 0.118750 0.217500
0.100000 0.178125 0.217500
0.175000 0.178125 0.217500
0.250000 0.178125 0.217500
0.325000 0.178125 0.217500
0.400000 0.178125 0.217500
0.475000 0.178125 0.217500
0.550000 0.178125 0.217500
0.625000 0.178125 0.217500
0.700000 0.178125 0.217500
0.775000 0.178125 0.217500
0.850000 0.178125 0.217500
0.925000 0.178125 0.217500
1.000000 0.178125 0.217500
1.000000 0.178125 0.217500
1.000000 0.178125 0.217500
1.000000 0.178125 0.217500
1.000000 0.178125 0.217500
0.100000 0.237500 0.217500
0.175000 0.237500 0.217500
0.250000 0.237500 0.217500
0.325000 0.237500 0.217500
0.400000 0.237500 0.217500
0.475000 0.237500 0.217500
0.550000 0.237500 0.217500
0.625000 0.237500 0.217500
0.700000 0.237500 0.217500
0.775000 0.237500 0.217500
0.850000 0.237500 0.217500
0.925000 0.237500 0.217500
1.000000 0.237500 0.217500
1.000000 0.237500 0.217500
1.000000 0.237500 0.217500
1.000000 0.237500 0.217500
1.000000 0.237500 0.217500
0.100000 0.296875 0.217500
0.175000 0.296875 0.217500
0.250000 0.296875 0.217500
0.325000 0.296875 0.217500
0.400000 0.296875 0.217500
0.475000 0.296875 0.217500
0.550000 0.296875 0.217500
0.625000 0.296875 0.217500
0.700000 0.296875 0.217500
0.775000 0.296875 0.217500
0.850000 0.296875 0.217500
0.925000 0.296875 0.217500
1.000000 0.296875 0.217500
1.000000 0.296875 0.217500
1.000000 0.296875 0.217500
1.000000 0.296875 0.217500
1.000000 0.296875 0.217500
0.100000 0.356250 0.217500
0.175000 0.356250 0.217500
0.250000 0.356250 0.217500
0.325000 0.356250 0.217500
0.400000 0.356250 0.217500
0.475000 0.356250 0.217500
0.550000 0.356250 0.217500
0.625000 0.356250 0.217500
0.700000 0.356250 0.217500
0.775000 0.356250 0.217500
0.850000 0.356250 0.217500
0.925000 0.356250 0.217500
1.000000 0.356250 0.217500
1.000000 0.356250 0.217500
1.000000 0.356250 0.217500
1.000000 0.356250 0.217500
1.000000 0.356250 0.217500
0.100000 0.415625 0.217500
0.175000 0.415625 0.217500
0.250000 0.415625 0.217500
0.325000 0.415625 0.217500
0.400000 0.415625 0.217500
0.475000 0.415625 0.217500
0.550000 0.415625 0.217500
0.625000 0.415625 0.217500
0.700000 0.415625 0.217500
0.775000 0.415625 0.217500
0.850000 0.415625 0.217500
0.925000 0.415625 0.217500
1.000000 0.415625 0.217500
1.000000 0.415625 0.217500
1.000000 0.415625 0.217500
1.000000 0.415625 0.217500
1.000000 0.415625 0.217500
0.100000 0.475000 0.217500
0.175000 0.475000 0.217500
0.250000 0.475000 0.217500
0.325000 0.475000 0.217500
0.400000 0.475000 0.217500
0.475000 0.475000 0.217500
0.550000 0.475000 0.217500
0.625000 0.475000 0.217500
0.700000 0.475000 0.217500
0.775000 0.475000 0.217500
0.850000 0.475000 0.217500
0.925000 0.475000 0.217500
1.000000 0.475000 0.217500
1.000000 0.475000 0.217500
1.000000 0.475000 0.217500
1.000000 0.475000 0.217500
1.000000 0.475000 0.217500
0.100000 0.534375 0.217500
0.175000 0.534375 0.217500
0.250000 0.534375 0.217500
0.325000 0.534375 0.217500
0.400000 0.534375 0.217500
0.475000 0.534375 0.217500
0.550000 0.534375 0.217500
0.625000 0.534375 0.217500
0.700000 0.534375 0.217500
0.775000 0.534375 0.217500
0.850000 0.534375 0.217500
0.925000 0.534375 0.217500
1.000000 0.534375 0.217500
1.000000 0.534375 0.217500
1.000000 0.534375 0.217500
1.000000 0.534375 0.217500
1.000000 0.534375 0.217500
0.100000 0.593750 0.217500
0.175000 0.593750 0.217500
0.250000 0.593750 0.217500
0.325000 0.593750 0.217500
0.400000 0.593750 0.217500
0.475000 0.593750 0.217500
0.550000 0.593750 0.217500
0.625000 0.593750 0.217500
0.700000 0.593750 0.217500
0.775000 0.593750 0.217500
0.850000 0.593750 0.217500
0.925000 0.593750 0.217500
1.000000 0.593750 0.217500
1.000000 0.593750 0.217500
1.000000 0.593750 0.217500
1.000000 0.593750 0.217500
1.000000 0.593750 0.217500
0.100000 0.653125 0.217500
0.175000 0.653125 0.217500
0.250000 0.653125 0.217500
0.325000 0.653125 0.217500
0.400000 0.653125 0.217500
0.475000 0.653125 0.217500
0.550000 0.653125 0.217500
0.625000 0.653125 0.217500
0.700000 0.653125 0.217500
0.775000 0.653125 0.217500
0.850000 0.653125 0.217500
0.925000 0.653125 0.217500
1.000000 0.653125 0.217500
1.000000 0.653125 0.217500
1.000000 0.653125 0.217500
1.000000 0.653125 0.217500
1.000000 0.653125 0.217500
0.100000 0.712500 0.217500
0.175000 0.712500 0.217500
0.250000 0.712500 0.217500
0.325000 0.712500 0.217500
0.400000 0.712500 0.217500
0.475000 0.712500 0.217500
0.550000 0.712500 0.217500
0.625000 0.712500 0.217500
0.700000 0.712500 0.217500
0.775000 0.712500 0.217500
0.850000 0.712500 0.217500
0.925000 0.712500 0.217500
1.000000 0.712500 0.217500
1.000000 0.712500 0.217500
1.000000 0.712500 0.217500
1.000000 0.712500 0.217500
1.000000 0.712500 0.217500
0.100000 0.771875 0.217500
0.175000 0.771875 0.217500
0.250000 0.771875 0.217500
0.325000 0.771875 0.217500
0.400000 0.771875 0.217500
0.475000 0.771875 0.217500
0.550000 0.771875 0.217500
0.625000 0.771875 0.217500
0.700000 0.771875 0.217500
0.775000 0.771875 0.217500
0.850000 0.771875 0.217500
0.925000 0.771875 0.217500
1.000000 0.771875 0.217500
1.000000 0.771875 0.217500
1.000000 0.771875 0.217500
1.000000 0.771875 0.217500
1.000000 0.771875 0.217500
0.100000 0.831250 0.217500
0.175000 0.831250 0.217500
0.250000 0.831250 0.217500
0.325000 0.831250 0.217500
0.400000 0.831250 0.217500
0.475000 0.831250 0.217500
0.550000 0.831250 0.217500
0.625000 0.831250 0.217500
0.700000 0.831250 0.217500
0.775000 0.831250 0.217500
0.850000 0.831250 0.217500
0.925000 0.831250 0.217500
1.000000 0.831250 0.217500
1.000000 0.831250 0.217500
1.000000 0.831250 0.217500
1.000000 0.831250 0.217500
1.000000 0.831250 0.217500
0.100000 0.890625 0.217500
0.175000 0.890625 0.217500
0.250000 0.890625 0.217500
0.325000 0.890625 0.217500
0.400000 0.890625 0.217500
0.475000 0.890625 0.217500
0.550000 0.890625 0.217500
0.625000 0.890625 0.217500
0.700000 0.890625 0.217500
0.775000 0.890625 0.217500
0.850000 0.890625 0.217500
0.925000 0.890625 0.217500
1.000000 0.890625 0.217500
1.000000 0.890625 0.217500
1.000000 0.890625 0.217500
1.000000 0.890625 0.217500
1.000000 0.890625 0.217500
0.100000 0.950000 0.217500
0.175000 0.950000 0.217500
0.250000 0.950000 0.217500
0.325000 0.950000 0.217500
0.400000 0.950000 0.217500
0.475000 0.950000 0.217500
0.550000 0.950000 0.217500
0.625000 0.950000 0.217500
0.700000 0.950000 0.217500
0.775000 0.950000 0.217500
0.850000 0.950000 0.217500
0.925000 0.950000 0.217500
1.000000 0.950000 0.217500
1.000000 0.950000 0.217500
1.000000 0.950000 0.217500
1.000000 0.950000 0.217500
1.000000 0.950000 0.217500
0.100000 0.000000 0.286250
0.175000 0.000000 0.286250
0.250000 0.000000 0.286250
0.325000 0.000000 0.286250
0.400000 0.000000 0.286250
0.475000 0.000000 0.286250
0.550000 0.000000 0.286250
0.625000 0.000000 0.286250
0.700000 0.000000 0.286250
0.775000 0.000000 0.286250
0.850000 0.000000 0.286250
0.925000 0.000000 0.286250
1.000000 0.000000 0.286250
1.000000 0.000000 0.286250
1.000000 0.000000 0.286250
1.000000 0.000000 0.286250
1.000000 0.000000 0.286250
0.100000 0.059375 0.286250
