app/src/main/assets/luts/chrome_metal.cube
# ApexStudio filter: chrome_metal
LUT_3D_SIZE 5
DOMAIN_MIN 0.0 0.0 0.0
DOMAIN_MAX 1.0 1.0 1.0
0.000000 0.000000 0.000000
0.100000 0.000000 0.000000
0.500000 0.000000 0.000000
0.900000 0.000000 0.000000
1.000000 0.000000 0.000000
0.000000 0.100000 0.000000
0.100000 0.100000 0.000000
0.500000 0.100000 0.000000
0.900000 0.100000 0.000000
1.000000 0.100000 0.000000
0.000000 0.500000 0.000000
0.100000 0.500000 0.000000
0.500000 0.500000 0.000000
0.900000 0.500000 0.000000
1.000000 0.500000 0.000000
0.000000 0.900000 0.000000
0.100000 0.900000 0.000000
0.500000 0.900000 0.000000
0.900000 0.900000 0.000000
1.000000 0.900000 0.000000
0.000000 1.000000 0.000000
0.100000 1.000000 0.000000
0.500000 1.000000 0.000000
0.900000 1.000000 0.000000
1.000000 1.000000 0.000000
0.000000 0.000000 0.100000
0.100000 0.000000 0.100000
0.500000 0.000000 0.100000
0.900000 0.000000 0.100000
1.000000 0.000000 0.100000
0.000000 0.100000 0.100000
0.100000 0.100000 0.100000
0.500000 0.100000 0.100000
0.900000 0.100000 0.100000
1.000000 0.100000 0.100000
0.000000 0.500000 0.100000
0.100000 0.500000 0.100000
0.500000 0.500000 0.100000
0.900000 0.500000 0.100000
1.000000 0.500000 0.100000
0.000000 0.900000 0.100000
0.100000 0.900000 0.100000
0.500000 0.900000 0.100000
0.900000 0.900000 0.100000
1.000000 0.900000 0.100000
0.000000 1.000000 0.100000
0.100000 1.000000 0.100000
0.500000 1.000000 0.100000
0.900000 1.000000 0.100000
1.000000 1.000000 0.100000
0.000000 0.000000 0.500000
0.100000 0.000000 0.500000
0.500000 0.000000 0.500000
0.900000 0.000000 0.500000
1.000000 0.000000 0.500000
0.000000 0.100000 0.500000
0.100000 0.100000 0.500000
0.500000 0.100000 0.500000
0.900000 0.100000 0.500000
1.000000 0.100000 0.500000
0.000000 0.500000 0.500000
0.100000 0.500000 0.500000
0.500000 0.500000 0.500000
0.900000 0.500000 0.500000
1.000000 0.500000 0.500000
0.000000 0.900000 0.500000
0.100000 0.900000 0.500000
0.500000 0.900000 0.500000
0.900000 0.900000 0.500000
1.000000 0.900000 0.500000
0.000000 1.000000 0.500000
0.100000 1.000000 0.500000
0.500000 1.000000 0.500000
0.900000 1.000000 0.500000
1.000000 1.000000 0.500000
0.000000 0.000000 0.900000
0.100000 0.000000 0.900000
0.500000 0.000000 0.900000
0.900000 0.000000 0.900000
1.000000 0.000000 0.900000
0.000000 0.100000 0.900000
0.100000 0.100000 0.900000
0.500000 0.100000 0.900000
0.900000 0.100000 0.900000
1.000000 0.100000 0.900000
0.000000 0.500000 0.900000
0.100000 0.500000 0.900000
0.500000 0.500000 0.900000
0.900000 0.500000 0.900000
1.000000 0.500000 0.900000
0.000000 0.900000 0.900000
0.100000 0.900000 0.900000
0.500000 0.900000 0.900000
0.900000 0.900000 0.900000
1.000000 0.900000 0.900000
0.000000 1.000000 0.900000
0.100000 1.000000 0.900000
0.500000 1.000000 0.900000
0.900000 1.000000 0.900000
1.000000 1.000000 0.900000
0.000000 0.000000 1.000000
0.100000 0.000000 1.000000
0.500000 0.000000 1.000000
0.900000 0.000000 1.000000
1.000000 0.000000 1.000000
0.000000 0.100000 1.000000
0.100000 0.100000 1.000000
0.500000 0.100000 1.000000
0.900000 0.100000 1.000000
1.000000 0.100000 1.000000
0.000000 0.500000 1.000000
0.100000 0.500000 1.000000
0.500000 0.500000 1.000000
0.900000 0.500000 1.000000
1.000000 0.500000 1.000000
0.000000 0.900000 1.000000
0.100000 0.900000 1.000000
0.500000 0.900000 1.000000
0.900000 0.900000 1.000000
1.000000 0.900000 1.000000
0.000000 1.000000 1.000000
0.100000 1.000000 1.000000
0.500000 1.000000 1.000000
0.900000 1.000000 1.000000
1.000000 1.000000 1.000000
