app/src/main/assets/luts/cinema_teal.cube
# ApexStudio filter: cinema_teal
LUT_3D_SIZE 5
DOMAIN_MIN 0.0 0.0 0.0
DOMAIN_MAX 1.0 1.0 1.0
0.000000 0.000000 0.000000
0.225000 0.000000 0.000000
0.450000 0.000000 0.000000
0.675000 0.000000 0.000000
0.900000 0.000000 0.000000
0.000000 0.262500 0.000000
0.225000 0.262500 0.000000
0.450000 0.262500 0.000000
0.675000 0.262500 0.000000
0.900000 0.262500 0.000000
0.000000 0.525000 0.000000
0.225000 0.525000 0.000000
0.450000 0.525000 0.000000
0.675000 0.525000 0.000000
0.900000 0.525000 0.000000
0.000000 0.787500 0.000000
0.225000 0.787500 0.000000
0.450000 0.787500 0.000000
0.675000 0.787500 0.000000
0.900000 0.787500 0.000000
0.000000 1.000000 0.000000
0.225000 1.000000 0.000000
0.450000 1.000000 0.000000
0.675000 1.000000 0.000000
0.900000 1.000000 0.000000
0.000000 0.000000 0.275000
0.225000 0.000000 0.275000
0.450000 0.000000 0.275000
0.675000 0.000000 0.275000
0.900000 0.000000 0.275000
0.000000 0.262500 0.275000
0.225000 0.262500 0.275000
0.450000 0.262500 0.275000
0.675000 0.262500 0.275000
0.900000 0.262500 0.275000
0.000000 0.525000 0.275000
0.225000 0.525000 0.275000
0.450000 0.525000 0.275000
0.675000 0.525000 0.275000
0.900000 0.525000 0.275000
0.000000 0.787500 0.275000
0.225000 0.787500 0.275000
0.450000 0.787500 0.275000
0.675000 0.787500 0.275000
0.900000 0.787500 0.275000
0.000000 1.000000 0.275000
0.225000 1.000000 0.275000
0.450000 1.000000 0.275000
0.675000 1.000000 0.275000
0.900000 1.000000 0.275000
0.000000 0.000000 0.550000
0.225000 0.000000 0.550000
0.450000 0.000000 0.550000
0.675000 0.000000 0.550000
0.900000 0.000000 0.550000
0.000000 0.262500 0.550000
0.225000 0.262500 0.550000
0.450000 0.262500 0.550000
0.675000 0.262500 0.550000
0.900000 0.262500 0.550000
0.000000 0.525000 0.550000
0.225000 0.525000 0.550000
0.450000 0.525000 0.550000
0.675000 0.525000 0.550000
0.900000 0.525000 0.550000
0.000000 0.787500 0.550000
0.225000 0.787500 0.550000
0.450000 0.787500 0.550000
0.675000 0.787500 0.550000
0.900000 0.787500 0.550000
0.000000 1.000000 0.550000
0.225000 1.000000 0.550000
0.450000 1.000000 0.550000
0.675000 1.000000 0.550000
0.900000 1.000000 0.550000
0.000000 0.000000 0.825000
0.225000 0.000000 0.825000
0.450000 0.000000 0.825000
0.675000 0.000000 0.825000
0.900000 0.000000 0.825000
0.000000 0.262500 0.825000
0.225000 0.262500 0.825000
0.450000 0.262500 0.825000
0.675000 0.262500 0.825000
0.900000 0.262500 0.825000
0.000000 0.525000 0.825000
0.225000 0.525000 0.825000
0.450000 0.525000 0.825000
0.675000 0.525000 0.825000
0.900000 0.525000 0.825000
0.000000 0.787500 0.825000
0.225000 0.787500 0.825000
0.450000 0.787500 0.825000
0.675000 0.787500 0.825000
0.900000 0.787500 0.825000
0.000000 1.000000 0.825000
0.225000 1.000000 0.825000
0.450000 1.000000 0.825000
0.675000 1.000000 0.825000
0.900000 1.000000 0.825000
0.000000 0.000000 1.000000
0.225000 0.000000 1.000000
0.450000 0.000000 1.000000
0.675000 0.000000 1.000000
0.900000 0.000000 1.000000
0.000000 0.262500 1.000000
0.225000 0.262500 1.000000
0.450000 0.262500 1.000000
0.675000 0.262500 1.000000
0.900000 0.262500 1.000000
0.000000 0.525000 1.000000
0.225000 0.525000 1.000000
0.450000 0.525000 1.000000
0.675000 0.525000 1.000000
0.900000 0.525000 1.000000
0.000000 0.787500 1.000000
0.225000 0.787500 1.000000
0.450000 0.787500 1.000000
0.675000 0.787500 1.000000
0.900000 0.787500 1.000000
0.000000 1.000000 1.000000
0.225000 1.000000 1.000000
0.450000 1.000000 1.000000
0.675000 1.000000 1.000000
0.900000 1.000000 1.000000
