app/src/main/assets/luts/clean_white.cube
# ApexStudio filter: clean_white
LUT_3D_SIZE 5
DOMAIN_MIN 0.0 0.0 0.0
DOMAIN_MAX 1.0 1.0 1.0
0.000000 0.000000 0.000000
0.225000 0.000000 0.000000
0.500000 0.000000 0.000000
0.775000 0.000000 0.000000
1.000000 0.000000 0.000000
0.000000 0.225000 0.000000
0.225000 0.225000 0.000000
0.500000 0.225000 0.000000
0.775000 0.225000 0.000000
1.000000 0.225000 0.000000
0.000000 0.500000 0.000000
0.225000 0.500000 0.000000
0.500000 0.500000 0.000000
0.775000 0.500000 0.000000
1.000000 0.500000 0.000000
0.000000 0.775000 0.000000
0.225000 0.775000 0.000000
0.500000 0.775000 0.000000
0.775000 0.775000 0.000000
1.000000 0.775000 0.000000
0.000000 1.000000 0.000000
0.225000 1.000000 0.000000
0.500000 1.000000 0.000000
0.775000 1.000000 0.000000
1.000000 1.000000 0.000000
0.000000 0.000000 0.225000
0.225000 0.000000 0.225000
0.500000 0.000000 0.225000
0.775000 0.000000 0.225000
1.000000 0.000000 0.225000
0.000000 0.225000 0.225000
0.225000 0.225000 0.225000
0.500000 0.225000 0.225000
0.775000 0.225000 0.225000
1.000000 0.225000 0.225000
0.000000 0.500000 0.225000
0.225000 0.500000 0.225000
0.500000 0.500000 0.225000
0.775000 0.500000 0.225000
1.000000 0.500000 0.225000
0.000000 0.775000 0.225000
0.225000 0.775000 0.225000
0.500000 0.775000 0.225000
0.775000 0.775000 0.225000
1.000000 0.775000 0.225000
0.000000 1.000000 0.225000
0.225000 1.000000 0.225000
0.500000 1.000000 0.225000
0.775000 1.000000 0.225000
1.000000 1.000000 0.225000
0.000000 0.000000 0.500000
0.225000 0.000000 0.500000
0.500000 0.000000 0.500000
0.775000 0.000000 0.500000
1.000000 0.000000 0.500000
0.000000 0.225000 0.500000
0.225000 0.225000 0.500000
0.500000 0.225000 0.500000
0.775000 0.225000 0.500000
1.000000 0.225000 0.500000
0.000000 0.500000 0.500000
0.225000 0.500000 0.500000
0.500000 0.500000 0.500000
0.775000 0.500000 0.500000
1.000000 0.500000 0.500000
0.000000 0.775000 0.500000
0.225000 0.775000 0.500000
0.500000 0.775000 0.500000
0.775000 0.775000 0.500000
1.000000 0.775000 0.500000
0.000000 1.000000 0.500000
0.225000 1.000000 0.500000
0.500000 1.000000 0.500000
0.775000 1.000000 0.500000
1.000000 1.000000 0.500000
0.000000 0.000000 0.775000
0.225000 0.000000 0.775000
0.500000 0.000000 0.775000
0.775000 0.000000 0.775000
1.000000 0.000000 0.775000
0.000000 0.225000 0.775000
0.225000 0.225000 0.775000
0.500000 0.225000 0.775000
0.775000 0.225000 0.775000
1.000000 0.225000 0.775000
0.000000 0.500000 0.775000
0.225000 0.500000 0.775000
0.500000 0.500000 0.775000
0.775000 0.500000 0.775000
1.000000 0.500000 0.775000
0.000000 0.775000 0.775000
0.225000 0.775000 0.775000
0.500000 0.775000 0.775000
0.775000 0.775000 0.775000
1.000000 0.775000 0.775000
0.000000 1.000000 0.775000
0.225000 1.000000 0.775000
0.500000 1.000000 0.775000
0.775000 1.000000 0.775000
1.000000 1.000000 0.775000
0.000000 0.000000 1.000000
0.225000 0.000000 1.000000
0.500000 0.000000 1.000000
0.775000 0.000000 1.000000
1.000000 0.000000 1.000000
0.000000 0.225000 1.000000
0.225000 0.225000 1.000000
0.500000 0.225000 1.000000
0.775000 0.225000 1.000000
1.000000 0.225000 1.000000
0.000000 0.500000 1.000000
0.225000 0.500000 1.000000
0.500000 0.500000 1.000000
0.775000 0.500000 1.000000
1.000000 0.500000 1.000000
0.000000 0.775000 1.000000
0.225000 0.775000 1.000000
0.500000 0.775000 1.000000
0.775000 0.775000 1.000000
1.000000 0.775000 1.000000
0.000000 1.000000 1.000000
0.225000 1.000000 1.000000
0.500000 1.000000 1.000000
0.775000 1.000000 1.000000
1.000000 1.000000 1.000000
