app/src/main/assets/luts/clean_white.cube
# ApexStudio filter: clean_white
LUT_3D_SIZE 17
DOMAIN_MIN 0.0 0.0 0.0
DOMAIN_MAX 1.0 1.0 1.0
0.000000 0.000000 0.000000
0.018750 0.000000 0.000000
0.087500 0.000000 0.000000
0.156250 0.000000 0.000000
0.225000 0.000000 0.000000
0.293750 0.000000 0.000000
0.362500 0.000000 0.000000
0.431250 0.000000 0.000000
0.500000 0.000000 0.000000
0.568750 0.000000 0.000000
0.637500 0.000000 0.000000
0.706250 0.000000 0.000000
0.775000 0.000000 0.000000
0.843750 0.000000 0.000000
0.912500 0.000000 0.000000
0.981250 0.000000 0.000000
1.000000 0.000000 0.000000
0.000000 0.018750 0.000000
0.018750 0.018750 0.000000
0.087500 0.018750 0.000000
0.156250 0.018750 0.000000
0.225000 0.018750 0.000000
0.293750 0.018750 0.000000
0.362500 0.018750 0.000000
0.431250 0.018750 0.000000
0.500000 0.018750 0.000000
0.568750 0.018750 0.000000
0.637500 0.018750 0.000000
0.706250 0.018750 0.000000
0.775000 0.018750 0.000000
0.843750 0.018750 0.000000
0.912500 0.018750 0.000000
0.981250 0.018750 0.000000
1.000000 0.018750 0.000000
0.000000 0.087500 0.000000
0.018750 0.087500 0.000000
0.087500 0.087500 0.000000
0.156250 0.087500 0.000000
0.225000 0.087500 0.000000
0.293750 0.087500 0.000000
0.362500 0.087500 0.000000
0.431250 0.087500 0.000000
0.500000 0.087500 0.000000
0.568750 0.087500 0.000000
0.637500 0.087500 0.000000
0.706250 0.087500 0.000000
0.775000 0.087500 0.000000
0.843750 0.087500 0.000000
0.912500 0.087500 0.000000
0.981250 0.087500 0.000000
1.000000 0.087500 0.000000
0.000000 0.156250 0.000000
0.018750 0.156250 0.000000
0.087500 0.156250 0.000000
0.156250 0.156250 0.000000
0.225000 0.156250 0.000000
0.293750 0.156250 0.000000
0.362500 0.156250 0.000000
0.431250 0.156250 0.000000
0.500000 0.156250 0.000000
0.568750 0.156250 0.000000
0.637500 0.156250 0.000000
0.706250 0.156250 0.000000
0.775000 0.156250 0.000000
0.843750 0.156250 0.000000
0.912500 0.156250 0.000000
0.981250 0.156250 0.000000
1.000000 0.156250 0.000000
0.000000 0.225000 0.000000
0.018750 0.225000 0.000000
0.087500 0.225000 0.000000
0.156250 0.225000 0.000000
0.225000 0.225000 0.000000
0.293750 0.225000 0.000000
0.362500 0.225000 0.000000
0.431250 0.225000 0.000000
0.500000 0.225000 0.000000
0.568750 0.225000 0.000000
0.637500 0.225000 0.000000
0.706250 0.225000 0.000000
0.775000 0.225000 0.000000
0.843750 0.225000 0.000000
0.912500 0.225000 0.000000
0.981250 0.225000 0.000000
1.000000 0.225000 0.000000
0.000000 0.293750 0.000000
0.018750 0.293750 0.000000
0.087500 0.293750 0.000000
0.156250 0.293750 0.000000
0.225000 0.293750 0.000000
0.293750 0.293750 0.000000
0.362500 0.293750 0.000000
0.431250 0.293750 0.000000
0.500000 0.293750 0.000000
0.568750 0.293750 0.000000
0.637500 0.293750 0.000000
0.706250 0.293750 0.000000
0.775000 0.293750 0.000000
0.843750 0.293750 0.000000
0.912500 0.293750 0.000000
0.981250 0.293750 0.000000
1.000000 0.293750 0.000000
0.000000 0.362500 0.000000
0.018750 0.362500 0.000000
0.087500 0.362500 0.000000
0.156250 0.362500 0.000000
0.225000 0.362500 0.000000
0.293750 0.362500 0.000000
0.362500 0.362500 0.000000
0.431250 0.362500 0.000000
0.500000 0.362500 0.000000
0.568750 0.362500 0.000000
0.637500 0.362500 0.000000
0.706250 0.362500 0.000000
0.775000 0.362500 0.000000
0.843750 0.362500 0.000000
0.912500 0.362500 0.000000
0.981250 0.362500 0.000000
1.000000 0.362500 0.000000
0.000000 0.431250 0.000000
0.018750 0.431250 0.000000
0.087500 0.431250 0.000000
0.156250 0.431250 0.000000
0.225000 0.431250 0.000000
0.293750 0.431250 0.000000
0.362500 0.431250 0.000000
0.431250 0.431250 0.000000
0.500000 0.431250 0.000000
0.568750 0.431250 0.000000
0.637500 0.431250 0.000000
0.706250 0.431250 0.000000
0.775000 0.431250 0.000000
0.843750 0.431250 0.000000
0.912500 0.431250 0.000000
0.981250 0.431250 0.000000
1.000000 0.431250 0.000000
0.000000 0.500000 0.000000
0.018750 0.500000 0.000000
0.087500 0.500000 0.000000
0.156250 0.500000 0.000000
0.225000 0.500000 0.000000
0.293750 0.500000 0.000000
0.362500 0.500000 0.000000
0.431250 0.500000 0.000000
0.500000 0.500000 0.000000
0.568750 0.500000 0.000000
0.637500 0.500000 0.000000
0.706250 0.500000 0.000000
0.775000 0.500000 0.000000
0.843750 0.500000 0.000000
0.912500 0.500000 0.000000
0.981250 0.500000 0.000000
1.000000 0.500000 0.000000
0.000000 0.568750 0.000000
0.018750 0.568750 0.000000
0.087500 0.568750 0.000000
0.156250 0.568750 0.000000
0.225000 0.568750 0.000000
0.293750 0.568750 0.000000
0.362500 0.568750 0.000000
0.431250 0.568750 0.000000
0.500000 0.568750 0.000000
0.568750 0.568750 0.000000
0.637500 0.568750 0.000000
0.706250 0.568750 0.000000
0.775000 0.568750 0.000000
0.843750 0.568750 0.000000
0.912500 0.568750 0.000000
0.981250 0.568750 0.000000
1.000000 0.568750 0.000000
0.000000 0.637500 0.000000
0.018750 0.637500 0.000000
0.087500 0.637500 0.000000
0.156250 0.637500 0.000000
0.225000 0.637500 0.000000
0.293750 0.637500 0.000000
0.362500 0.637500 0.000000
0.431250 0.637500 0.000000
0.500000 0.637500 0.000000
0.568750 0.637500 0.000000
0.637500 0.637500 0.000000
0.706250 0.637500 0.000000
0.775000 0.637500 0.000000
0.843750 0.637500 0.000000
0.912500 0.637500 0.000000
0.981250 0.637500 0.000000
1.000000 0.637500 0.000000
0.000000 0.706250 0.000000
0.018750 0.706250 0.000000
0.087500 0.706250 0.000000
0.156250 0.706250 0.000000
0.225000 0.706250 0.000000
0.293750 0.706250 0.000000
0.362500 0.706250 0.000000
0.431250 0.706250 0.000000
0.500000 0.706250 0.000000
0.568750 0.706250 0.000000
0.637500 0.706250 0.000000
0.706250 0.706250 0.000000
0.775000 0.706250 0.000000
0.843750 0.706250 0.000000
0.912500 0.706250 0.000000
0.981250 0.706250 0.000000
1.000000 0.706250 0.000000
0.000000 0.775000 0.000000
0.018750 0.775000 0.000000
0.087500 0.775000 0.000000
0.156250 0.775000 0.000000
0.225000 0.775000 0.000000
0.293750 0.775000 0.000000
0.362500 0.775000 0.000000
0.431250 0.775000 0.000000
0.500000 0.775000 0.000000
0.568750 0.775000 0.000000
0.637500 0.775000 0.000000
0.706250 0.775000 0.000000
0.775000 0.775000 0.000000
0.843750 0.775000 0.000000
0.912500 0.775000 0.000000
0.981250 0.775000 0.000000
1.000000 0.775000 0.000000
0.000000 0.843750 0.000000
0.018750 0.843750 0.000000
0.087500 0.843750 0.000000
0.156250 0.843750 0.000000
0.225000 0.843750 0.000000
0.293750 0.843750 0.000000
0.362500 0.843750 0.000000
0.431250 0.843750 0.000000
0.500000 0.843750 0.000000
0.568750 0.843750 0.000000
0.637500 0.843750 0.000000
0.706250 0.843750 0.000000
0.775000 0.843750 0.000000
0.843750 0.843750 0.000000
0.912500 0.843750 0.000000
0.981250 0.843750 0.000000
1.000000 0.843750 0.000000
0.000000 0.912500 0.000000
0.018750 0.912500 0.000000
0.087500 0.912500 0.000000
0.156250 0.912500 0.000000
0.225000 0.912500 0.000000
0.293750 0.912500 0.000000
0.362500 0.912500 0.000000
0.431250 0.912500 0.000000
0.500000 0.912500 0.000000
0.568750 0.912500 0.000000
0.637500 0.912500 0.000000
0.706250 0.912500 0.000000
0.775000 0.912500 0.000000
0.843750 0.912500 0.000000
0.912500 0.912500 0.000000
0.981250 0.912500 0.000000
1.000000 0.912500 0.000000
0.000000 0.981250 0.000000
0.018750 0.981250 0.000000
0.087500 0.981250 0.000000
0.156250 0.981250 0.000000
0.225000 0.981250 0.000000
0.293750 0.981250 0.000000
0.362500 0.981250 0.000000
0.431250 0.981250 0.000000
0.500000 0.981250 0.000000
0.568750 0.981250 0.000000
0.637500 0.981250 0.000000
0.706250 0.981250 0.000000
0.775000 0.981250 0.000000
0.843750 0.981250 0.000000
0.912500 0.981250 0.000000
0.981250 0.981250 0.000000
1.000000 0.981250 0.000000
0.000000 1.000000 0.000000
0.018750 1.000000 0.000000
0.087500 1.000000 0.000000
0.156250 1.000000 0.000000
0.225000 1.000000 0.000000
0.293750 1.000000 0.000000
0.362500 1.000000 0.000000
0.431250 1.000000 0.000000
0.500000 1.000000 0.000000
0.568750 1.000000 0.000000
0.637500 1.000000 0.000000
0.706250 1.000000 0.000000
0.775000 1.000000 0.000000
0.843750 1.000000 0.000000
0.912500 1.000000 0.000000
0.981250 1.000000 0.000000
1.000000 1.000000 0.000000
0.000000 0.000000 0.018750
0.018750 0.000000 0.018750
0.087500 0.000000 0.018750
0.156250 0.000000 0.018750
0.225000 0.000000 0.018750
0.293750 0.000000 0.018750
0.362500 0.000000 0.018750
0.431250 0.000000 0.018750
0.500000 0.000000 0.018750
0.568750 0.000000 0.018750
0.637500 0.000000 0.018750
0.706250 0.000000 0.018750
0.775000 0.000000 0.018750
0.843750 0.000000 0.018750
0.912500 0.000000 0.018750
0.981250 0.000000 0.018750
1.000000 0.000000 0.018750
0.000000 0.018750 0.018750
0.018750 0.018750 0.018750
0.087500 0.018750 0.018750
0.156250 0.018750 0.018750
0.225000 0.018750 0.018750
0.293750 0.018750 0.018750
0.362500 0.018750 0.018750
0.431250 0.018750 0.018750
0.500000 0.018750 0.018750
0.568750 0.018750 0.018750
0.637500 0.018750 0.018750
0.706250 0.018750 0.018750
0.775000 0.018750 0.018750
0.843750 0.018750 0.018750
0.912500 0.018750 0.018750
0.981250 0.018750 0.018750
1.000000 0.018750 0.018750
0.000000 0.087500 0.018750
0.018750 0.087500 0.018750
0.087500 0.087500 0.018750
0.156250 0.087500 0.018750
0.225000 0.087500 0.018750
0.293750 0.087500 0.018750
0.362500 0.087500 0.018750
0.431250 0.087500 0.018750
0.500000 0.087500 0.018750
0.568750 0.087500 0.018750
0.637500 0.087500 0.018750
0.706250 0.087500 0.018750
0.775000 0.087500 0.018750
0.843750 0.087500 0.018750
0.912500 0.087500 0.018750
0.981250 0.087500 0.018750
1.000000 0.087500 0.018750
0.000000 0.156250 0.018750
0.018750 0.156250 0.018750
0.087500 0.156250 0.018750
0.156250 0.156250 0.018750
0.225000 0.156250 0.018750
0.293750 0.156250 0.018750
0.362500 0.156250 0.018750
0.431250 0.156250 0.018750
0.500000 0.156250 0.018750
0.568750 0.156250 0.018750
0.637500 0.156250 0.018750
0.706250 0.156250 0.018750
0.775000 0.156250 0.018750
0.843750 0.156250 0.018750
0.912500 0.156250 0.018750
0.981250 0.156250 0.018750
1.000000 0.156250 0.018750
0.000000 0.225000 0.018750
0.018750 0.225000 0.018750
0.087500 0.225000 0.018750
0.156250 0.225000 0.018750
0.225000 0.225000 0.018750
0.293750 0.225000 0.018750
0.362500 0.225000 0.018750
0.431250 0.225000 0.018750
0.500000 0.225000 0.018750
0.568750 0.225000 0.018750
0.637500 0.225000 0.018750
0.706250 0.225000 0.018750
0.775000 0.225000 0.018750
0.843750 0.225000 0.018750
0.912500 0.225000 0.018750
0.981250 0.225000 0.018750
1.000000 0.225000 0.018750
0.000000 0.293750 0.018750
0.018750 0.293750 0.018750
0.087500 0.293750 0.018750
0.156250 0.293750 0.018750
0.225000 0.293750 0.018750
0.293750 0.293750 0.018750
0.362500 0.293750 0.018750
0.431250 0.293750 0.018750
0.500000 0.293750 0.018750
0.568750 0.293750 0.018750
0.637500 0.293750 0.018750
0.706250 0.293750 0.018750
0.775000 0.293750 0.018750
0.843750 0.293750 0.018750
0.912500 0.293750 0.018750
0.981250 0.293750 0.018750
1.000000 0.293750 0.018750
0.000000 0.362500 0.018750
0.018750 0.362500 0.018750
0.087500 0.362500 0.018750
0.156250 0.362500 0.018750
0.225000 0.362500 0.018750
0.293750 0.362500 0.018750
0.362500 0.362500 0.018750
0.431250 0.362500 0.018750
0.500000 0.362500 0.018750
0.568750 0.362500 0.018750
0.637500 0.362500 0.018750
0.706250 0.362500 0.018750
0.775000 0.362500 0.018750
0.843750 0.362500 0.018750
0.912500 0.362500 0.018750
0.981250 0.362500 0.018750
1.000000 0.362500 0.018750
0.000000 0.431250 0.018750
0.018750 0.431250 0.018750
0.087500 0.431250 0.018750
0.156250 0.431250 0.018750
0.225000 0.431250 0.018750
0.293750 0.431250 0.018750
0.362500 0.431250 0.018750
0.431250 0.431250 0.018750
0.500000 0.431250 0.018750
0.568750 0.431250 0.018750
0.637500 0.431250 0.018750
0.706250 0.431250 0.018750
0.775000 0.431250 0.018750
0.843750 0.431250 0.018750
0.912500 0.431250 0.018750
0.981250 0.431250 0.018750
1.000000 0.431250 0.018750
0.000000 0.500000 0.018750
0.018750 0.500000 0.018750
0.087500 0.500000 0.018750
0.156250 0.500000 0.018750
0.225000 0.500000 0.018750
0.293750 0.500000 0.018750
0.362500 0.500000 0.018750
0.431250 0.500000 0.018750
0.500000 0.500000 0.018750
0.568750 0.500000 0.018750
0.637500 0.500000 0.018750
0.706250 0.500000 0.018750
0.775000 0.500000 0.018750
0.843750 0.500000 0.018750
0.912500 0.500000 0.018750
0.981250 0.500000 0.018750
1.000000 0.500000 0.018750
0.000000 0.568750 0.018750
0.018750 0.568750 0.018750
0.087500 0.568750 0.018750
0.156250 0.568750 0.018750
0.225000 0.568750 0.018750
0.293750 0.568750 0.018750
0.362500 0.568750 0.018750
0.431250 0.568750 0.018750
0.500000 0.568750 0.018750
0.568750 0.568750 0.018750
0.637500 0.568750 0.018750
0.706250 0.568750 0.018750
0.775000 0.568750 0.018750
0.843750 0.568750 0.018750
0.912500 0.568750 0.018750
0.981250 0.568750 0.018750
1.000000 0.568750 0.018750
0.000000 0.637500 0.018750
0.018750 0.637500 0.018750
0.087500 0.637500 0.018750
0.156250 0.637500 0.018750
0.225000 0.637500 0.018750
0.293750 0.637500 0.018750
0.362500 0.637500 0.018750
0.431250 0.637500 0.018750
0.500000 0.637500 0.018750
0.568750 0.637500 0.018750
0.637500 0.637500 0.018750
0.706250 0.637500 0.018750
0.775000 0.637500 0.018750
0.843750 0.637500 0.018750
0.912500 0.637500 0.018750
0.981250 0.637500 0.018750
1.000000 0.637500 0.018750
0.000000 0.706250 0.018750
0.018750 0.706250 0.018750
0.087500 0.706250 0.018750
0.156250 0.706250 0.018750
0.225000 0.706250 0.018750
0.293750 0.706250 0.018750
0.362500 0.706250 0.018750
0.431250 0.706250 0.018750
0.500000 0.706250 0.018750
0.568750 0.706250 0.018750
0.637500 0.706250 0.018750
0.706250 0.706250 0.018750
0.775000 0.706250 0.018750
0.843750 0.706250 0.018750
0.912500 0.706250 0.018750
0.981250 0.706250 0.018750
1.000000 0.706250 0.018750
0.000000 0.775000 0.018750
0.018750 0.775000 0.018750
0.087500 0.775000 0.018750
0.156250 0.775000 0.018750
0.225000 0.775000 0.018750
0.293750 0.775000 0.018750
0.362500 0.775000 0.018750
0.431250 0.775000 0.018750
0.500000 0.775000 0.018750
0.568750 0.775000 0.018750
0.637500 0.775000 0.018750
0.706250 0.775000 0.018750
0.775000 0.775000 0.018750
0.843750 0.775000 0.018750
0.912500 0.775000 0.018750
0.981250 0.775000 0.018750
1.000000 0.775000 0.018750
0.000000 0.843750 0.018750
0.018750 0.843750 0.018750
0.087500 0.843750 0.018750
0.156250 0.843750 0.018750
0.225000 0.843750 0.018750
0.293750 0.843750 0.018750
0.362500 0.843750 0.018750
0.431250 0.843750 0.018750
0.500000 0.843750 0.018750
0.568750 0.843750 0.018750
0.637500 0.843750 0.018750
0.706250 0.843750 0.018750
0.775000 0.843750 0.018750
0.843750 0.843750 0.018750
0.912500 0.843750 0.018750
0.981250 0.843750 0.018750
1.000000 0.843750 0.018750
0.000000 0.912500 0.018750
0.018750 0.912500 0.018750
0.087500 0.912500 0.018750
0.156250 0.912500 0.018750
0.225000 0.912500 0.018750
0.293750 0.912500 0.018750
0.362500 0.912500 0.018750
0.431250 0.912500 0.018750
0.500000 0.912500 0.018750
0.568750 0.912500 0.018750
0.637500 0.912500 0.018750
0.706250 0.912500 0.018750
0.775000 0.912500 0.018750
0.843750 0.912500 0.018750
0.912500 0.912500 0.018750
0.981250 0.912500 0.018750
1.000000 0.912500 0.018750
0.000000 0.981250 0.018750
0.018750 0.981250 0.018750
0.087500 0.981250 0.018750
0.156250 0.981250 0.018750
0.225000 0.981250 0.018750
0.293750 0.981250 0.018750
0.362500 0.981250 0.018750
0.431250 0.981250 0.018750
0.500000 0.981250 0.018750
0.568750 0.981250 0.018750
0.637500 0.981250 0.018750
0.706250 0.981250 0.018750
0.775000 0.981250 0.018750
0.843750 0.981250 0.018750
0.912500 0.981250 0.018750
0.981250 0.981250 0.018750
1.000000 0.981250 0.018750
0.000000 1.000000 0.018750
0.018750 1.000000 0.018750
0.087500 1.000000 0.018750
0.156250 1.000000 0.018750
0.225000 1.000000 0.018750
0.293750 1.000000 0.018750
0.362500 1.000000 0.018750
0.431250 1.000000 0.018750
0.500000 1.000000 0.018750
0.568750 1.000000 0.018750
0.637500 1.000000 0.018750
0.706250 1.000000 0.018750
0.775000 1.000000 0.018750
0.843750 1.000000 0.018750
0.912500 1.000000 0.018750
0.981250 1.000000 0.018750
1.000000 1.000000 0.018750
0.000000 0.000000 0.087500
0.018750 0.000000 0.087500
0.087500 0.000000 0.087500
0.156250 0.000000 0.087500
0.225000 0.000000 0.087500
0.293750 0.000000 0.087500
0.362500 0.000000 0.087500
0.431250 0.000000 0.087500
0.500000 0.000000 0.087500
0.568750 0.000000 0.087500
0.637500 0.000000 0.087500
0.706250 0.000000 0.087500
0.775000 0.000000 0.087500
0.843750 0.000000 0.087500
0.912500 0.000000 0.087500
0.981250 0.000000 0.087500
1.000000 0.000000 0.087500
0.000000 0.018750 0.087500
0.018750 0.018750 0.087500
0.087500 0.018750 0.087500
0.156250 0.018750 0.087500
0.225000 0.018750 0.087500
0.293750 0.018750 0.087500
0.362500 0.018750 0.087500
0.431250 0.018750 0.087500
0.500000 0.018750 0.087500
0.568750 0.018750 0.087500
0.637500 0.018750 0.087500
0.706250 0.018750 0.087500
0.775000 0.018750 0.087500
0.843750 0.018750 0.087500
0.912500 0.018750 0.087500
0.981250 0.018750 0.087500
1.000000 0.018750 0.087500
0.000000 0.087500 0.087500
0.018750 0.087500 0.087500
0.087500 0.087500 0.087500
0.156250 0.087500 0.087500
0.225000 0.087500 0.087500
0.293750 0.087500 0.087500
0.362500 0.087500 0.087500
0.431250 0.087500 0.087500
0.500000 0.087500 0.087500
0.568750 0.087500 0.087500
0.637500 0.087500 0.087500
0.706250 0.087500 0.087500
0.775000 0.087500 0.087500
0.843750 0.087500 0.087500
0.912500 0.087500 0.087500
0.981250 0.087500 0.087500
1.000000 0.087500 0.087500
0.000000 0.156250 0.087500
0.018750 0.156250 0.087500
0.087500 0.156250 0.087500
0.156250 0.156250 0.087500
0.225000 0.156250 0.087500
0.293750 0.156250 0.087500
0.362500 0.156250 0.087500
0.431250 0.156250 0.087500
0.500000 0.156250 0.087500
0.568750 0.156250 0.087500
0.637500 0.156250 0.087500
0.706250 0.156250 0.087500
0.775000 0.156250 0.087500
0.843750 0.156250 0.087500
0.912500 0.156250 0.087500
0.981250 0.156250 0.087500
1.000000 0.156250 0.087500
0.000000 0.225000 0.087500
0.018750 0.225000 0.087500
0.087500 0.225000 0.087500
0.156250 0.225000 0.087500
0.225000 0.225000 0.087500
0.293750 0.225000 0.087500
0.362500 0.225000 0.087500
0.431250 0.225000 0.087500
0.500000 0.225000 0.087500
0.568750 0.225000 0.087500
0.637500 0.225000 0.087500
0.706250 0.225000 0.087500
0.775000 0.225000 0.087500
0.843750 0.225000 0.087500
0.912500 0.225000 0.087500
0.981250 0.225000 0.087500
1.000000 0.225000 0.087500
0.000000 0.293750 0.087500
0.018750 0.293750 0.087500
0.087500 0.293750 0.087500
0.156250 0.293750 0.087500
0.225000 0.293750 0.087500
0.293750 0.293750 0.087500
0.362500 0.293750 0.087500
0.431250 0.293750 0.087500
0.500000 0.293750 0.087500
0.568750 0.293750 0.087500
0.637500 0.293750 0.087500
0.706250 0.293750 0.087500
0.775000 0.293750 0.087500
0.843750 0.293750 0.087500
0.912500 0.293750 0.087500
0.981250 0.293750 0.087500
1.000000 0.293750 0.087500
0.000000 0.362500 0.087500
0.018750 0.362500 0.087500
0.087500 0.362500 0.087500
0.156250 0.362500 0.087500
0.225000 0.362500 0.087500
0.293750 0.362500 0.087500
0.362500 0.362500 0.087500
0.431250 0.362500 0.087500
0.500000 0.362500 0.087500
0.568750 0.362500 0.087500
0.637500 0.362500 0.087500
0.706250 0.362500 0.087500
0.775000 0.362500 0.087500
0.843750 0.362500 0.087500
0.912500 0.362500 0.087500
0.981250 0.362500 0.087500
1.000000 0.362500 0.087500
0.000000 0.431250 0.087500
0.018750 0.431250 0.087500
0.087500 0.431250 0.087500
0.156250 0.431250 0.087500
0.225000 0.431250 0.087500
0.293750 0.431250 0.087500
0.362500 0.431250 0.087500
0.431250 0.431250 0.087500
0.500000 0.431250 0.087500
0.568750 0.431250 0.087500
0.637500 0.431250 0.087500
0.706250 0.431250 0.087500
0.775000 0.431250 0.087500
0.843750 0.431250 0.087500
0.912500 0.431250 0.087500
0.981250 0.431250 0.087500
1.000000 0.431250 0.087500
0.000000 0.500000 0.087500
0.018750 0.500000 0.087500
0.087500 0.500000 0.087500
0.156250 0.500000 0.087500
0.225000 0.500000 0.087500
0.293750 0.500000 0.087500
0.362500 0.500000 0.087500
0.431250 0.500000 0.087500
0.500000 0.500000 0.087500
0.568750 0.500000 0.087500
0.637500 0.500000 0.087500
0.706250 0.500000 0.087500
0.775000 0.500000 0.087500
0.843750 0.500000 0.087500
0.912500 0.500000 0.087500
0.981250 0.500000 0.087500
1.000000 0.500000 0.087500
0.000000 0.568750 0.087500
0.018750 0.568750 0.087500
0.087500 0.568750 0.087500
0.156250 0.568750 0.087500
0.225000 0.568750 0.087500
0.293750 0.568750 0.087500
0.362500 0.568750 0.087500
0.431250 0.568750 0.087500
0.500000 0.568750 0.087500
0.568750 0.568750 0.087500
0.637500 0.568750 0.087500
0.706250 0.568750 0.087500
0.775000 0.568750 0.087500
0.843750 0.568750 0.087500
0.912500 0.568750 0.087500
0.981250 0.568750 0.087500
1.000000 0.568750 0.087500
0.000000 0.637500 0.087500
0.018750 0.637500 0.087500
0.087500 0.637500 0.087500
0.156250 0.637500 0.087500
0.225000 0.637500 0.087500
0.293750 0.637500 0.087500
0.362500 0.637500 0.087500
0.431250 0.637500 0.087500
0.500000 0.637500 0.087500
0.568750 0.637500 0.087500
0.637500 0.637500 0.087500
0.706250 0.637500 0.087500
0.775000 0.637500 0.087500
0.843750 0.637500 0.087500
0.912500 0.637500 0.087500
0.981250 0.637500 0.087500
1.000000 0.637500 0.087500
0.000000 0.706250 0.087500
0.018750 0.706250 0.087500
0.087500 0.706250 0.087500
0.156250 0.706250 0.087500
0.225000 0.706250 0.087500
0.293750 0.706250 0.087500
0.362500 0.706250 0.087500
0.431250 0.706250 0.087500
0.500000 0.706250 0.087500
0.568750 0.706250 0.087500
0.637500 0.706250 0.087500
0.706250 0.706250 0.087500
0.775000 0.706250 0.087500
0.843750 0.706250 0.087500
0.912500 0.706250 0.087500
0.981250 0.706250 0.087500
1.000000 0.706250 0.087500
0.000000 0.775000 0.087500
0.018750 0.775000 0.087500
0.087500 0.775000 0.087500
0.156250 0.775000 0.087500
0.225000 0.775000 0.087500
0.293750 0.775000 0.087500
0.362500 0.775000 0.087500
0.431250 0.775000 0.087500
0.500000 0.775000 0.087500
0.568750 0.775000 0.087500
0.637500 0.775000 0.087500
0.706250 0.775000 0.087500
0.775000 0.775000 0.087500
0.843750 0.775000 0.087500
0.912500 0.775000 0.087500
0.981250 0.775000 0.087500
1.000000 0.775000 0.087500
0.000000 0.843750 0.087500
0.018750 0.843750 0.087500
0.087500 0.843750 0.087500
0.156250 0.843750 0.087500
0.225000 0.843750 0.087500
0.293750 0.843750 0.087500
0.362500 0.843750 0.087500
0.431250 0.843750 0.087500
0.500000 0.843750 0.087500
0.568750 0.843750 0.087500
0.637500 0.843750 0.087500
0.706250 0.843750 0.087500
0.775000 0.843750 0.087500
0.843750 0.843750 0.087500
0.912500 0.843750 0.087500
0.981250 0.843750 0.087500
1.000000 0.843750 0.087500
0.000000 0.912500 0.087500
0.018750 0.912500 0.087500
0.087500 0.912500 0.087500
0.156250 0.912500 0.087500
0.225000 0.912500 0.087500
0.293750 0.912500 0.087500
0.362500 0.912500 0.087500
0.431250 0.912500 0.087500
0.500000 0.912500 0.087500
0.568750 0.912500 0.087500
0.637500 0.912500 0.087500
0.706250 0.912500 0.087500
0.775000 0.912500 0.087500
0.843750 0.912500 0.087500
0.912500 0.912500 0.087500
0.981250 0.912500 0.087500
1.000000 0.912500 0.087500
0.000000 0.981250 0.087500
0.018750 0.981250 0.087500
0.087500 0.981250 0.087500
0.156250 0.981250 0.087500
0.225000 0.981250 0.087500
0.293750 0.981250 0.087500
0.362500 0.981250 0.087500
0.431250 0.981250 0.087500
0.500000 0.981250 0.087500
0.568750 0.981250 0.087500
0.637500 0.981250 0.087500
0.706250 0.981250 0.087500
0.775000 0.981250 0.087500
0.843750 0.981250 0.087500
0.912500 0.981250 0.087500
0.981250 0.981250 0.087500
1.000000 0.981250 0.087500
0.000000 1.000000 0.087500
0.018750 1.000000 0.087500
0.087500 1.000000 0.087500
0.156250 1.000000 0.087500
0.225000 1.000000 0.087500
0.293750 1.000000 0.087500
0.362500 1.000000 0.087500
0.431250 1.000000 0.087500
0.500000 1.000000 0.087500
0.568750 1.000000 0.087500
0.637500 1.000000 0.087500
0.706250 1.000000 0.087500
0.775000 1.000000 0.087500
0.843750 1.000000 0.087500
0.912500 1.000000 0.087500
0.981250 1.000000 0.087500
1.000000 1.000000 0.087500
0.000000 0.000000 0.156250
0.018750 0.000000 0.156250
0.087500 0.000000 0.156250
0.156250 0.000000 0.156250
0.225000 0.000000 0.156250
0.293750 0.000000 0.156250
0.362500 0.000000 0.156250
0.431250 0.000000 0.156250
0.500000 0.000000 0.156250
0.568750 0.000000 0.156250
0.637500 0.000000 0.156250
0.706250 0.000000 0.156250
0.775000 0.000000 0.156250
0.843750 0.000000 0.156250
0.912500 0.000000 0.156250
0.981250 0.000000 0.156250
1.000000 0.000000 0.156250
0.000000 0.018750 0.156250
