app/src/main/assets/luts/coastal_rock.cube
# ApexStudio filter: coastal_rock
LUT_3D_SIZE 17
DOMAIN_MIN 0.0 0.0 0.0
DOMAIN_MAX 1.0 1.0 1.0
0.020000 0.020000 0.050000
0.077500 0.020000 0.050000
0.135000 0.020000 0.050000
0.192500 0.020000 0.050000
0.250000 0.020000 0.050000
0.307500 0.020000 0.050000
0.365000 0.020000 0.050000
0.422500 0.020000 0.050000
0.480000 0.020000 0.050000
0.537500 0.020000 0.050000
0.595000 0.020000 0.050000
0.652500 0.020000 0.050000
0.710000 0.020000 0.050000
0.767500 0.020000 0.050000
0.825000 0.020000 0.050000
0.882500 0.020000 0.050000
0.940000 0.020000 0.050000
0.020000 0.077500 0.050000
0.077500 0.077500 0.050000
0.135000 0.077500 0.050000
0.192500 0.077500 0.050000
0.250000 0.077500 0.050000
0.307500 0.077500 0.050000
0.365000 0.077500 0.050000
0.422500 0.077500 0.050000
0.480000 0.077500 0.050000
0.537500 0.077500 0.050000
0.595000 0.077500 0.050000
0.652500 0.077500 0.050000
0.710000 0.077500 0.050000
0.767500 0.077500 0.050000
0.825000 0.077500 0.050000
0.882500 0.077500 0.050000
0.940000 0.077500 0.050000
0.020000 0.135000 0.050000
0.077500 0.135000 0.050000
0.135000 0.135000 0.050000
0.192500 0.135000 0.050000
0.250000 0.135000 0.050000
0.307500 0.135000 0.050000
0.365000 0.135000 0.050000
0.422500 0.135000 0.050000
0.480000 0.135000 0.050000
0.537500 0.135000 0.050000
0.595000 0.135000 0.050000
0.652500 0.135000 0.050000
0.710000 0.135000 0.050000
0.767500 0.135000 0.050000
0.825000 0.135000 0.050000
0.882500 0.135000 0.050000
0.940000 0.135000 0.050000
0.020000 0.192500 0.050000
0.077500 0.192500 0.050000
0.135000 0.192500 0.050000
0.192500 0.192500 0.050000
0.250000 0.192500 0.050000
0.307500 0.192500 0.050000
0.365000 0.192500 0.050000
0.422500 0.192500 0.050000
0.480000 0.192500 0.050000
0.537500 0.192500 0.050000
0.595000 0.192500 0.050000
0.652500 0.192500 0.050000
0.710000 0.192500 0.050000
0.767500 0.192500 0.050000
0.825000 0.192500 0.050000
0.882500 0.192500 0.050000
0.940000 0.192500 0.050000
0.020000 0.250000 0.050000
0.077500 0.250000 0.050000
0.135000 0.250000 0.050000
0.192500 0.250000 0.050000
0.250000 0.250000 0.050000
0.307500 0.250000 0.050000
0.365000 0.250000 0.050000
0.422500 0.250000 0.050000
0.480000 0.250000 0.050000
0.537500 0.250000 0.050000
0.595000 0.250000 0.050000
0.652500 0.250000 0.050000
0.710000 0.250000 0.050000
0.767500 0.250000 0.050000
0.825000 0.250000 0.050000
0.882500 0.250000 0.050000
0.940000 0.250000 0.050000
0.020000 0.307500 0.050000
0.077500 0.307500 0.050000
0.135000 0.307500 0.050000
0.192500 0.307500 0.050000
0.250000 0.307500 0.050000
0.307500 0.307500 0.050000
0.365000 0.307500 0.050000
0.422500 0.307500 0.050000
0.480000 0.307500 0.050000
0.537500 0.307500 0.050000
0.595000 0.307500 0.050000
0.652500 0.307500 0.050000
0.710000 0.307500 0.050000
0.767500 0.307500 0.050000
0.825000 0.307500 0.050000
0.882500 0.307500 0.050000
0.940000 0.307500 0.050000
0.020000 0.365000 0.050000
0.077500 0.365000 0.050000
0.135000 0.365000 0.050000
0.192500 0.365000 0.050000
0.250000 0.365000 0.050000
0.307500 0.365000 0.050000
0.365000 0.365000 0.050000
0.422500 0.365000 0.050000
0.480000 0.365000 0.050000
0.537500 0.365000 0.050000
0.595000 0.365000 0.050000
0.652500 0.365000 0.050000
0.710000 0.365000 0.050000
0.767500 0.365000 0.050000
0.825000 0.365000 0.050000
0.882500 0.365000 0.050000
0.940000 0.365000 0.050000
0.020000 0.422500 0.050000
0.077500 0.422500 0.050000
0.135000 0.422500 0.050000
0.192500 0.422500 0.050000
0.250000 0.422500 0.050000
0.307500 0.422500 0.050000
0.365000 0.422500 0.050000
0.422500 0.422500 0.050000
0.480000 0.422500 0.050000
0.537500 0.422500 0.050000
0.595000 0.422500 0.050000
0.652500 0.422500 0.050000
0.710000 0.422500 0.050000
0.767500 0.422500 0.050000
0.825000 0.422500 0.050000
0.882500 0.422500 0.050000
0.940000 0.422500 0.050000
0.020000 0.480000 0.050000
0.077500 0.480000 0.050000
0.135000 0.480000 0.050000
0.192500 0.480000 0.050000
0.250000 0.480000 0.050000
0.307500 0.480000 0.050000
0.365000 0.480000 0.050000
0.422500 0.480000 0.050000
0.480000 0.480000 0.050000
0.537500 0.480000 0.050000
0.595000 0.480000 0.050000
0.652500 0.480000 0.050000
0.710000 0.480000 0.050000
0.767500 0.480000 0.050000
0.825000 0.480000 0.050000
0.882500 0.480000 0.050000
0.940000 0.480000 0.050000
0.020000 0.537500 0.050000
0.077500 0.537500 0.050000
0.135000 0.537500 0.050000
0.192500 0.537500 0.050000
0.250000 0.537500 0.050000
0.307500 0.537500 0.050000
0.365000 0.537500 0.050000
0.422500 0.537500 0.050000
0.480000 0.537500 0.050000
0.537500 0.537500 0.050000
0.595000 0.537500 0.050000
0.652500 0.537500 0.050000
0.710000 0.537500 0.050000
0.767500 0.537500 0.050000
0.825000 0.537500 0.050000
0.882500 0.537500 0.050000
0.940000 0.537500 0.050000
0.020000 0.595000 0.050000
0.077500 0.595000 0.050000
0.135000 0.595000 0.050000
0.192500 0.595000 0.050000
0.250000 0.595000 0.050000
0.307500 0.595000 0.050000
0.365000 0.595000 0.050000
0.422500 0.595000 0.050000
0.480000 0.595000 0.050000
0.537500 0.595000 0.050000
0.595000 0.595000 0.050000
0.652500 0.595000 0.050000
0.710000 0.595000 0.050000
0.767500 0.595000 0.050000
0.825000 0.595000 0.050000
0.882500 0.595000 0.050000
0.940000 0.595000 0.050000
0.020000 0.652500 0.050000
0.077500 0.652500 0.050000
0.135000 0.652500 0.050000
0.192500 0.652500 0.050000
0.250000 0.652500 0.050000
0.307500 0.652500 0.050000
0.365000 0.652500 0.050000
0.422500 0.652500 0.050000
0.480000 0.652500 0.050000
0.537500 0.652500 0.050000
0.595000 0.652500 0.050000
0.652500 0.652500 0.050000
0.710000 0.652500 0.050000
0.767500 0.652500 0.050000
0.825000 0.652500 0.050000
0.882500 0.652500 0.050000
0.940000 0.652500 0.050000
0.020000 0.710000 0.050000
0.077500 0.710000 0.050000
0.135000 0.710000 0.050000
0.192500 0.710000 0.050000
0.250000 0.710000 0.050000
0.307500 0.710000 0.050000
0.365000 0.710000 0.050000
0.422500 0.710000 0.050000
0.480000 0.710000 0.050000
0.537500 0.710000 0.050000
0.595000 0.710000 0.050000
0.652500 0.710000 0.050000
0.710000 0.710000 0.050000
0.767500 0.710000 0.050000
0.825000 0.710000 0.050000
0.882500 0.710000 0.050000
0.940000 0.710000 0.050000
0.020000 0.767500 0.050000
0.077500 0.767500 0.050000
0.135000 0.767500 0.050000
0.192500 0.767500 0.050000
0.250000 0.767500 0.050000
0.307500 0.767500 0.050000
0.365000 0.767500 0.050000
0.422500 0.767500 0.050000
0.480000 0.767500 0.050000
0.537500 0.767500 0.050000
0.595000 0.767500 0.050000
0.652500 0.767500 0.050000
0.710000 0.767500 0.050000
0.767500 0.767500 0.050000
0.825000 0.767500 0.050000
0.882500 0.767500 0.050000
0.940000 0.767500 0.050000
0.020000 0.825000 0.050000
0.077500 0.825000 0.050000
0.135000 0.825000 0.050000
0.192500 0.825000 0.050000
0.250000 0.825000 0.050000
0.307500 0.825000 0.050000
0.365000 0.825000 0.050000
0.422500 0.825000 0.050000
0.480000 0.825000 0.050000
0.537500 0.825000 0.050000
0.595000 0.825000 0.050000
0.652500 0.825000 0.050000
0.710000 0.825000 0.050000
0.767500 0.825000 0.050000
0.825000 0.825000 0.050000
0.882500 0.825000 0.050000
0.940000 0.825000 0.050000
0.020000 0.882500 0.050000
0.077500 0.882500 0.050000
0.135000 0.882500 0.050000
0.192500 0.882500 0.050000
0.250000 0.882500 0.050000
0.307500 0.882500 0.050000
0.365000 0.882500 0.050000
0.422500 0.882500 0.050000
0.480000 0.882500 0.050000
0.537500 0.882500 0.050000
0.595000 0.882500 0.050000
0.652500 0.882500 0.050000
0.710000 0.882500 0.050000
0.767500 0.882500 0.050000
0.825000 0.882500 0.050000
0.882500 0.882500 0.050000
0.940000 0.882500 0.050000
0.020000 0.940000 0.050000
0.077500 0.940000 0.050000
0.135000 0.940000 0.050000
0.192500 0.940000 0.050000
0.250000 0.940000 0.050000
0.307500 0.940000 0.050000
0.365000 0.940000 0.050000
0.422500 0.940000 0.050000
0.480000 0.940000 0.050000
0.537500 0.940000 0.050000
0.595000 0.940000 0.050000
0.652500 0.940000 0.050000
0.710000 0.940000 0.050000
0.767500 0.940000 0.050000
0.825000 0.940000 0.050000
0.882500 0.940000 0.050000
0.940000 0.940000 0.050000
0.020000 0.020000 0.115625
0.077500 0.020000 0.115625
0.135000 0.020000 0.115625
0.192500 0.020000 0.115625
0.250000 0.020000 0.115625
0.307500 0.020000 0.115625
0.365000 0.020000 0.115625
0.422500 0.020000 0.115625
0.480000 0.020000 0.115625
0.537500 0.020000 0.115625
0.595000 0.020000 0.115625
0.652500 0.020000 0.115625
0.710000 0.020000 0.115625
0.767500 0.020000 0.115625
0.825000 0.020000 0.115625
0.882500 0.020000 0.115625
0.940000 0.020000 0.115625
0.020000 0.077500 0.115625
0.077500 0.077500 0.115625
0.135000 0.077500 0.115625
0.192500 0.077500 0.115625
0.250000 0.077500 0.115625
0.307500 0.077500 0.115625
0.365000 0.077500 0.115625
0.422500 0.077500 0.115625
0.480000 0.077500 0.115625
0.537500 0.077500 0.115625
0.595000 0.077500 0.115625
0.652500 0.077500 0.115625
0.710000 0.077500 0.115625
0.767500 0.077500 0.115625
0.825000 0.077500 0.115625
0.882500 0.077500 0.115625
0.940000 0.077500 0.115625
0.020000 0.135000 0.115625
0.077500 0.135000 0.115625
0.135000 0.135000 0.115625
0.192500 0.135000 0.115625
0.250000 0.135000 0.115625
0.307500 0.135000 0.115625
0.365000 0.135000 0.115625
0.422500 0.135000 0.115625
0.480000 0.135000 0.115625
0.537500 0.135000 0.115625
0.595000 0.135000 0.115625
0.652500 0.135000 0.115625
0.710000 0.135000 0.115625
0.767500 0.135000 0.115625
0.825000 0.135000 0.115625
0.882500 0.135000 0.115625
0.940000 0.135000 0.115625
0.020000 0.192500 0.115625
0.077500 0.192500 0.115625
0.135000 0.192500 0.115625
0.192500 0.192500 0.115625
0.250000 0.192500 0.115625
0.307500 0.192500 0.115625
0.365000 0.192500 0.115625
0.422500 0.192500 0.115625
0.480000 0.192500 0.115625
0.537500 0.192500 0.115625
0.595000 0.192500 0.115625
0.652500 0.192500 0.115625
0.710000 0.192500 0.115625
0.767500 0.192500 0.115625
0.825000 0.192500 0.115625
0.882500 0.192500 0.115625
0.940000 0.192500 0.115625
0.020000 0.250000 0.115625
0.077500 0.250000 0.115625
0.135000 0.250000 0.115625
0.192500 0.250000 0.115625
0.250000 0.250000 0.115625
0.307500 0.250000 0.115625
0.365000 0.250000 0.115625
0.422500 0.250000 0.115625
0.480000 0.250000 0.115625
0.537500 0.250000 0.115625
0.595000 0.250000 0.115625
0.652500 0.250000 0.115625
0.710000 0.250000 0.115625
0.767500 0.250000 0.115625
0.825000 0.250000 0.115625
0.882500 0.250000 0.115625
0.940000 0.250000 0.115625
0.020000 0.307500 0.115625
0.077500 0.307500 0.115625
0.135000 0.307500 0.115625
0.192500 0.307500 0.115625
0.250000 0.307500 0.115625
0.307500 0.307500 0.115625
0.365000 0.307500 0.115625
0.422500 0.307500 0.115625
0.480000 0.307500 0.115625
0.537500 0.307500 0.115625
0.595000 0.307500 0.115625
0.652500 0.307500 0.115625
0.710000 0.307500 0.115625
0.767500 0.307500 0.115625
0.825000 0.307500 0.115625
0.882500 0.307500 0.115625
0.940000 0.307500 0.115625
0.020000 0.365000 0.115625
0.077500 0.365000 0.115625
0.135000 0.365000 0.115625
0.192500 0.365000 0.115625
0.250000 0.365000 0.115625
0.307500 0.365000 0.115625
0.365000 0.365000 0.115625
0.422500 0.365000 0.115625
0.480000 0.365000 0.115625
0.537500 0.365000 0.115625
0.595000 0.365000 0.115625
0.652500 0.365000 0.115625
0.710000 0.365000 0.115625
0.767500 0.365000 0.115625
0.825000 0.365000 0.115625
0.882500 0.365000 0.115625
0.940000 0.365000 0.115625
0.020000 0.422500 0.115625
0.077500 0.422500 0.115625
0.135000 0.422500 0.115625
0.192500 0.422500 0.115625
0.250000 0.422500 0.115625
0.307500 0.422500 0.115625
0.365000 0.422500 0.115625
0.422500 0.422500 0.115625
0.480000 0.422500 0.115625
0.537500 0.422500 0.115625
0.595000 0.422500 0.115625
0.652500 0.422500 0.115625
0.710000 0.422500 0.115625
0.767500 0.422500 0.115625
0.825000 0.422500 0.115625
0.882500 0.422500 0.115625
0.940000 0.422500 0.115625
0.020000 0.480000 0.115625
0.077500 0.480000 0.115625
0.135000 0.480000 0.115625
0.192500 0.480000 0.115625
0.250000 0.480000 0.115625
0.307500 0.480000 0.115625
0.365000 0.480000 0.115625
0.422500 0.480000 0.115625
0.480000 0.480000 0.115625
0.537500 0.480000 0.115625
0.595000 0.480000 0.115625
0.652500 0.480000 0.115625
0.710000 0.480000 0.115625
0.767500 0.480000 0.115625
0.825000 0.480000 0.115625
0.882500 0.480000 0.115625
0.940000 0.480000 0.115625
0.020000 0.537500 0.115625
0.077500 0.537500 0.115625
0.135000 0.537500 0.115625
0.192500 0.537500 0.115625
0.250000 0.537500 0.115625
0.307500 0.537500 0.115625
0.365000 0.537500 0.115625
0.422500 0.537500 0.115625
0.480000 0.537500 0.115625
0.537500 0.537500 0.115625
0.595000 0.537500 0.115625
0.652500 0.537500 0.115625
0.710000 0.537500 0.115625
0.767500 0.537500 0.115625
0.825000 0.537500 0.115625
0.882500 0.537500 0.115625
0.940000 0.537500 0.115625
0.020000 0.595000 0.115625
0.077500 0.595000 0.115625
0.135000 0.595000 0.115625
0.192500 0.595000 0.115625
0.250000 0.595000 0.115625
0.307500 0.595000 0.115625
0.365000 0.595000 0.115625
0.422500 0.595000 0.115625
0.480000 0.595000 0.115625
0.537500 0.595000 0.115625
0.595000 0.595000 0.115625
0.652500 0.595000 0.115625
0.710000 0.595000 0.115625
0.767500 0.595000 0.115625
0.825000 0.595000 0.115625
0.882500 0.595000 0.115625
0.940000 0.595000 0.115625
0.020000 0.652500 0.115625
0.077500 0.652500 0.115625
0.135000 0.652500 0.115625
0.192500 0.652500 0.115625
0.250000 0.652500 0.115625
0.307500 0.652500 0.115625
0.365000 0.652500 0.115625
0.422500 0.652500 0.115625
0.480000 0.652500 0.115625
0.537500 0.652500 0.115625
0.595000 0.652500 0.115625
0.652500 0.652500 0.115625
0.710000 0.652500 0.115625
0.767500 0.652500 0.115625
0.825000 0.652500 0.115625
0.882500 0.652500 0.115625
0.940000 0.652500 0.115625
0.020000 0.710000 0.115625
0.077500 0.710000 0.115625
0.135000 0.710000 0.115625
0.192500 0.710000 0.115625
0.250000 0.710000 0.115625
0.307500 0.710000 0.115625
0.365000 0.710000 0.115625
0.422500 0.710000 0.115625
0.480000 0.710000 0.115625
0.537500 0.710000 0.115625
0.595000 0.710000 0.115625
0.652500 0.710000 0.115625
0.710000 0.710000 0.115625
0.767500 0.710000 0.115625
0.825000 0.710000 0.115625
0.882500 0.710000 0.115625
0.940000 0.710000 0.115625
0.020000 0.767500 0.115625
0.077500 0.767500 0.115625
0.135000 0.767500 0.115625
0.192500 0.767500 0.115625
0.250000 0.767500 0.115625
0.307500 0.767500 0.115625
0.365000 0.767500 0.115625
0.422500 0.767500 0.115625
0.480000 0.767500 0.115625
0.537500 0.767500 0.115625
0.595000 0.767500 0.115625
0.652500 0.767500 0.115625
0.710000 0.767500 0.115625
0.767500 0.767500 0.115625
0.825000 0.767500 0.115625
0.882500 0.767500 0.115625
0.940000 0.767500 0.115625
0.020000 0.825000 0.115625
0.077500 0.825000 0.115625
0.135000 0.825000 0.115625
0.192500 0.825000 0.115625
0.250000 0.825000 0.115625
0.307500 0.825000 0.115625
0.365000 0.825000 0.115625
0.422500 0.825000 0.115625
0.480000 0.825000 0.115625
0.537500 0.825000 0.115625
0.595000 0.825000 0.115625
0.652500 0.825000 0.115625
0.710000 0.825000 0.115625
0.767500 0.825000 0.115625
0.825000 0.825000 0.115625
0.882500 0.825000 0.115625
0.940000 0.825000 0.115625
0.020000 0.882500 0.115625
0.077500 0.882500 0.115625
0.135000 0.882500 0.115625
0.192500 0.882500 0.115625
0.250000 0.882500 0.115625
0.307500 0.882500 0.115625
0.365000 0.882500 0.115625
0.422500 0.882500 0.115625
0.480000 0.882500 0.115625
0.537500 0.882500 0.115625
0.595000 0.882500 0.115625
0.652500 0.882500 0.115625
0.710000 0.882500 0.115625
0.767500 0.882500 0.115625
0.825000 0.882500 0.115625
0.882500 0.882500 0.115625
0.940000 0.882500 0.115625
0.020000 0.940000 0.115625
0.077500 0.940000 0.115625
0.135000 0.940000 0.115625
0.192500 0.940000 0.115625
0.250000 0.940000 0.115625
0.307500 0.940000 0.115625
0.365000 0.940000 0.115625
0.422500 0.940000 0.115625
0.480000 0.940000 0.115625
0.537500 0.940000 0.115625
0.595000 0.940000 0.115625
0.652500 0.940000 0.115625
0.710000 0.940000 0.115625
0.767500 0.940000 0.115625
0.825000 0.940000 0.115625
0.882500 0.940000 0.115625
0.940000 0.940000 0.115625
0.020000 0.020000 0.181250
0.077500 0.020000 0.181250
0.135000 0.020000 0.181250
0.192500 0.020000 0.181250
0.250000 0.020000 0.181250
0.307500 0.020000 0.181250
0.365000 0.020000 0.181250
0.422500 0.020000 0.181250
0.480000 0.020000 0.181250
0.537500 0.020000 0.181250
0.595000 0.020000 0.181250
0.652500 0.020000 0.181250
0.710000 0.020000 0.181250
0.767500 0.020000 0.181250
0.825000 0.020000 0.181250
0.882500 0.020000 0.181250
0.940000 0.020000 0.181250
0.020000 0.077500 0.181250
0.077500 0.077500 0.181250
0.135000 0.077500 0.181250
0.192500 0.077500 0.181250
0.250000 0.077500 0.181250
0.307500 0.077500 0.181250
0.365000 0.077500 0.181250
0.422500 0.077500 0.181250
0.480000 0.077500 0.181250
0.537500 0.077500 0.181250
0.595000 0.077500 0.181250
0.652500 0.077500 0.181250
0.710000 0.077500 0.181250
0.767500 0.077500 0.181250
0.825000 0.077500 0.181250
0.882500 0.077500 0.181250
0.940000 0.077500 0.181250
0.020000 0.135000 0.181250
0.077500 0.135000 0.181250
0.135000 0.135000 0.181250
0.192500 0.135000 0.181250
0.250000 0.135000 0.181250
0.307500 0.135000 0.181250
0.365000 0.135000 0.181250
0.422500 0.135000 0.181250
0.480000 0.135000 0.181250
0.537500 0.135000 0.181250
0.595000 0.135000 0.181250
0.652500 0.135000 0.181250
0.710000 0.135000 0.181250
0.767500 0.135000 0.181250
0.825000 0.135000 0.181250
0.882500 0.135000 0.181250
0.940000 0.135000 0.181250
0.020000 0.192500 0.181250
0.077500 0.192500 0.181250
0.135000 0.192500 0.181250
0.192500 0.192500 0.181250
0.250000 0.192500 0.181250
0.307500 0.192500 0.181250
0.365000 0.192500 0.181250
0.422500 0.192500 0.181250
0.480000 0.192500 0.181250
0.537500 0.192500 0.181250
0.595000 0.192500 0.181250
0.652500 0.192500 0.181250
0.710000 0.192500 0.181250
0.767500 0.192500 0.181250
0.825000 0.192500 0.181250
0.882500 0.192500 0.181250
0.940000 0.192500 0.181250
0.020000 0.250000 0.181250
0.077500 0.250000 0.181250
0.135000 0.250000 0.181250
0.192500 0.250000 0.181250
0.250000 0.250000 0.181250
0.307500 0.250000 0.181250
0.365000 0.250000 0.181250
0.422500 0.250000 0.181250
0.480000 0.250000 0.181250
0.537500 0.250000 0.181250
0.595000 0.250000 0.181250
0.652500 0.250000 0.181250
0.710000 0.250000 0.181250
0.767500 0.250000 0.181250
0.825000 0.250000 0.181250
0.882500 0.250000 0.181250
0.940000 0.250000 0.181250
0.020000 0.307500 0.181250
0.077500 0.307500 0.181250
0.135000 0.307500 0.181250
0.192500 0.307500 0.181250
0.250000 0.307500 0.181250
0.307500 0.307500 0.181250
0.365000 0.307500 0.181250
0.422500 0.307500 0.181250
0.480000 0.307500 0.181250
0.537500 0.307500 0.181250
0.595000 0.307500 0.181250
0.652500 0.307500 0.181250
0.710000 0.307500 0.181250
0.767500 0.307500 0.181250
0.825000 0.307500 0.181250
0.882500 0.307500 0.181250
0.940000 0.307500 0.181250
0.020000 0.365000 0.181250
0.077500 0.365000 0.181250
0.135000 0.365000 0.181250
0.192500 0.365000 0.181250
0.250000 0.365000 0.181250
0.307500 0.365000 0.181250
0.365000 0.365000 0.181250
0.422500 0.365000 0.181250
0.480000 0.365000 0.181250
0.537500 0.365000 0.181250
0.595000 0.365000 0.181250
0.652500 0.365000 0.181250
0.710000 0.365000 0.181250
0.767500 0.365000 0.181250
0.825000 0.365000 0.181250
0.882500 0.365000 0.181250
0.940000 0.365000 0.181250
0.020000 0.422500 0.181250
0.077500 0.422500 0.181250
0.135000 0.422500 0.181250
0.192500 0.422500 0.181250
0.250000 0.422500 0.181250
0.307500 0.422500 0.181250
0.365000 0.422500 0.181250
0.422500 0.422500 0.181250
0.480000 0.422500 0.181250
0.537500 0.422500 0.181250
0.595000 0.422500 0.181250
0.652500 0.422500 0.181250
0.710000 0.422500 0.181250
0.767500 0.422500 0.181250
0.825000 0.422500 0.181250
0.882500 0.422500 0.181250
0.940000 0.422500 0.181250
0.020000 0.480000 0.181250
0.077500 0.480000 0.181250
0.135000 0.480000 0.181250
0.192500 0.480000 0.181250
0.250000 0.480000 0.181250
0.307500 0.480000 0.181250
0.365000 0.480000 0.181250
0.422500 0.480000 0.181250
0.480000 0.480000 0.181250
0.537500 0.480000 0.181250
0.595000 0.480000 0.181250
0.652500 0.480000 0.181250
0.710000 0.480000 0.181250
0.767500 0.480000 0.181250
0.825000 0.480000 0.181250
0.882500 0.480000 0.181250
0.940000 0.480000 0.181250
0.020000 0.537500 0.181250
0.077500 0.537500 0.181250
0.135000 0.537500 0.181250
0.192500 0.537500 0.181250
0.250000 0.537500 0.181250
0.307500 0.537500 0.181250
0.365000 0.537500 0.181250
0.422500 0.537500 0.181250
0.480000 0.537500 0.181250
0.537500 0.537500 0.181250
0.595000 0.537500 0.181250
0.652500 0.537500 0.181250
0.710000 0.537500 0.181250
0.767500 0.537500 0.181250
0.825000 0.537500 0.181250
0.882500 0.537500 0.181250
0.940000 0.537500 0.181250
0.020000 0.595000 0.181250
0.077500 0.595000 0.181250
0.135000 0.595000 0.181250
0.192500 0.595000 0.181250
0.250000 0.595000 0.181250
0.307500 0.595000 0.181250
0.365000 0.595000 0.181250
0.422500 0.595000 0.181250
0.480000 0.595000 0.181250
0.537500 0.595000 0.181250
0.595000 0.595000 0.181250
0.652500 0.595000 0.181250
0.710000 0.595000 0.181250
0.767500 0.595000 0.181250
0.825000 0.595000 0.181250
0.882500 0.595000 0.181250
0.940000 0.595000 0.181250
0.020000 0.652500 0.181250
0.077500 0.652500 0.181250
0.135000 0.652500 0.181250
0.192500 0.652500 0.181250
0.250000 0.652500 0.181250
0.307500 0.652500 0.181250
0.365000 0.652500 0.181250
0.422500 0.652500 0.181250
0.480000 0.652500 0.181250
0.537500 0.652500 0.181250
0.595000 0.652500 0.181250
0.652500 0.652500 0.181250
0.710000 0.652500 0.181250
0.767500 0.652500 0.181250
0.825000 0.652500 0.181250
0.882500 0.652500 0.181250
0.940000 0.652500 0.181250
0.020000 0.710000 0.181250
0.077500 0.710000 0.181250
0.135000 0.710000 0.181250
0.192500 0.710000 0.181250
0.250000 0.710000 0.181250
0.307500 0.710000 0.181250
0.365000 0.710000 0.181250
0.422500 0.710000 0.181250
0.480000 0.710000 0.181250
0.537500 0.710000 0.181250
0.595000 0.710000 0.181250
0.652500 0.710000 0.181250
0.710000 0.710000 0.181250
0.767500 0.710000 0.181250
0.825000 0.710000 0.181250
0.882500 0.710000 0.181250
0.940000 0.710000 0.181250
0.020000 0.767500 0.181250
0.077500 0.767500 0.181250
0.135000 0.767500 0.181250
0.192500 0.767500 0.181250
0.250000 0.767500 0.181250
0.307500 0.767500 0.181250
0.365000 0.767500 0.181250
0.422500 0.767500 0.181250
0.480000 0.767500 0.181250
0.537500 0.767500 0.181250
0.595000 0.767500 0.181250
0.652500 0.767500 0.181250
0.710000 0.767500 0.181250
0.767500 0.767500 0.181250
0.825000 0.767500 0.181250
0.882500 0.767500 0.181250
0.940000 0.767500 0.181250
0.020000 0.825000 0.181250
0.077500 0.825000 0.181250
0.135000 0.825000 0.181250
0.192500 0.825000 0.181250
0.250000 0.825000 0.181250
0.307500 0.825000 0.181250
0.365000 0.825000 0.181250
0.422500 0.825000 0.181250
0.480000 0.825000 0.181250
0.537500 0.825000 0.181250
0.595000 0.825000 0.181250
0.652500 0.825000 0.181250
0.710000 0.825000 0.181250
0.767500 0.825000 0.181250
0.825000 0.825000 0.181250
0.882500 0.825000 0.181250
0.940000 0.825000 0.181250
0.020000 0.882500 0.181250
0.077500 0.882500 0.181250
0.135000 0.882500 0.181250
0.192500 0.882500 0.181250
0.250000 0.882500 0.181250
0.307500 0.882500 0.181250
0.365000 0.882500 0.181250
0.422500 0.882500 0.181250
0.480000 0.882500 0.181250
0.537500 0.882500 0.181250
0.595000 0.882500 0.181250
0.652500 0.882500 0.181250
0.710000 0.882500 0.181250
0.767500 0.882500 0.181250
0.825000 0.882500 0.181250
0.882500 0.882500 0.181250
0.940000 0.882500 0.181250
0.020000 0.940000 0.181250
0.077500 0.940000 0.181250
0.135000 0.940000 0.181250
0.192500 0.940000 0.181250
0.250000 0.940000 0.181250
0.307500 0.940000 0.181250
0.365000 0.940000 0.181250
0.422500 0.940000 0.181250
0.480000 0.940000 0.181250
0.537500 0.940000 0.181250
0.595000 0.940000 0.181250
0.652500 0.940000 0.181250
0.710000 0.940000 0.181250
0.767500 0.940000 0.181250
0.825000 0.940000 0.181250
0.882500 0.940000 0.181250
0.940000 0.940000 0.181250
0.020000 0.020000 0.246875
0.077500 0.020000 0.246875
0.135000 0.020000 0.246875
0.192500 0.020000 0.246875
0.250000 0.020000 0.246875
0.307500 0.020000 0.246875
0.365000 0.020000 0.246875
0.422500 0.020000 0.246875
0.480000 0.020000 0.246875
0.537500 0.020000 0.246875
0.595000 0.020000 0.246875
0.652500 0.020000 0.246875
0.710000 0.020000 0.246875
0.767500 0.020000 0.246875
0.825000 0.020000 0.246875
0.882500 0.020000 0.246875
0.940000 0.020000 0.246875
0.020000 0.077500 0.246875
