app/src/main/assets/luts/coastal_rock.cube
# ApexStudio filter: coastal_rock
LUT_3D_SIZE 5
DOMAIN_MIN 0.0 0.0 0.0
DOMAIN_MAX 1.0 1.0 1.0
0.020000 0.020000 0.050000
0.250000 0.020000 0.050000
0.480000 0.020000 0.050000
0.710000 0.020000 0.050000
0.940000 0.020000 0.050000
0.020000 0.250000 0.050000
0.250000 0.250000 0.050000
0.480000 0.250000 0.050000
0.710000 0.250000 0.050000
0.940000 0.250000 0.050000
0.020000 0.480000 0.050000
0.250000 0.480000 0.050000
0.480000 0.480000 0.050000
0.710000 0.480000 0.050000
0.940000 0.480000 0.050000
0.020000 0.710000 0.050000
0.250000 0.710000 0.050000
0.480000 0.710000 0.050000
0.710000 0.710000 0.050000
0.940000 0.710000 0.050000
0.020000 0.940000 0.050000
0.250000 0.940000 0.050000
0.480000 0.940000 0.050000
0.710000 0.940000 0.050000
0.940000 0.940000 0.050000
0.020000 0.020000 0.312500
0.250000 0.020000 0.312500
0.480000 0.020000 0.312500
0.710000 0.020000 0.312500
0.940000 0.020000 0.312500
0.020000 0.250000 0.312500
0.250000 0.250000 0.312500
0.480000 0.250000 0.312500
0.710000 0.250000 0.312500
0.940000 0.250000 0.312500
0.020000 0.480000 0.312500
0.250000 0.480000 0.312500
0.480000 0.480000 0.312500
0.710000 0.480000 0.312500
0.940000 0.480000 0.312500
0.020000 0.710000 0.312500
0.250000 0.710000 0.312500
0.480000 0.710000 0.312500
0.710000 0.710000 0.312500
0.940000 0.710000 0.312500
0.020000 0.940000 0.312500
0.250000 0.940000 0.312500
0.480000 0.940000 0.312500
0.710000 0.940000 0.312500
0.940000 0.940000 0.312500
0.020000 0.020000 0.575000
0.250000 0.020000 0.575000
0.480000 0.020000 0.575000
0.710000 0.020000 0.575000
0.940000 0.020000 0.575000
0.020000 0.250000 0.575000
0.250000 0.250000 0.575000
0.480000 0.250000 0.575000
0.710000 0.250000 0.575000
0.940000 0.250000 0.575000
0.020000 0.480000 0.575000
0.250000 0.480000 0.575000
0.480000 0.480000 0.575000
0.710000 0.480000 0.575000
0.940000 0.480000 0.575000
0.020000 0.710000 0.575000
0.250000 0.710000 0.575000
0.480000 0.710000 0.575000
0.710000 0.710000 0.575000
0.940000 0.710000 0.575000
0.020000 0.940000 0.575000
0.250000 0.940000 0.575000
0.480000 0.940000 0.575000
0.710000 0.940000 0.575000
0.940000 0.940000 0.575000
0.020000 0.020000 0.837500
0.250000 0.020000 0.837500
0.480000 0.020000 0.837500
0.710000 0.020000 0.837500
0.940000 0.020000 0.837500
0.020000 0.250000 0.837500
0.250000 0.250000 0.837500
0.480000 0.250000 0.837500
0.710000 0.250000 0.837500
0.940000 0.250000 0.837500
0.020000 0.480000 0.837500
0.250000 0.480000 0.837500
0.480000 0.480000 0.837500
0.710000 0.480000 0.837500
0.940000 0.480000 0.837500
0.020000 0.710000 0.837500
0.250000 0.710000 0.837500
0.480000 0.710000 0.837500
0.710000 0.710000 0.837500
0.940000 0.710000 0.837500
0.020000 0.940000 0.837500
0.250000 0.940000 0.837500
0.480000 0.940000 0.837500
0.710000 0.940000 0.837500
0.940000 0.940000 0.837500
0.020000 0.020000 1.000000
0.250000 0.020000 1.000000
0.480000 0.020000 1.000000
0.710000 0.020000 1.000000
0.940000 0.020000 1.000000
0.020000 0.250000 1.000000
0.250000 0.250000 1.000000
0.480000 0.250000 1.000000
0.710000 0.250000 1.000000
0.940000 0.250000 1.000000
0.020000 0.480000 1.000000
0.250000 0.480000 1.000000
0.480000 0.480000 1.000000
0.710000 0.480000 1.000000
0.940000 0.480000 1.000000
0.020000 0.710000 1.000000
0.250000 0.710000 1.000000
0.480000 0.710000 1.000000
0.710000 0.710000 1.000000
0.940000 0.710000 1.000000
0.020000 0.940000 1.000000
0.250000 0.940000 1.000000
0.480000 0.940000 1.000000
0.710000 0.940000 1.000000
0.940000 0.940000 1.000000
