app/src/main/assets/luts/cold_city.cube
# ApexStudio filter: cold_city
LUT_3D_SIZE 5
DOMAIN_MIN 0.0 0.0 0.0
DOMAIN_MAX 1.0 1.0 1.0
0.000000 0.000000 0.000000
0.190156 0.009531 0.009531
0.380311 0.019061 0.019061
0.570467 0.028592 0.028592
0.760622 0.038123 0.038123
0.020912 0.222787 0.020912
0.211067 0.232317 0.030443
0.401223 0.241848 0.039973
0.591379 0.251379 0.049504
0.781534 0.260909 0.059034
0.041824 0.445574 0.041824
0.231979 0.455104 0.051354
0.422135 0.464635 0.060885
0.612291 0.474166 0.070416
0.802446 0.483696 0.079946
0.062736 0.668361 0.062736
0.252891 0.677891 0.072266
0.443047 0.687422 0.081797
0.633202 0.696952 0.091328
0.823358 0.706483 0.100858
0.083647 0.891147 0.083647
0.273803 0.900678 0.093178
0.463959 0.910209 0.102709
0.654114 0.919739 0.112239
0.844270 0.929270 0.121770
0.004916 0.004916 0.249291
0.195072 0.014447 0.258822
0.385227 0.023978 0.268352
0.575383 0.033508 0.277883
0.765539 0.043039 0.287414
0.025828 0.227703 0.270203
0.215984 0.237234 0.279734
0.406139 0.246764 0.289264
0.596295 0.256295 0.298795
0.786451 0.265826 0.308326
0.046740 0.450490 0.291115
0.236896 0.460021 0.300646
0.427051 0.469551 0.310176
0.617207 0.479082 0.319707
0.807362 0.488613 0.329237
0.067652 0.673277 0.312027
0.257808 0.682807 0.321557
0.447963 0.692338 0.331088
0.638119 0.701869 0.340619
0.828274 0.711399 0.350149
0.088564 0.896064 0.332939
0.278719 0.905594 0.342469
0.468875 0.915125 0.352000
0.659031 0.924656 0.361531
0.849186 0.934186 0.371061
0.009833 0.009833 0.498582
0.199988 0.019363 0.508113
0.390144 0.028894 0.517644
0.580299 0.038424 0.527174
0.770455 0.047955 0.536705
0.030744 0.232619 0.519494
0.220900 0.242150 0.529025
0.411056 0.251681 0.538556
0.601211 0.261211 0.548086
0.791367 0.270742 0.557617
0.051656 0.455406 0.540406
0.241812 0.464937 0.549937
0.431968 0.474467 0.559468
0.622123 0.483998 0.568998
0.812279 0.493529 0.578529
0.072568 0.678193 0.561318
0.262724 0.687724 0.570849
0.452879 0.697254 0.580379
0.643035 0.706785 0.589910
0.833191 0.716316 0.599441
0.093480 0.900980 0.582230
0.283636 0.910511 0.591761
0.473791 0.920041 0.601291
0.663947 0.929572 0.610822
0.854102 0.939102 0.620352
0.014749 0.014749 0.747874
0.204904 0.024279 0.757404
0.395060 0.033810 0.766935
0.585216 0.043341 0.776466
0.775371 0.052871 0.785996
0.035661 0.237536 0.768786
0.225816 0.247066 0.778316
0.415972 0.256597 0.787847
0.606127 0.266127 0.797377
0.796283 0.275658 0.806908
0.056573 0.460322 0.789697
0.246728 0.469853 0.799228
0.436884 0.479384 0.808759
0.627039 0.488914 0.818289
0.817195 0.498445 0.827820
0.077484 0.683109 0.810609
0.267640 0.692640 0.820140
0.457796 0.702171 0.829671
0.647951 0.711701 0.839201
0.838107 0.721232 0.848732
0.098396 0.905896 0.831521
0.288552 0.915427 0.841052
0.478708 0.924957 0.850582
0.668863 0.934488 0.860113
0.859019 0.944019 0.869644
0.019665 0.019665 0.997165
0.209821 0.029196 1.000000
0.399976 0.038726 1.000000
0.590132 0.048257 1.000000
0.780288 0.057787 1.000000
0.040577 0.242452 1.000000
0.230733 0.251982 1.000000
0.420888 0.261513 1.000000
0.611044 0.271044 1.000000
0.801199 0.280574 1.000000
0.061489 0.465239 1.000000
0.251644 0.474769 1.000000
0.441800 0.484300 1.000000
0.631956 0.493831 1.000000
0.822111 0.503361 1.000000
0.082401 0.688026 1.000000
0.272556 0.697556 1.000000
0.462712 0.707087 1.000000
0.652867 0.716617 1.000000
0.843023 0.726148 1.000000
0.103313 0.910812 1.000000
0.293468 0.920343 1.000000
0.483624 0.929874 1.000000
0.673779 0.939404 1.000000
0.863935 0.948935 1.000000
