app/src/main/assets/luts/cold_city.cube
# ApexStudio filter: cold_city
LUT_3D_SIZE 9
DOMAIN_MIN 0.0 0.0 0.0
DOMAIN_MAX 1.0 1.0 1.0
0.000000 0.000000 0.000000
0.095078 0.004765 0.004765
0.190156 0.009531 0.009531
0.285233 0.014296 0.014296
0.380311 0.019061 0.019061
0.475389 0.023827 0.023827
0.570467 0.028592 0.028592
0.665545 0.033357 0.033357
0.760622 0.038123 0.038123
0.010456 0.111393 0.010456
0.105534 0.116159 0.015221
0.200612 0.120924 0.019987
0.295689 0.125689 0.024752
0.390767 0.130455 0.029517
0.485845 0.135220 0.034282
0.580923 0.139985 0.039048
0.676001 0.144751 0.043813
0.771078 0.149516 0.048578
0.020912 0.222787 0.020912
0.115990 0.227552 0.025677
0.211067 0.232317 0.030443
0.306145 0.237083 0.035208
0.401223 0.241848 0.039973
0.496301 0.246613 0.044738
0.591379 0.251379 0.049504
0.686457 0.256144 0.054269
0.781534 0.260909 0.059034
0.031368 0.334180 0.031368
0.126446 0.338946 0.036133
0.221523 0.343711 0.040898
0.316601 0.348476 0.045664
0.411679 0.353242 0.050429
0.506757 0.358007 0.055194
0.601835 0.362772 0.059960
0.696913 0.367537 0.064725
0.791990 0.372303 0.069490
0.041824 0.445574 0.041824
0.136902 0.450339 0.046589
0.231979 0.455104 0.051354
0.327057 0.459870 0.056120
0.422135 0.464635 0.060885
0.517213 0.469400 0.065650
0.612291 0.474166 0.070416
0.707368 0.478931 0.075181
0.802446 0.483696 0.079946
0.052280 0.556967 0.052280
0.147358 0.561732 0.057045
0.242435 0.566498 0.061810
0.337513 0.571263 0.066576
0.432591 0.576028 0.071341
0.527669 0.580794 0.076106
0.622747 0.585559 0.080872
0.717824 0.590324 0.085637
0.812902 0.595090 0.090402
0.062736 0.668361 0.062736
0.157813 0.673126 0.067501
0.252891 0.677891 0.072266
0.347969 0.682657 0.077032
0.443047 0.687422 0.081797
0.538125 0.692187 0.086562
0.633202 0.696952 0.091328
0.728280 0.701718 0.096093
0.823358 0.706483 0.100858
0.073192 0.779754 0.073192
0.168269 0.784519 0.077957
0.263347 0.789285 0.082722
0.358425 0.794050 0.087487
0.453503 0.798815 0.092253
0.548581 0.803581 0.097018
0.643658 0.808346 0.101783
0.738736 0.813111 0.106549
0.833814 0.817877 0.111314
0.083647 0.891147 0.083647
0.178725 0.895913 0.088413
0.273803 0.900678 0.093178
0.368881 0.905443 0.097943
0.463959 0.910209 0.102709
0.559037 0.914974 0.107474
0.654114 0.919739 0.112239
0.749192 0.924505 0.117005
0.844270 0.929270 0.121770
0.002458 0.002458 0.124646
0.097536 0.007223 0.129411
0.192614 0.011989 0.134176
0.287692 0.016754 0.138942
0.382769 0.021519 0.143707
0.477847 0.026285 0.148472
0.572925 0.031050 0.153237
0.668003 0.035815 0.158003
0.763081 0.040581 0.162768
0.012914 0.113852 0.135102
0.107992 0.118617 0.139867
0.203070 0.123382 0.144632
0.298148 0.128147 0.149397
0.393225 0.132913 0.154163
0.488303 0.137678 0.158928
0.583381 0.142443 0.163693
0.678459 0.147209 0.168459
0.773537 0.151974 0.173224
0.023370 0.225245 0.145557
0.118448 0.230010 0.150323
0.213526 0.234776 0.155088
0.308603 0.239541 0.159853
0.403681 0.244306 0.164619
0.498759 0.249072 0.169384
0.593837 0.253837 0.174149
0.688915 0.258602 0.178915
0.783992 0.263367 0.183680
0.033826 0.336638 0.156013
0.128904 0.341404 0.160779
0.223982 0.346169 0.165544
0.319059 0.350934 0.170309
0.414137 0.355700 0.175075
0.509215 0.360465 0.179840
0.604293 0.365230 0.184605
0.699371 0.369996 0.189371
0.794448 0.374761 0.194136
0.044282 0.448032 0.166469
0.139360 0.452797 0.171235
0.234438 0.457562 0.176000
0.329515 0.462328 0.180765
0.424593 0.467093 0.185531
0.519671 0.471858 0.190296
0.614749 0.476624 0.195061
0.709827 0.481389 0.199827
0.804904 0.486154 0.204592
0.054738 0.559425 0.176925
0.149816 0.564191 0.181691
0.244893 0.568956 0.186456
0.339971 0.573721 0.191221
0.435049 0.578487 0.195987
0.530127 0.583252 0.200752
0.625205 0.588017 0.205517
0.720282 0.592782 0.210282
0.815360 0.597548 0.215048
0.065194 0.670819 0.187381
0.160272 0.675584 0.192147
0.255349 0.680349 0.196912
0.350427 0.685115 0.201677
0.445505 0.689880 0.206442
0.540583 0.694645 0.211208
0.635661 0.699411 0.215973
0.730738 0.704176 0.220738
0.825816 0.708941 0.225504
0.075650 0.782212 0.197837
0.170728 0.786977 0.202602
0.265805 0.791743 0.207368
0.360883 0.796508 0.212133
0.455961 0.801273 0.216898
0.551039 0.806039 0.221664
0.646117 0.810804 0.226429
0.741194 0.815569 0.231194
0.836272 0.820335 0.235960
0.086106 0.893606 0.208293
0.181183 0.898371 0.213058
0.276261 0.903136 0.217824
0.371339 0.907902 0.222589
0.466417 0.912667 0.227354
0.561495 0.917432 0.232120
0.656573 0.922198 0.236885
0.751650 0.926963 0.241650
0.846728 0.931728 0.246416
0.004916 0.004916 0.249291
0.099994 0.009682 0.254057
0.195072 0.014447 0.258822
0.290150 0.019212 0.263587
0.385227 0.023978 0.268352
0.480305 0.028743 0.273118
0.575383 0.033508 0.277883
0.670461 0.038273 0.282648
0.765539 0.043039 0.287414
0.015372 0.116310 0.259747
0.110450 0.121075 0.264512
0.205528 0.125840 0.269278
0.300606 0.130606 0.274043
0.395683 0.135371 0.278808
0.490761 0.140136 0.283574
0.585839 0.144902 0.288339
0.680917 0.149667 0.293104
0.775995 0.154432 0.297870
0.025828 0.227703 0.270203
0.120906 0.232468 0.274968
0.215984 0.237234 0.279734
0.311062 0.241999 0.284499
0.406139 0.246764 0.289264
0.501217 0.251530 0.294030
0.596295 0.256295 0.298795
0.691373 0.261060 0.303560
0.786451 0.265826 0.308326
0.036284 0.339097 0.280659
0.131362 0.343862 0.285424
0.226440 0.348627 0.290190
0.321517 0.353392 0.294955
0.416595 0.358158 0.299720
0.511673 0.362923 0.304486
0.606751 0.367688 0.309251
0.701829 0.372454 0.314016
0.796907 0.377219 0.318782
0.046740 0.450490 0.291115
0.141818 0.455255 0.295880
0.236896 0.460021 0.300646
0.331973 0.464786 0.305411
0.427051 0.469551 0.310176
0.522129 0.474317 0.314942
0.617207 0.479082 0.319707
0.712285 0.483847 0.324472
0.807362 0.488613 0.329237
0.057196 0.561883 0.301571
0.152274 0.566649 0.306336
0.247352 0.571414 0.311102
0.342429 0.576179 0.315867
0.437507 0.580945 0.320632
0.532585 0.585710 0.325398
0.627663 0.590475 0.330163
0.722741 0.595241 0.334928
0.817818 0.600006 0.339693
0.067652 0.673277 0.312027
0.162730 0.678042 0.316792
0.257808 0.682807 0.321557
0.352885 0.687573 0.326323
0.447963 0.692338 0.331088
0.543041 0.697103 0.335853
0.638119 0.701869 0.340619
0.733197 0.706634 0.345384
0.828274 0.711399 0.350149
0.078108 0.784670 0.322483
0.173186 0.789436 0.327248
0.268263 0.794201 0.332013
0.363341 0.798966 0.336779
0.458419 0.803732 0.341544
0.553497 0.808497 0.346309
0.648575 0.813262 0.351075
0.743653 0.818027 0.355840
0.838730 0.822793 0.360605
0.088564 0.896064 0.332939
0.183642 0.900829 0.337704
0.278719 0.905594 0.342469
0.373797 0.910360 0.347235
0.468875 0.915125 0.352000
0.563953 0.919890 0.356765
0.659031 0.924656 0.361531
0.754108 0.929421 0.366296
0.849186 0.934186 0.371061
0.007374 0.007374 0.373937
0.102452 0.012140 0.378702
0.197530 0.016905 0.383467
0.292608 0.021670 0.388233
0.387686 0.026436 0.392998
0.482763 0.031201 0.397763
0.577841 0.035966 0.402529
0.672919 0.040732 0.407294
0.767997 0.045497 0.412059
0.017830 0.118768 0.384393
0.112908 0.123533 0.389158
0.207986 0.128298 0.393923
0.303064 0.133064 0.398689
0.398142 0.137829 0.403454
0.493219 0.142594 0.408219
0.588297 0.147360 0.412985
0.683375 0.152125 0.417750
0.778453 0.156890 0.422515
0.028286 0.230161 0.394849
0.123364 0.234927 0.399614
0.218442 0.239692 0.404379
0.313520 0.244457 0.409145
0.408598 0.249222 0.413910
0.503675 0.253988 0.418675
0.598753 0.258753 0.423441
0.693831 0.263518 0.428206
0.788909 0.268284 0.432971
0.038742 0.341555 0.405305
0.133820 0.346320 0.410070
0.228898 0.351085 0.414835
0.323976 0.355851 0.419601
0.419053 0.360616 0.424366
0.514131 0.365381 0.429131
0.609209 0.370147 0.433897
0.704287 0.374912 0.438662
0.799365 0.379677 0.443427
0.049198 0.452948 0.415761
0.144276 0.457713 0.420526
0.239354 0.462479 0.425291
0.334432 0.467244 0.430057
0.429509 0.472009 0.434822
0.524587 0.476775 0.439587
0.619665 0.481540 0.444352
0.714743 0.486305 0.449118
0.809821 0.491071 0.453883
0.059654 0.564342 0.426217
0.154732 0.569107 0.430982
0.249810 0.573872 0.435747
0.344888 0.578638 0.440512
0.439965 0.583403 0.445278
0.535043 0.588168 0.450043
0.630121 0.592933 0.454808
0.725199 0.597699 0.459574
0.820277 0.602464 0.464339
0.070110 0.675735 0.436672
0.165188 0.680500 0.441438
0.260266 0.685266 0.446203
0.355343 0.690031 0.450968
0.450421 0.694796 0.455734
0.545499 0.699562 0.460499
0.640577 0.704327 0.465264
0.735655 0.709092 0.470030
0.830732 0.713857 0.474795
0.080566 0.787128 0.447128
0.175644 0.791894 0.451894
0.270722 0.796659 0.456659
0.365799 0.801424 0.461424
0.460877 0.806190 0.466190
0.555955 0.810955 0.470955
0.651033 0.815720 0.475720
0.746111 0.820486 0.480486
0.841188 0.825251 0.485251
0.091022 0.898522 0.457584
0.186100 0.903287 0.462350
0.281178 0.908052 0.467115
0.376255 0.912818 0.471880
0.471333 0.917583 0.476646
0.566411 0.922348 0.481411
0.661489 0.927114 0.486176
0.756567 0.931879 0.490942
0.851644 0.936644 0.495707
0.009833 0.009833 0.498582
0.104910 0.014598 0.503348
0.199988 0.019363 0.508113
0.295066 0.024128 0.512878
0.390144 0.028894 0.517644
0.485222 0.033659 0.522409
0.580299 0.038424 0.527174
0.675377 0.043190 0.531940
0.770455 0.047955 0.536705
0.020288 0.121226 0.509038
0.115366 0.125991 0.513804
0.210444 0.130757 0.518569
0.305522 0.135522 0.523334
0.400600 0.140287 0.528100
0.495677 0.145053 0.532865
0.590755 0.149818 0.537630
0.685833 0.154583 0.542396
0.780911 0.159348 0.547161
0.030744 0.232619 0.519494
0.125822 0.237385 0.524260
0.220900 0.242150 0.529025
0.315978 0.246915 0.533790
0.411056 0.251681 0.538556
0.506133 0.256446 0.543321
0.601211 0.261211 0.548086
0.696289 0.265977 0.552852
0.791367 0.270742 0.557617
0.041200 0.344013 0.529950
0.136278 0.348778 0.534716
0.231356 0.353543 0.539481
0.326434 0.358309 0.544246
0.421512 0.363074 0.549012
0.516589 0.367839 0.553777
0.611667 0.372605 0.558542
0.706745 0.377370 0.563307
0.801823 0.382135 0.568073
0.051656 0.455406 0.540406
0.146734 0.460172 0.545172
0.241812 0.464937 0.549937
0.336890 0.469702 0.554702
0.431968 0.474467 0.559468
0.527045 0.479233 0.564233
0.622123 0.483998 0.568998
0.717201 0.488763 0.573763
0.812279 0.493529 0.578529
0.062112 0.566800 0.550862
0.157190 0.571565 0.555627
0.252268 0.576330 0.560393
0.347346 0.581096 0.565158
0.442423 0.585861 0.569923
0.537501 0.590626 0.574689
0.632579 0.595392 0.579454
0.727657 0.600157 0.584219
0.822735 0.604922 0.588985
0.072568 0.678193 0.561318
0.167646 0.682958 0.566083
0.262724 0.687724 0.570849
0.357802 0.692489 0.575614
0.452879 0.697254 0.580379
0.547957 0.702020 0.585145
0.643035 0.706785 0.589910
0.738113 0.711550 0.594675
0.833191 0.716316 0.599441
0.083024 0.789587 0.571774
0.178102 0.794352 0.576539
0.273180 0.799117 0.581305
0.368257 0.803882 0.586070
0.463335 0.808648 0.590835
0.558413 0.813413 0.595601
0.653491 0.818178 0.600366
0.748569 0.822944 0.605131
0.843647 0.827709 0.609897
0.093480 0.900980 0.582230
0.188558 0.905745 0.586995
0.283636 0.910511 0.591761
0.378713 0.915276 0.596526
0.473791 0.920041 0.601291
0.568869 0.924807 0.606057
0.663947 0.929572 0.610822
0.759025 0.934337 0.615587
0.854102 0.939102 0.620352
0.012291 0.012291 0.623228
0.107368 0.017056 0.627993
0.202446 0.021821 0.632759
0.297524 0.026587 0.637524
0.392602 0.031352 0.642289
0.487680 0.036117 0.647055
0.582757 0.040882 0.651820
0.677835 0.045648 0.656585
0.772913 0.050413 0.661351
0.022747 0.123684 0.633684
0.117824 0.128449 0.638449
0.212902 0.133215 0.643215
0.307980 0.137980 0.647980
0.403058 0.142745 0.652745
0.498136 0.147511 0.657511
0.593213 0.152276 0.662276
0.688291 0.157041 0.667041
0.783369 0.161807 0.671807
0.033202 0.235077 0.644140
0.128280 0.239843 0.648905
0.223358 0.244608 0.653671
0.318436 0.249373 0.658436
0.413514 0.254139 0.663201
0.508592 0.258904 0.667967
0.603669 0.263669 0.672732
0.698747 0.268435 0.677497
0.793825 0.273200 0.682262
0.043658 0.346471 0.654596
0.138736 0.351236 0.659361
0.233814 0.356002 0.664127
0.328892 0.360767 0.668892
0.423970 0.365532 0.673657
0.519047 0.370297 0.678422
0.614125 0.375063 0.683188
0.709203 0.379828 0.687953
0.804281 0.384593 0.692718
0.054114 0.457864 0.665052
0.149192 0.462630 0.669817
0.244270 0.467395 0.674582
0.339348 0.472160 0.679348
0.434426 0.476926 0.684113
0.529503 0.481691 0.688878
0.624581 0.486456 0.693644
0.719659 0.491222 0.698409
0.814737 0.495987 0.703174
0.064570 0.569258 0.675508
0.159648 0.574023 0.680273
0.254726 0.578788 0.685038
0.349804 0.583554 0.689804
0.444882 0.588319 0.694569
0.539959 0.593084 0.699334
0.635037 0.597850 0.704100
0.730115 0.602615 0.708865
0.825193 0.607380 0.713630
0.075026 0.680651 0.685964
0.170104 0.685417 0.690729
0.265182 0.690182 0.695494
0.360260 0.694947 0.700260
0.455337 0.699712 0.705025
0.550415 0.704478 0.709790
0.645493 0.709243 0.714556
0.740571 0.714008 0.719321
0.835649 0.718774 0.724086
0.085482 0.792045 0.696420
0.180560 0.796810 0.701185
0.275638 0.801575 0.705950
0.370716 0.806341 0.710716
0.465793 0.811106 0.715481
0.560871 0.815871 0.720246
0.655949 0.820637 0.725012
0.751027 0.825402 0.729777
0.846105 0.830167 0.734542
0.095938 0.903438 0.706876
0.191016 0.908203 0.711641
0.286094 0.912969 0.716406
0.381172 0.917734 0.721172
0.476249 0.922499 0.725937
0.571327 0.927265 0.730702
0.666405 0.932030 0.735467
0.761483 0.936795 0.740233
0.856561 0.941561 0.744998
0.014749 0.014749 0.747874
0.109827 0.019514 0.752639
0.204904 0.024279 0.757404
0.299982 0.029045 0.762170
0.395060 0.033810 0.766935
0.490138 0.038575 0.771700
0.585216 0.043341 0.776466
0.680293 0.048106 0.781231
0.775371 0.052871 0.785996
0.025205 0.126142 0.758330
0.120283 0.130908 0.763095
0.215360 0.135673 0.767860
0.310438 0.140438 0.772626
0.405516 0.145203 0.777391
0.500594 0.149969 0.782156
0.595672 0.154734 0.786922
0.690749 0.159499 0.791687
0.785827 0.164265 0.796452
0.035661 0.237536 0.768786
0.130738 0.242301 0.773551
0.225816 0.247066 0.778316
0.320894 0.251832 0.783082
0.415972 0.256597 0.787847
0.511050 0.261362 0.792612
0.606127 0.266127 0.797377
0.701205 0.270893 0.802143
0.796283 0.275658 0.806908
0.046117 0.348929 0.779242
0.141194 0.353694 0.784007
0.236272 0.358460 0.788772
0.331350 0.363225 0.793538
0.426428 0.367990 0.798303
0.521506 0.372756 0.803068
0.616583 0.377521 0.807833
0.711661 0.382286 0.812599
0.806739 0.387052 0.817364
0.056573 0.460322 0.789697
0.151650 0.465088 0.794463
0.246728 0.469853 0.799228
0.341806 0.474618 0.803993
0.436884 0.479384 0.808759
0.531962 0.484149 0.813524
0.627039 0.488914 0.818289
0.722117 0.493680 0.823055
0.817195 0.498445 0.827820
0.067028 0.571716 0.800153
0.162106 0.576481 0.804919
0.257184 0.581247 0.809684
0.352262 0.586012 0.814449
0.447340 0.590777 0.819215
0.542417 0.595542 0.823980
0.637495 0.600308 0.828745
0.732573 0.605073 0.833511
0.827651 0.609838 0.838276
0.077484 0.683109 0.810609
0.172562 0.687875 0.815375
0.267640 0.692640 0.820140
0.362718 0.697405 0.824905
0.457796 0.702171 0.829671
0.552873 0.706936 0.834436
0.647951 0.711701 0.839201
0.743029 0.716467 0.843967
0.838107 0.721232 0.848732
0.087940 0.794503 0.821065
0.183018 0.799268 0.825831
0.278096 0.804033 0.830596
0.373174 0.808799 0.835361
0.468252 0.813564 0.840127
0.563329 0.818329 0.844892
0.658407 0.823095 0.849657
0.753485 0.827860 0.854422
0.848563 0.832625 0.859188
0.098396 0.905896 0.831521
0.193474 0.910662 0.836287
0.288552 0.915427 0.841052
0.383630 0.920192 0.845817
0.478708 0.924957 0.850582
0.573785 0.929723 0.855348
0.668863 0.934488 0.860113
0.763941 0.939253 0.864878
0.859019 0.944019 0.869644
0.017207 0.017207 0.872519
0.112285 0.021972 0.877285
0.207363 0.026737 0.882050
0.302440 0.031503 0.886815
0.397518 0.036268 0.891581
0.492596 0.041033 0.896346
0.587674 0.045799 0.901111
0.682752 0.050564 0.905877
0.777829 0.055329 0.910642
0.027663 0.128600 0.882975
0.122741 0.133366 0.887741
0.217818 0.138131 0.892506
0.312896 0.142896 0.897271
0.407974 0.147662 0.902037
0.503052 0.152427 0.906802
0.598130 0.157192 0.911567
0.693207 0.161957 0.916332
0.788285 0.166723 0.921098
0.038119 0.239994 0.893431
0.133197 0.244759 0.898197
0.228274 0.249524 0.902962
0.323352 0.254290 0.907727
0.418430 0.259055 0.912492
0.513508 0.263820 0.917258
0.608586 0.268586 0.922023
0.703663 0.273351 0.926788
0.798741 0.278116 0.931554
0.048575 0.351387 0.903887
0.143653 0.356152 0.908652
0.238730 0.360918 0.913418
0.333808 0.365683 0.918183
0.428886 0.370448 0.922948
0.523964 0.375214 0.927714
0.619042 0.379979 0.932479
0.714119 0.384744 0.937244
0.809197 0.389510 0.942010
0.059031 0.462781 0.914343
0.154108 0.467546 0.919108
0.249186 0.472311 0.923874
0.344264 0.477077 0.928639
0.439342 0.481842 0.933404
0.534420 0.486607 0.938170
0.629497 0.491372 0.942935
0.724575 0.496138 0.947700
0.819653 0.500903 0.952466
0.069487 0.574174 0.924799
0.164564 0.578939 0.929564
0.259642 0.583705 0.934330
0.354720 0.588470 0.939095
0.449798 0.593235 0.943860
0.544876 0.598001 0.948626
0.639953 0.602766 0.953391
0.735031 0.607531 0.958156
0.830109 0.612297 0.962922
0.079943 0.685567 0.935255
0.175020 0.690333 0.940020
0.270098 0.695098 0.944786
0.365176 0.699863 0.949551
0.460254 0.704629 0.954316
0.555332 0.709394 0.959082
0.650409 0.714159 0.963847
0.745487 0.718925 0.968612
0.840565 0.723690 0.973377
0.090398 0.796961 0.945711
0.185476 0.801726 0.950476
0.280554 0.806492 0.955242
0.375632 0.811257 0.960007
0.470710 0.816022 0.964772
0.565787 0.820787 0.969537
0.660865 0.825553 0.974303
0.755943 0.830318 0.979068
0.851021 0.835083 0.983833
0.100854 0.908354 0.956167
0.195932 0.913120 0.960932
0.291010 0.917885 0.965697
0.386088 0.922650 0.970463
0.481166 0.927416 0.975228
0.576243 0.932181 0.979993
0.671321 0.936946 0.984759
0.766399 0.941712 0.989524
0.861477 0.946477 0.994289
0.019665 0.019665 0.997165
0.114743 0.024430 1.000000
0.209821 0.029196 1.000000
0.304898 0.033961 1.000000
0.399976 0.038726 1.000000
0.495054 0.043492 1.000000
0.590132 0.048257 1.000000
0.685210 0.053022 1.000000
0.780288 0.057787 1.000000
0.030121 0.131058 1.000000
0.125199 0.135824 1.000000
0.220277 0.140589 1.000000
0.315354 0.145354 1.000000
0.410432 0.150120 1.000000
0.505510 0.154885 1.000000
0.600588 0.159650 1.000000
0.695666 0.164416 1.000000
0.790743 0.169181 1.000000
0.040577 0.242452 1.000000
0.135655 0.247217 1.000000
0.230733 0.251982 1.000000
0.325810 0.256748 1.000000
0.420888 0.261513 1.000000
0.515966 0.266278 1.000000
0.611044 0.271044 1.000000
0.706122 0.275809 1.000000
0.801199 0.280574 1.000000
0.051033 0.353845 1.000000
0.146111 0.358611 1.000000
0.241188 0.363376 1.000000
0.336266 0.368141 1.000000
0.431344 0.372907 1.000000
0.526422 0.377672 1.000000
0.621500 0.382437 1.000000
0.716577 0.387203 1.000000
0.811655 0.391968 1.000000
0.061489 0.465239 1.000000
0.156567 0.470004 1.000000
0.251644 0.474769 1.000000
0.346722 0.479535 1.000000
0.441800 0.484300 1.000000
0.536878 0.489065 1.000000
0.631956 0.493831 1.000000
0.727033 0.498596 1.000000
0.822111 0.503361 1.000000
0.071945 0.576632 1.000000
0.167023 0.581398 1.000000
0.262100 0.586163 1.000000
0.357178 0.590928 1.000000
0.452256 0.595693 1.000000
0.547334 0.600459 1.000000
0.642412 0.605224 1.000000
0.737489 0.609989 1.000000
0.832567 0.614755 1.000000
0.082401 0.688026 1.000000
0.177478 0.692791 1.000000
0.272556 0.697556 1.000000
0.367634 0.702322 1.000000
0.462712 0.707087 1.000000
0.557790 0.711852 1.000000
0.652867 0.716617 1.000000
0.747945 0.721383 1.000000
0.843023 0.726148 1.000000
0.092857 0.799419 1.000000
0.187934 0.804184 1.000000
0.283012 0.808950 1.000000
0.378090 0.813715 1.000000
0.473168 0.818480 1.000000
0.568246 0.823246 1.000000
0.663323 0.828011 1.000000
0.758401 0.832776 1.000000
0.853479 0.837542 1.000000
0.103313 0.910812 1.000000
0.198390 0.915578 1.000000
0.293468 0.920343 1.000000
0.388546 0.925108 1.000000
0.483624 0.929874 1.000000
0.578702 0.934639 1.000000
0.673779 0.939404 1.000000
0.768857 0.944170 1.000000
0.863935 0.948935 1.000000
