app/src/main/assets/luts/cold_city.cube
# ApexStudio filter: cold_city
LUT_3D_SIZE 17
DOMAIN_MIN 0.0 0.0 0.0
DOMAIN_MAX 1.0 1.0 1.0
0.000000 0.000000 0.000000
0.047539 0.002383 0.002383
0.095078 0.004765 0.004765
0.142617 0.007148 0.007148
0.190156 0.009531 0.009531
0.237695 0.011913 0.011913
0.285233 0.014296 0.014296
0.332772 0.016679 0.016679
0.380311 0.019061 0.019061
0.427850 0.021444 0.021444
0.475389 0.023827 0.023827
0.522928 0.026209 0.026209
0.570467 0.028592 0.028592
0.618006 0.030975 0.030975
0.665545 0.033357 0.033357
0.713084 0.035740 0.035740
0.760622 0.038123 0.038123
0.005228 0.055697 0.005228
0.052767 0.058079 0.007611
0.100306 0.060462 0.009993
0.147845 0.062845 0.012376
0.195384 0.065227 0.014759
0.242922 0.067610 0.017141
0.290461 0.069993 0.019524
0.338000 0.072375 0.021907
0.385539 0.074758 0.024289
0.433078 0.077141 0.026672
0.480617 0.079523 0.029055
0.528156 0.081906 0.031437
0.575695 0.084289 0.033820
0.623234 0.086671 0.036202
0.670773 0.089054 0.038585
0.718312 0.091437 0.040968
0.765850 0.093819 0.043350
0.010456 0.111393 0.010456
0.057995 0.113776 0.012839
0.105534 0.116159 0.015221
0.153073 0.118541 0.017604
0.200612 0.120924 0.019987
0.248150 0.123307 0.022369
0.295689 0.125689 0.024752
0.343228 0.128072 0.027135
0.390767 0.130455 0.029517
0.438306 0.132837 0.031900
0.485845 0.135220 0.034282
0.533384 0.137603 0.036665
0.580923 0.139985 0.039048
0.628462 0.142368 0.041430
0.676001 0.144751 0.043813
0.723540 0.147133 0.046196
0.771078 0.149516 0.048578
0.015684 0.167090 0.015684
0.063223 0.169473 0.018067
0.110762 0.171855 0.020449
0.158301 0.174238 0.022832
0.205840 0.176621 0.025215
0.253378 0.179003 0.027597
0.300917 0.181386 0.029980
0.348456 0.183769 0.032363
0.395995 0.186151 0.034745
0.443534 0.188534 0.037128
0.491073 0.190917 0.039510
0.538612 0.193299 0.041893
0.586151 0.195682 0.044276
0.633690 0.198065 0.046658
0.681229 0.200447 0.049041
0.728768 0.202830 0.051424
0.776306 0.205213 0.053806
0.020912 0.222787 0.020912
0.068451 0.225170 0.023295
0.115990 0.227552 0.025677
0.163529 0.229935 0.028060
0.211067 0.232317 0.030443
0.258606 0.234700 0.032825
0.306145 0.237083 0.035208
0.353684 0.239465 0.037590
0.401223 0.241848 0.039973
0.448762 0.244231 0.042356
0.496301 0.246613 0.044738
0.543840 0.248996 0.047121
0.591379 0.251379 0.049504
0.638918 0.253761 0.051886
0.686457 0.256144 0.054269
0.733995 0.258527 0.056652
0.781534 0.260909 0.059034
0.026140 0.278484 0.026140
0.073679 0.280866 0.028523
0.121218 0.283249 0.030905
0.168757 0.285632 0.033288
0.216295 0.288014 0.035670
0.263834 0.290397 0.038053
0.311373 0.292780 0.040436
0.358912 0.295162 0.042818
0.406451 0.297545 0.045201
0.453990 0.299928 0.047584
0.501529 0.302310 0.049966
0.549068 0.304693 0.052349
0.596607 0.307075 0.054732
0.644146 0.309458 0.057114
0.691685 0.311841 0.059497
0.739223 0.314223 0.061880
0.786762 0.316606 0.064262
0.031368 0.334180 0.031368
0.078907 0.336563 0.033750
0.126446 0.338946 0.036133
0.173985 0.341328 0.038516
0.221523 0.343711 0.040898
0.269062 0.346094 0.043281
0.316601 0.348476 0.045664
0.364140 0.350859 0.048046
0.411679 0.353242 0.050429
0.459218 0.355624 0.052812
0.506757 0.358007 0.055194
0.554296 0.360390 0.057577
0.601835 0.362772 0.059960
0.649374 0.365155 0.062342
0.696913 0.367537 0.064725
0.744451 0.369920 0.067108
0.791990 0.372303 0.069490
0.036596 0.389877 0.036596
0.084135 0.392260 0.038978
0.131674 0.394642 0.041361
0.179212 0.397025 0.043744
0.226751 0.399408 0.046126
0.274290 0.401790 0.048509
0.321829 0.404173 0.050892
0.369368 0.406556 0.053274
0.416907 0.408938 0.055657
0.464446 0.411321 0.058040
0.511985 0.413704 0.060422
0.559524 0.416086 0.062805
0.607063 0.418469 0.065188
0.654602 0.420852 0.067570
0.702140 0.423234 0.069953
0.749679 0.425617 0.072336
0.797218 0.428000 0.074718
0.041824 0.445574 0.041824
0.089363 0.447956 0.044206
0.136902 0.450339 0.046589
0.184440 0.452722 0.048972
0.231979 0.455104 0.051354
0.279518 0.457487 0.053737
0.327057 0.459870 0.056120
0.374596 0.462252 0.058502
0.422135 0.464635 0.060885
0.469674 0.467018 0.063268
0.517213 0.469400 0.065650
0.564752 0.471783 0.068033
0.612291 0.474166 0.070416
0.659830 0.476548 0.072798
0.707368 0.478931 0.075181
0.754907 0.481314 0.077564
0.802446 0.483696 0.079946
0.047052 0.501270 0.047052
0.094591 0.503653 0.049434
0.142130 0.506036 0.051817
0.189668 0.508418 0.054200
0.237207 0.510801 0.056582
0.284746 0.513184 0.058965
0.332285 0.515566 0.061348
0.379824 0.517949 0.063730
0.427363 0.520332 0.066113
0.474902 0.522714 0.068496
0.522441 0.525097 0.070878
0.569980 0.527480 0.073261
0.617519 0.529862 0.075644
0.665057 0.532245 0.078026
0.712596 0.534628 0.080409
0.760135 0.537010 0.082792
0.807674 0.539393 0.085174
0.052280 0.556967 0.052280
0.099819 0.559350 0.054662
0.147358 0.561732 0.057045
0.194896 0.564115 0.059428
0.242435 0.566498 0.061810
0.289974 0.568880 0.064193
0.337513 0.571263 0.066576
0.385052 0.573646 0.068958
0.432591 0.576028 0.071341
0.480130 0.578411 0.073724
0.527669 0.580794 0.076106
0.575208 0.583176 0.078489
0.622747 0.585559 0.080872
0.670285 0.587942 0.083254
0.717824 0.590324 0.085637
0.765363 0.592707 0.088020
0.812902 0.595090 0.090402
0.057508 0.612664 0.057508
0.105047 0.615047 0.059890
0.152585 0.617429 0.062273
0.200124 0.619812 0.064656
0.247663 0.622195 0.067038
0.295202 0.624577 0.069421
0.342741 0.626960 0.071804
0.390280 0.629342 0.074186
0.437819 0.631725 0.076569
0.485358 0.634108 0.078952
0.532897 0.636490 0.081334
0.580436 0.638873 0.083717
0.627975 0.641256 0.086100
0.675513 0.643638 0.088482
0.723052 0.646021 0.090865
0.770591 0.648404 0.093248
0.818130 0.650786 0.095630
0.062736 0.668361 0.062736
0.110275 0.670743 0.065118
0.157813 0.673126 0.067501
0.205352 0.675509 0.069884
0.252891 0.677891 0.072266
0.300430 0.680274 0.074649
0.347969 0.682657 0.077032
0.395508 0.685039 0.079414
0.443047 0.687422 0.081797
0.490586 0.689805 0.084180
0.538125 0.692187 0.086562
0.585664 0.694570 0.088945
0.633202 0.696952 0.091328
0.680741 0.699335 0.093710
0.728280 0.701718 0.096093
0.775819 0.704100 0.098475
0.823358 0.706483 0.100858
0.067964 0.724057 0.067964
0.115503 0.726440 0.070346
0.163041 0.728823 0.072729
0.210580 0.731205 0.075112
0.258119 0.733588 0.077494
0.305658 0.735971 0.079877
0.353197 0.738353 0.082260
0.400736 0.740736 0.084642
0.448275 0.743119 0.087025
0.495814 0.745501 0.089407
0.543353 0.747884 0.091790
0.590892 0.750267 0.094173
0.638430 0.752649 0.096555
0.685969 0.755032 0.098938
0.733508 0.757415 0.101321
0.781047 0.759797 0.103703
0.828586 0.762180 0.106086
0.073192 0.779754 0.073192
0.120730 0.782137 0.075574
0.168269 0.784519 0.077957
0.215808 0.786902 0.080340
0.263347 0.789285 0.082722
0.310886 0.791667 0.085105
0.358425 0.794050 0.087487
0.405964 0.796433 0.089870
0.453503 0.798815 0.092253
0.501042 0.801198 0.094635
0.548581 0.803581 0.097018
0.596120 0.805963 0.099401
0.643658 0.808346 0.101783
0.691197 0.810729 0.104166
0.738736 0.813111 0.106549
0.786275 0.815494 0.108931
0.833814 0.817877 0.111314
0.078420 0.835451 0.078420
0.125958 0.837833 0.080802
0.173497 0.840216 0.083185
0.221036 0.842599 0.085568
0.268575 0.844981 0.087950
0.316114 0.847364 0.090333
0.363653 0.849747 0.092715
0.411192 0.852129 0.095098
0.458731 0.854512 0.097481
0.506270 0.856895 0.099863
0.553809 0.859277 0.102246
0.601347 0.861660 0.104629
0.648886 0.864043 0.107011
0.696425 0.866425 0.109394
0.743964 0.868808 0.111777
0.791503 0.871191 0.114159
0.839042 0.873573 0.116542
0.083647 0.891147 0.083647
0.131186 0.893530 0.086030
0.178725 0.895913 0.088413
0.226264 0.898295 0.090795
0.273803 0.900678 0.093178
0.321342 0.903061 0.095561
0.368881 0.905443 0.097943
0.416420 0.907826 0.100326
0.463959 0.910209 0.102709
0.511498 0.912591 0.105091
0.559037 0.914974 0.107474
0.606575 0.917357 0.109857
0.654114 0.919739 0.112239
0.701653 0.922122 0.114622
0.749192 0.924505 0.117005
0.796731 0.926887 0.119387
0.844270 0.929270 0.121770
0.001229 0.001229 0.062323
0.048768 0.003612 0.064705
0.096307 0.005994 0.067088
0.143846 0.008377 0.069471
0.191385 0.010760 0.071853
0.238924 0.013142 0.074236
0.286463 0.015525 0.076619
0.334001 0.017908 0.079001
0.381540 0.020290 0.081384
0.429079 0.022673 0.083767
0.476618 0.025056 0.086149
0.524157 0.027438 0.088532
0.571696 0.029821 0.090915
0.619235 0.032204 0.093297
0.666774 0.034586 0.095680
0.714313 0.036969 0.098063
0.761852 0.039352 0.100445
0.006457 0.056926 0.067551
0.053996 0.059308 0.069933
0.101535 0.061691 0.072316
0.149074 0.064074 0.074699
0.196613 0.066456 0.077081
0.244152 0.068839 0.079464
0.291690 0.071222 0.081847
0.339229 0.073604 0.084229
0.386768 0.075987 0.086612
0.434307 0.078370 0.088995
0.481846 0.080752 0.091377
0.529385 0.083135 0.093760
0.576924 0.085518 0.096143
0.624463 0.087900 0.098525
0.672002 0.090283 0.100908
0.719541 0.092666 0.103291
0.767080 0.095048 0.105673
0.011685 0.112622 0.072779
0.059224 0.115005 0.075161
0.106763 0.117388 0.077544
0.154302 0.119770 0.079927
0.201841 0.122153 0.082309
0.249380 0.124536 0.084692
0.296918 0.126918 0.087075
0.344457 0.129301 0.089457
0.391996 0.131684 0.091840
0.439535 0.134066 0.094223
0.487074 0.136449 0.096605
0.534613 0.138832 0.098988
0.582152 0.141214 0.101371
0.629691 0.143597 0.103753
0.677230 0.145980 0.106136
0.724769 0.148362 0.108519
0.772307 0.150745 0.110901
0.016913 0.168319 0.078007
0.064452 0.170702 0.080389
0.111991 0.173085 0.082772
0.159530 0.175467 0.085155
0.207069 0.177850 0.087537
0.254607 0.180232 0.089920
0.302146 0.182615 0.092303
0.349685 0.184998 0.094685
0.397224 0.187380 0.097068
0.444763 0.189763 0.099451
0.492302 0.192146 0.101833
0.539841 0.194528 0.104216
0.587380 0.196911 0.106599
0.634919 0.199294 0.108981
0.682458 0.201676 0.111364
0.729997 0.204059 0.113747
0.777535 0.206442 0.116129
0.022141 0.224016 0.083235
0.069680 0.226399 0.085617
0.117219 0.228781 0.088000
0.164758 0.231164 0.090383
0.212297 0.233547 0.092765
0.259835 0.235929 0.095148
0.307374 0.238312 0.097531
0.354913 0.240695 0.099913
0.402452 0.243077 0.102296
0.449991 0.245460 0.104679
0.497530 0.247842 0.107061
0.545069 0.250225 0.109444
0.592608 0.252608 0.111827
0.640147 0.254990 0.114209
0.687686 0.257373 0.116592
0.735225 0.259756 0.118975
0.782763 0.262138 0.121357
0.027369 0.279713 0.088463
0.074908 0.282095 0.090845
0.122447 0.284478 0.093228
0.169986 0.286861 0.095611
0.217525 0.289243 0.097993
0.265063 0.291626 0.100376
0.312602 0.294009 0.102759
0.360141 0.296391 0.105141
0.407680 0.298774 0.107524
0.455219 0.301157 0.109907
0.502758 0.303539 0.112289
0.550297 0.305922 0.114672
0.597836 0.308305 0.117055
0.645375 0.310687 0.119437
0.692914 0.313070 0.121820
0.740452 0.315453 0.124202
0.787991 0.317835 0.126585
0.032597 0.335409 0.093691
0.080136 0.337792 0.096073
0.127675 0.340175 0.098456
0.175214 0.342557 0.100839
0.222752 0.344940 0.103221
0.270291 0.347323 0.105604
0.317830 0.349705 0.107987
0.365369 0.352088 0.110369
0.412908 0.354471 0.112752
0.460447 0.356853 0.115135
0.507986 0.359236 0.117517
0.555525 0.361619 0.119900
0.603064 0.364001 0.122283
0.650603 0.366384 0.124665
0.698142 0.368767 0.127048
0.745680 0.371149 0.129430
0.793219 0.373532 0.131813
0.037825 0.391106 0.098919
0.085364 0.393489 0.101301
0.132903 0.395871 0.103684
0.180442 0.398254 0.106067
0.227980 0.400637 0.108449
0.275519 0.403019 0.110832
0.323058 0.405402 0.113215
0.370597 0.407785 0.115597
0.418136 0.410167 0.117980
0.465675 0.412550 0.120363
0.513214 0.414933 0.122745
0.560753 0.417315 0.125128
0.608292 0.419698 0.127510
0.655831 0.422081 0.129893
0.703370 0.424463 0.132276
0.750908 0.426846 0.134658
0.798447 0.429229 0.137041
0.043053 0.446803 0.104147
0.090592 0.449185 0.106529
0.138131 0.451568 0.108912
0.185670 0.453951 0.111295
0.233208 0.456333 0.113677
0.280747 0.458716 0.116060
0.328286 0.461099 0.118442
0.375825 0.463481 0.120825
0.423364 0.465864 0.123208
0.470903 0.468247 0.125590
0.518442 0.470629 0.127973
0.565981 0.473012 0.130356
0.613520 0.475395 0.132738
0.661059 0.477777 0.135121
0.708597 0.480160 0.137504
0.756136 0.482543 0.139886
0.803675 0.484925 0.142269
0.048281 0.502500 0.109375
0.095820 0.504882 0.111757
0.143359 0.507265 0.114140
0.190897 0.509647 0.116522
0.238436 0.512030 0.118905
0.285975 0.514413 0.121288
0.333514 0.516795 0.123670
0.381053 0.519178 0.126053
0.428592 0.521561 0.128436
0.476131 0.523943 0.130818
0.523670 0.526326 0.133201
0.571209 0.528709 0.135584
0.618748 0.531091 0.137966
0.666287 0.533474 0.140349
0.713825 0.535857 0.142732
0.761364 0.538239 0.145114
0.808903 0.540622 0.147497
0.053509 0.558196 0.114603
0.101048 0.560579 0.116985
0.148587 0.562962 0.119368
0.196125 0.565344 0.121750
0.243664 0.567727 0.124133
0.291203 0.570110 0.126516
0.338742 0.572492 0.128898
0.386281 0.574875 0.131281
0.433820 0.577257 0.133664
0.481359 0.579640 0.136046
0.528898 0.582023 0.138429
0.576437 0.584405 0.140812
0.623976 0.586788 0.143194
0.671515 0.589171 0.145577
0.719053 0.591553 0.147960
0.766592 0.593936 0.150342
0.814131 0.596319 0.152725
0.058737 0.613893 0.119830
0.106276 0.616276 0.122213
0.153815 0.618658 0.124596
0.201353 0.621041 0.126978
0.248892 0.623424 0.129361
0.296431 0.625806 0.131744
0.343970 0.628189 0.134126
0.391509 0.630572 0.136509
0.439048 0.632954 0.138892
0.486587 0.635337 0.141274
0.534126 0.637720 0.143657
0.581665 0.640102 0.146040
0.629204 0.642485 0.148422
0.676742 0.644867 0.150805
0.724281 0.647250 0.153188
0.771820 0.649633 0.155570
0.819359 0.652015 0.157953
0.063965 0.669590 0.125058
0.111504 0.671972 0.127441
0.159043 0.674355 0.129824
0.206581 0.676738 0.132206
0.254120 0.679120 0.134589
0.301659 0.681503 0.136972
0.349198 0.683886 0.139354
0.396737 0.686268 0.141737
0.444276 0.688651 0.144120
0.491815 0.691034 0.146502
0.539354 0.693416 0.148885
0.586893 0.695799 0.151268
0.634432 0.698182 0.153650
0.681970 0.700564 0.156033
0.729509 0.702947 0.158416
0.777048 0.705330 0.160798
0.824587 0.707712 0.163181
0.069193 0.725286 0.130286
0.116732 0.727669 0.132669
0.164270 0.730052 0.135052
0.211809 0.732434 0.137434
0.259348 0.734817 0.139817
0.306887 0.737200 0.142200
0.354426 0.739582 0.144582
0.401965 0.741965 0.146965
0.449504 0.744348 0.149348
0.497043 0.746730 0.151730
0.544582 0.749113 0.154113
0.592121 0.751496 0.156496
0.639660 0.753878 0.158878
0.687198 0.756261 0.161261
0.734737 0.758644 0.163644
0.782276 0.761026 0.166026
0.829815 0.763409 0.168409
0.074421 0.780983 0.135514
0.121960 0.783366 0.137897
0.169498 0.785748 0.140280
0.217037 0.788131 0.142662
0.264576 0.790514 0.145045
0.312115 0.792896 0.147428
0.359654 0.795279 0.149810
0.407193 0.797662 0.152193
0.454732 0.800044 0.154576
0.502271 0.802427 0.156958
0.549810 0.804810 0.159341
0.597349 0.807192 0.161724
0.644887 0.809575 0.164106
0.692426 0.811958 0.166489
0.739965 0.814340 0.168872
0.787504 0.816723 0.171254
0.835043 0.819106 0.173637
0.079649 0.836680 0.140742
0.127187 0.839063 0.143125
0.174726 0.841445 0.145508
0.222265 0.843828 0.147890
0.269804 0.846210 0.150273
0.317343 0.848593 0.152656
0.364882 0.850976 0.155038
0.412421 0.853358 0.157421
0.459960 0.855741 0.159804
0.507499 0.858124 0.162186
0.555038 0.860506 0.164569
0.602577 0.862889 0.166952
0.650115 0.865272 0.169334
0.697654 0.867654 0.171717
0.745193 0.870037 0.174100
0.792732 0.872420 0.176482
0.840271 0.874802 0.178865
0.084877 0.892377 0.145970
0.132415 0.894759 0.148353
0.179954 0.897142 0.150736
0.227493 0.899525 0.153118
0.275032 0.901907 0.155501
0.322571 0.904290 0.157884
0.370110 0.906672 0.160266
0.417649 0.909055 0.162649
0.465188 0.911438 0.165032
0.512727 0.913820 0.167414
0.560266 0.916203 0.169797
0.607805 0.918586 0.172180
0.655343 0.920968 0.174562
0.702882 0.923351 0.176945
0.750421 0.925734 0.179327
0.797960 0.928116 0.181710
0.845499 0.930499 0.184093
0.002458 0.002458 0.124646
0.049997 0.004841 0.127028
0.097536 0.007223 0.129411
0.145075 0.009606 0.131794
0.192614 0.011989 0.134176
0.240153 0.014371 0.136559
0.287692 0.016754 0.138942
0.335230 0.019137 0.141324
0.382769 0.021519 0.143707
0.430308 0.023902 0.146090
0.477847 0.026285 0.148472
0.525386 0.028667 0.150855
0.572925 0.031050 0.153237
0.620464 0.033433 0.155620
0.668003 0.035815 0.158003
0.715542 0.038198 0.160385
0.763081 0.040581 0.162768
0.007686 0.058155 0.129874
0.055225 0.060537 0.132256
0.102764 0.062920 0.134639
0.150303 0.065303 0.137022
0.197842 0.067685 0.139404
0.245381 0.070068 0.141787
0.292920 0.072451 0.144170
0.340458 0.074833 0.146552
0.387997 0.077216 0.148935
0.435536 0.079599 0.151317
0.483075 0.081981 0.153700
0.530614 0.084364 0.156083
0.578153 0.086747 0.158465
0.625692 0.089129 0.160848
0.673231 0.091512 0.163231
0.720770 0.093895 0.165613
0.768309 0.096277 0.167996
0.012914 0.113852 0.135102
0.060453 0.116234 0.137484
0.107992 0.118617 0.139867
0.155531 0.121000 0.142250
0.203070 0.123382 0.144632
0.250609 0.125765 0.147015
0.298148 0.128147 0.149397
0.345686 0.130530 0.151780
0.393225 0.132913 0.154163
0.440764 0.135295 0.156545
0.488303 0.137678 0.158928
0.535842 0.140061 0.161311
0.583381 0.142443 0.163693
0.630920 0.144826 0.166076
0.678459 0.147209 0.168459
0.725998 0.149591 0.170841
0.773537 0.151974 0.173224
0.018142 0.169548 0.140330
0.065681 0.171931 0.142712
0.113220 0.174314 0.145095
0.160759 0.176696 0.147477
0.208298 0.179079 0.149860
0.255837 0.181462 0.152243
0.303375 0.183844 0.154625
0.350914 0.186227 0.157008
0.398453 0.188610 0.159391
0.445992 0.190992 0.161773
0.493531 0.193375 0.164156
0.541070 0.195757 0.166539
0.588609 0.198140 0.168921
0.636148 0.200523 0.171304
0.683687 0.202905 0.173687
0.731226 0.205288 0.176069
0.778765 0.207671 0.178452
0.023370 0.225245 0.145557
0.070909 0.227628 0.147940
0.118448 0.230010 0.150323
0.165987 0.232393 0.152705
0.213526 0.234776 0.155088
0.261065 0.237158 0.157471
0.308603 0.239541 0.159853
0.356142 0.241924 0.162236
0.403681 0.244306 0.164619
0.451220 0.246689 0.167001
0.498759 0.249072 0.169384
0.546298 0.251454 0.171767
0.593837 0.253837 0.174149
0.641376 0.256220 0.176532
0.688915 0.258602 0.178915
0.736454 0.260985 0.181297
0.783992 0.263367 0.183680
0.028598 0.280942 0.150785
0.076137 0.283324 0.153168
0.123676 0.285707 0.155551
0.171215 0.288090 0.157933
0.218754 0.290472 0.160316
0.266292 0.292855 0.162699
0.313831 0.295238 0.165081
0.361370 0.297620 0.167464
0.408909 0.300003 0.169847
0.456448 0.302386 0.172229
0.503987 0.304768 0.174612
0.551526 0.307151 0.176995
0.599065 0.309534 0.179377
0.646604 0.311916 0.181760
0.694143 0.314299 0.184143
0.741682 0.316682 0.186525
0.789220 0.319064 0.188908
0.033826 0.336638 0.156013
0.081365 0.339021 0.158396
0.128904 0.341404 0.160779
0.176443 0.343786 0.163161
0.223982 0.346169 0.165544
0.271520 0.348552 0.167927
0.319059 0.350934 0.170309
0.366598 0.353317 0.172692
0.414137 0.355700 0.175075
0.461676 0.358082 0.177457
0.509215 0.360465 0.179840
0.556754 0.362848 0.182223
0.604293 0.365230 0.184605
0.651832 0.367613 0.186988
0.699371 0.369996 0.189371
0.746910 0.372378 0.191753
0.794448 0.374761 0.194136
0.039054 0.392335 0.161241
0.086593 0.394718 0.163624
0.134132 0.397100 0.166007
0.181671 0.399483 0.168389
0.229210 0.401866 0.170772
0.276748 0.404248 0.173155
0.324287 0.406631 0.175537
0.371826 0.409014 0.177920
0.419365 0.411396 0.180303
0.466904 0.413779 0.182685
0.514443 0.416162 0.185068
0.561982 0.418544 0.187451
0.609521 0.420927 0.189833
0.657060 0.423310 0.192216
0.704599 0.425692 0.194599
0.752138 0.428075 0.196981
0.799676 0.430458 0.199364
0.044282 0.448032 0.166469
0.091821 0.450415 0.168852
0.139360 0.452797 0.171235
0.186899 0.455180 0.173617
0.234438 0.457562 0.176000
0.281976 0.459945 0.178383
0.329515 0.462328 0.180765
0.377054 0.464710 0.183148
0.424593 0.467093 0.185531
0.472132 0.469476 0.187913
0.519671 0.471858 0.190296
0.567210 0.474241 0.192679
0.614749 0.476624 0.195061
0.662288 0.479006 0.197444
0.709827 0.481389 0.199827
0.757365 0.483772 0.202209
0.804904 0.486154 0.204592
0.049510 0.503729 0.171697
0.097049 0.506111 0.174080
0.144588 0.508494 0.176463
0.192127 0.510877 0.178845
0.239665 0.513259 0.181228
0.287204 0.515642 0.183611
0.334743 0.518025 0.185993
0.382282 0.520407 0.188376
0.429821 0.522790 0.190759
0.477360 0.525172 0.193141
0.524899 0.527555 0.195524
0.572438 0.529938 0.197907
0.619977 0.532320 0.200289
0.667516 0.534703 0.202672
0.715055 0.537086 0.205055
0.762593 0.539468 0.207437
0.810132 0.541851 0.209820
0.054738 0.559425 0.176925
0.102277 0.561808 0.179308
0.149816 0.564191 0.181691
0.197355 0.566573 0.184073
0.244893 0.568956 0.186456
0.292432 0.571339 0.188839
0.339971 0.573721 0.191221
0.387510 0.576104 0.193604
0.435049 0.578487 0.195987
0.482588 0.580869 0.198369
0.530127 0.583252 0.200752
0.577666 0.585635 0.203135
0.625205 0.588017 0.205517
0.672744 0.590400 0.207900
0.720282 0.592782 0.210282
0.767821 0.595165 0.212665
0.815360 0.597548 0.215048
0.059966 0.615122 0.182153
0.107505 0.617505 0.184536
0.155044 0.619887 0.186919
0.202582 0.622270 0.189301
0.250121 0.624653 0.191684
0.297660 0.627035 0.194067
0.345199 0.629418 0.196449
0.392738 0.631801 0.198832
0.440277 0.634183 0.201215
0.487816 0.636566 0.203597
0.535355 0.638949 0.205980
0.582894 0.641331 0.208363
0.630433 0.643714 0.210745
0.677972 0.646097 0.213128
0.725510 0.648479 0.215510
0.773049 0.650862 0.217893
0.820588 0.653245 0.220276
0.065194 0.670819 0.187381
0.112733 0.673201 0.189764
0.160272 0.675584 0.192147
0.207810 0.677967 0.194529
0.255349 0.680349 0.196912
0.302888 0.682732 0.199295
0.350427 0.685115 0.201677
0.397966 0.687497 0.204060
0.445505 0.689880 0.206442
0.493044 0.692263 0.208825
0.540583 0.694645 0.211208
0.588122 0.697028 0.213590
0.635661 0.699411 0.215973
0.683200 0.701793 0.218356
0.730738 0.704176 0.220738
0.778277 0.706559 0.223121
0.825816 0.708941 0.225504
0.070422 0.726515 0.192609
0.117961 0.728898 0.194992
0.165500 0.731281 0.197375
0.213038 0.733663 0.199757
0.260577 0.736046 0.202140
0.308116 0.738429 0.204522
0.355655 0.740811 0.206905
0.403194 0.743194 0.209288
0.450733 0.745577 0.211670
0.498272 0.747959 0.214053
0.545811 0.750342 0.216436
0.593350 0.752725 0.218818
0.640889 0.755107 0.221201
0.688427 0.757490 0.223584
0.735966 0.759873 0.225966
0.783505 0.762255 0.228349
0.831044 0.764638 0.230732
0.075650 0.782212 0.197837
0.123189 0.784595 0.200220
0.170728 0.786977 0.202602
0.218266 0.789360 0.204985
0.265805 0.791743 0.207368
0.313344 0.794125 0.209750
0.360883 0.796508 0.212133
0.408422 0.798891 0.214516
0.455961 0.801273 0.216898
0.503500 0.803656 0.219281
0.551039 0.806039 0.221664
0.598578 0.808421 0.224046
0.646117 0.810804 0.226429
0.693655 0.813187 0.228812
0.741194 0.815569 0.231194
0.788733 0.817952 0.233577
0.836272 0.820335 0.235960
0.080878 0.837909 0.203065
0.128417 0.840292 0.205448
0.175955 0.842674 0.207830
0.223494 0.845057 0.210213
0.271033 0.847440 0.212596
0.318572 0.849822 0.214978
0.366111 0.852205 0.217361
0.413650 0.854587 0.219744
0.461189 0.856970 0.222126
0.508728 0.859353 0.224509
0.556267 0.861735 0.226892
0.603806 0.864118 0.229274
0.651345 0.866501 0.231657
0.698883 0.868883 0.234040
0.746422 0.871266 0.236422
0.793961 0.873649 0.238805
0.841500 0.876031 0.241188
0.086106 0.893606 0.208293
0.133645 0.895988 0.210676
0.181183 0.898371 0.213058
0.228722 0.900754 0.215441
0.276261 0.903136 0.217824
0.323800 0.905519 0.220206
0.371339 0.907902 0.222589
0.418878 0.910284 0.224972
0.466417 0.912667 0.227354
0.513956 0.915050 0.229737
0.561495 0.917432 0.232120
0.609034 0.919815 0.234502
0.656573 0.922198 0.236885
0.704111 0.924580 0.239268
0.751650 0.926963 0.241650
0.799189 0.929345 0.244033
0.846728 0.931728 0.246416
0.003687 0.003687 0.186968
0.051226 0.006070 0.189351
0.098765 0.008453 0.191734
0.146304 0.010835 0.194116
0.193843 0.013218 0.196499
0.241382 0.015600 0.198882
0.288921 0.017983 0.201264
0.336460 0.020366 0.203647
0.383998 0.022748 0.206030
0.431537 0.025131 0.208412
0.479076 0.027514 0.210795
0.526615 0.029896 0.213178
0.574154 0.032279 0.215560
0.621693 0.034662 0.217943
0.669232 0.037044 0.220326
0.716771 0.039427 0.222708
0.764310 0.041810 0.225091
0.008915 0.059384 0.192196
