app/src/main/assets/luts/concrete_gray.cube
# ApexStudio filter: concrete_gray
LUT_3D_SIZE 9
DOMAIN_MIN 0.0 0.0 0.0
DOMAIN_MAX 1.0 1.0 1.0
0.000000 0.000000 0.000000
0.063662 0.026162 0.026162
0.127325 0.052325 0.052325
0.190987 0.078488 0.078488
0.254650 0.104650 0.104650
0.318312 0.130812 0.130812
0.381975 0.156975 0.156975
0.445638 0.183138 0.183138
0.509300 0.209300 0.209300
0.051362 0.088862 0.051362
0.115025 0.115025 0.077525
0.178687 0.141187 0.103688
0.242350 0.167350 0.129850
0.306013 0.193513 0.156012
0.369675 0.219675 0.182175
0.433338 0.245838 0.208338
0.497000 0.272000 0.234500
0.560663 0.298162 0.260663
0.102725 0.177725 0.102725
0.166387 0.203887 0.128887
0.230050 0.230050 0.155050
0.293712 0.256212 0.181212
0.357375 0.282375 0.207375
0.421037 0.308537 0.233537
0.484700 0.334700 0.259700
0.548362 0.360862 0.285863
0.612025 0.387025 0.312025
0.154087 0.266587 0.154087
0.217750 0.292750 0.180250
0.281413 0.318912 0.206412
0.345075 0.345075 0.232575
0.408737 0.371237 0.258738
0.472400 0.397400 0.284900
0.536062 0.423562 0.311063
0.599725 0.449725 0.337225
0.663388 0.475887 0.363387
0.205450 0.355450 0.205450
0.269112 0.381612 0.231612
0.332775 0.407775 0.257775
0.396437 0.433938 0.283938
0.460100 0.460100 0.310100
0.523763 0.486262 0.336263
0.587425 0.512425 0.362425
0.651088 0.538587 0.388587
0.714750 0.564750 0.414750
0.256812 0.444312 0.256812
0.320475 0.470475 0.282975
0.384137 0.496637 0.309137
0.447800 0.522800 0.335300
0.511462 0.548962 0.361462
0.575125 0.575125 0.387625
0.638787 0.601287 0.413787
0.702450 0.627450 0.439950
0.766112 0.653613 0.466113
0.308175 0.533175 0.308175
0.371837 0.559337 0.334337
0.435500 0.585500 0.360500
0.499162 0.611662 0.386662
0.562825 0.637825 0.412825
0.626487 0.663987 0.438987
0.690150 0.690150 0.465150
0.753812 0.716313 0.491313
0.817475 0.742475 0.517475
0.359538 0.622038 0.359538
0.423200 0.648200 0.385700
0.486862 0.674362 0.411863
0.550525 0.700525 0.438025
0.614187 0.726687 0.464187
0.677850 0.752850 0.490350
0.741513 0.779012 0.516513
0.805175 0.805175 0.542675
0.868837 0.831337 0.568837
0.410900 0.710900 0.410900
0.474562 0.737062 0.437063
0.538225 0.763225 0.463225
0.601888 0.789388 0.489387
0.665550 0.815550 0.515550
0.729213 0.841712 0.541713
0.792875 0.867875 0.567875
0.856537 0.894037 0.594037
0.920200 0.920200 0.620200
0.009975 0.009975 0.047475
0.073637 0.036138 0.073637
0.137300 0.062300 0.099800
0.200962 0.088463 0.125963
0.264625 0.114625 0.152125
0.328287 0.140788 0.178287
0.391950 0.166950 0.204450
0.455612 0.193112 0.230612
0.519275 0.219275 0.256775
0.061337 0.098837 0.098837
0.125000 0.125000 0.125000
0.188663 0.151163 0.151163
0.252325 0.177325 0.177325
0.315987 0.203487 0.203487
0.379650 0.229650 0.229650
0.443312 0.255812 0.255812
0.506975 0.281975 0.281975
0.570638 0.308138 0.308138
0.112700 0.187700 0.150200
0.176363 0.213863 0.176363
0.240025 0.240025 0.202525
0.303687 0.266187 0.228687
0.367350 0.292350 0.254850
0.431012 0.318512 0.281012
0.494675 0.344675 0.307175
0.558337 0.370837 0.333337
0.622000 0.397000 0.359500
0.164062 0.276562 0.201563
0.227725 0.302725 0.227725
0.291387 0.328887 0.253887
0.355050 0.355050 0.280050
0.418712 0.381212 0.306212
0.482375 0.407375 0.332375
0.546037 0.433537 0.358537
0.609700 0.459700 0.384700
0.673362 0.485862 0.410862
0.215425 0.365425 0.252925
0.279087 0.391587 0.279087
0.342750 0.417750 0.305250
0.406413 0.443912 0.331412
0.470075 0.470075 0.357575
0.533737 0.496237 0.383738
0.597400 0.522400 0.409900
0.661062 0.548562 0.436063
0.724725 0.574725 0.462225
0.266787 0.454287 0.304287
0.330450 0.480450 0.330450
0.394112 0.506612 0.356612
0.457775 0.532775 0.382775
0.521437 0.558937 0.408937
0.585100 0.585100 0.435100
0.648762 0.611262 0.461262
0.712425 0.637425 0.487425
0.776088 0.663587 0.513587
0.318150 0.543150 0.355650
0.381812 0.569312 0.381812
0.445475 0.595475 0.407975
0.509137 0.621637 0.434137
0.572800 0.647800 0.460300
0.636462 0.673962 0.486462
0.700125 0.700125 0.512625
0.763788 0.726287 0.538787
0.827450 0.752450 0.564950
0.369513 0.632012 0.407012
0.433175 0.658175 0.433175
0.496837 0.684337 0.459337
0.560500 0.710500 0.485500
0.624162 0.736662 0.511662
0.687825 0.762825 0.537825
0.751488 0.788988 0.563988
0.815150 0.815150 0.590150
0.878812 0.841312 0.616312
0.420875 0.720875 0.458375
0.484538 0.747038 0.484538
0.548200 0.773200 0.510700
0.611862 0.799362 0.536863
0.675525 0.825525 0.563025
0.739187 0.851687 0.589187
0.802850 0.877850 0.615350
0.866513 0.904012 0.641512
0.930175 0.930175 0.667675
0.019950 0.019950 0.094950
0.083613 0.046113 0.121112
0.147275 0.072275 0.147275
0.210938 0.098438 0.173437
0.274600 0.124600 0.199600
0.338262 0.150762 0.225762
0.401925 0.176925 0.251925
0.465588 0.203088 0.278088
0.529250 0.229250 0.304250
0.071313 0.108812 0.146312
0.134975 0.134975 0.172475
0.198637 0.161137 0.198637
0.262300 0.187300 0.224800
0.325962 0.213462 0.250963
0.389625 0.239625 0.277125
0.453288 0.265788 0.303288
0.516950 0.291950 0.329450
0.580612 0.318113 0.355612
0.122675 0.197675 0.197675
0.186337 0.223837 0.223837
0.250000 0.250000 0.250000
0.313663 0.276162 0.276162
0.377325 0.302325 0.302325
0.440987 0.328487 0.328487
0.504650 0.354650 0.354650
0.568312 0.380812 0.380812
0.631975 0.406975 0.406975
0.174038 0.286538 0.249037
0.237700 0.312700 0.275200
0.301363 0.338863 0.301363
0.365025 0.365025 0.327525
0.428687 0.391188 0.353687
0.492350 0.417350 0.379850
0.556013 0.443512 0.406012
0.619675 0.469675 0.432175
0.683337 0.495837 0.458337
0.225400 0.375400 0.300400
0.289062 0.401562 0.326562
0.352725 0.427725 0.352725
0.416388 0.453887 0.378888
0.480050 0.480050 0.405050
0.543712 0.506212 0.431212
0.607375 0.532375 0.457375
0.671037 0.558537 0.483537
0.734700 0.584700 0.509700
0.276763 0.464262 0.351762
0.340425 0.490425 0.377925
0.404087 0.516587 0.404087
0.467750 0.542750 0.430250
0.531412 0.568912 0.456412
0.595075 0.595075 0.482575
0.658737 0.621237 0.508737
0.722400 0.647400 0.534900
0.786062 0.673562 0.561063
0.328125 0.553125 0.403125
0.391787 0.579287 0.429287
0.455450 0.605450 0.455450
0.519112 0.631612 0.481612
0.582775 0.657775 0.507775
0.646437 0.683937 0.533937
0.710100 0.710100 0.560100
0.773763 0.736263 0.586263
0.837425 0.762425 0.612425
0.379487 0.641987 0.454487
0.443150 0.668150 0.480650
0.506812 0.694312 0.506812
0.570475 0.720475 0.532975
0.634137 0.746637 0.559137
0.697800 0.772800 0.585300
0.761463 0.798963 0.611463
0.825125 0.825125 0.637625
0.888787 0.851287 0.663787
0.430850 0.730850 0.505850
0.494513 0.757012 0.532012
0.558175 0.783175 0.558175
0.621837 0.809337 0.584337
0.685500 0.835500 0.610500
0.749162 0.861662 0.636662
0.812825 0.887825 0.662825
0.876487 0.913987 0.688987
0.940150 0.940150 0.715150
0.029925 0.029925 0.142425
0.093588 0.056087 0.168588
0.157250 0.082250 0.194750
0.220913 0.108413 0.220913
0.284575 0.134575 0.247075
0.348237 0.160738 0.273238
0.411900 0.186900 0.299400
0.475562 0.213062 0.325562
0.539225 0.239225 0.351725
0.081288 0.118788 0.193788
0.144950 0.144950 0.219950
0.208613 0.171113 0.246113
0.272275 0.197275 0.272275
0.335938 0.223438 0.298438
0.399600 0.249600 0.324600
0.463263 0.275763 0.350763
0.526925 0.301925 0.376925
0.590588 0.328088 0.403088
0.132650 0.207650 0.245150
0.196313 0.233813 0.271313
0.259975 0.259975 0.297475
0.323637 0.286137 0.323637
0.387300 0.312300 0.349800
0.450962 0.338462 0.375962
0.514625 0.364625 0.402125
0.578287 0.390788 0.428287
0.641950 0.416950 0.454450
0.184012 0.296512 0.296512
0.247675 0.322675 0.322675
0.311337 0.348838 0.348838
0.375000 0.375000 0.375000
0.438663 0.401162 0.401162
0.502325 0.427325 0.427325
0.565987 0.453487 0.453487
0.629650 0.479650 0.479650
0.693312 0.505812 0.505812
0.235375 0.385375 0.347875
0.299038 0.411538 0.374037
0.362700 0.437700 0.400200
0.426363 0.463863 0.426363
0.490025 0.490025 0.452525
0.553687 0.516188 0.478687
0.617350 0.542350 0.504850
0.681012 0.568512 0.531012
0.744675 0.594675 0.557175
0.286737 0.474237 0.399237
0.350400 0.500400 0.425400
0.414062 0.526562 0.451562
0.477725 0.552725 0.477725
0.541387 0.578887 0.503887
0.605050 0.605050 0.530050
0.668712 0.631212 0.556212
0.732375 0.657375 0.582375
0.796037 0.683537 0.608537
0.338100 0.563100 0.450600
0.401762 0.589262 0.476762
0.465425 0.615425 0.502925
0.529087 0.641587 0.529087
0.592750 0.667750 0.555250
0.656412 0.693912 0.581412
0.720075 0.720075 0.607575
0.783737 0.746237 0.633737
0.847400 0.772400 0.659900
0.389462 0.651963 0.501962
0.453125 0.678125 0.528125
0.516787 0.704287 0.554287
0.580450 0.730450 0.580450
0.644112 0.756612 0.606612
0.707775 0.782775 0.632775
0.771437 0.808937 0.658937
0.835100 0.835100 0.685100
0.898762 0.861262 0.711262
0.440825 0.740825 0.553325
0.504487 0.766987 0.579487
0.568150 0.793150 0.605650
0.631812 0.819312 0.631812
0.695475 0.845475 0.657975
0.759137 0.871637 0.684137
0.822800 0.897800 0.710300
0.886462 0.923962 0.736462
0.950125 0.950125 0.762625
0.039900 0.039900 0.189900
0.103563 0.066062 0.216062
0.167225 0.092225 0.242225
0.230887 0.118388 0.268388
0.294550 0.144550 0.294550
0.358212 0.170712 0.320713
0.421875 0.196875 0.346875
0.485538 0.223037 0.373038
0.549200 0.249200 0.399200
0.091262 0.128763 0.241262
0.154925 0.154925 0.267425
0.218587 0.181088 0.293588
0.282250 0.207250 0.319750
0.345912 0.233412 0.345912
0.409575 0.259575 0.372075
0.473237 0.285738 0.398238
0.536900 0.311900 0.424400
0.600562 0.338062 0.450562
0.142625 0.217625 0.292625
0.206287 0.243787 0.318788
0.269950 0.269950 0.344950
0.333612 0.296113 0.371112
0.397275 0.322275 0.397275
0.460937 0.348437 0.423437
0.524600 0.374600 0.449600
0.588263 0.400763 0.475762
0.651925 0.426925 0.501925
0.193988 0.306488 0.343988
0.257650 0.332650 0.370150
0.321313 0.358812 0.396313
0.384975 0.384975 0.422475
0.448637 0.411137 0.448637
0.512300 0.437300 0.474800
0.575963 0.463462 0.500962
0.639625 0.489625 0.527125
0.703287 0.515787 0.553288
0.245350 0.395350 0.395350
0.309012 0.421512 0.421512
0.372675 0.447675 0.447675
0.436337 0.473838 0.473838
0.500000 0.500000 0.500000
0.563663 0.526163 0.526163
0.627325 0.552325 0.552325
0.690987 0.578488 0.578488
0.754650 0.604650 0.604650
0.296712 0.484212 0.446712
0.360375 0.510375 0.472875
0.424037 0.536538 0.499037
0.487700 0.562700 0.525200
0.551362 0.588862 0.551362
0.615025 0.615025 0.577525
0.678687 0.641188 0.603687
0.742350 0.667350 0.629850
0.806013 0.693512 0.656012
0.348075 0.573075 0.498075
0.411738 0.599237 0.524238
0.475400 0.625400 0.550400
0.539062 0.651563 0.576562
0.602725 0.677725 0.602725
0.666388 0.703887 0.628888
0.730050 0.730050 0.655050
0.793713 0.756213 0.681212
0.857375 0.782375 0.707375
0.399438 0.661938 0.549438
0.463100 0.688100 0.575600
0.526763 0.714263 0.601762
0.590425 0.740425 0.627925
0.654088 0.766587 0.654088
0.717750 0.792750 0.680250
0.781413 0.818913 0.706413
0.845075 0.845075 0.732575
0.908737 0.871237 0.758737
0.450800 0.750800 0.600800
0.514463 0.776963 0.626963
0.578125 0.803125 0.653125
0.641788 0.829288 0.679288
0.705450 0.855450 0.705450
0.769112 0.881613 0.731612
0.832775 0.907775 0.757775
0.896437 0.933937 0.783937
0.960100 0.960100 0.810100
0.049875 0.049875 0.237375
0.113537 0.076038 0.263537
0.177200 0.102200 0.289700
0.240863 0.128363 0.315862
0.304525 0.154525 0.342025
0.368188 0.180688 0.368188
0.431850 0.206850 0.394350
0.495513 0.233013 0.420513
0.559175 0.259175 0.446675
0.101238 0.138738 0.288737
0.164900 0.164900 0.314900
0.228563 0.191063 0.341063
0.292225 0.217225 0.367225
0.355887 0.243387 0.393388
0.419550 0.269550 0.419550
0.483213 0.295713 0.445713
0.546875 0.321875 0.471875
0.610538 0.348038 0.498038
0.152600 0.227600 0.340100
0.216263 0.253763 0.366262
0.279925 0.279925 0.392425
0.343587 0.306088 0.418588
0.407250 0.332250 0.444750
0.470912 0.358412 0.470912
0.534575 0.384575 0.497075
0.598237 0.410737 0.523238
0.661900 0.436900 0.549400
0.203962 0.316462 0.391462
0.267625 0.342625 0.417625
0.331288 0.368788 0.443788
0.394950 0.394950 0.469950
0.458613 0.421113 0.496113
0.522275 0.447275 0.522275
0.585938 0.473438 0.548438
0.649600 0.499600 0.574600
0.713263 0.525763 0.600762
0.255325 0.405325 0.442825
0.318987 0.431487 0.468987
0.382650 0.457650 0.495150
0.446313 0.483813 0.521313
0.509975 0.509975 0.547475
0.573638 0.536138 0.573638
0.637300 0.562300 0.599800
0.700963 0.588462 0.625962
0.764625 0.614625 0.652125
0.306688 0.494188 0.494188
0.370350 0.520350 0.520350
0.434012 0.546512 0.546512
0.497675 0.572675 0.572675
0.561337 0.598837 0.598837
0.625000 0.625000 0.625000
0.688662 0.651162 0.651162
0.752325 0.677325 0.677325
0.815987 0.703488 0.703488
0.358050 0.583050 0.545550
0.421713 0.609213 0.571712
0.485375 0.635375 0.597875
0.549037 0.661538 0.624038
0.612700 0.687700 0.650200
0.676362 0.713862 0.676362
0.740025 0.740025 0.702525
0.803687 0.766188 0.728688
0.867350 0.792350 0.754850
0.409413 0.671913 0.596913
0.473075 0.698075 0.623075
0.536737 0.724237 0.649238
0.600400 0.750400 0.675400
0.664062 0.776563 0.701562
0.727725 0.802725 0.727725
0.791388 0.828888 0.753888
0.855050 0.855050 0.780050
0.918712 0.881212 0.806212
0.460775 0.760775 0.648275
0.524438 0.786938 0.674438
0.588100 0.813100 0.700600
0.651763 0.839263 0.726762
0.715425 0.865425 0.752925
0.779088 0.891587 0.779088
0.842750 0.917750 0.805250
0.906412 0.943913 0.831412
0.970075 0.970075 0.857575
0.059850 0.059850 0.284850
0.123513 0.086013 0.311013
0.187175 0.112175 0.337175
0.250837 0.138338 0.363337
0.314500 0.164500 0.389500
0.378162 0.190662 0.415662
0.441825 0.216825 0.441825
0.505487 0.242988 0.467988
0.569150 0.269150 0.494150
0.111212 0.148712 0.336213
0.174875 0.174875 0.362375
0.238538 0.201038 0.388538
0.302200 0.227200 0.414700
0.365862 0.253362 0.440862
0.429525 0.279525 0.467025
0.493188 0.305688 0.493188
0.556850 0.331850 0.519350
0.620513 0.358013 0.545513
0.162575 0.237575 0.387575
0.226238 0.263738 0.413737
0.289900 0.289900 0.439900
0.353563 0.316062 0.466062
0.417225 0.342225 0.492225
0.480887 0.368387 0.518388
0.544550 0.394550 0.544550
0.608213 0.420712 0.570712
0.671875 0.446875 0.596875
0.213938 0.326437 0.438937
0.277600 0.352600 0.465100
0.341263 0.378763 0.491262
0.404925 0.404925 0.517425
0.468587 0.431088 0.543588
0.532250 0.457250 0.569750
0.595912 0.483412 0.595912
0.659575 0.509575 0.622075
0.723237 0.535737 0.648238
0.265300 0.415300 0.490300
0.328962 0.441462 0.516463
0.392625 0.467625 0.542625
0.456288 0.493788 0.568788
0.519950 0.519950 0.594950
0.583612 0.546113 0.621112
0.647275 0.572275 0.647275
0.710938 0.598437 0.673438
0.774600 0.624600 0.699600
0.316662 0.504162 0.541662
0.380325 0.530325 0.567825
0.443987 0.556488 0.593988
0.507650 0.582650 0.620150
0.571313 0.608812 0.646312
0.634975 0.634975 0.672475
0.698637 0.661137 0.698637
0.762300 0.687300 0.724800
0.825963 0.713462 0.750962
0.368025 0.593025 0.593025
0.431688 0.619188 0.619188
0.495350 0.645350 0.645350
0.559013 0.671512 0.671512
0.622675 0.697675 0.697675
0.686337 0.723837 0.723837
0.750000 0.750000 0.750000
0.813663 0.776163 0.776163
0.877325 0.802325 0.802325
0.419388 0.681887 0.644388
0.483050 0.708050 0.670550
0.546713 0.734213 0.696712
0.610375 0.760375 0.722875
0.674037 0.786538 0.749038
0.737700 0.812700 0.775200
0.801363 0.838863 0.801363
0.865025 0.865025 0.827525
0.928687 0.891188 0.853687
0.470750 0.770750 0.695750
0.534413 0.796913 0.721913
0.598075 0.823075 0.748075
0.661737 0.849237 0.774238
0.725400 0.875400 0.800400
0.789062 0.901563 0.826562
0.852725 0.927725 0.852725
0.916388 0.953887 0.878888
0.980050 0.980050 0.905050
0.069825 0.069825 0.332325
0.133488 0.095988 0.358488
0.197150 0.122150 0.384650
0.260813 0.148313 0.410813
0.324475 0.174475 0.436975
0.388138 0.200638 0.463137
0.451800 0.226800 0.489300
0.515462 0.252962 0.515462
0.579125 0.279125 0.541625
0.121188 0.158688 0.383688
0.184850 0.184850 0.409850
0.248512 0.211013 0.436013
0.312175 0.237175 0.462175
0.375837 0.263338 0.488337
0.439500 0.289500 0.514500
0.503163 0.315663 0.540663
0.566825 0.341825 0.566825
0.630487 0.367988 0.592988
0.172550 0.247550 0.435050
0.236212 0.273712 0.461213
0.299875 0.299875 0.487375
0.363537 0.326037 0.513537
0.427200 0.352200 0.539700
0.490862 0.378362 0.565862
0.554525 0.404525 0.592025
0.618188 0.430687 0.618188
0.681850 0.456850 0.644350
0.223913 0.336413 0.486413
0.287575 0.362575 0.512575
0.351237 0.388738 0.538737
0.414900 0.414900 0.564900
0.478563 0.441062 0.591063
0.542225 0.467225 0.617225
0.605888 0.493387 0.643388
0.669550 0.519550 0.669550
0.733212 0.545712 0.695712
0.275275 0.425275 0.537775
0.338938 0.451437 0.563937
0.402600 0.477600 0.590100
0.466263 0.503763 0.616263
0.529925 0.529925 0.642425
0.593588 0.556087 0.668588
0.657250 0.582250 0.694750
0.720912 0.608413 0.720912
0.784575 0.634575 0.747075
0.326637 0.514137 0.589137
0.390300 0.540300 0.615300
0.453962 0.566462 0.641462
0.517625 0.592625 0.667625
0.581287 0.618787 0.693788
0.644950 0.644950 0.719950
0.708612 0.671112 0.746112
0.772275 0.697275 0.772275
0.835938 0.723437 0.798438
0.378000 0.603000 0.640500
0.441662 0.629162 0.666662
0.505325 0.655325 0.692825
0.568987 0.681488 0.718988
0.632650 0.707650 0.745150
0.696313 0.733812 0.771312
0.759975 0.759975 0.797475
0.823638 0.786138 0.823638
0.887300 0.812300 0.849800
0.429362 0.691863 0.691863
0.493025 0.718025 0.718025
0.556688 0.744188 0.744188
0.620350 0.770350 0.770350
0.684013 0.796512 0.796512
0.747675 0.822675 0.822675
0.811338 0.848838 0.848838
0.875000 0.875000 0.875000
0.938662 0.901162 0.901162
0.480725 0.780725 0.743225
0.544388 0.806887 0.769388
0.608050 0.833050 0.795550
0.671713 0.859213 0.821712
0.735375 0.885375 0.847875
0.799037 0.911538 0.874038
0.862700 0.937700 0.900200
0.926362 0.963862 0.926362
0.990025 0.990025 0.952525
0.079800 0.079800 0.379800
0.143462 0.105963 0.405963
0.207125 0.132125 0.432125
0.270788 0.158288 0.458288
0.334450 0.184450 0.484450
0.398112 0.210613 0.510613
0.461775 0.236775 0.536775
0.525438 0.262937 0.562937
0.589100 0.289100 0.589100
0.131163 0.168663 0.431163
0.194825 0.194825 0.457325
0.258487 0.220988 0.483488
0.322150 0.247150 0.509650
0.385813 0.273312 0.535813
0.449475 0.299475 0.561975
0.513138 0.325638 0.588137
0.576800 0.351800 0.614300
0.640462 0.377962 0.640462
0.182525 0.257525 0.482525
0.246187 0.283687 0.508687
0.309850 0.309850 0.534850
0.373512 0.336012 0.561012
0.437175 0.362175 0.587175
0.500837 0.388337 0.613337
0.564500 0.414500 0.639500
0.628163 0.440663 0.665663
0.691825 0.466825 0.691825
0.233888 0.346388 0.533887
0.297550 0.372550 0.560050
0.361212 0.398712 0.586213
0.424875 0.424875 0.612375
0.488537 0.451037 0.638537
0.552200 0.477200 0.664700
0.615862 0.503362 0.690862
0.679525 0.529525 0.717025
0.743188 0.555688 0.743188
0.285250 0.435250 0.585250
0.348912 0.461413 0.611413
0.412575 0.487575 0.637575
0.476237 0.513737 0.663737
0.539900 0.539900 0.689900
0.603563 0.566063 0.716063
0.667225 0.592225 0.742225
0.730888 0.618387 0.768388
0.794550 0.644550 0.794550
0.336612 0.524112 0.636612
0.400275 0.550275 0.662775
0.463937 0.576437 0.688937
0.527600 0.602600 0.715100
0.591262 0.628762 0.741262
0.654925 0.654925 0.767425
0.718587 0.681087 0.793587
0.782250 0.707250 0.819750
0.845912 0.733413 0.845912
0.387975 0.612975 0.687975
0.451637 0.639137 0.714137
0.515300 0.665300 0.740300
0.578962 0.691462 0.766462
0.642625 0.717625 0.792625
0.706287 0.743787 0.818788
0.769950 0.769950 0.844950
0.833612 0.796113 0.871112
0.897275 0.822275 0.897275
0.439337 0.701838 0.739337
0.503000 0.728000 0.765500
0.566662 0.754162 0.791662
0.630325 0.780325 0.817825
0.693987 0.806488 0.843988
0.757650 0.832650 0.870150
0.821313 0.858812 0.896313
0.884975 0.884975 0.922475
0.948637 0.911137 0.948637
0.490700 0.790700 0.790700
0.554362 0.816863 0.816863
0.618025 0.843025 0.843025
0.681688 0.869188 0.869188
0.745350 0.895350 0.895350
0.809013 0.921512 0.921512
0.872675 0.947675 0.947675
0.936337 0.973837 0.973837
1.000000 1.000000 1.000000
