app/src/main/assets/luts/concrete_gray.cube
# ApexStudio filter: concrete_gray
LUT_3D_SIZE 5
DOMAIN_MIN 0.0 0.0 0.0
DOMAIN_MAX 1.0 1.0 1.0
0.000000 0.000000 0.000000
0.127325 0.052325 0.052325
0.254650 0.104650 0.104650
0.381975 0.156975 0.156975
0.509300 0.209300 0.209300
0.102725 0.177725 0.102725
0.230050 0.230050 0.155050
0.357375 0.282375 0.207375
0.484700 0.334700 0.259700
0.612025 0.387025 0.312025
0.205450 0.355450 0.205450
0.332775 0.407775 0.257775
0.460100 0.460100 0.310100
0.587425 0.512425 0.362425
0.714750 0.564750 0.414750
0.308175 0.533175 0.308175
0.435500 0.585500 0.360500
0.562825 0.637825 0.412825
0.690150 0.690150 0.465150
0.817475 0.742475 0.517475
0.410900 0.710900 0.410900
0.538225 0.763225 0.463225
0.665550 0.815550 0.515550
0.792875 0.867875 0.567875
0.920200 0.920200 0.620200
0.019950 0.019950 0.094950
0.147275 0.072275 0.147275
0.274600 0.124600 0.199600
0.401925 0.176925 0.251925
0.529250 0.229250 0.304250
0.122675 0.197675 0.197675
0.250000 0.250000 0.250000
0.377325 0.302325 0.302325
0.504650 0.354650 0.354650
0.631975 0.406975 0.406975
0.225400 0.375400 0.300400
0.352725 0.427725 0.352725
0.480050 0.480050 0.405050
0.607375 0.532375 0.457375
0.734700 0.584700 0.509700
0.328125 0.553125 0.403125
0.455450 0.605450 0.455450
0.582775 0.657775 0.507775
0.710100 0.710100 0.560100
0.837425 0.762425 0.612425
0.430850 0.730850 0.505850
0.558175 0.783175 0.558175
0.685500 0.835500 0.610500
0.812825 0.887825 0.662825
0.940150 0.940150 0.715150
0.039900 0.039900 0.189900
0.167225 0.092225 0.242225
0.294550 0.144550 0.294550
0.421875 0.196875 0.346875
0.549200 0.249200 0.399200
0.142625 0.217625 0.292625
0.269950 0.269950 0.344950
0.397275 0.322275 0.397275
0.524600 0.374600 0.449600
0.651925 0.426925 0.501925
0.245350 0.395350 0.395350
0.372675 0.447675 0.447675
0.500000 0.500000 0.500000
0.627325 0.552325 0.552325
0.754650 0.604650 0.604650
0.348075 0.573075 0.498075
0.475400 0.625400 0.550400
0.602725 0.677725 0.602725
0.730050 0.730050 0.655050
0.857375 0.782375 0.707375
0.450800 0.750800 0.600800
0.578125 0.803125 0.653125
0.705450 0.855450 0.705450
0.832775 0.907775 0.757775
0.960100 0.960100 0.810100
0.059850 0.059850 0.284850
0.187175 0.112175 0.337175
0.314500 0.164500 0.389500
0.441825 0.216825 0.441825
0.569150 0.269150 0.494150
0.162575 0.237575 0.387575
0.289900 0.289900 0.439900
0.417225 0.342225 0.492225
0.544550 0.394550 0.544550
0.671875 0.446875 0.596875
0.265300 0.415300 0.490300
0.392625 0.467625 0.542625
0.519950 0.519950 0.594950
0.647275 0.572275 0.647275
0.774600 0.624600 0.699600
0.368025 0.593025 0.593025
0.495350 0.645350 0.645350
0.622675 0.697675 0.697675
0.750000 0.750000 0.750000
0.877325 0.802325 0.802325
0.470750 0.770750 0.695750
0.598075 0.823075 0.748075
0.725400 0.875400 0.800400
0.852725 0.927725 0.852725
0.980050 0.980050 0.905050
0.079800 0.079800 0.379800
0.207125 0.132125 0.432125
0.334450 0.184450 0.484450
0.461775 0.236775 0.536775
0.589100 0.289100 0.589100
0.182525 0.257525 0.482525
0.309850 0.309850 0.534850
0.437175 0.362175 0.587175
0.564500 0.414500 0.639500
0.691825 0.466825 0.691825
0.285250 0.435250 0.585250
0.412575 0.487575 0.637575
0.539900 0.539900 0.689900
0.667225 0.592225 0.742225
0.794550 0.644550 0.794550
0.387975 0.612975 0.687975
0.515300 0.665300 0.740300
0.642625 0.717625 0.792625
0.769950 0.769950 0.844950
0.897275 0.822275 0.897275
0.490700 0.790700 0.790700
0.618025 0.843025 0.843025
0.745350 0.895350 0.895350
0.872675 0.947675 0.947675
1.000000 1.000000 1.000000
