app/src/main/assets/luts/concrete_gray.cube
# ApexStudio filter: concrete_gray
LUT_3D_SIZE 17
DOMAIN_MIN 0.0 0.0 0.0
DOMAIN_MAX 1.0 1.0 1.0
0.000000 0.000000 0.000000
0.031831 0.013081 0.013081
0.063662 0.026162 0.026162
0.095494 0.039244 0.039244
0.127325 0.052325 0.052325
0.159156 0.065406 0.065406
0.190987 0.078488 0.078488
0.222819 0.091569 0.091569
0.254650 0.104650 0.104650
0.286481 0.117731 0.117731
0.318312 0.130812 0.130812
0.350144 0.143894 0.143894
0.381975 0.156975 0.156975
0.413806 0.170056 0.170056
0.445638 0.183138 0.183138
0.477469 0.196219 0.196219
0.509300 0.209300 0.209300
0.025681 0.044431 0.025681
0.057512 0.057512 0.038762
0.089344 0.070594 0.051844
0.121175 0.083675 0.064925
0.153006 0.096756 0.078006
0.184837 0.109837 0.091087
0.216669 0.122919 0.104169
0.248500 0.136000 0.117250
0.280331 0.149081 0.130331
0.312163 0.162162 0.143412
0.343994 0.175244 0.156494
0.375825 0.188325 0.169575
0.407656 0.201406 0.182656
0.439488 0.214487 0.195738
0.471319 0.227569 0.208819
0.503150 0.240650 0.221900
0.534981 0.253731 0.234981
0.051362 0.088862 0.051362
0.083194 0.101944 0.064444
0.115025 0.115025 0.077525
0.146856 0.128106 0.090606
0.178687 0.141187 0.103688
0.210519 0.154269 0.116769
0.242350 0.167350 0.129850
0.274181 0.180431 0.142931
0.306013 0.193513 0.156012
0.337844 0.206594 0.169094
0.369675 0.219675 0.182175
0.401506 0.232756 0.195256
0.433338 0.245838 0.208338
0.465169 0.258919 0.221419
0.497000 0.272000 0.234500
0.528831 0.285081 0.247581
0.560663 0.298162 0.260663
0.077044 0.133294 0.077044
0.108875 0.146375 0.090125
0.140706 0.159456 0.103206
0.172538 0.172538 0.116287
0.204369 0.185619 0.129369
0.236200 0.198700 0.142450
0.268031 0.211781 0.155531
0.299863 0.224862 0.168612
0.331694 0.237944 0.181694
0.363525 0.251025 0.194775
0.395356 0.264106 0.207856
0.427187 0.277187 0.220938
0.459019 0.290269 0.234019
0.490850 0.303350 0.247100
0.522681 0.316431 0.260181
0.554512 0.329512 0.273262
0.586344 0.342594 0.286344
0.102725 0.177725 0.102725
0.134556 0.190806 0.115806
0.166387 0.203887 0.128887
0.198219 0.216969 0.141969
0.230050 0.230050 0.155050
0.261881 0.243131 0.168131
0.293712 0.256212 0.181212
0.325544 0.269294 0.194294
0.357375 0.282375 0.207375
0.389206 0.295456 0.220456
0.421037 0.308537 0.233537
0.452869 0.321619 0.246619
0.484700 0.334700 0.259700
0.516531 0.347781 0.272781
0.548362 0.360862 0.285863
0.580194 0.373944 0.298944
0.612025 0.387025 0.312025
0.128406 0.222156 0.128406
0.160237 0.235237 0.141487
0.192069 0.248319 0.154569
0.223900 0.261400 0.167650
0.255731 0.274481 0.180731
0.287562 0.287562 0.193812
0.319394 0.300644 0.206894
0.351225 0.313725 0.219975
0.383056 0.326806 0.233056
0.414887 0.339887 0.246137
0.446719 0.352969 0.259219
0.478550 0.366050 0.272300
0.510381 0.379131 0.285381
0.542212 0.392212 0.298462
0.574044 0.405294 0.311544
0.605875 0.418375 0.324625
0.637706 0.431456 0.337706
0.154087 0.266587 0.154087
0.185919 0.279669 0.167169
0.217750 0.292750 0.180250
0.249581 0.305831 0.193331
0.281413 0.318912 0.206412
0.313244 0.331994 0.219494
0.345075 0.345075 0.232575
0.376906 0.358156 0.245656
0.408737 0.371237 0.258738
0.440569 0.384319 0.271819
0.472400 0.397400 0.284900
0.504231 0.410481 0.297981
0.536062 0.423562 0.311063
0.567894 0.436644 0.324144
0.599725 0.449725 0.337225
0.631556 0.462806 0.350306
0.663388 0.475887 0.363387
0.179769 0.311019 0.179769
0.211600 0.324100 0.192850
0.243431 0.337181 0.205931
0.275263 0.350263 0.219012
0.307094 0.363344 0.232094
0.338925 0.376425 0.245175
0.370756 0.389506 0.258256
0.402587 0.402587 0.271338
0.434419 0.415669 0.284419
0.466250 0.428750 0.297500
0.498081 0.441831 0.310581
0.529913 0.454912 0.323662
0.561744 0.467994 0.336744
0.593575 0.481075 0.349825
0.625406 0.494156 0.362906
0.657237 0.507238 0.375987
0.689069 0.520319 0.389069
0.205450 0.355450 0.205450
0.237281 0.368531 0.218531
0.269112 0.381612 0.231612
0.300944 0.394694 0.244694
0.332775 0.407775 0.257775
0.364606 0.420856 0.270856
0.396437 0.433938 0.283938
0.428269 0.447019 0.297019
0.460100 0.460100 0.310100
0.491931 0.473181 0.323181
0.523763 0.486262 0.336263
0.555594 0.499344 0.349344
0.587425 0.512425 0.362425
0.619256 0.525506 0.375506
0.651088 0.538587 0.388587
0.682919 0.551669 0.401669
0.714750 0.564750 0.414750
0.231131 0.399881 0.231131
0.262962 0.412963 0.244212
0.294794 0.426044 0.257294
0.326625 0.439125 0.270375
0.358456 0.452206 0.283456
0.390288 0.465287 0.296538
0.422119 0.478369 0.309619
0.453950 0.491450 0.322700
0.485781 0.504531 0.335781
0.517612 0.517612 0.348862
0.549444 0.530694 0.361944
0.581275 0.543775 0.375025
0.613106 0.556856 0.388106
0.644937 0.569937 0.401188
0.676769 0.583019 0.414269
0.708600 0.596100 0.427350
0.740431 0.609181 0.440431
0.256812 0.444312 0.256812
0.288644 0.457394 0.269894
0.320475 0.470475 0.282975
0.352306 0.483556 0.296056
0.384137 0.496637 0.309137
0.415969 0.509719 0.322219
0.447800 0.522800 0.335300
0.479631 0.535881 0.348381
0.511462 0.548962 0.361462
0.543294 0.562044 0.374544
0.575125 0.575125 0.387625
0.606956 0.588206 0.400706
0.638787 0.601287 0.413787
0.670619 0.614369 0.426869
0.702450 0.627450 0.439950
0.734281 0.640531 0.453031
0.766112 0.653613 0.466113
0.282494 0.488744 0.282494
0.314325 0.501825 0.295575
0.346156 0.514906 0.308656
0.377988 0.527988 0.321738
0.409819 0.541069 0.334819
0.441650 0.554150 0.347900
0.473481 0.567231 0.360981
0.505313 0.580313 0.374063
0.537144 0.593394 0.387144
0.568975 0.606475 0.400225
0.600806 0.619556 0.413306
0.632637 0.632637 0.426387
0.664469 0.645719 0.439469
0.696300 0.658800 0.452550
0.728131 0.671881 0.465631
0.759962 0.684963 0.478712
0.791794 0.698044 0.491794
0.308175 0.533175 0.308175
0.340006 0.546256 0.321256
0.371837 0.559337 0.334337
0.403669 0.572419 0.347419
0.435500 0.585500 0.360500
0.467331 0.598581 0.373581
0.499162 0.611662 0.386662
0.530994 0.624744 0.399744
0.562825 0.637825 0.412825
0.594656 0.650906 0.425906
0.626487 0.663987 0.438987
0.658319 0.677069 0.452069
0.690150 0.690150 0.465150
0.721981 0.703231 0.478231
0.753812 0.716313 0.491313
0.785644 0.729394 0.504394
0.817475 0.742475 0.517475
0.333856 0.577606 0.333856
0.365687 0.590688 0.346938
0.397519 0.603769 0.360019
0.429350 0.616850 0.373100
0.461181 0.629931 0.386181
0.493012 0.643012 0.399262
0.524844 0.656094 0.412344
0.556675 0.669175 0.425425
0.588506 0.682256 0.438506
0.620337 0.695337 0.451587
0.652169 0.708419 0.464669
0.684000 0.721500 0.477750
0.715831 0.734581 0.490831
0.747662 0.747662 0.503912
0.779494 0.760744 0.516994
0.811325 0.773825 0.530075
0.843156 0.786906 0.543156
0.359538 0.622038 0.359538
0.391369 0.635119 0.372619
0.423200 0.648200 0.385700
0.455031 0.661281 0.398781
0.486862 0.674362 0.411863
0.518694 0.687444 0.424944
0.550525 0.700525 0.438025
0.582356 0.713606 0.451106
0.614187 0.726687 0.464187
0.646019 0.739769 0.477269
0.677850 0.752850 0.490350
0.709681 0.765931 0.503431
0.741513 0.779012 0.516513
0.773344 0.792094 0.529594
0.805175 0.805175 0.542675
0.837006 0.818256 0.555756
0.868837 0.831337 0.568837
0.385219 0.666469 0.385219
0.417050 0.679550 0.398300
0.448881 0.692631 0.411381
0.480712 0.705712 0.424462
0.512544 0.718794 0.437544
0.544375 0.731875 0.450625
0.576206 0.744956 0.463706
0.608038 0.758038 0.476788
0.639869 0.771119 0.489869
0.671700 0.784200 0.502950
0.703531 0.797281 0.516031
0.735362 0.810362 0.529112
0.767194 0.823444 0.542194
0.799025 0.836525 0.555275
0.830856 0.849606 0.568356
0.862687 0.862687 0.581437
0.894519 0.875769 0.594519
0.410900 0.710900 0.410900
0.442731 0.723981 0.423981
0.474562 0.737062 0.437063
0.506394 0.750144 0.450144
0.538225 0.763225 0.463225
0.570056 0.776306 0.476306
0.601888 0.789388 0.489387
0.633719 0.802469 0.502469
0.665550 0.815550 0.515550
0.697381 0.828631 0.528631
0.729213 0.841712 0.541713
0.761044 0.854794 0.554794
0.792875 0.867875 0.567875
0.824706 0.880956 0.580956
0.856537 0.894037 0.594037
0.888369 0.907119 0.607119
0.920200 0.920200 0.620200
0.004988 0.004988 0.023737
0.036819 0.018069 0.036819
0.068650 0.031150 0.049900
0.100481 0.044231 0.062981
0.132312 0.057313 0.076063
0.164144 0.070394 0.089144
0.195975 0.083475 0.102225
0.227806 0.096556 0.115306
0.259637 0.109637 0.128387
0.291469 0.122719 0.141469
0.323300 0.135800 0.154550
0.355131 0.148881 0.167631
0.386962 0.161963 0.180712
0.418794 0.175044 0.193794
0.450625 0.188125 0.206875
0.482456 0.201206 0.219956
0.514288 0.214287 0.233038
0.030669 0.049419 0.049419
0.062500 0.062500 0.062500
0.094331 0.075581 0.075581
0.126163 0.088663 0.088663
0.157994 0.101744 0.101744
0.189825 0.114825 0.114825
0.221656 0.127906 0.127906
0.253487 0.140987 0.140987
0.285319 0.154069 0.154069
0.317150 0.167150 0.167150
0.348981 0.180231 0.180231
0.380812 0.193312 0.193312
0.412644 0.206394 0.206394
0.444475 0.219475 0.219475
0.476306 0.232556 0.232556
0.508137 0.245637 0.245637
0.539969 0.258719 0.258719
0.056350 0.093850 0.075100
0.088181 0.106931 0.088181
0.120012 0.120012 0.101262
0.151844 0.133094 0.114344
0.183675 0.146175 0.127425
0.215506 0.159256 0.140506
0.247337 0.172338 0.153587
0.279169 0.185419 0.166669
0.311000 0.198500 0.179750
0.342831 0.211581 0.192831
0.374663 0.224662 0.205912
0.406494 0.237744 0.218994
0.438325 0.250825 0.232075
0.470156 0.263906 0.245156
0.501987 0.276987 0.258237
0.533819 0.290069 0.271319
0.565650 0.303150 0.284400
0.082031 0.138281 0.100781
0.113863 0.151363 0.113863
0.145694 0.164444 0.126944
0.177525 0.177525 0.140025
0.209356 0.190606 0.153106
0.241187 0.203687 0.166187
0.273019 0.216769 0.179269
0.304850 0.229850 0.192350
0.336681 0.242931 0.205431
0.368513 0.256012 0.218512
0.400344 0.269094 0.231594
0.432175 0.282175 0.244675
0.464006 0.295256 0.257756
0.495837 0.308337 0.270837
0.527669 0.321419 0.283919
0.559500 0.334500 0.297000
0.591331 0.347581 0.310081
0.107712 0.182712 0.126462
0.139544 0.195794 0.139544
0.171375 0.208875 0.152625
0.203206 0.221956 0.165706
0.235037 0.235037 0.178787
0.266869 0.248119 0.191869
0.298700 0.261200 0.204950
0.330531 0.274281 0.218031
0.362363 0.287363 0.231112
0.394194 0.300444 0.244194
0.426025 0.313525 0.257275
0.457856 0.326606 0.270356
0.489687 0.339687 0.283438
0.521519 0.352769 0.296519
0.553350 0.365850 0.309600
0.585181 0.378931 0.322681
0.617012 0.392012 0.335762
0.133394 0.227144 0.152144
0.165225 0.240225 0.165225
0.197056 0.253306 0.178306
0.228887 0.266387 0.191387
0.260719 0.279469 0.204469
0.292550 0.292550 0.217550
0.324381 0.305631 0.230631
0.356212 0.318712 0.243712
0.388044 0.331794 0.256794
0.419875 0.344875 0.269875
0.451706 0.357956 0.282956
0.483537 0.371037 0.296037
0.515369 0.384119 0.309119
0.547200 0.397200 0.322200
0.579031 0.410281 0.335281
0.610862 0.423362 0.348362
0.642694 0.436444 0.361444
0.159075 0.271575 0.177825
0.190906 0.284656 0.190906
0.222738 0.297737 0.203987
0.254569 0.310819 0.217069
0.286400 0.323900 0.230150
0.318231 0.336981 0.243231
0.350062 0.350062 0.256312
0.381894 0.363144 0.269394
0.413725 0.376225 0.282475
0.445556 0.389306 0.295556
0.477387 0.402387 0.308638
0.509219 0.415469 0.321719
0.541050 0.428550 0.334800
0.572881 0.441631 0.347881
0.604712 0.454713 0.360963
0.636544 0.467794 0.374044
0.668375 0.480875 0.387125
0.184756 0.316006 0.203506
0.216588 0.329088 0.216588
0.248419 0.342169 0.229669
0.280250 0.355250 0.242750
0.312081 0.368331 0.255831
0.343913 0.381412 0.268912
0.375744 0.394494 0.281994
0.407575 0.407575 0.295075
0.439406 0.420656 0.308156
0.471237 0.433737 0.321238
0.503069 0.446819 0.334319
0.534900 0.459900 0.347400
0.566731 0.472981 0.360481
0.598563 0.486063 0.373563
0.630394 0.499144 0.386644
0.662225 0.512225 0.399725
0.694056 0.525306 0.412806
0.210437 0.360437 0.229187
0.242269 0.373519 0.242269
0.274100 0.386600 0.255350
0.305931 0.399681 0.268431
0.337762 0.412762 0.281512
0.369594 0.425844 0.294594
0.401425 0.438925 0.307675
0.433256 0.452006 0.320756
0.465087 0.465087 0.333837
0.496919 0.478169 0.346919
0.528750 0.491250 0.360000
0.560581 0.504331 0.373081
0.592413 0.517412 0.386162
0.624244 0.530494 0.399244
0.656075 0.543575 0.412325
0.687906 0.556656 0.425406
0.719738 0.569738 0.438488
0.236119 0.404869 0.254869
0.267950 0.417950 0.267950
0.299781 0.431031 0.281031
0.331612 0.444112 0.294112
0.363444 0.457194 0.307194
0.395275 0.470275 0.320275
0.427106 0.483356 0.333356
0.458937 0.496437 0.346437
0.490769 0.509519 0.359519
0.522600 0.522600 0.372600
0.554431 0.535681 0.385681
0.586263 0.548763 0.398763
0.618094 0.561844 0.411844
0.649925 0.574925 0.424925
0.681756 0.588006 0.438006
0.713588 0.601087 0.451087
0.745419 0.614169 0.464169
0.261800 0.449300 0.280550
0.293631 0.462381 0.293631
0.325462 0.475462 0.306712
0.357294 0.488544 0.319794
0.389125 0.501625 0.332875
0.420956 0.514706 0.345956
0.452788 0.527787 0.359038
0.484619 0.540869 0.372119
0.516450 0.553950 0.385200
0.548281 0.567031 0.398281
0.580113 0.580113 0.411363
0.611944 0.593194 0.424444
0.643775 0.606275 0.437525
0.675606 0.619356 0.450606
0.707437 0.632437 0.463688
0.739269 0.645519 0.476769
0.771100 0.658600 0.489850
0.287481 0.493731 0.306231
0.319312 0.506812 0.319312
0.351144 0.519894 0.332394
0.382975 0.532975 0.345475
0.414806 0.546056 0.358556
0.446638 0.559138 0.371638
0.478469 0.572219 0.384719
0.510300 0.585300 0.397800
0.542131 0.598381 0.410881
0.573963 0.611463 0.423963
0.605794 0.624544 0.437044
0.637625 0.637625 0.450125
0.669456 0.650706 0.463206
0.701288 0.663787 0.476287
0.733119 0.676869 0.489369
0.764950 0.689950 0.502450
0.796781 0.703031 0.515531
0.313163 0.538162 0.331912
0.344994 0.551244 0.344994
0.376825 0.564325 0.358075
0.408656 0.577406 0.371156
0.440488 0.590488 0.384238
0.472319 0.603569 0.397319
0.504150 0.616650 0.410400
0.535981 0.629731 0.423481
0.567813 0.642813 0.436563
0.599644 0.655894 0.449644
0.631475 0.668975 0.462725
0.663306 0.682056 0.475806
0.695137 0.695137 0.488888
0.726969 0.708219 0.501969
0.758800 0.721300 0.515050
0.790631 0.734381 0.528131
0.822462 0.747463 0.541212
0.338844 0.582594 0.357594
0.370675 0.595675 0.370675
0.402506 0.608756 0.383756
0.434337 0.621837 0.396837
0.466169 0.634919 0.409919
0.498000 0.648000 0.423000
0.529831 0.661081 0.436081
0.561663 0.674162 0.449163
0.593494 0.687244 0.462244
0.625325 0.700325 0.475325
0.657156 0.713406 0.488406
0.688987 0.726487 0.501487
0.720819 0.739569 0.514569
0.752650 0.752650 0.527650
0.784481 0.765731 0.540731
0.816312 0.778813 0.553813
0.848144 0.791894 0.566894
0.364525 0.627025 0.383275
0.396356 0.640106 0.396356
0.428188 0.653188 0.409438
0.460019 0.666269 0.422519
0.491850 0.679350 0.435600
0.523681 0.692431 0.448681
0.555513 0.705513 0.461763
0.587344 0.718594 0.474844
0.619175 0.731675 0.487925
0.651006 0.744756 0.501006
0.682837 0.757838 0.514088
0.714669 0.770919 0.527169
0.746500 0.784000 0.540250
0.778331 0.797081 0.553331
0.810163 0.810163 0.566412
0.841994 0.823244 0.579494
0.873825 0.836325 0.592575
0.390206 0.671456 0.408956
0.422038 0.684538 0.422038
0.453869 0.697619 0.435119
0.485700 0.710700 0.448200
0.517531 0.723781 0.461281
0.549362 0.736862 0.474363
0.581194 0.749944 0.487444
0.613025 0.763025 0.500525
0.644856 0.776106 0.513606
0.676687 0.789187 0.526687
0.708519 0.802269 0.539769
0.740350 0.815350 0.552850
0.772181 0.828431 0.565931
0.804013 0.841512 0.579013
0.835844 0.854594 0.592094
0.867675 0.867675 0.605175
0.899506 0.880756 0.618256
0.415888 0.715888 0.434638
0.447719 0.728969 0.447719
0.479550 0.742050 0.460800
0.511381 0.755131 0.473881
0.543212 0.768212 0.486962
0.575044 0.781294 0.500044
0.606875 0.794375 0.513125
0.638706 0.807456 0.526206
0.670538 0.820538 0.539288
0.702369 0.833619 0.552369
0.734200 0.846700 0.565450
0.766031 0.859781 0.578531
0.797863 0.872863 0.591613
0.829694 0.885944 0.604694
0.861525 0.899025 0.617775
0.893356 0.912106 0.630856
0.925187 0.925187 0.643937
0.009975 0.009975 0.047475
0.041806 0.023056 0.060556
0.073637 0.036138 0.073637
0.105469 0.049219 0.086719
0.137300 0.062300 0.099800
0.169131 0.075381 0.112881
0.200962 0.088463 0.125963
0.232794 0.101544 0.139044
0.264625 0.114625 0.152125
0.296456 0.127706 0.165206
0.328287 0.140788 0.178287
0.360119 0.153869 0.191369
0.391950 0.166950 0.204450
0.423781 0.180031 0.217531
0.455612 0.193112 0.230612
0.487444 0.206194 0.243694
0.519275 0.219275 0.256775
0.035656 0.054406 0.073156
0.067487 0.067487 0.086237
0.099319 0.080569 0.099319
0.131150 0.093650 0.112400
0.162981 0.106731 0.125481
0.194812 0.119813 0.138563
0.226644 0.132894 0.151644
0.258475 0.145975 0.164725
0.290306 0.159056 0.177806
0.322137 0.172137 0.190887
0.353969 0.185219 0.203969
0.385800 0.198300 0.217050
0.417631 0.211381 0.230131
0.449462 0.224463 0.243212
0.481294 0.237544 0.256294
0.513125 0.250625 0.269375
0.544956 0.263706 0.282456
0.061337 0.098837 0.098837
0.093169 0.111919 0.111919
0.125000 0.125000 0.125000
0.156831 0.138081 0.138081
0.188663 0.151163 0.151163
0.220494 0.164244 0.164244
0.252325 0.177325 0.177325
0.284156 0.190406 0.190406
0.315987 0.203487 0.203487
0.347819 0.216569 0.216569
0.379650 0.229650 0.229650
0.411481 0.242731 0.242731
0.443312 0.255812 0.255812
0.475144 0.268894 0.268894
0.506975 0.281975 0.281975
0.538806 0.295056 0.295056
0.570638 0.308138 0.308138
0.087019 0.143269 0.124519
0.118850 0.156350 0.137600
0.150681 0.169431 0.150681
0.182512 0.182512 0.163763
0.214344 0.195594 0.176844
0.246175 0.208675 0.189925
0.278006 0.221756 0.203006
0.309837 0.234838 0.216087
0.341669 0.247919 0.229169
0.373500 0.261000 0.242250
0.405331 0.274081 0.255331
0.437163 0.287162 0.268412
0.468994 0.300244 0.281494
0.500825 0.313325 0.294575
0.532656 0.326406 0.307656
0.564487 0.339487 0.320737
0.596319 0.352569 0.333819
0.112700 0.187700 0.150200
0.144531 0.200781 0.163281
0.176363 0.213863 0.176363
0.208194 0.226944 0.189444
0.240025 0.240025 0.202525
0.271856 0.253106 0.215606
0.303687 0.266187 0.228687
0.335519 0.279269 0.241769
0.367350 0.292350 0.254850
0.399181 0.305431 0.267931
0.431012 0.318512 0.281012
0.462844 0.331594 0.294094
0.494675 0.344675 0.307175
0.526506 0.357756 0.320256
0.558337 0.370837 0.333337
0.590169 0.383919 0.346419
0.622000 0.397000 0.359500
0.138381 0.232131 0.175881
0.170212 0.245212 0.188962
0.202044 0.258294 0.202044
0.233875 0.271375 0.215125
0.265706 0.284456 0.228206
0.297537 0.297537 0.241287
0.329369 0.310619 0.254369
0.361200 0.323700 0.267450
0.393031 0.336781 0.280531
0.424862 0.349862 0.293612
0.456694 0.362944 0.306694
0.488525 0.376025 0.319775
0.520356 0.389106 0.332856
0.552187 0.402187 0.345937
0.584019 0.415269 0.359019
0.615850 0.428350 0.372100
0.647681 0.441431 0.385181
0.164062 0.276562 0.201563
0.195894 0.289644 0.214644
0.227725 0.302725 0.227725
0.259556 0.315806 0.240806
0.291387 0.328887 0.253887
0.323219 0.341969 0.266969
0.355050 0.355050 0.280050
0.386881 0.368131 0.293131
0.418712 0.381212 0.306212
0.450544 0.394294 0.319294
0.482375 0.407375 0.332375
0.514206 0.420456 0.345456
0.546037 0.433537 0.358537
0.577869 0.446619 0.371619
0.609700 0.459700 0.384700
0.641531 0.472781 0.397781
0.673362 0.485862 0.410862
0.189744 0.320994 0.227244
0.221575 0.334075 0.240325
0.253406 0.347156 0.253406
0.285237 0.360237 0.266487
0.317069 0.373319 0.279569
0.348900 0.386400 0.292650
0.380731 0.399481 0.305731
0.412562 0.412562 0.318812
0.444394 0.425644 0.331894
0.476225 0.438725 0.344975
0.508056 0.451806 0.358056
0.539887 0.464887 0.371138
0.571719 0.477969 0.384219
0.603550 0.491050 0.397300
0.635381 0.504131 0.410381
0.667212 0.517212 0.423462
0.699044 0.530294 0.436544
0.215425 0.365425 0.252925
0.247256 0.378506 0.266006
0.279087 0.391587 0.279087
0.310919 0.404669 0.292169
0.342750 0.417750 0.305250
0.374581 0.430831 0.318331
0.406413 0.443912 0.331412
0.438244 0.456994 0.344494
0.470075 0.470075 0.357575
0.501906 0.483156 0.370656
0.533737 0.496237 0.383738
0.565569 0.509319 0.396819
0.597400 0.522400 0.409900
0.629231 0.535481 0.422981
0.661062 0.548562 0.436063
0.692894 0.561644 0.449144
0.724725 0.574725 0.462225
0.241106 0.409856 0.278606
0.272937 0.422937 0.291687
0.304769 0.436019 0.304769
0.336600 0.449100 0.317850
0.368431 0.462181 0.330931
0.400262 0.475262 0.344012
0.432094 0.488344 0.357094
0.463925 0.501425 0.370175
0.495756 0.514506 0.383256
0.527587 0.527587 0.396338
0.559419 0.540669 0.409419
0.591250 0.553750 0.422500
0.623081 0.566831 0.435581
0.654913 0.579912 0.448662
0.686744 0.592994 0.461744
0.718575 0.606075 0.474825
0.750406 0.619156 0.487906
0.266787 0.454287 0.304287
0.298619 0.467369 0.317369
0.330450 0.480450 0.330450
0.362281 0.493531 0.343531
0.394112 0.506612 0.356612
0.425944 0.519694 0.369694
0.457775 0.532775 0.382775
0.489606 0.545856 0.395856
0.521437 0.558937 0.408937
0.553269 0.572019 0.422019
0.585100 0.585100 0.435100
0.616931 0.598181 0.448181
0.648762 0.611262 0.461262
0.680594 0.624344 0.474344
0.712425 0.637425 0.487425
0.744256 0.650506 0.500506
0.776088 0.663587 0.513587
0.292469 0.498719 0.329969
0.324300 0.511800 0.343050
0.356131 0.524881 0.356131
0.387962 0.537963 0.369212
0.419794 0.551044 0.382294
0.451625 0.564125 0.395375
0.483456 0.577206 0.408456
0.515288 0.590288 0.421538
0.547119 0.603369 0.434619
0.578950 0.616450 0.447700
0.610781 0.629531 0.460781
0.642612 0.642612 0.473862
0.674444 0.655694 0.486944
0.706275 0.668775 0.500025
0.738106 0.681856 0.513106
0.769937 0.694937 0.526188
0.801769 0.708019 0.539269
0.318150 0.543150 0.355650
0.349981 0.556231 0.368731
0.381812 0.569312 0.381812
0.413644 0.582394 0.394894
0.445475 0.595475 0.407975
0.477306 0.608556 0.421056
0.509137 0.621637 0.434137
0.540969 0.634719 0.447219
0.572800 0.647800 0.460300
0.604631 0.660881 0.473381
0.636462 0.673962 0.486462
0.668294 0.687044 0.499544
0.700125 0.700125 0.512625
0.731956 0.713206 0.525706
0.763788 0.726287 0.538787
0.795619 0.739369 0.551869
0.827450 0.752450 0.564950
0.343831 0.587581 0.381331
0.375663 0.600662 0.394412
0.407494 0.613744 0.407494
0.439325 0.626825 0.420575
0.471156 0.639906 0.433656
0.502987 0.652987 0.446738
0.534819 0.666069 0.459819
0.566650 0.679150 0.472900
0.598481 0.692231 0.485981
0.630312 0.705313 0.499062
0.662144 0.718394 0.512144
0.693975 0.731475 0.525225
0.725806 0.744556 0.538306
0.757637 0.757637 0.551387
0.789469 0.770719 0.564469
0.821300 0.783800 0.577550
0.853131 0.796881 0.590631
0.369513 0.632012 0.407012
0.401344 0.645094 0.420094
0.433175 0.658175 0.433175
0.465006 0.671256 0.446256
0.496837 0.684337 0.459337
0.528669 0.697419 0.472419
0.560500 0.710500 0.485500
0.592331 0.723581 0.498581
0.624162 0.736662 0.511662
0.655994 0.749744 0.524744
0.687825 0.762825 0.537825
0.719656 0.775906 0.550906
0.751488 0.788988 0.563988
0.783319 0.802069 0.577069
0.815150 0.815150 0.590150
0.846981 0.828231 0.603231
0.878812 0.841312 0.616312
0.395194 0.676444 0.432694
0.427025 0.689525 0.445775
0.458856 0.702606 0.458856
0.490687 0.715688 0.471938
0.522519 0.728769 0.485019
0.554350 0.741850 0.498100
0.586181 0.754931 0.511181
0.618012 0.768012 0.524262
0.649844 0.781094 0.537344
0.681675 0.794175 0.550425
0.713506 0.807256 0.563506
0.745337 0.820337 0.576588
0.777169 0.833419 0.589669
0.809000 0.846500 0.602750
0.840831 0.859581 0.615831
0.872662 0.872662 0.628912
0.904494 0.885744 0.641994
0.420875 0.720875 0.458375
0.452706 0.733956 0.471456
0.484538 0.747038 0.484538
0.516369 0.760119 0.497619
0.548200 0.773200 0.510700
0.580031 0.786281 0.523781
0.611862 0.799362 0.536863
0.643694 0.812444 0.549944
0.675525 0.825525 0.563025
0.707356 0.838606 0.576106
0.739187 0.851687 0.589187
0.771019 0.864769 0.602269
0.802850 0.877850 0.615350
0.834681 0.890931 0.628431
0.866513 0.904012 0.641512
0.898344 0.917094 0.654594
0.930175 0.930175 0.667675
0.014963 0.014963 0.071212
0.046794 0.028044 0.084294
0.078625 0.041125 0.097375
0.110456 0.054206 0.110456
0.142288 0.067288 0.123537
0.174119 0.080369 0.136619
0.205950 0.093450 0.149700
0.237781 0.106531 0.162781
0.269612 0.119613 0.175863
0.301444 0.132694 0.188944
0.333275 0.145775 0.202025
0.365106 0.158856 0.215106
0.396937 0.171938 0.228188
0.428769 0.185019 0.241269
0.460600 0.198100 0.254350
0.492431 0.211181 0.267431
0.524262 0.224262 0.280512
0.040644 0.059394 0.096894
