app/src/main/assets/luts/crimson_impact.cube
# ApexStudio filter: crimson_impact
LUT_3D_SIZE 5
DOMAIN_MIN 0.0 0.0 0.0
DOMAIN_MAX 1.0 1.0 1.0
0.100000 0.000000 0.000000
0.450000 0.000000 0.000000
0.800000 0.000000 0.000000
1.000000 0.000000 0.000000
1.000000 0.000000 0.000000
0.100000 0.175000 0.000000
0.450000 0.175000 0.000000
0.800000 0.175000 0.000000
1.000000 0.175000 0.000000
1.000000 0.175000 0.000000
0.100000 0.400000 0.000000
0.450000 0.400000 0.000000
0.800000 0.400000 0.000000
1.000000 0.400000 0.000000
1.000000 0.400000 0.000000
0.100000 0.625000 0.000000
0.450000 0.625000 0.000000
0.800000 0.625000 0.000000
1.000000 0.625000 0.000000
1.000000 0.625000 0.000000
0.100000 0.850000 0.000000
0.450000 0.850000 0.000000
0.800000 0.850000 0.000000
1.000000 0.850000 0.000000
1.000000 0.850000 0.000000
0.100000 0.000000 0.175000
0.450000 0.000000 0.175000
0.800000 0.000000 0.175000
1.000000 0.000000 0.175000
1.000000 0.000000 0.175000
0.100000 0.175000 0.175000
0.450000 0.175000 0.175000
0.800000 0.175000 0.175000
1.000000 0.175000 0.175000
1.000000 0.175000 0.175000
0.100000 0.400000 0.175000
0.450000 0.400000 0.175000
0.800000 0.400000 0.175000
1.000000 0.400000 0.175000
1.000000 0.400000 0.175000
0.100000 0.625000 0.175000
0.450000 0.625000 0.175000
0.800000 0.625000 0.175000
1.000000 0.625000 0.175000
1.000000 0.625000 0.175000
0.100000 0.850000 0.175000
0.450000 0.850000 0.175000
0.800000 0.850000 0.175000
1.000000 0.850000 0.175000
1.000000 0.850000 0.175000
0.100000 0.000000 0.400000
0.450000 0.000000 0.400000
0.800000 0.000000 0.400000
1.000000 0.000000 0.400000
1.000000 0.000000 0.400000
0.100000 0.175000 0.400000
0.450000 0.175000 0.400000
0.800000 0.175000 0.400000
1.000000 0.175000 0.400000
1.000000 0.175000 0.400000
0.100000 0.400000 0.400000
0.450000 0.400000 0.400000
0.800000 0.400000 0.400000
1.000000 0.400000 0.400000
1.000000 0.400000 0.400000
0.100000 0.625000 0.400000
0.450000 0.625000 0.400000
0.800000 0.625000 0.400000
1.000000 0.625000 0.400000
1.000000 0.625000 0.400000
0.100000 0.850000 0.400000
0.450000 0.850000 0.400000
0.800000 0.850000 0.400000
1.000000 0.850000 0.400000
1.000000 0.850000 0.400000
0.100000 0.000000 0.625000
0.450000 0.000000 0.625000
0.800000 0.000000 0.625000
1.000000 0.000000 0.625000
1.000000 0.000000 0.625000
0.100000 0.175000 0.625000
0.450000 0.175000 0.625000
0.800000 0.175000 0.625000
1.000000 0.175000 0.625000
1.000000 0.175000 0.625000
0.100000 0.400000 0.625000
0.450000 0.400000 0.625000
0.800000 0.400000 0.625000
1.000000 0.400000 0.625000
1.000000 0.400000 0.625000
0.100000 0.625000 0.625000
0.450000 0.625000 0.625000
0.800000 0.625000 0.625000
1.000000 0.625000 0.625000
1.000000 0.625000 0.625000
0.100000 0.850000 0.625000
0.450000 0.850000 0.625000
0.800000 0.850000 0.625000
1.000000 0.850000 0.625000
1.000000 0.850000 0.625000
0.100000 0.000000 0.850000
0.450000 0.000000 0.850000
0.800000 0.000000 0.850000
1.000000 0.000000 0.850000
1.000000 0.000000 0.850000
0.100000 0.175000 0.850000
0.450000 0.175000 0.850000
0.800000 0.175000 0.850000
1.000000 0.175000 0.850000
1.000000 0.175000 0.850000
0.100000 0.400000 0.850000
0.450000 0.400000 0.850000
0.800000 0.400000 0.850000
1.000000 0.400000 0.850000
1.000000 0.400000 0.850000
0.100000 0.625000 0.850000
0.450000 0.625000 0.850000
0.800000 0.625000 0.850000
1.000000 0.625000 0.850000
1.000000 0.625000 0.850000
0.100000 0.850000 0.850000
0.450000 0.850000 0.850000
0.800000 0.850000 0.850000
1.000000 0.850000 0.850000
1.000000 0.850000 0.850000
