app/src/main/assets/luts/crimson_impact.cube
# ApexStudio filter: crimson_impact
LUT_3D_SIZE 9
DOMAIN_MIN 0.0 0.0 0.0
DOMAIN_MAX 1.0 1.0 1.0
0.100000 0.000000 0.000000
0.275000 0.000000 0.000000
0.450000 0.000000 0.000000
0.625000 0.000000 0.000000
0.800000 0.000000 0.000000
0.975000 0.000000 0.000000
1.000000 0.000000 0.000000
1.000000 0.000000 0.000000
1.000000 0.000000 0.000000
0.100000 0.062500 0.000000
0.275000 0.062500 0.000000
0.450000 0.062500 0.000000
0.625000 0.062500 0.000000
0.800000 0.062500 0.000000
0.975000 0.062500 0.000000
1.000000 0.062500 0.000000
1.000000 0.062500 0.000000
1.000000 0.062500 0.000000
0.100000 0.175000 0.000000
0.275000 0.175000 0.000000
0.450000 0.175000 0.000000
0.625000 0.175000 0.000000
0.800000 0.175000 0.000000
0.975000 0.175000 0.000000
1.000000 0.175000 0.000000
1.000000 0.175000 0.000000
1.000000 0.175000 0.000000
0.100000 0.287500 0.000000
0.275000 0.287500 0.000000
0.450000 0.287500 0.000000
0.625000 0.287500 0.000000
0.800000 0.287500 0.000000
0.975000 0.287500 0.000000
1.000000 0.287500 0.000000
1.000000 0.287500 0.000000
1.000000 0.287500 0.000000
0.100000 0.400000 0.000000
0.275000 0.400000 0.000000
0.450000 0.400000 0.000000
0.625000 0.400000 0.000000
0.800000 0.400000 0.000000
0.975000 0.400000 0.000000
1.000000 0.400000 0.000000
1.000000 0.400000 0.000000
1.000000 0.400000 0.000000
0.100000 0.512500 0.000000
0.275000 0.512500 0.000000
0.450000 0.512500 0.000000
0.625000 0.512500 0.000000
0.800000 0.512500 0.000000
0.975000 0.512500 0.000000
1.000000 0.512500 0.000000
1.000000 0.512500 0.000000
1.000000 0.512500 0.000000
0.100000 0.625000 0.000000
0.275000 0.625000 0.000000
0.450000 0.625000 0.000000
0.625000 0.625000 0.000000
0.800000 0.625000 0.000000
0.975000 0.625000 0.000000
1.000000 0.625000 0.000000
1.000000 0.625000 0.000000
1.000000 0.625000 0.000000
0.100000 0.737500 0.000000
0.275000 0.737500 0.000000
0.450000 0.737500 0.000000
0.625000 0.737500 0.000000
0.800000 0.737500 0.000000
0.975000 0.737500 0.000000
1.000000 0.737500 0.000000
1.000000 0.737500 0.000000
1.000000 0.737500 0.000000
0.100000 0.850000 0.000000
0.275000 0.850000 0.000000
0.450000 0.850000 0.000000
0.625000 0.850000 0.000000
0.800000 0.850000 0.000000
0.975000 0.850000 0.000000
1.000000 0.850000 0.000000
1.000000 0.850000 0.000000
1.000000 0.850000 0.000000
0.100000 0.000000 0.062500
0.275000 0.000000 0.062500
0.450000 0.000000 0.062500
0.625000 0.000000 0.062500
0.800000 0.000000 0.062500
0.975000 0.000000 0.062500
1.000000 0.000000 0.062500
1.000000 0.000000 0.062500
1.000000 0.000000 0.062500
0.100000 0.062500 0.062500
0.275000 0.062500 0.062500
0.450000 0.062500 0.062500
0.625000 0.062500 0.062500
0.800000 0.062500 0.062500
0.975000 0.062500 0.062500
1.000000 0.062500 0.062500
1.000000 0.062500 0.062500
1.000000 0.062500 0.062500
0.100000 0.175000 0.062500
0.275000 0.175000 0.062500
0.450000 0.175000 0.062500
0.625000 0.175000 0.062500
0.800000 0.175000 0.062500
0.975000 0.175000 0.062500
1.000000 0.175000 0.062500
1.000000 0.175000 0.062500
1.000000 0.175000 0.062500
0.100000 0.287500 0.062500
0.275000 0.287500 0.062500
0.450000 0.287500 0.062500
0.625000 0.287500 0.062500
0.800000 0.287500 0.062500
0.975000 0.287500 0.062500
1.000000 0.287500 0.062500
1.000000 0.287500 0.062500
1.000000 0.287500 0.062500
0.100000 0.400000 0.062500
0.275000 0.400000 0.062500
0.450000 0.400000 0.062500
0.625000 0.400000 0.062500
0.800000 0.400000 0.062500
0.975000 0.400000 0.062500
1.000000 0.400000 0.062500
1.000000 0.400000 0.062500
1.000000 0.400000 0.062500
0.100000 0.512500 0.062500
0.275000 0.512500 0.062500
0.450000 0.512500 0.062500
0.625000 0.512500 0.062500
0.800000 0.512500 0.062500
0.975000 0.512500 0.062500
1.000000 0.512500 0.062500
1.000000 0.512500 0.062500
1.000000 0.512500 0.062500
0.100000 0.625000 0.062500
0.275000 0.625000 0.062500
0.450000 0.625000 0.062500
0.625000 0.625000 0.062500
0.800000 0.625000 0.062500
0.975000 0.625000 0.062500
1.000000 0.625000 0.062500
1.000000 0.625000 0.062500
1.000000 0.625000 0.062500
0.100000 0.737500 0.062500
0.275000 0.737500 0.062500
0.450000 0.737500 0.062500
0.625000 0.737500 0.062500
0.800000 0.737500 0.062500
0.975000 0.737500 0.062500
1.000000 0.737500 0.062500
1.000000 0.737500 0.062500
1.000000 0.737500 0.062500
0.100000 0.850000 0.062500
0.275000 0.850000 0.062500
0.450000 0.850000 0.062500
0.625000 0.850000 0.062500
0.800000 0.850000 0.062500
0.975000 0.850000 0.062500
1.000000 0.850000 0.062500
1.000000 0.850000 0.062500
1.000000 0.850000 0.062500
0.100000 0.000000 0.175000
0.275000 0.000000 0.175000
0.450000 0.000000 0.175000
0.625000 0.000000 0.175000
0.800000 0.000000 0.175000
0.975000 0.000000 0.175000
1.000000 0.000000 0.175000
1.000000 0.000000 0.175000
1.000000 0.000000 0.175000
0.100000 0.062500 0.175000
0.275000 0.062500 0.175000
0.450000 0.062500 0.175000
0.625000 0.062500 0.175000
0.800000 0.062500 0.175000
0.975000 0.062500 0.175000
1.000000 0.062500 0.175000
1.000000 0.062500 0.175000
1.000000 0.062500 0.175000
0.100000 0.175000 0.175000
0.275000 0.175000 0.175000
0.450000 0.175000 0.175000
0.625000 0.175000 0.175000
0.800000 0.175000 0.175000
0.975000 0.175000 0.175000
1.000000 0.175000 0.175000
1.000000 0.175000 0.175000
1.000000 0.175000 0.175000
0.100000 0.287500 0.175000
0.275000 0.287500 0.175000
0.450000 0.287500 0.175000
0.625000 0.287500 0.175000
0.800000 0.287500 0.175000
0.975000 0.287500 0.175000
1.000000 0.287500 0.175000
1.000000 0.287500 0.175000
1.000000 0.287500 0.175000
0.100000 0.400000 0.175000
0.275000 0.400000 0.175000
0.450000 0.400000 0.175000
0.625000 0.400000 0.175000
0.800000 0.400000 0.175000
0.975000 0.400000 0.175000
1.000000 0.400000 0.175000
1.000000 0.400000 0.175000
1.000000 0.400000 0.175000
0.100000 0.512500 0.175000
0.275000 0.512500 0.175000
0.450000 0.512500 0.175000
0.625000 0.512500 0.175000
0.800000 0.512500 0.175000
0.975000 0.512500 0.175000
1.000000 0.512500 0.175000
1.000000 0.512500 0.175000
1.000000 0.512500 0.175000
0.100000 0.625000 0.175000
0.275000 0.625000 0.175000
0.450000 0.625000 0.175000
0.625000 0.625000 0.175000
0.800000 0.625000 0.175000
0.975000 0.625000 0.175000
1.000000 0.625000 0.175000
1.000000 0.625000 0.175000
1.000000 0.625000 0.175000
0.100000 0.737500 0.175000
0.275000 0.737500 0.175000
0.450000 0.737500 0.175000
0.625000 0.737500 0.175000
0.800000 0.737500 0.175000
0.975000 0.737500 0.175000
1.000000 0.737500 0.175000
1.000000 0.737500 0.175000
1.000000 0.737500 0.175000
0.100000 0.850000 0.175000
0.275000 0.850000 0.175000
0.450000 0.850000 0.175000
0.625000 0.850000 0.175000
0.800000 0.850000 0.175000
0.975000 0.850000 0.175000
1.000000 0.850000 0.175000
1.000000 0.850000 0.175000
1.000000 0.850000 0.175000
0.100000 0.000000 0.287500
0.275000 0.000000 0.287500
0.450000 0.000000 0.287500
0.625000 0.000000 0.287500
0.800000 0.000000 0.287500
0.975000 0.000000 0.287500
1.000000 0.000000 0.287500
1.000000 0.000000 0.287500
1.000000 0.000000 0.287500
0.100000 0.062500 0.287500
0.275000 0.062500 0.287500
0.450000 0.062500 0.287500
0.625000 0.062500 0.287500
0.800000 0.062500 0.287500
0.975000 0.062500 0.287500
1.000000 0.062500 0.287500
1.000000 0.062500 0.287500
1.000000 0.062500 0.287500
0.100000 0.175000 0.287500
0.275000 0.175000 0.287500
0.450000 0.175000 0.287500
0.625000 0.175000 0.287500
0.800000 0.175000 0.287500
0.975000 0.175000 0.287500
1.000000 0.175000 0.287500
1.000000 0.175000 0.287500
1.000000 0.175000 0.287500
0.100000 0.287500 0.287500
0.275000 0.287500 0.287500
0.450000 0.287500 0.287500
0.625000 0.287500 0.287500
0.800000 0.287500 0.287500
0.975000 0.287500 0.287500
1.000000 0.287500 0.287500
1.000000 0.287500 0.287500
1.000000 0.287500 0.287500
0.100000 0.400000 0.287500
0.275000 0.400000 0.287500
0.450000 0.400000 0.287500
0.625000 0.400000 0.287500
0.800000 0.400000 0.287500
0.975000 0.400000 0.287500
1.000000 0.400000 0.287500
1.000000 0.400000 0.287500
1.000000 0.400000 0.287500
0.100000 0.512500 0.287500
0.275000 0.512500 0.287500
0.450000 0.512500 0.287500
0.625000 0.512500 0.287500
0.800000 0.512500 0.287500
0.975000 0.512500 0.287500
1.000000 0.512500 0.287500
1.000000 0.512500 0.287500
1.000000 0.512500 0.287500
0.100000 0.625000 0.287500
0.275000 0.625000 0.287500
0.450000 0.625000 0.287500
0.625000 0.625000 0.287500
0.800000 0.625000 0.287500
0.975000 0.625000 0.287500
1.000000 0.625000 0.287500
1.000000 0.625000 0.287500
1.000000 0.625000 0.287500
0.100000 0.737500 0.287500
0.275000 0.737500 0.287500
0.450000 0.737500 0.287500
0.625000 0.737500 0.287500
0.800000 0.737500 0.287500
0.975000 0.737500 0.287500
1.000000 0.737500 0.287500
1.000000 0.737500 0.287500
1.000000 0.737500 0.287500
0.100000 0.850000 0.287500
0.275000 0.850000 0.287500
0.450000 0.850000 0.287500
0.625000 0.850000 0.287500
0.800000 0.850000 0.287500
0.975000 0.850000 0.287500
1.000000 0.850000 0.287500
1.000000 0.850000 0.287500
1.000000 0.850000 0.287500
0.100000 0.000000 0.400000
0.275000 0.000000 0.400000
0.450000 0.000000 0.400000
0.625000 0.000000 0.400000
0.800000 0.000000 0.400000
0.975000 0.000000 0.400000
1.000000 0.000000 0.400000
1.000000 0.000000 0.400000
1.000000 0.000000 0.400000
0.100000 0.062500 0.400000
0.275000 0.062500 0.400000
0.450000 0.062500 0.400000
0.625000 0.062500 0.400000
0.800000 0.062500 0.400000
0.975000 0.062500 0.400000
1.000000 0.062500 0.400000
1.000000 0.062500 0.400000
1.000000 0.062500 0.400000
0.100000 0.175000 0.400000
0.275000 0.175000 0.400000
0.450000 0.175000 0.400000
0.625000 0.175000 0.400000
0.800000 0.175000 0.400000
0.975000 0.175000 0.400000
1.000000 0.175000 0.400000
1.000000 0.175000 0.400000
1.000000 0.175000 0.400000
0.100000 0.287500 0.400000
0.275000 0.287500 0.400000
0.450000 0.287500 0.400000
0.625000 0.287500 0.400000
0.800000 0.287500 0.400000
0.975000 0.287500 0.400000
1.000000 0.287500 0.400000
1.000000 0.287500 0.400000
1.000000 0.287500 0.400000
0.100000 0.400000 0.400000
0.275000 0.400000 0.400000
0.450000 0.400000 0.400000
0.625000 0.400000 0.400000
0.800000 0.400000 0.400000
0.975000 0.400000 0.400000
1.000000 0.400000 0.400000
1.000000 0.400000 0.400000
1.000000 0.400000 0.400000
0.100000 0.512500 0.400000
0.275000 0.512500 0.400000
0.450000 0.512500 0.400000
0.625000 0.512500 0.400000
0.800000 0.512500 0.400000
0.975000 0.512500 0.400000
1.000000 0.512500 0.400000
1.000000 0.512500 0.400000
1.000000 0.512500 0.400000
0.100000 0.625000 0.400000
0.275000 0.625000 0.400000
0.450000 0.625000 0.400000
0.625000 0.625000 0.400000
0.800000 0.625000 0.400000
0.975000 0.625000 0.400000
1.000000 0.625000 0.400000
1.000000 0.625000 0.400000
1.000000 0.625000 0.400000
0.100000 0.737500 0.400000
0.275000 0.737500 0.400000
0.450000 0.737500 0.400000
0.625000 0.737500 0.400000
0.800000 0.737500 0.400000
0.975000 0.737500 0.400000
1.000000 0.737500 0.400000
1.000000 0.737500 0.400000
1.000000 0.737500 0.400000
0.100000 0.850000 0.400000
0.275000 0.850000 0.400000
0.450000 0.850000 0.400000
0.625000 0.850000 0.400000
0.800000 0.850000 0.400000
0.975000 0.850000 0.400000
1.000000 0.850000 0.400000
1.000000 0.850000 0.400000
1.000000 0.850000 0.400000
0.100000 0.000000 0.512500
0.275000 0.000000 0.512500
0.450000 0.000000 0.512500
0.625000 0.000000 0.512500
0.800000 0.000000 0.512500
0.975000 0.000000 0.512500
1.000000 0.000000 0.512500
1.000000 0.000000 0.512500
1.000000 0.000000 0.512500
0.100000 0.062500 0.512500
0.275000 0.062500 0.512500
0.450000 0.062500 0.512500
0.625000 0.062500 0.512500
0.800000 0.062500 0.512500
0.975000 0.062500 0.512500
1.000000 0.062500 0.512500
1.000000 0.062500 0.512500
1.000000 0.062500 0.512500
0.100000 0.175000 0.512500
0.275000 0.175000 0.512500
0.450000 0.175000 0.512500
0.625000 0.175000 0.512500
0.800000 0.175000 0.512500
0.975000 0.175000 0.512500
1.000000 0.175000 0.512500
1.000000 0.175000 0.512500
1.000000 0.175000 0.512500
0.100000 0.287500 0.512500
0.275000 0.287500 0.512500
0.450000 0.287500 0.512500
0.625000 0.287500 0.512500
0.800000 0.287500 0.512500
0.975000 0.287500 0.512500
1.000000 0.287500 0.512500
1.000000 0.287500 0.512500
1.000000 0.287500 0.512500
0.100000 0.400000 0.512500
0.275000 0.400000 0.512500
0.450000 0.400000 0.512500
0.625000 0.400000 0.512500
0.800000 0.400000 0.512500
0.975000 0.400000 0.512500
1.000000 0.400000 0.512500
1.000000 0.400000 0.512500
1.000000 0.400000 0.512500
0.100000 0.512500 0.512500
0.275000 0.512500 0.512500
0.450000 0.512500 0.512500
0.625000 0.512500 0.512500
0.800000 0.512500 0.512500
0.975000 0.512500 0.512500
1.000000 0.512500 0.512500
1.000000 0.512500 0.512500
1.000000 0.512500 0.512500
0.100000 0.625000 0.512500
0.275000 0.625000 0.512500
0.450000 0.625000 0.512500
0.625000 0.625000 0.512500
0.800000 0.625000 0.512500
0.975000 0.625000 0.512500
1.000000 0.625000 0.512500
1.000000 0.625000 0.512500
1.000000 0.625000 0.512500
0.100000 0.737500 0.512500
0.275000 0.737500 0.512500
0.450000 0.737500 0.512500
0.625000 0.737500 0.512500
0.800000 0.737500 0.512500
0.975000 0.737500 0.512500
1.000000 0.737500 0.512500
1.000000 0.737500 0.512500
1.000000 0.737500 0.512500
0.100000 0.850000 0.512500
0.275000 0.850000 0.512500
0.450000 0.850000 0.512500
0.625000 0.850000 0.512500
0.800000 0.850000 0.512500
0.975000 0.850000 0.512500
1.000000 0.850000 0.512500
1.000000 0.850000 0.512500
1.000000 0.850000 0.512500
0.100000 0.000000 0.625000
0.275000 0.000000 0.625000
0.450000 0.000000 0.625000
0.625000 0.000000 0.625000
0.800000 0.000000 0.625000
0.975000 0.000000 0.625000
1.000000 0.000000 0.625000
1.000000 0.000000 0.625000
1.000000 0.000000 0.625000
0.100000 0.062500 0.625000
0.275000 0.062500 0.625000
0.450000 0.062500 0.625000
0.625000 0.062500 0.625000
0.800000 0.062500 0.625000
0.975000 0.062500 0.625000
1.000000 0.062500 0.625000
1.000000 0.062500 0.625000
1.000000 0.062500 0.625000
0.100000 0.175000 0.625000
0.275000 0.175000 0.625000
0.450000 0.175000 0.625000
0.625000 0.175000 0.625000
0.800000 0.175000 0.625000
0.975000 0.175000 0.625000
1.000000 0.175000 0.625000
1.000000 0.175000 0.625000
1.000000 0.175000 0.625000
0.100000 0.287500 0.625000
0.275000 0.287500 0.625000
0.450000 0.287500 0.625000
0.625000 0.287500 0.625000
0.800000 0.287500 0.625000
0.975000 0.287500 0.625000
1.000000 0.287500 0.625000
1.000000 0.287500 0.625000
1.000000 0.287500 0.625000
0.100000 0.400000 0.625000
0.275000 0.400000 0.625000
0.450000 0.400000 0.625000
0.625000 0.400000 0.625000
0.800000 0.400000 0.625000
0.975000 0.400000 0.625000
1.000000 0.400000 0.625000
1.000000 0.400000 0.625000
1.000000 0.400000 0.625000
0.100000 0.512500 0.625000
0.275000 0.512500 0.625000
0.450000 0.512500 0.625000
0.625000 0.512500 0.625000
0.800000 0.512500 0.625000
0.975000 0.512500 0.625000
1.000000 0.512500 0.625000
1.000000 0.512500 0.625000
1.000000 0.512500 0.625000
0.100000 0.625000 0.625000
0.275000 0.625000 0.625000
0.450000 0.625000 0.625000
0.625000 0.625000 0.625000
0.800000 0.625000 0.625000
0.975000 0.625000 0.625000
1.000000 0.625000 0.625000
1.000000 0.625000 0.625000
1.000000 0.625000 0.625000
0.100000 0.737500 0.625000
0.275000 0.737500 0.625000
0.450000 0.737500 0.625000
0.625000 0.737500 0.625000
0.800000 0.737500 0.625000
0.975000 0.737500 0.625000
1.000000 0.737500 0.625000
1.000000 0.737500 0.625000
1.000000 0.737500 0.625000
0.100000 0.850000 0.625000
0.275000 0.850000 0.625000
0.450000 0.850000 0.625000
0.625000 0.850000 0.625000
0.800000 0.850000 0.625000
0.975000 0.850000 0.625000
1.000000 0.850000 0.625000
1.000000 0.850000 0.625000
1.000000 0.850000 0.625000
0.100000 0.000000 0.737500
0.275000 0.000000 0.737500
0.450000 0.000000 0.737500
0.625000 0.000000 0.737500
0.800000 0.000000 0.737500
0.975000 0.000000 0.737500
1.000000 0.000000 0.737500
1.000000 0.000000 0.737500
1.000000 0.000000 0.737500
0.100000 0.062500 0.737500
0.275000 0.062500 0.737500
0.450000 0.062500 0.737500
0.625000 0.062500 0.737500
0.800000 0.062500 0.737500
0.975000 0.062500 0.737500
1.000000 0.062500 0.737500
1.000000 0.062500 0.737500
1.000000 0.062500 0.737500
0.100000 0.175000 0.737500
0.275000 0.175000 0.737500
0.450000 0.175000 0.737500
0.625000 0.175000 0.737500
0.800000 0.175000 0.737500
0.975000 0.175000 0.737500
1.000000 0.175000 0.737500
1.000000 0.175000 0.737500
1.000000 0.175000 0.737500
0.100000 0.287500 0.737500
0.275000 0.287500 0.737500
0.450000 0.287500 0.737500
0.625000 0.287500 0.737500
0.800000 0.287500 0.737500
0.975000 0.287500 0.737500
1.000000 0.287500 0.737500
1.000000 0.287500 0.737500
1.000000 0.287500 0.737500
0.100000 0.400000 0.737500
0.275000 0.400000 0.737500
0.450000 0.400000 0.737500
0.625000 0.400000 0.737500
0.800000 0.400000 0.737500
0.975000 0.400000 0.737500
1.000000 0.400000 0.737500
1.000000 0.400000 0.737500
1.000000 0.400000 0.737500
0.100000 0.512500 0.737500
0.275000 0.512500 0.737500
0.450000 0.512500 0.737500
0.625000 0.512500 0.737500
0.800000 0.512500 0.737500
0.975000 0.512500 0.737500
1.000000 0.512500 0.737500
1.000000 0.512500 0.737500
1.000000 0.512500 0.737500
0.100000 0.625000 0.737500
0.275000 0.625000 0.737500
0.450000 0.625000 0.737500
0.625000 0.625000 0.737500
0.800000 0.625000 0.737500
0.975000 0.625000 0.737500
1.000000 0.625000 0.737500
1.000000 0.625000 0.737500
1.000000 0.625000 0.737500
0.100000 0.737500 0.737500
0.275000 0.737500 0.737500
0.450000 0.737500 0.737500
0.625000 0.737500 0.737500
0.800000 0.737500 0.737500
0.975000 0.737500 0.737500
1.000000 0.737500 0.737500
1.000000 0.737500 0.737500
1.000000 0.737500 0.737500
0.100000 0.850000 0.737500
0.275000 0.850000 0.737500
0.450000 0.850000 0.737500
0.625000 0.850000 0.737500
0.800000 0.850000 0.737500
0.975000 0.850000 0.737500
1.000000 0.850000 0.737500
1.000000 0.850000 0.737500
1.000000 0.850000 0.737500
0.100000 0.000000 0.850000
0.275000 0.000000 0.850000
0.450000 0.000000 0.850000
0.625000 0.000000 0.850000
0.800000 0.000000 0.850000
0.975000 0.000000 0.850000
1.000000 0.000000 0.850000
1.000000 0.000000 0.850000
1.000000 0.000000 0.850000
0.100000 0.062500 0.850000
0.275000 0.062500 0.850000
0.450000 0.062500 0.850000
0.625000 0.062500 0.850000
0.800000 0.062500 0.850000
0.975000 0.062500 0.850000
1.000000 0.062500 0.850000
1.000000 0.062500 0.850000
1.000000 0.062500 0.850000
0.100000 0.175000 0.850000
0.275000 0.175000 0.850000
0.450000 0.175000 0.850000
0.625000 0.175000 0.850000
0.800000 0.175000 0.850000
0.975000 0.175000 0.850000
1.000000 0.175000 0.850000
1.000000 0.175000 0.850000
1.000000 0.175000 0.850000
0.100000 0.287500 0.850000
0.275000 0.287500 0.850000
0.450000 0.287500 0.850000
0.625000 0.287500 0.850000
0.800000 0.287500 0.850000
0.975000 0.287500 0.850000
1.000000 0.287500 0.850000
1.000000 0.287500 0.850000
1.000000 0.287500 0.850000
0.100000 0.400000 0.850000
0.275000 0.400000 0.850000
0.450000 0.400000 0.850000
0.625000 0.400000 0.850000
0.800000 0.400000 0.850000
0.975000 0.400000 0.850000
1.000000 0.400000 0.850000
1.000000 0.400000 0.850000
1.000000 0.400000 0.850000
0.100000 0.512500 0.850000
0.275000 0.512500 0.850000
0.450000 0.512500 0.850000
0.625000 0.512500 0.850000
0.800000 0.512500 0.850000
0.975000 0.512500 0.850000
1.000000 0.512500 0.850000
1.000000 0.512500 0.850000
1.000000 0.512500 0.850000
0.100000 0.625000 0.850000
0.275000 0.625000 0.850000
0.450000 0.625000 0.850000
0.625000 0.625000 0.850000
0.800000 0.625000 0.850000
0.975000 0.625000 0.850000
1.000000 0.625000 0.850000
1.000000 0.625000 0.850000
1.000000 0.625000 0.850000
0.100000 0.737500 0.850000
0.275000 0.737500 0.850000
0.450000 0.737500 0.850000
0.625000 0.737500 0.850000
0.800000 0.737500 0.850000
0.975000 0.737500 0.850000
1.000000 0.737500 0.850000
1.000000 0.737500 0.850000
1.000000 0.737500 0.850000
0.100000 0.850000 0.850000
0.275000 0.850000 0.850000
0.450000 0.850000 0.850000
0.625000 0.850000 0.850000
0.800000 0.850000 0.850000
0.975000 0.850000 0.850000
1.000000 0.850000 0.850000
1.000000 0.850000 0.850000
1.000000 0.850000 0.850000
