app/src/main/assets/luts/crimson_impact.cube
# ApexStudio filter: crimson_impact
LUT_3D_SIZE 17
DOMAIN_MIN 0.0 0.0 0.0
DOMAIN_MAX 1.0 1.0 1.0
0.100000 0.000000 0.000000
0.187500 0.000000 0.000000
0.275000 0.000000 0.000000
0.362500 0.000000 0.000000
0.450000 0.000000 0.000000
0.537500 0.000000 0.000000
0.625000 0.000000 0.000000
0.712500 0.000000 0.000000
0.800000 0.000000 0.000000
0.887500 0.000000 0.000000
0.975000 0.000000 0.000000
1.000000 0.000000 0.000000
1.000000 0.000000 0.000000
1.000000 0.000000 0.000000
1.000000 0.000000 0.000000
1.000000 0.000000 0.000000
1.000000 0.000000 0.000000
0.100000 0.006250 0.000000
0.187500 0.006250 0.000000
0.275000 0.006250 0.000000
0.362500 0.006250 0.000000
0.450000 0.006250 0.000000
0.537500 0.006250 0.000000
0.625000 0.006250 0.000000
0.712500 0.006250 0.000000
0.800000 0.006250 0.000000
0.887500 0.006250 0.000000
0.975000 0.006250 0.000000
1.000000 0.006250 0.000000
1.000000 0.006250 0.000000
1.000000 0.006250 0.000000
1.000000 0.006250 0.000000
1.000000 0.006250 0.000000
1.000000 0.006250 0.000000
0.100000 0.062500 0.000000
0.187500 0.062500 0.000000
0.275000 0.062500 0.000000
0.362500 0.062500 0.000000
0.450000 0.062500 0.000000
0.537500 0.062500 0.000000
0.625000 0.062500 0.000000
0.712500 0.062500 0.000000
0.800000 0.062500 0.000000
0.887500 0.062500 0.000000
0.975000 0.062500 0.000000
1.000000 0.062500 0.000000
1.000000 0.062500 0.000000
1.000000 0.062500 0.000000
1.000000 0.062500 0.000000
1.000000 0.062500 0.000000
1.000000 0.062500 0.000000
0.100000 0.118750 0.000000
0.187500 0.118750 0.000000
0.275000 0.118750 0.000000
0.362500 0.118750 0.000000
0.450000 0.118750 0.000000
0.537500 0.118750 0.000000
0.625000 0.118750 0.000000
0.712500 0.118750 0.000000
0.800000 0.118750 0.000000
0.887500 0.118750 0.000000
0.975000 0.118750 0.000000
1.000000 0.118750 0.000000
1.000000 0.118750 0.000000
1.000000 0.118750 0.000000
1.000000 0.118750 0.000000
1.000000 0.118750 0.000000
1.000000 0.118750 0.000000
0.100000 0.175000 0.000000
0.187500 0.175000 0.000000
0.275000 0.175000 0.000000
0.362500 0.175000 0.000000
0.450000 0.175000 0.000000
0.537500 0.175000 0.000000
0.625000 0.175000 0.000000
0.712500 0.175000 0.000000
0.800000 0.175000 0.000000
0.887500 0.175000 0.000000
0.975000 0.175000 0.000000
1.000000 0.175000 0.000000
1.000000 0.175000 0.000000
1.000000 0.175000 0.000000
1.000000 0.175000 0.000000
1.000000 0.175000 0.000000
1.000000 0.175000 0.000000
0.100000 0.231250 0.000000
0.187500 0.231250 0.000000
0.275000 0.231250 0.000000
0.362500 0.231250 0.000000
0.450000 0.231250 0.000000
0.537500 0.231250 0.000000
0.625000 0.231250 0.000000
0.712500 0.231250 0.000000
0.800000 0.231250 0.000000
0.887500 0.231250 0.000000
0.975000 0.231250 0.000000
1.000000 0.231250 0.000000
1.000000 0.231250 0.000000
1.000000 0.231250 0.000000
1.000000 0.231250 0.000000
1.000000 0.231250 0.000000
1.000000 0.231250 0.000000
0.100000 0.287500 0.000000
0.187500 0.287500 0.000000
0.275000 0.287500 0.000000
0.362500 0.287500 0.000000
0.450000 0.287500 0.000000
0.537500 0.287500 0.000000
0.625000 0.287500 0.000000
0.712500 0.287500 0.000000
0.800000 0.287500 0.000000
0.887500 0.287500 0.000000
0.975000 0.287500 0.000000
1.000000 0.287500 0.000000
1.000000 0.287500 0.000000
1.000000 0.287500 0.000000
1.000000 0.287500 0.000000
1.000000 0.287500 0.000000
1.000000 0.287500 0.000000
0.100000 0.343750 0.000000
0.187500 0.343750 0.000000
0.275000 0.343750 0.000000
0.362500 0.343750 0.000000
0.450000 0.343750 0.000000
0.537500 0.343750 0.000000
0.625000 0.343750 0.000000
0.712500 0.343750 0.000000
0.800000 0.343750 0.000000
0.887500 0.343750 0.000000
0.975000 0.343750 0.000000
1.000000 0.343750 0.000000
1.000000 0.343750 0.000000
1.000000 0.343750 0.000000
1.000000 0.343750 0.000000
1.000000 0.343750 0.000000
1.000000 0.343750 0.000000
0.100000 0.400000 0.000000
0.187500 0.400000 0.000000
0.275000 0.400000 0.000000
0.362500 0.400000 0.000000
0.450000 0.400000 0.000000
0.537500 0.400000 0.000000
0.625000 0.400000 0.000000
0.712500 0.400000 0.000000
0.800000 0.400000 0.000000
0.887500 0.400000 0.000000
0.975000 0.400000 0.000000
1.000000 0.400000 0.000000
1.000000 0.400000 0.000000
1.000000 0.400000 0.000000
1.000000 0.400000 0.000000
1.000000 0.400000 0.000000
1.000000 0.400000 0.000000
0.100000 0.456250 0.000000
0.187500 0.456250 0.000000
0.275000 0.456250 0.000000
0.362500 0.456250 0.000000
0.450000 0.456250 0.000000
0.537500 0.456250 0.000000
0.625000 0.456250 0.000000
0.712500 0.456250 0.000000
0.800000 0.456250 0.000000
0.887500 0.456250 0.000000
0.975000 0.456250 0.000000
1.000000 0.456250 0.000000
1.000000 0.456250 0.000000
1.000000 0.456250 0.000000
1.000000 0.456250 0.000000
1.000000 0.456250 0.000000
1.000000 0.456250 0.000000
0.100000 0.512500 0.000000
0.187500 0.512500 0.000000
0.275000 0.512500 0.000000
0.362500 0.512500 0.000000
0.450000 0.512500 0.000000
0.537500 0.512500 0.000000
0.625000 0.512500 0.000000
0.712500 0.512500 0.000000
0.800000 0.512500 0.000000
0.887500 0.512500 0.000000
0.975000 0.512500 0.000000
1.000000 0.512500 0.000000
1.000000 0.512500 0.000000
1.000000 0.512500 0.000000
1.000000 0.512500 0.000000
1.000000 0.512500 0.000000
1.000000 0.512500 0.000000
0.100000 0.568750 0.000000
0.187500 0.568750 0.000000
0.275000 0.568750 0.000000
0.362500 0.568750 0.000000
0.450000 0.568750 0.000000
0.537500 0.568750 0.000000
0.625000 0.568750 0.000000
0.712500 0.568750 0.000000
0.800000 0.568750 0.000000
0.887500 0.568750 0.000000
0.975000 0.568750 0.000000
1.000000 0.568750 0.000000
1.000000 0.568750 0.000000
1.000000 0.568750 0.000000
1.000000 0.568750 0.000000
1.000000 0.568750 0.000000
1.000000 0.568750 0.000000
0.100000 0.625000 0.000000
0.187500 0.625000 0.000000
0.275000 0.625000 0.000000
0.362500 0.625000 0.000000
0.450000 0.625000 0.000000
0.537500 0.625000 0.000000
0.625000 0.625000 0.000000
0.712500 0.625000 0.000000
0.800000 0.625000 0.000000
0.887500 0.625000 0.000000
0.975000 0.625000 0.000000
1.000000 0.625000 0.000000
1.000000 0.625000 0.000000
1.000000 0.625000 0.000000
1.000000 0.625000 0.000000
1.000000 0.625000 0.000000
1.000000 0.625000 0.000000
0.100000 0.681250 0.000000
0.187500 0.681250 0.000000
0.275000 0.681250 0.000000
0.362500 0.681250 0.000000
0.450000 0.681250 0.000000
0.537500 0.681250 0.000000
0.625000 0.681250 0.000000
0.712500 0.681250 0.000000
0.800000 0.681250 0.000000
0.887500 0.681250 0.000000
0.975000 0.681250 0.000000
1.000000 0.681250 0.000000
1.000000 0.681250 0.000000
1.000000 0.681250 0.000000
1.000000 0.681250 0.000000
1.000000 0.681250 0.000000
1.000000 0.681250 0.000000
0.100000 0.737500 0.000000
0.187500 0.737500 0.000000
0.275000 0.737500 0.000000
0.362500 0.737500 0.000000
0.450000 0.737500 0.000000
0.537500 0.737500 0.000000
0.625000 0.737500 0.000000
0.712500 0.737500 0.000000
0.800000 0.737500 0.000000
0.887500 0.737500 0.000000
0.975000 0.737500 0.000000
1.000000 0.737500 0.000000
1.000000 0.737500 0.000000
1.000000 0.737500 0.000000
1.000000 0.737500 0.000000
1.000000 0.737500 0.000000
1.000000 0.737500 0.000000
0.100000 0.793750 0.000000
0.187500 0.793750 0.000000
0.275000 0.793750 0.000000
0.362500 0.793750 0.000000
0.450000 0.793750 0.000000
0.537500 0.793750 0.000000
0.625000 0.793750 0.000000
0.712500 0.793750 0.000000
0.800000 0.793750 0.000000
0.887500 0.793750 0.000000
0.975000 0.793750 0.000000
1.000000 0.793750 0.000000
1.000000 0.793750 0.000000
1.000000 0.793750 0.000000
1.000000 0.793750 0.000000
1.000000 0.793750 0.000000
1.000000 0.793750 0.000000
0.100000 0.850000 0.000000
0.187500 0.850000 0.000000
0.275000 0.850000 0.000000
0.362500 0.850000 0.000000
0.450000 0.850000 0.000000
0.537500 0.850000 0.000000
0.625000 0.850000 0.000000
0.712500 0.850000 0.000000
0.800000 0.850000 0.000000
0.887500 0.850000 0.000000
0.975000 0.850000 0.000000
1.000000 0.850000 0.000000
1.000000 0.850000 0.000000
1.000000 0.850000 0.000000
1.000000 0.850000 0.000000
1.000000 0.850000 0.000000
1.000000 0.850000 0.000000
0.100000 0.000000 0.006250
0.187500 0.000000 0.006250
0.275000 0.000000 0.006250
0.362500 0.000000 0.006250
0.450000 0.000000 0.006250
0.537500 0.000000 0.006250
0.625000 0.000000 0.006250
0.712500 0.000000 0.006250
0.800000 0.000000 0.006250
0.887500 0.000000 0.006250
0.975000 0.000000 0.006250
1.000000 0.000000 0.006250
1.000000 0.000000 0.006250
1.000000 0.000000 0.006250
1.000000 0.000000 0.006250
1.000000 0.000000 0.006250
1.000000 0.000000 0.006250
0.100000 0.006250 0.006250
0.187500 0.006250 0.006250
0.275000 0.006250 0.006250
0.362500 0.006250 0.006250
0.450000 0.006250 0.006250
0.537500 0.006250 0.006250
0.625000 0.006250 0.006250
0.712500 0.006250 0.006250
0.800000 0.006250 0.006250
0.887500 0.006250 0.006250
0.975000 0.006250 0.006250
1.000000 0.006250 0.006250
1.000000 0.006250 0.006250
1.000000 0.006250 0.006250
1.000000 0.006250 0.006250
1.000000 0.006250 0.006250
1.000000 0.006250 0.006250
0.100000 0.062500 0.006250
0.187500 0.062500 0.006250
0.275000 0.062500 0.006250
0.362500 0.062500 0.006250
0.450000 0.062500 0.006250
0.537500 0.062500 0.006250
0.625000 0.062500 0.006250
0.712500 0.062500 0.006250
0.800000 0.062500 0.006250
0.887500 0.062500 0.006250
0.975000 0.062500 0.006250
1.000000 0.062500 0.006250
1.000000 0.062500 0.006250
1.000000 0.062500 0.006250
1.000000 0.062500 0.006250
1.000000 0.062500 0.006250
1.000000 0.062500 0.006250
0.100000 0.118750 0.006250
0.187500 0.118750 0.006250
0.275000 0.118750 0.006250
0.362500 0.118750 0.006250
0.450000 0.118750 0.006250
0.537500 0.118750 0.006250
0.625000 0.118750 0.006250
0.712500 0.118750 0.006250
0.800000 0.118750 0.006250
0.887500 0.118750 0.006250
0.975000 0.118750 0.006250
1.000000 0.118750 0.006250
1.000000 0.118750 0.006250
1.000000 0.118750 0.006250
1.000000 0.118750 0.006250
1.000000 0.118750 0.006250
1.000000 0.118750 0.006250
0.100000 0.175000 0.006250
0.187500 0.175000 0.006250
0.275000 0.175000 0.006250
0.362500 0.175000 0.006250
0.450000 0.175000 0.006250
0.537500 0.175000 0.006250
0.625000 0.175000 0.006250
0.712500 0.175000 0.006250
0.800000 0.175000 0.006250
0.887500 0.175000 0.006250
0.975000 0.175000 0.006250
1.000000 0.175000 0.006250
1.000000 0.175000 0.006250
1.000000 0.175000 0.006250
1.000000 0.175000 0.006250
1.000000 0.175000 0.006250
1.000000 0.175000 0.006250
0.100000 0.231250 0.006250
0.187500 0.231250 0.006250
0.275000 0.231250 0.006250
0.362500 0.231250 0.006250
0.450000 0.231250 0.006250
0.537500 0.231250 0.006250
0.625000 0.231250 0.006250
0.712500 0.231250 0.006250
0.800000 0.231250 0.006250
0.887500 0.231250 0.006250
0.975000 0.231250 0.006250
1.000000 0.231250 0.006250
1.000000 0.231250 0.006250
1.000000 0.231250 0.006250
1.000000 0.231250 0.006250
1.000000 0.231250 0.006250
1.000000 0.231250 0.006250
0.100000 0.287500 0.006250
0.187500 0.287500 0.006250
0.275000 0.287500 0.006250
0.362500 0.287500 0.006250
0.450000 0.287500 0.006250
0.537500 0.287500 0.006250
0.625000 0.287500 0.006250
0.712500 0.287500 0.006250
0.800000 0.287500 0.006250
0.887500 0.287500 0.006250
0.975000 0.287500 0.006250
1.000000 0.287500 0.006250
1.000000 0.287500 0.006250
1.000000 0.287500 0.006250
1.000000 0.287500 0.006250
1.000000 0.287500 0.006250
1.000000 0.287500 0.006250
0.100000 0.343750 0.006250
0.187500 0.343750 0.006250
0.275000 0.343750 0.006250
0.362500 0.343750 0.006250
0.450000 0.343750 0.006250
0.537500 0.343750 0.006250
0.625000 0.343750 0.006250
0.712500 0.343750 0.006250
0.800000 0.343750 0.006250
0.887500 0.343750 0.006250
0.975000 0.343750 0.006250
1.000000 0.343750 0.006250
1.000000 0.343750 0.006250
1.000000 0.343750 0.006250
1.000000 0.343750 0.006250
1.000000 0.343750 0.006250
1.000000 0.343750 0.006250
0.100000 0.400000 0.006250
0.187500 0.400000 0.006250
0.275000 0.400000 0.006250
0.362500 0.400000 0.006250
0.450000 0.400000 0.006250
0.537500 0.400000 0.006250
0.625000 0.400000 0.006250
0.712500 0.400000 0.006250
0.800000 0.400000 0.006250
0.887500 0.400000 0.006250
0.975000 0.400000 0.006250
1.000000 0.400000 0.006250
1.000000 0.400000 0.006250
1.000000 0.400000 0.006250
1.000000 0.400000 0.006250
1.000000 0.400000 0.006250
1.000000 0.400000 0.006250
0.100000 0.456250 0.006250
0.187500 0.456250 0.006250
0.275000 0.456250 0.006250
0.362500 0.456250 0.006250
0.450000 0.456250 0.006250
0.537500 0.456250 0.006250
0.625000 0.456250 0.006250
0.712500 0.456250 0.006250
0.800000 0.456250 0.006250
0.887500 0.456250 0.006250
0.975000 0.456250 0.006250
1.000000 0.456250 0.006250
1.000000 0.456250 0.006250
1.000000 0.456250 0.006250
1.000000 0.456250 0.006250
1.000000 0.456250 0.006250
1.000000 0.456250 0.006250
0.100000 0.512500 0.006250
0.187500 0.512500 0.006250
0.275000 0.512500 0.006250
0.362500 0.512500 0.006250
0.450000 0.512500 0.006250
0.537500 0.512500 0.006250
0.625000 0.512500 0.006250
0.712500 0.512500 0.006250
0.800000 0.512500 0.006250
0.887500 0.512500 0.006250
0.975000 0.512500 0.006250
1.000000 0.512500 0.006250
1.000000 0.512500 0.006250
1.000000 0.512500 0.006250
1.000000 0.512500 0.006250
1.000000 0.512500 0.006250
1.000000 0.512500 0.006250
0.100000 0.568750 0.006250
0.187500 0.568750 0.006250
0.275000 0.568750 0.006250
0.362500 0.568750 0.006250
0.450000 0.568750 0.006250
0.537500 0.568750 0.006250
0.625000 0.568750 0.006250
0.712500 0.568750 0.006250
0.800000 0.568750 0.006250
0.887500 0.568750 0.006250
0.975000 0.568750 0.006250
1.000000 0.568750 0.006250
1.000000 0.568750 0.006250
1.000000 0.568750 0.006250
1.000000 0.568750 0.006250
1.000000 0.568750 0.006250
1.000000 0.568750 0.006250
0.100000 0.625000 0.006250
0.187500 0.625000 0.006250
0.275000 0.625000 0.006250
0.362500 0.625000 0.006250
0.450000 0.625000 0.006250
0.537500 0.625000 0.006250
0.625000 0.625000 0.006250
0.712500 0.625000 0.006250
0.800000 0.625000 0.006250
0.887500 0.625000 0.006250
0.975000 0.625000 0.006250
1.000000 0.625000 0.006250
1.000000 0.625000 0.006250
1.000000 0.625000 0.006250
1.000000 0.625000 0.006250
1.000000 0.625000 0.006250
1.000000 0.625000 0.006250
0.100000 0.681250 0.006250
0.187500 0.681250 0.006250
0.275000 0.681250 0.006250
0.362500 0.681250 0.006250
0.450000 0.681250 0.006250
0.537500 0.681250 0.006250
0.625000 0.681250 0.006250
0.712500 0.681250 0.006250
0.800000 0.681250 0.006250
0.887500 0.681250 0.006250
0.975000 0.681250 0.006250
1.000000 0.681250 0.006250
1.000000 0.681250 0.006250
1.000000 0.681250 0.006250
1.000000 0.681250 0.006250
1.000000 0.681250 0.006250
1.000000 0.681250 0.006250
0.100000 0.737500 0.006250
0.187500 0.737500 0.006250
0.275000 0.737500 0.006250
0.362500 0.737500 0.006250
0.450000 0.737500 0.006250
0.537500 0.737500 0.006250
0.625000 0.737500 0.006250
0.712500 0.737500 0.006250
0.800000 0.737500 0.006250
0.887500 0.737500 0.006250
0.975000 0.737500 0.006250
1.000000 0.737500 0.006250
1.000000 0.737500 0.006250
1.000000 0.737500 0.006250
1.000000 0.737500 0.006250
1.000000 0.737500 0.006250
1.000000 0.737500 0.006250
0.100000 0.793750 0.006250
0.187500 0.793750 0.006250
0.275000 0.793750 0.006250
0.362500 0.793750 0.006250
0.450000 0.793750 0.006250
0.537500 0.793750 0.006250
0.625000 0.793750 0.006250
0.712500 0.793750 0.006250
0.800000 0.793750 0.006250
0.887500 0.793750 0.006250
0.975000 0.793750 0.006250
1.000000 0.793750 0.006250
1.000000 0.793750 0.006250
1.000000 0.793750 0.006250
1.000000 0.793750 0.006250
1.000000 0.793750 0.006250
1.000000 0.793750 0.006250
0.100000 0.850000 0.006250
0.187500 0.850000 0.006250
0.275000 0.850000 0.006250
0.362500 0.850000 0.006250
0.450000 0.850000 0.006250
0.537500 0.850000 0.006250
0.625000 0.850000 0.006250
0.712500 0.850000 0.006250
0.800000 0.850000 0.006250
0.887500 0.850000 0.006250
0.975000 0.850000 0.006250
1.000000 0.850000 0.006250
1.000000 0.850000 0.006250
1.000000 0.850000 0.006250
1.000000 0.850000 0.006250
1.000000 0.850000 0.006250
1.000000 0.850000 0.006250
0.100000 0.000000 0.062500
0.187500 0.000000 0.062500
0.275000 0.000000 0.062500
0.362500 0.000000 0.062500
0.450000 0.000000 0.062500
0.537500 0.000000 0.062500
0.625000 0.000000 0.062500
0.712500 0.000000 0.062500
0.800000 0.000000 0.062500
0.887500 0.000000 0.062500
0.975000 0.000000 0.062500
1.000000 0.000000 0.062500
1.000000 0.000000 0.062500
1.000000 0.000000 0.062500
1.000000 0.000000 0.062500
1.000000 0.000000 0.062500
1.000000 0.000000 0.062500
0.100000 0.006250 0.062500
0.187500 0.006250 0.062500
0.275000 0.006250 0.062500
0.362500 0.006250 0.062500
0.450000 0.006250 0.062500
0.537500 0.006250 0.062500
0.625000 0.006250 0.062500
0.712500 0.006250 0.062500
0.800000 0.006250 0.062500
0.887500 0.006250 0.062500
0.975000 0.006250 0.062500
1.000000 0.006250 0.062500
1.000000 0.006250 0.062500
1.000000 0.006250 0.062500
1.000000 0.006250 0.062500
1.000000 0.006250 0.062500
1.000000 0.006250 0.062500
0.100000 0.062500 0.062500
0.187500 0.062500 0.062500
0.275000 0.062500 0.062500
0.362500 0.062500 0.062500
0.450000 0.062500 0.062500
0.537500 0.062500 0.062500
0.625000 0.062500 0.062500
0.712500 0.062500 0.062500
0.800000 0.062500 0.062500
0.887500 0.062500 0.062500
0.975000 0.062500 0.062500
1.000000 0.062500 0.062500
1.000000 0.062500 0.062500
1.000000 0.062500 0.062500
1.000000 0.062500 0.062500
1.000000 0.062500 0.062500
1.000000 0.062500 0.062500
0.100000 0.118750 0.062500
0.187500 0.118750 0.062500
0.275000 0.118750 0.062500
0.362500 0.118750 0.062500
0.450000 0.118750 0.062500
0.537500 0.118750 0.062500
0.625000 0.118750 0.062500
0.712500 0.118750 0.062500
0.800000 0.118750 0.062500
0.887500 0.118750 0.062500
0.975000 0.118750 0.062500
1.000000 0.118750 0.062500
1.000000 0.118750 0.062500
1.000000 0.118750 0.062500
1.000000 0.118750 0.062500
1.000000 0.118750 0.062500
1.000000 0.118750 0.062500
0.100000 0.175000 0.062500
0.187500 0.175000 0.062500
0.275000 0.175000 0.062500
0.362500 0.175000 0.062500
0.450000 0.175000 0.062500
0.537500 0.175000 0.062500
0.625000 0.175000 0.062500
0.712500 0.175000 0.062500
0.800000 0.175000 0.062500
0.887500 0.175000 0.062500
0.975000 0.175000 0.062500
1.000000 0.175000 0.062500
1.000000 0.175000 0.062500
1.000000 0.175000 0.062500
1.000000 0.175000 0.062500
1.000000 0.175000 0.062500
1.000000 0.175000 0.062500
0.100000 0.231250 0.062500
0.187500 0.231250 0.062500
0.275000 0.231250 0.062500
0.362500 0.231250 0.062500
0.450000 0.231250 0.062500
0.537500 0.231250 0.062500
0.625000 0.231250 0.062500
0.712500 0.231250 0.062500
0.800000 0.231250 0.062500
0.887500 0.231250 0.062500
0.975000 0.231250 0.062500
1.000000 0.231250 0.062500
1.000000 0.231250 0.062500
1.000000 0.231250 0.062500
1.000000 0.231250 0.062500
1.000000 0.231250 0.062500
1.000000 0.231250 0.062500
0.100000 0.287500 0.062500
0.187500 0.287500 0.062500
0.275000 0.287500 0.062500
0.362500 0.287500 0.062500
0.450000 0.287500 0.062500
0.537500 0.287500 0.062500
0.625000 0.287500 0.062500
0.712500 0.287500 0.062500
0.800000 0.287500 0.062500
0.887500 0.287500 0.062500
0.975000 0.287500 0.062500
1.000000 0.287500 0.062500
1.000000 0.287500 0.062500
1.000000 0.287500 0.062500
1.000000 0.287500 0.062500
1.000000 0.287500 0.062500
1.000000 0.287500 0.062500
0.100000 0.343750 0.062500
0.187500 0.343750 0.062500
0.275000 0.343750 0.062500
0.362500 0.343750 0.062500
0.450000 0.343750 0.062500
0.537500 0.343750 0.062500
0.625000 0.343750 0.062500
0.712500 0.343750 0.062500
0.800000 0.343750 0.062500
0.887500 0.343750 0.062500
0.975000 0.343750 0.062500
1.000000 0.343750 0.062500
1.000000 0.343750 0.062500
1.000000 0.343750 0.062500
1.000000 0.343750 0.062500
1.000000 0.343750 0.062500
1.000000 0.343750 0.062500
0.100000 0.400000 0.062500
0.187500 0.400000 0.062500
0.275000 0.400000 0.062500
0.362500 0.400000 0.062500
0.450000 0.400000 0.062500
0.537500 0.400000 0.062500
0.625000 0.400000 0.062500
0.712500 0.400000 0.062500
0.800000 0.400000 0.062500
0.887500 0.400000 0.062500
0.975000 0.400000 0.062500
1.000000 0.400000 0.062500
1.000000 0.400000 0.062500
1.000000 0.400000 0.062500
1.000000 0.400000 0.062500
1.000000 0.400000 0.062500
1.000000 0.400000 0.062500
0.100000 0.456250 0.062500
0.187500 0.456250 0.062500
0.275000 0.456250 0.062500
0.362500 0.456250 0.062500
0.450000 0.456250 0.062500
0.537500 0.456250 0.062500
0.625000 0.456250 0.062500
0.712500 0.456250 0.062500
0.800000 0.456250 0.062500
0.887500 0.456250 0.062500
0.975000 0.456250 0.062500
1.000000 0.456250 0.062500
1.000000 0.456250 0.062500
1.000000 0.456250 0.062500
1.000000 0.456250 0.062500
1.000000 0.456250 0.062500
1.000000 0.456250 0.062500
0.100000 0.512500 0.062500
0.187500 0.512500 0.062500
0.275000 0.512500 0.062500
0.362500 0.512500 0.062500
0.450000 0.512500 0.062500
0.537500 0.512500 0.062500
0.625000 0.512500 0.062500
0.712500 0.512500 0.062500
0.800000 0.512500 0.062500
0.887500 0.512500 0.062500
0.975000 0.512500 0.062500
1.000000 0.512500 0.062500
1.000000 0.512500 0.062500
1.000000 0.512500 0.062500
1.000000 0.512500 0.062500
1.000000 0.512500 0.062500
1.000000 0.512500 0.062500
0.100000 0.568750 0.062500
0.187500 0.568750 0.062500
0.275000 0.568750 0.062500
0.362500 0.568750 0.062500
0.450000 0.568750 0.062500
0.537500 0.568750 0.062500
0.625000 0.568750 0.062500
0.712500 0.568750 0.062500
0.800000 0.568750 0.062500
0.887500 0.568750 0.062500
0.975000 0.568750 0.062500
1.000000 0.568750 0.062500
1.000000 0.568750 0.062500
1.000000 0.568750 0.062500
1.000000 0.568750 0.062500
1.000000 0.568750 0.062500
1.000000 0.568750 0.062500
0.100000 0.625000 0.062500
0.187500 0.625000 0.062500
0.275000 0.625000 0.062500
0.362500 0.625000 0.062500
0.450000 0.625000 0.062500
0.537500 0.625000 0.062500
0.625000 0.625000 0.062500
0.712500 0.625000 0.062500
0.800000 0.625000 0.062500
0.887500 0.625000 0.062500
0.975000 0.625000 0.062500
1.000000 0.625000 0.062500
1.000000 0.625000 0.062500
1.000000 0.625000 0.062500
1.000000 0.625000 0.062500
1.000000 0.625000 0.062500
1.000000 0.625000 0.062500
0.100000 0.681250 0.062500
0.187500 0.681250 0.062500
0.275000 0.681250 0.062500
0.362500 0.681250 0.062500
0.450000 0.681250 0.062500
0.537500 0.681250 0.062500
0.625000 0.681250 0.062500
0.712500 0.681250 0.062500
0.800000 0.681250 0.062500
0.887500 0.681250 0.062500
0.975000 0.681250 0.062500
1.000000 0.681250 0.062500
1.000000 0.681250 0.062500
1.000000 0.681250 0.062500
1.000000 0.681250 0.062500
1.000000 0.681250 0.062500
1.000000 0.681250 0.062500
0.100000 0.737500 0.062500
0.187500 0.737500 0.062500
0.275000 0.737500 0.062500
0.362500 0.737500 0.062500
0.450000 0.737500 0.062500
0.537500 0.737500 0.062500
0.625000 0.737500 0.062500
0.712500 0.737500 0.062500
0.800000 0.737500 0.062500
0.887500 0.737500 0.062500
0.975000 0.737500 0.062500
1.000000 0.737500 0.062500
1.000000 0.737500 0.062500
1.000000 0.737500 0.062500
1.000000 0.737500 0.062500
1.000000 0.737500 0.062500
1.000000 0.737500 0.062500
0.100000 0.793750 0.062500
0.187500 0.793750 0.062500
0.275000 0.793750 0.062500
0.362500 0.793750 0.062500
0.450000 0.793750 0.062500
0.537500 0.793750 0.062500
0.625000 0.793750 0.062500
0.712500 0.793750 0.062500
0.800000 0.793750 0.062500
0.887500 0.793750 0.062500
0.975000 0.793750 0.062500
1.000000 0.793750 0.062500
1.000000 0.793750 0.062500
1.000000 0.793750 0.062500
1.000000 0.793750 0.062500
1.000000 0.793750 0.062500
1.000000 0.793750 0.062500
0.100000 0.850000 0.062500
0.187500 0.850000 0.062500
0.275000 0.850000 0.062500
0.362500 0.850000 0.062500
0.450000 0.850000 0.062500
0.537500 0.850000 0.062500
0.625000 0.850000 0.062500
0.712500 0.850000 0.062500
0.800000 0.850000 0.062500
0.887500 0.850000 0.062500
0.975000 0.850000 0.062500
1.000000 0.850000 0.062500
1.000000 0.850000 0.062500
1.000000 0.850000 0.062500
1.000000 0.850000 0.062500
1.000000 0.850000 0.062500
1.000000 0.850000 0.062500
0.100000 0.000000 0.118750
0.187500 0.000000 0.118750
0.275000 0.000000 0.118750
0.362500 0.000000 0.118750
0.450000 0.000000 0.118750
0.537500 0.000000 0.118750
0.625000 0.000000 0.118750
0.712500 0.000000 0.118750
0.800000 0.000000 0.118750
0.887500 0.000000 0.118750
0.975000 0.000000 0.118750
1.000000 0.000000 0.118750
1.000000 0.000000 0.118750
1.000000 0.000000 0.118750
1.000000 0.000000 0.118750
1.000000 0.000000 0.118750
1.000000 0.000000 0.118750
0.100000 0.006250 0.118750
