app/src/main/assets/luts/cyan_glow.cube
# ApexStudio filter: cyan_glow
LUT_3D_SIZE 9
DOMAIN_MIN 0.0 0.0 0.0
DOMAIN_MAX 1.0 1.0 1.0
0.000000 0.000000 0.000000
0.110515 0.000000 0.000000
0.221030 0.000000 0.000000
0.331545 0.000000 0.000000
0.442060 0.000000 0.000000
0.552575 0.000000 0.000000
0.663090 0.000000 0.000000
0.773605 0.000000 0.000000
0.884120 0.000000 0.000000
0.000000 0.139381 0.000000
0.098958 0.134896 0.000000
0.209473 0.130411 0.000000
0.319988 0.125926 0.000000
0.430503 0.121441 0.000000
0.541018 0.116956 0.000000
0.651533 0.112471 0.000000
0.762048 0.107986 0.000000
0.872563 0.103501 0.000000
0.000000 0.278762 0.000000
0.087402 0.274277 0.000000
0.197917 0.269792 0.000000
0.308432 0.265307 0.000000
0.418947 0.260822 0.000000
0.529462 0.256337 0.000000
0.639977 0.251852 0.000000
0.750492 0.247367 0.000000
0.861007 0.242882 0.000000
0.000000 0.418143 0.000000
0.075845 0.413658 0.000000
0.186360 0.409173 0.000000
0.296875 0.404688 0.000000
0.407390 0.400203 0.000000
0.517905 0.395718 0.000000
0.628420 0.391233 0.000000
0.738935 0.386748 0.000000
0.849450 0.382263 0.000000
0.000000 0.557524 0.000000
0.064289 0.553039 0.000000
0.174804 0.548554 0.000000
0.285319 0.544069 0.000000
0.395834 0.539584 0.000000
0.506349 0.535099 0.000000
0.616864 0.530614 0.000000
0.727379 0.526129 0.000000
0.837894 0.521644 0.000000
0.000000 0.696905 0.000000
0.052732 0.692420 0.000000
0.163247 0.687935 0.000000
0.273762 0.683450 0.000000
0.384277 0.678965 0.000000
0.494792 0.674480 0.000000
0.605307 0.669995 0.000000
0.715822 0.665510 0.000000
0.826337 0.661025 0.000000
0.000000 0.836286 0.000000
0.041176 0.831801 0.000000
0.151691 0.827316 0.000000
0.262206 0.822831 0.000000
0.372721 0.818346 0.000000
0.483236 0.813861 0.000000
0.593751 0.809376 0.000000
0.704266 0.804891 0.000000
0.814781 0.800406 0.000000
0.000000 0.975667 0.000000
0.029619 0.971182 0.000000
0.140134 0.966697 0.000000
0.250649 0.962212 0.000000
0.361164 0.957727 0.000000
0.471679 0.953242 0.000000
0.582194 0.948757 0.000000
0.692709 0.944272 0.000000
0.803224 0.939787 0.000000
0.000000 1.000000 0.000000
0.018062 1.000000 0.000000
0.128578 1.000000 0.000000
0.239093 1.000000 0.000000
0.349608 1.000000 0.000000
0.460123 1.000000 0.000000
0.570638 1.000000 0.000000
0.681153 1.000000 0.000000
0.791668 1.000000 0.000000
0.000000 0.000000 0.162854
0.108057 0.000000 0.158369
0.218572 0.000000 0.153884
0.329087 0.000000 0.149399
0.439602 0.000000 0.144914
0.550117 0.000000 0.140429
0.660632 0.000000 0.135944
0.771147 0.000000 0.131459
0.881662 0.000000 0.126974
0.000000 0.136923 0.151298
0.096500 0.132438 0.146813
0.207015 0.127953 0.142328
0.317530 0.123468 0.137843
0.428045 0.118983 0.133358
0.538560 0.114498 0.128873
0.649075 0.110013 0.124388
0.759590 0.105528 0.119903
0.870105 0.101043 0.115418
0.000000 0.276304 0.139741
0.084944 0.271819 0.135256
0.195459 0.267334 0.130771
0.305974 0.262849 0.126286
0.416489 0.258364 0.121801
0.527004 0.253879 0.117316
0.637519 0.249394 0.112831
0.748034 0.244909 0.108346
0.858549 0.240424 0.103861
0.000000 0.415685 0.128185
0.073387 0.411200 0.123700
0.183902 0.406715 0.119215
0.294417 0.402230 0.114730
0.404932 0.397745 0.110245
0.515447 0.393260 0.105760
0.625962 0.388775 0.101275
0.736477 0.384290 0.096790
0.846992 0.379805 0.092305
0.000000 0.555066 0.116628
0.061831 0.550581 0.112143
0.172346 0.546096 0.107658
0.282861 0.541611 0.103173
0.393376 0.537126 0.098688
0.503891 0.532641 0.094203
0.614406 0.528156 0.089718
0.724921 0.523671 0.085233
0.835436 0.519186 0.080748
0.000000 0.694447 0.105072
0.050274 0.689962 0.100587
0.160789 0.685477 0.096102
0.271304 0.680992 0.091617
0.381819 0.676507 0.087132
0.492334 0.672022 0.082647
0.602849 0.667537 0.078162
0.713364 0.663052 0.073677
0.823879 0.658567 0.069192
0.000000 0.833828 0.093515
0.038718 0.829343 0.089030
0.149233 0.824858 0.084545
0.259748 0.820373 0.080060
0.370263 0.815888 0.075575
0.480778 0.811403 0.071090
0.591293 0.806918 0.066605
0.701808 0.802433 0.062120
0.812323 0.797948 0.057635
0.000000 0.973208 0.081958
0.027161 0.968723 0.077473
0.137676 0.964238 0.072988
0.248191 0.959753 0.068503
0.358706 0.955268 0.064018
0.469221 0.950783 0.059533
0.579736 0.946298 0.055048
0.690251 0.941813 0.050563
0.800766 0.937328 0.046078
0.000000 1.000000 0.070402
0.015604 1.000000 0.065917
0.126119 1.000000 0.061432
0.236634 1.000000 0.056947
0.347149 1.000000 0.052462
0.457664 1.000000 0.047977
0.568179 1.000000 0.043492
0.678694 1.000000 0.039007
0.789209 1.000000 0.034522
0.000000 0.000000 0.325709
0.105599 0.000000 0.321224
0.216114 0.000000 0.316739
0.326629 0.000000 0.312254
0.437144 0.000000 0.307769
0.547659 0.000000 0.303284
0.658174 0.000000 0.298799
0.768689 0.000000 0.294314
0.879204 0.000000 0.289829
0.000000 0.134465 0.314152
0.094042 0.129980 0.309667
0.204557 0.125495 0.305182
0.315072 0.121010 0.300697
0.425587 0.116525 0.296212
0.536102 0.112040 0.291727
0.646617 0.107555 0.287242
0.757132 0.103070 0.282757
0.867647 0.098585 0.278272
0.000000 0.273846 0.302596
0.082486 0.269361 0.298111
0.193001 0.264876 0.293626
0.303516 0.260391 0.289141
0.414031 0.255906 0.284656
0.524546 0.251421 0.280171
0.635061 0.246936 0.275686
0.745576 0.242451 0.271201
0.856091 0.237966 0.266716
0.000000 0.413227 0.291039
0.070929 0.408742 0.286554
0.181444 0.404257 0.282069
0.291959 0.399772 0.277584
0.402474 0.395287 0.273099
0.512989 0.390802 0.268614
0.623504 0.386317 0.264129
0.734019 0.381832 0.259644
0.844534 0.377347 0.255159
0.000000 0.552608 0.279482
0.059373 0.548123 0.274998
0.169888 0.543637 0.270512
0.280403 0.539153 0.266027
0.390918 0.534668 0.261543
0.501433 0.530183 0.257057
0.611948 0.525698 0.252572
0.722463 0.521213 0.248088
0.832978 0.516728 0.243602
0.000000 0.691988 0.267926
0.047816 0.687503 0.263441
0.158331 0.683018 0.258956
0.268846 0.678533 0.254471
0.379361 0.674048 0.249986
0.489876 0.669563 0.245501
0.600391 0.665078 0.241016
0.710906 0.660593 0.236531
0.821421 0.656108 0.232046
0.000000 0.831369 0.256369
0.036259 0.826884 0.251884
0.146774 0.822399 0.247399
0.257289 0.817914 0.242914
0.367804 0.813429 0.238429
0.478319 0.808944 0.233944
0.588834 0.804459 0.229459
0.699349 0.799974 0.224974
0.809864 0.795489 0.220489
0.000000 0.970750 0.244813
0.024703 0.966265 0.240328
0.135218 0.961780 0.235843
0.245733 0.957295 0.231358
0.356248 0.952810 0.226873
0.466763 0.948325 0.222388
0.577278 0.943840 0.217903
0.687793 0.939355 0.213418
0.798308 0.934870 0.208933
0.000000 1.000000 0.233256
0.013146 1.000000 0.228771
0.123661 1.000000 0.224286
0.234176 1.000000 0.219801
0.344691 1.000000 0.215316
0.455206 1.000000 0.210831
0.565721 1.000000 0.206346
0.676236 1.000000 0.201861
0.786751 1.000000 0.197376
0.000000 0.000000 0.488563
0.103141 0.000000 0.484078
0.213656 0.000000 0.479593
0.324171 0.000000 0.475108
0.434686 0.000000 0.470623
0.545201 0.000000 0.466138
0.655716 0.000000 0.461653
0.766231 0.000000 0.457168
0.876746 0.000000 0.452683
0.000000 0.132007 0.477007
0.091584 0.127522 0.472522
0.202099 0.123037 0.468037
0.312614 0.118552 0.463552
0.423129 0.114067 0.459067
0.533644 0.109582 0.454582
0.644159 0.105097 0.450097
0.754674 0.100612 0.445612
0.865189 0.096127 0.441127
0.000000 0.271388 0.465450
0.080028 0.266902 0.460965
0.190543 0.262418 0.456480
0.301058 0.257933 0.451995
0.411573 0.253448 0.447510
0.522088 0.248963 0.443025
0.632603 0.244478 0.438540
0.743118 0.239993 0.434055
0.853633 0.235508 0.429570
0.000000 0.410768 0.453893
0.068471 0.406283 0.449408
0.178986 0.401798 0.444923
0.289501 0.397313 0.440438
0.400016 0.392828 0.435953
0.510531 0.388343 0.431468
0.621046 0.383858 0.426983
0.731561 0.379373 0.422498
0.842076 0.374888 0.418013
0.000000 0.550149 0.442337
0.056914 0.545664 0.437852
0.167429 0.541179 0.433367
0.277944 0.536694 0.428882
0.388459 0.532209 0.424397
0.498974 0.527724 0.419912
0.609489 0.523239 0.415427
0.720004 0.518754 0.410942
0.830519 0.514269 0.406457
0.000000 0.689530 0.430780
0.045358 0.685045 0.426295
0.155873 0.680560 0.421810
0.266388 0.676075 0.417325
0.376903 0.671590 0.412840
0.487418 0.667105 0.408355
0.597933 0.662620 0.403870
0.708448 0.658135 0.399385
0.818963 0.653650 0.394900
0.000000 0.828911 0.419224
0.033801 0.824426 0.414739
0.144316 0.819941 0.410254
0.254831 0.815456 0.405769
0.365346 0.810971 0.401284
0.475861 0.806486 0.396799
0.586376 0.802001 0.392314
0.696891 0.797516 0.387829
0.807406 0.793031 0.383344
0.000000 0.968292 0.407667
0.022245 0.963807 0.403182
0.132760 0.959322 0.398697
0.243275 0.954837 0.394212
0.353790 0.950352 0.389727
0.464305 0.945867 0.385242
0.574820 0.941382 0.380757
0.685335 0.936897 0.376272
0.795850 0.932412 0.371787
0.000000 1.000000 0.396111
0.010688 1.000000 0.391626
0.121203 1.000000 0.387141
0.231718 1.000000 0.382656
0.342233 1.000000 0.378171
0.452748 1.000000 0.373686
0.563263 1.000000 0.369201
0.673778 1.000000 0.364716
0.784293 1.000000 0.360231
0.000000 0.000000 0.651417
0.100683 0.000000 0.646932
0.211198 0.000000 0.642447
0.321713 0.000000 0.637962
0.432227 0.000000 0.633477
0.542743 0.000000 0.628992
0.653258 0.000000 0.624507
0.763772 0.000000 0.620022
0.874287 0.000000 0.615537
0.000000 0.129548 0.639861
0.089126 0.125063 0.635376
0.199641 0.120578 0.630891
0.310156 0.116093 0.626406
0.420671 0.111608 0.621921
0.531186 0.107123 0.617436
0.641701 0.102638 0.612951
0.752216 0.098153 0.608466
0.862731 0.093668 0.603981
0.000000 0.268929 0.628304
0.077569 0.264444 0.623819
0.188084 0.259959 0.619334
0.298599 0.255474 0.614849
0.409114 0.250989 0.610364
0.519629 0.246504 0.605879
0.630144 0.242019 0.601394
0.740659 0.237534 0.596909
0.851174 0.233049 0.592424
0.000000 0.408310 0.616748
0.066013 0.403825 0.612263
0.176528 0.399340 0.607778
0.287043 0.394855 0.603293
0.397558 0.390370 0.598808
0.508073 0.385885 0.594323
0.618588 0.381400 0.589838
0.729103 0.376915 0.585353
0.839618 0.372430 0.580868
0.000000 0.547691 0.605191
0.054456 0.543206 0.600706
0.164971 0.538721 0.596221
0.275486 0.534236 0.591736
0.386001 0.529751 0.587251
0.496516 0.525266 0.582766
0.607031 0.520781 0.578281
0.717546 0.516296 0.573796
0.828061 0.511811 0.569311
0.000000 0.687072 0.593635
0.042900 0.682587 0.589150
0.153415 0.678102 0.584665
0.263930 0.673617 0.580180
0.374445 0.669132 0.575695
0.484960 0.664647 0.571210
0.595475 0.660162 0.566725
0.705990 0.655677 0.562240
0.816505 0.651192 0.557755
0.000000 0.826453 0.582078
0.031343 0.821968 0.577593
0.141858 0.817483 0.573108
0.252373 0.812998 0.568623
0.362888 0.808513 0.564138
0.473403 0.804028 0.559653
0.583918 0.799543 0.555168
0.694433 0.795058 0.550683
0.804948 0.790573 0.546198
0.000000 0.965834 0.570522
0.019787 0.961349 0.566037
0.130302 0.956864 0.561552
0.240817 0.952379 0.557067
0.351332 0.947894 0.552582
0.461847 0.943409 0.548097
0.572362 0.938924 0.543612
0.682877 0.934439 0.539127
0.793392 0.929954 0.534642
0.000000 1.000000 0.558965
0.008230 1.000000 0.554480
0.118745 1.000000 0.549995
0.229260 1.000000 0.545510
0.339775 1.000000 0.541025
0.450290 1.000000 0.536540
0.560805 1.000000 0.532055
0.671320 1.000000 0.527570
0.781835 1.000000 0.523085
0.000000 0.000000 0.814272
0.098224 0.000000 0.809787
0.208739 0.000000 0.805302
0.319254 0.000000 0.800817
0.429769 0.000000 0.796332
0.540284 0.000000 0.791847
0.650799 0.000000 0.787362
0.761314 0.000000 0.782877
0.871829 0.000000 0.778392
0.000000 0.127090 0.802715
0.086668 0.122605 0.798230
0.197183 0.118120 0.793745
0.307698 0.113635 0.789260
0.418213 0.109150 0.784775
0.528728 0.104665 0.780290
0.639243 0.100180 0.775805
0.749758 0.095695 0.771320
0.860273 0.091210 0.766835
0.000000 0.266471 0.791159
0.075111 0.261986 0.786674
0.185626 0.257501 0.782189
0.296141 0.253016 0.777704
0.406656 0.248531 0.773219
0.517171 0.244046 0.768734
0.627686 0.239561 0.764249
0.738201 0.235076 0.759764
0.848716 0.230591 0.755279
0.000000 0.405852 0.779602
0.063555 0.401367 0.775117
0.174070 0.396882 0.770632
0.284585 0.392397 0.766147
0.395100 0.387912 0.761662
0.505615 0.383427 0.757177
0.616130 0.378942 0.752692
0.726645 0.374457 0.748207
0.837160 0.369972 0.743722
0.000000 0.545233 0.768046
0.051998 0.540748 0.763561
0.162513 0.536263 0.759076
0.273028 0.531778 0.754591
0.383543 0.527293 0.750106
0.494058 0.522808 0.745621
0.604573 0.518323 0.741136
0.715088 0.513838 0.736651
0.825603 0.509353 0.732166
0.000000 0.684614 0.756489
0.040442 0.680129 0.752004
0.150957 0.675644 0.747519
0.261472 0.671159 0.743034
0.371987 0.666674 0.738549
0.482502 0.662189 0.734064
0.593017 0.657704 0.729579
0.703532 0.653219 0.725094
0.814047 0.648734 0.720609
0.000000 0.823995 0.744932
0.028885 0.819510 0.740447
0.139400 0.815025 0.735962
0.249915 0.810540 0.731478
0.360430 0.806055 0.726992
0.470945 0.801570 0.722507
0.581460 0.797085 0.718023
0.691975 0.792600 0.713537
0.802490 0.788115 0.709052
0.000000 0.963376 0.733376
0.017328 0.958891 0.728891
0.127843 0.954406 0.724406
0.238358 0.949921 0.719921
0.348873 0.945436 0.715436
0.459388 0.940951 0.710951
0.569903 0.936466 0.706466
0.680418 0.931981 0.701981
0.790933 0.927496 0.697496
0.000000 1.000000 0.721819
0.005772 1.000000 0.717334
0.116287 1.000000 0.712849
0.226802 1.000000 0.708364
0.337317 1.000000 0.703879
0.447832 1.000000 0.699394
0.558347 1.000000 0.694909
0.668862 1.000000 0.690424
0.779377 1.000000 0.685939
0.000000 0.000000 0.977126
0.095766 0.000000 0.972641
0.206281 0.000000 0.968156
0.316796 0.000000 0.963671
0.427311 0.000000 0.959186
0.537826 0.000000 0.954701
0.648341 0.000000 0.950216
0.758856 0.000000 0.945731
0.869371 0.000000 0.941246
0.000000 0.124632 0.965570
0.084210 0.120147 0.961085
0.194725 0.115662 0.956600
0.305240 0.111177 0.952115
0.415755 0.106692 0.947630
0.526270 0.102207 0.943145
0.636785 0.097722 0.938660
0.747300 0.093237 0.934175
0.857815 0.088752 0.929690
0.000000 0.264013 0.954013
0.072653 0.259528 0.949528
0.183168 0.255043 0.945043
0.293683 0.250558 0.940558
0.404198 0.246073 0.936073
0.514713 0.241588 0.931588
0.625228 0.237103 0.927103
0.735743 0.232618 0.922618
0.846258 0.228133 0.918133
0.000000 0.403394 0.942457
0.061097 0.398909 0.937972
0.171612 0.394424 0.933487
0.282127 0.389939 0.929002
0.392642 0.385454 0.924517
0.503157 0.380969 0.920032
0.613672 0.376484 0.915547
0.724187 0.371999 0.911062
0.834702 0.367514 0.906577
0.000000 0.542775 0.930900
0.049540 0.538290 0.926415
0.160055 0.533805 0.921930
0.270570 0.529320 0.917445
0.381085 0.524835 0.912960
0.491600 0.520350 0.908475
0.602115 0.515865 0.903990
0.712630 0.511380 0.899505
0.823145 0.506895 0.895020
0.000000 0.682156 0.919343
0.037983 0.677671 0.914858
0.148498 0.673186 0.910373
0.259013 0.668701 0.905888
0.369528 0.664216 0.901403
0.480043 0.659731 0.896918
0.590558 0.655246 0.892433
0.701073 0.650761 0.887948
0.811588 0.646276 0.883463
0.000000 0.821537 0.907787
0.026427 0.817052 0.903302
0.136942 0.812567 0.898817
0.247457 0.808082 0.894332
0.357972 0.803597 0.889847
0.468487 0.799112 0.885362
0.579002 0.794627 0.880877
0.689517 0.790142 0.876392
0.800032 0.785657 0.871907
0.000000 0.960918 0.896230
0.014870 0.956433 0.891745
0.125385 0.951948 0.887260
0.235900 0.947463 0.882775
0.346415 0.942978 0.878290
0.456930 0.938493 0.873805
0.567445 0.934008 0.869320
0.677960 0.929523 0.864835
0.788475 0.925038 0.860350
0.000000 1.000000 0.884674
0.003314 1.000000 0.880189
0.113829 1.000000 0.875704
0.224344 1.000000 0.871219
0.334859 1.000000 0.866734
0.445374 1.000000 0.862249
0.555889 1.000000 0.857764
0.666404 1.000000 0.853279
0.776919 1.000000 0.848794
0.000000 0.000000 1.000000
0.093308 0.000000 1.000000
0.203823 0.000000 1.000000
0.314338 0.000000 1.000000
0.424853 0.000000 1.000000
0.535368 0.000000 1.000000
0.645883 0.000000 1.000000
0.756398 0.000000 1.000000
0.866913 0.000000 1.000000
0.000000 0.122174 1.000000
0.081752 0.117689 1.000000
0.192267 0.113204 1.000000
0.302782 0.108719 1.000000
0.413297 0.104234 1.000000
0.523812 0.099749 1.000000
0.634327 0.095264 1.000000
0.744842 0.090779 1.000000
0.855357 0.086294 1.000000
0.000000 0.261555 1.000000
0.070195 0.257070 1.000000
0.180710 0.252585 1.000000
0.291225 0.248100 1.000000
0.401740 0.243615 1.000000
0.512255 0.239130 1.000000
0.622770 0.234645 1.000000
0.733285 0.230160 1.000000
0.843800 0.225675 1.000000
0.000000 0.400936 1.000000
0.058638 0.396451 1.000000
0.169153 0.391966 1.000000
0.279668 0.387481 1.000000
0.390183 0.382996 1.000000
0.500698 0.378511 1.000000
0.611213 0.374026 1.000000
0.721728 0.369541 1.000000
0.832243 0.365056 1.000000
0.000000 0.540317 1.000000
0.047082 0.535832 1.000000
0.157597 0.531347 1.000000
0.268112 0.526862 1.000000
0.378627 0.522377 1.000000
0.489142 0.517892 1.000000
0.599657 0.513407 1.000000
0.710172 0.508922 1.000000
0.820687 0.504437 1.000000
0.000000 0.679698 1.000000
0.035525 0.675213 1.000000
0.146040 0.670728 1.000000
0.256555 0.666243 1.000000
0.367070 0.661758 1.000000
0.477585 0.657273 1.000000
0.588100 0.652788 1.000000
0.698615 0.648303 1.000000
0.809130 0.643818 1.000000
0.000000 0.819079 1.000000
0.023969 0.814594 1.000000
0.134484 0.810109 1.000000
0.244999 0.805624 1.000000
0.355514 0.801139 1.000000
0.466029 0.796654 1.000000
0.576544 0.792169 1.000000
0.687059 0.787684 1.000000
0.797574 0.783199 1.000000
0.000000 0.958460 1.000000
0.012412 0.953975 1.000000
0.122927 0.949490 1.000000
0.233442 0.945005 1.000000
0.343957 0.940520 1.000000
0.454472 0.936035 1.000000
0.564987 0.931550 1.000000
0.675502 0.927065 1.000000
0.786017 0.922580 1.000000
0.000000 1.000000 1.000000
0.000856 1.000000 1.000000
0.111371 1.000000 1.000000
0.221886 1.000000 1.000000
0.332401 1.000000 1.000000
0.442916 1.000000 1.000000
0.553431 1.000000 1.000000
0.663946 1.000000 1.000000
0.774461 1.000000 1.000000
0.000000 0.000000 1.000000
0.090850 0.000000 1.000000
0.201365 0.000000 1.000000
0.311880 0.000000 1.000000
0.422395 0.000000 1.000000
0.532910 0.000000 1.000000
0.643425 0.000000 1.000000
0.753940 0.000000 1.000000
0.864455 0.000000 1.000000
0.000000 0.119716 1.000000
0.079293 0.115231 1.000000
0.189808 0.110746 1.000000
0.300323 0.106261 1.000000
0.410838 0.101776 1.000000
0.521353 0.097291 1.000000
0.631868 0.092806 1.000000
0.742383 0.088321 1.000000
0.852898 0.083836 1.000000
0.000000 0.259097 1.000000
0.067737 0.254612 1.000000
0.178252 0.250127 1.000000
0.288767 0.245642 1.000000
0.399282 0.241157 1.000000
0.509797 0.236672 1.000000
0.620312 0.232187 1.000000
0.730827 0.227702 1.000000
0.841342 0.223217 1.000000
0.000000 0.398478 1.000000
0.056180 0.393993 1.000000
0.166695 0.389508 1.000000
0.277210 0.385023 1.000000
0.387725 0.380538 1.000000
0.498240 0.376053 1.000000
0.608755 0.371568 1.000000
0.719270 0.367083 1.000000
0.829785 0.362598 1.000000
0.000000 0.537859 1.000000
0.044624 0.533374 1.000000
0.155139 0.528889 1.000000
0.265654 0.524404 1.000000
0.376169 0.519919 1.000000
0.486684 0.515434 1.000000
0.597199 0.510949 1.000000
0.707714 0.506464 1.000000
0.818229 0.501979 1.000000
0.000000 0.677240 1.000000
0.033067 0.672755 1.000000
0.143582 0.668270 1.000000
0.254097 0.663785 1.000000
0.364612 0.659300 1.000000
0.475127 0.654815 1.000000
0.585642 0.650330 1.000000
0.696157 0.645845 1.000000
0.806672 0.641360 1.000000
0.000000 0.816621 1.000000
0.021511 0.812136 1.000000
0.132026 0.807651 1.000000
0.242541 0.803166 1.000000
0.353056 0.798681 1.000000
0.463571 0.794196 1.000000
0.574086 0.789711 1.000000
0.684601 0.785226 1.000000
0.795116 0.780741 1.000000
0.000000 0.956002 1.000000
0.009954 0.951517 1.000000
0.120469 0.947032 1.000000
0.230984 0.942547 1.000000
0.341499 0.938062 1.000000
0.452014 0.933577 1.000000
0.562529 0.929092 1.000000
0.673044 0.924607 1.000000
0.783559 0.920122 1.000000
0.000000 1.000000 1.000000
0.000000 1.000000 1.000000
0.108913 1.000000 1.000000
0.219428 1.000000 1.000000
0.329943 1.000000 1.000000
0.440458 1.000000 1.000000
0.550973 1.000000 1.000000
0.661488 1.000000 1.000000
0.772003 1.000000 1.000000
