app/src/main/assets/luts/cyan_glow.cube
# ApexStudio filter: cyan_glow
LUT_3D_SIZE 17
DOMAIN_MIN 0.0 0.0 0.0
DOMAIN_MAX 1.0 1.0 1.0
0.000000 0.000000 0.000000
0.055258 0.000000 0.000000
0.110515 0.000000 0.000000
0.165773 0.000000 0.000000
0.221030 0.000000 0.000000
0.276288 0.000000 0.000000
0.331545 0.000000 0.000000
0.386802 0.000000 0.000000
0.442060 0.000000 0.000000
0.497317 0.000000 0.000000
0.552575 0.000000 0.000000
0.607832 0.000000 0.000000
0.663090 0.000000 0.000000
0.718348 0.000000 0.000000
0.773605 0.000000 0.000000
0.828862 0.000000 0.000000
0.884120 0.000000 0.000000
0.000000 0.069690 0.000000
0.049479 0.067448 0.000000
0.104737 0.065205 0.000000
0.159994 0.062963 0.000000
0.215252 0.060720 0.000000
0.270509 0.058478 0.000000
0.325767 0.056235 0.000000
0.381024 0.053993 0.000000
0.436282 0.051750 0.000000
0.491539 0.049508 0.000000
0.546797 0.047265 0.000000
0.602054 0.045023 0.000000
0.657312 0.042780 0.000000
0.712569 0.040538 0.000000
0.767827 0.038295 0.000000
0.823084 0.036053 0.000000
0.878342 0.033810 0.000000
0.000000 0.139381 0.000000
0.043701 0.137138 0.000000
0.098958 0.134896 0.000000
0.154216 0.132653 0.000000
0.209473 0.130411 0.000000
0.264731 0.128168 0.000000
0.319988 0.125926 0.000000
0.375246 0.123683 0.000000
0.430503 0.121441 0.000000
0.485761 0.119198 0.000000
0.541018 0.116956 0.000000
0.596276 0.114713 0.000000
0.651533 0.112471 0.000000
0.706791 0.110228 0.000000
0.762048 0.107986 0.000000
0.817306 0.105743 0.000000
0.872563 0.103501 0.000000
0.000000 0.209071 0.000000
0.037923 0.206829 0.000000
0.093180 0.204586 0.000000
0.148438 0.202344 0.000000
0.203695 0.200101 0.000000
0.258953 0.197859 0.000000
0.314210 0.195616 0.000000
0.369468 0.193374 0.000000
0.424725 0.191131 0.000000
0.479983 0.188889 0.000000
0.535240 0.186646 0.000000
0.590498 0.184404 0.000000
0.645755 0.182161 0.000000
0.701013 0.179919 0.000000
0.756270 0.177676 0.000000
0.811528 0.175434 0.000000
0.866785 0.173191 0.000000
0.000000 0.278762 0.000000
0.032144 0.276519 0.000000
0.087402 0.274277 0.000000
0.142659 0.272034 0.000000
0.197917 0.269792 0.000000
0.253174 0.267549 0.000000
0.308432 0.265307 0.000000
0.363689 0.263064 0.000000
0.418947 0.260822 0.000000
0.474204 0.258579 0.000000
0.529462 0.256337 0.000000
0.584719 0.254094 0.000000
0.639977 0.251852 0.000000
0.695234 0.249609 0.000000
0.750492 0.247367 0.000000
0.805749 0.245124 0.000000
0.861007 0.242882 0.000000
0.000000 0.348452 0.000000
0.026366 0.346210 0.000000
0.081624 0.343967 0.000000
0.136881 0.341725 0.000000
0.192139 0.339482 0.000000
0.247396 0.337240 0.000000
0.302654 0.334997 0.000000
0.357911 0.332755 0.000000
0.413169 0.330512 0.000000
0.468426 0.328270 0.000000
0.523684 0.326027 0.000000
0.578941 0.323785 0.000000
0.634199 0.321542 0.000000
0.689456 0.319300 0.000000
0.744714 0.317057 0.000000
0.799971 0.314815 0.000000
0.855229 0.312572 0.000000
0.000000 0.418143 0.000000
0.020588 0.415900 0.000000
0.075845 0.413658 0.000000
0.131103 0.411415 0.000000
0.186360 0.409173 0.000000
0.241618 0.406930 0.000000
0.296875 0.404688 0.000000
0.352133 0.402445 0.000000
0.407390 0.400203 0.000000
0.462648 0.397960 0.000000
0.517905 0.395718 0.000000
0.573163 0.393475 0.000000
0.628420 0.391233 0.000000
0.683678 0.388990 0.000000
0.738935 0.386748 0.000000
0.794193 0.384505 0.000000
0.849450 0.382263 0.000000
0.000000 0.487833 0.000000
0.014810 0.485591 0.000000
0.070067 0.483348 0.000000
0.125325 0.481106 0.000000
0.180582 0.478863 0.000000
0.235840 0.476621 0.000000
0.291097 0.474378 0.000000
0.346355 0.472136 0.000000
0.401612 0.469893 0.000000
0.456870 0.467651 0.000000
0.512127 0.465408 0.000000
0.567385 0.463166 0.000000
0.622642 0.460923 0.000000
0.677900 0.458681 0.000000
0.733157 0.456438 0.000000
0.788415 0.454196 0.000000
0.843672 0.451953 0.000000
0.000000 0.557524 0.000000
0.009031 0.555281 0.000000
0.064289 0.553039 0.000000
0.119546 0.550796 0.000000
0.174804 0.548554 0.000000
0.230061 0.546311 0.000000
0.285319 0.544069 0.000000
0.340576 0.541826 0.000000
0.395834 0.539584 0.000000
0.451091 0.537341 0.000000
0.506349 0.535099 0.000000
0.561606 0.532856 0.000000
0.616864 0.530614 0.000000
0.672121 0.528371 0.000000
0.727379 0.526129 0.000000
0.782636 0.523886 0.000000
0.837894 0.521644 0.000000
0.000000 0.627214 0.000000
0.003253 0.624972 0.000000
0.058510 0.622729 0.000000
0.113768 0.620487 0.000000
0.169025 0.618244 0.000000
0.224283 0.616002 0.000000
0.279540 0.613759 0.000000
0.334798 0.611517 0.000000
0.390055 0.609274 0.000000
0.445313 0.607032 0.000000
0.500570 0.604789 0.000000
0.555828 0.602547 0.000000
0.611085 0.600304 0.000000
0.666343 0.598062 0.000000
0.721600 0.595819 0.000000
0.776858 0.593577 0.000000
0.832115 0.591334 0.000000
0.000000 0.696905 0.000000
0.000000 0.694662 0.000000
0.052732 0.692420 0.000000
0.107990 0.690177 0.000000
0.163247 0.687935 0.000000
0.218505 0.685692 0.000000
0.273762 0.683450 0.000000
0.329020 0.681207 0.000000
0.384277 0.678965 0.000000
0.439535 0.676722 0.000000
0.494792 0.674480 0.000000
0.550050 0.672237 0.000000
0.605307 0.669995 0.000000
0.660565 0.667752 0.000000
0.715822 0.665510 0.000000
0.771080 0.663267 0.000000
0.826337 0.661025 0.000000
0.000000 0.766595 0.000000
0.000000 0.764353 0.000000
0.046954 0.762110 0.000000
0.102211 0.759868 0.000000
0.157469 0.757625 0.000000
0.212726 0.755383 0.000000
0.267984 0.753140 0.000000
0.323241 0.750898 0.000000
0.378499 0.748655 0.000000
0.433756 0.746413 0.000000
0.489014 0.744170 0.000000
0.544271 0.741928 0.000000
0.599529 0.739685 0.000000
0.654786 0.737443 0.000000
0.710044 0.735200 0.000000
0.765301 0.732958 0.000000
0.820559 0.730715 0.000000
0.000000 0.836286 0.000000
0.000000 0.834043 0.000000
0.041176 0.831801 0.000000
0.096433 0.829558 0.000000
0.151691 0.827316 0.000000
0.206948 0.825073 0.000000
0.262206 0.822831 0.000000
0.317463 0.820588 0.000000
0.372721 0.818346 0.000000
0.427978 0.816103 0.000000
0.483236 0.813861 0.000000
0.538493 0.811618 0.000000
0.593751 0.809376 0.000000
0.649008 0.807133 0.000000
0.704266 0.804891 0.000000
0.759523 0.802648 0.000000
0.814781 0.800406 0.000000
0.000000 0.905976 0.000000
0.000000 0.903734 0.000000
0.035397 0.901491 0.000000
0.090655 0.899249 0.000000
0.145912 0.897006 0.000000
0.201170 0.894764 0.000000
0.256427 0.892521 0.000000
0.311685 0.890279 0.000000
0.366942 0.888036 0.000000
0.422200 0.885794 0.000000
0.477457 0.883551 0.000000
0.532715 0.881309 0.000000
0.587972 0.879066 0.000000
0.643230 0.876824 0.000000
0.698487 0.874581 0.000000
0.753745 0.872339 0.000000
0.809002 0.870096 0.000000
0.000000 0.975667 0.000000
0.000000 0.973424 0.000000
0.029619 0.971182 0.000000
0.084877 0.968939 0.000000
0.140134 0.966697 0.000000
0.195392 0.964454 0.000000
0.250649 0.962212 0.000000
0.305907 0.959969 0.000000
0.361164 0.957727 0.000000
0.416422 0.955484 0.000000
0.471679 0.953242 0.000000
0.526937 0.950999 0.000000
0.582194 0.948757 0.000000
0.637452 0.946514 0.000000
0.692709 0.944272 0.000000
0.747967 0.942029 0.000000
0.803224 0.939787 0.000000
0.000000 1.000000 0.000000
0.000000 1.000000 0.000000
0.023841 1.000000 0.000000
0.079098 1.000000 0.000000
0.134356 1.000000 0.000000
0.189613 1.000000 0.000000
0.244871 1.000000 0.000000
0.300128 1.000000 0.000000
0.355386 1.000000 0.000000
0.410643 1.000000 0.000000
0.465901 1.000000 0.000000
0.521158 1.000000 0.000000
0.576416 1.000000 0.000000
0.631673 1.000000 0.000000
0.686931 1.000000 0.000000
0.742188 1.000000 0.000000
0.797446 1.000000 0.000000
0.000000 1.000000 0.000000
0.000000 1.000000 0.000000
0.018062 1.000000 0.000000
0.073320 1.000000 0.000000
0.128578 1.000000 0.000000
0.183835 1.000000 0.000000
0.239093 1.000000 0.000000
0.294350 1.000000 0.000000
0.349608 1.000000 0.000000
0.404865 1.000000 0.000000
0.460123 1.000000 0.000000
0.515380 1.000000 0.000000
0.570638 1.000000 0.000000
0.625895 1.000000 0.000000
0.681153 1.000000 0.000000
0.736410 1.000000 0.000000
0.791668 1.000000 0.000000
0.000000 0.000000 0.081427
0.054028 0.000000 0.079185
0.109286 0.000000 0.076942
0.164543 0.000000 0.074700
0.219801 0.000000 0.072457
0.275058 0.000000 0.070215
0.330316 0.000000 0.067972
0.385573 0.000000 0.065730
0.440831 0.000000 0.063487
0.496088 0.000000 0.061245
0.551346 0.000000 0.059002
0.606603 0.000000 0.056760
0.661861 0.000000 0.054517
0.717118 0.000000 0.052275
0.772376 0.000000 0.050032
0.827633 0.000000 0.047790
0.882891 0.000000 0.045547
0.000000 0.068461 0.075649
0.048250 0.066219 0.073406
0.103508 0.063976 0.071164
0.158765 0.061734 0.068921
0.214023 0.059491 0.066679
0.269280 0.057249 0.064436
0.324538 0.055006 0.062194
0.379795 0.052764 0.059951
0.435053 0.050521 0.057709
0.490310 0.048279 0.055466
0.545568 0.046036 0.053224
0.600825 0.043794 0.050981
0.656083 0.041551 0.048739
0.711340 0.039309 0.046496
0.766598 0.037066 0.044254
0.821855 0.034824 0.042011
0.877113 0.032581 0.039769
0.000000 0.138152 0.069871
0.042472 0.135909 0.067628
0.097729 0.133667 0.065386
0.152987 0.131424 0.063143
0.208244 0.129182 0.060901
0.263502 0.126939 0.058658
0.318759 0.124697 0.056416
0.374017 0.122454 0.054173
0.429274 0.120212 0.051931
0.484532 0.117969 0.049688
0.539789 0.115727 0.047446
0.595047 0.113484 0.045203
0.650304 0.111242 0.042961
0.705562 0.108999 0.040718
0.760819 0.106757 0.038476
0.816077 0.104514 0.036233
0.871334 0.102272 0.033991
0.000000 0.207842 0.064092
0.036694 0.205600 0.061850
0.091951 0.203357 0.059607
0.147209 0.201115 0.057365
0.202466 0.198872 0.055122
0.257724 0.196630 0.052880
0.312981 0.194387 0.050637
0.368239 0.192145 0.048395
0.423496 0.189902 0.046152
0.478754 0.187660 0.043910
0.534011 0.185417 0.041667
0.589269 0.183175 0.039425
0.644526 0.180932 0.037182
0.699784 0.178690 0.034940
0.755041 0.176447 0.032697
0.810299 0.174205 0.030455
0.865556 0.171962 0.028212
0.000000 0.277533 0.058314
0.030915 0.275290 0.056072
0.086173 0.273048 0.053829
0.141430 0.270805 0.051587
0.196688 0.268563 0.049344
0.251945 0.266320 0.047102
0.307203 0.264078 0.044859
0.362460 0.261835 0.042617
0.417718 0.259593 0.040374
0.472975 0.257350 0.038132
0.528233 0.255108 0.035889
0.583490 0.252865 0.033647
0.638748 0.250623 0.031404
0.694005 0.248380 0.029162
0.749263 0.246138 0.026919
0.804520 0.243895 0.024677
0.859778 0.241653 0.022434
0.000000 0.347223 0.052536
0.025137 0.344981 0.050293
0.080395 0.342738 0.048051
0.135652 0.340496 0.045808
0.190910 0.338253 0.043566
0.246167 0.336011 0.041323
0.301425 0.333768 0.039081
0.356682 0.331526 0.036838
0.411940 0.329283 0.034596
0.467197 0.327041 0.032353
0.522455 0.324798 0.030111
0.577712 0.322556 0.027868
0.632970 0.320313 0.025626
0.688227 0.318071 0.023383
0.743485 0.315828 0.021141
0.798742 0.313586 0.018898
0.854000 0.311343 0.016656
0.000000 0.416914 0.046758
0.019359 0.414671 0.044515
0.074616 0.412429 0.042273
0.129874 0.410186 0.040030
0.185131 0.407944 0.037788
0.240389 0.405701 0.035545
0.295646 0.403459 0.033303
0.350904 0.401216 0.031060
0.406161 0.398974 0.028817
0.461419 0.396731 0.026575
0.516676 0.394489 0.024333
0.571934 0.392246 0.022090
0.627191 0.390004 0.019848
0.682449 0.387761 0.017605
0.737706 0.385519 0.015363
0.792964 0.383276 0.013120
0.848221 0.381034 0.010878
0.000000 0.486604 0.040979
0.013580 0.484362 0.038737
0.068838 0.482119 0.036494
0.124095 0.479877 0.034252
0.179353 0.477634 0.032009
0.234610 0.475392 0.029767
0.289868 0.473149 0.027524
0.345125 0.470907 0.025282
0.400383 0.468664 0.023039
0.455640 0.466422 0.020797
0.510898 0.464179 0.018554
0.566155 0.461937 0.016312
0.621413 0.459694 0.014069
0.676670 0.457452 0.011827
0.731928 0.455209 0.009584
0.787185 0.452967 0.007342
0.842443 0.450724 0.005099
0.000000 0.556295 0.035201
0.007802 0.554052 0.032958
0.063060 0.551810 0.030716
0.118317 0.549567 0.028473
0.173575 0.547325 0.026231
0.228832 0.545082 0.023988
0.284090 0.542840 0.021746
0.339347 0.540597 0.019503
0.394605 0.538355 0.017261
0.449862 0.536112 0.015018
0.505120 0.533870 0.012776
0.560377 0.531627 0.010533
0.615635 0.529385 0.008291
0.670892 0.527142 0.006048
0.726150 0.524900 0.003806
0.781407 0.522657 0.001563
0.836665 0.520415 0.000000
0.000000 0.625985 0.029423
0.002024 0.623743 0.027180
0.057281 0.621500 0.024938
0.112539 0.619258 0.022695
0.167796 0.617015 0.020453
0.223054 0.614773 0.018210
0.278311 0.612530 0.015968
0.333569 0.610288 0.013725
0.388826 0.608045 0.011483
0.444084 0.605803 0.009240
0.499341 0.603560 0.006998
0.554599 0.601318 0.004755
0.609856 0.599075 0.002513
0.665114 0.596833 0.000270
0.720371 0.594590 0.000000
0.775629 0.592348 0.000000
0.830886 0.590105 0.000000
0.000000 0.695676 0.023644
0.000000 0.693433 0.021402
0.051503 0.691191 0.019159
0.106761 0.688948 0.016917
0.162018 0.686706 0.014674
0.217276 0.684463 0.012432
0.272533 0.682221 0.010189
0.327791 0.679978 0.007947
0.383048 0.677736 0.005704
0.438306 0.675493 0.003462
0.493563 0.673251 0.001219
0.548821 0.671008 0.000000
0.604078 0.668766 0.000000
0.659336 0.666523 0.000000
0.714593 0.664281 0.000000
0.769851 0.662038 0.000000
0.825108 0.659796 0.000000
0.000000 0.765366 0.017866
0.000000 0.763124 0.015624
0.045725 0.760881 0.013381
0.100982 0.758639 0.011139
0.156240 0.756396 0.008896
0.211497 0.754154 0.006654
0.266755 0.751911 0.004411
0.322012 0.749669 0.002169
0.377270 0.747426 0.000000
0.432527 0.745184 0.000000
0.487785 0.742941 0.000000
0.543042 0.740699 0.000000
0.598300 0.738456 0.000000
0.653557 0.736214 0.000000
0.708815 0.733971 0.000000
0.764072 0.731729 0.000000
0.819330 0.729486 0.000000
0.000000 0.835057 0.012088
0.000000 0.832814 0.009845
0.039947 0.830572 0.007603
0.095204 0.828329 0.005360
0.150462 0.826087 0.003118
0.205719 0.823844 0.000875
0.260977 0.821602 0.000000
0.316234 0.819359 0.000000
0.371492 0.817117 0.000000
0.426749 0.814874 0.000000
0.482007 0.812632 0.000000
0.537264 0.810389 0.000000
0.592522 0.808147 0.000000
0.647779 0.805904 0.000000
0.703037 0.803662 0.000000
0.758294 0.801419 0.000000
0.813552 0.799177 0.000000
0.000000 0.904747 0.006310
0.000000 0.902505 0.004067
0.034168 0.900262 0.001825
0.089426 0.898020 0.000000
0.144683 0.895777 0.000000
0.199941 0.893535 0.000000
0.255198 0.891292 0.000000
0.310456 0.889050 0.000000
0.365713 0.886807 0.000000
0.420971 0.884565 0.000000
0.476228 0.882322 0.000000
0.531486 0.880080 0.000000
0.586743 0.877837 0.000000
0.642001 0.875595 0.000000
0.697258 0.873352 0.000000
0.752516 0.871110 0.000000
0.807773 0.868867 0.000000
0.000000 0.974438 0.000531
0.000000 0.972195 0.000000
0.028390 0.969952 0.000000
0.083648 0.967710 0.000000
0.138905 0.965468 0.000000
0.194163 0.963225 0.000000
0.249420 0.960983 0.000000
0.304678 0.958740 0.000000
0.359935 0.956498 0.000000
0.415193 0.954255 0.000000
0.470450 0.952013 0.000000
0.525708 0.949770 0.000000
0.580965 0.947528 0.000000
0.636223 0.945285 0.000000
0.691480 0.943043 0.000000
0.746738 0.940800 0.000000
0.801995 0.938558 0.000000
0.000000 1.000000 0.000000
0.000000 1.000000 0.000000
0.022612 1.000000 0.000000
0.077869 1.000000 0.000000
0.133127 1.000000 0.000000
0.188384 1.000000 0.000000
0.243642 1.000000 0.000000
0.298899 1.000000 0.000000
0.354157 1.000000 0.000000
0.409414 1.000000 0.000000
0.464672 1.000000 0.000000
0.519929 1.000000 0.000000
0.575187 1.000000 0.000000
0.630444 1.000000 0.000000
0.685702 1.000000 0.000000
0.740959 1.000000 0.000000
0.796217 1.000000 0.000000
0.000000 1.000000 0.000000
0.000000 1.000000 0.000000
0.016833 1.000000 0.000000
0.072091 1.000000 0.000000
0.127348 1.000000 0.000000
0.182606 1.000000 0.000000
0.237863 1.000000 0.000000
0.293121 1.000000 0.000000
0.348378 1.000000 0.000000
0.403636 1.000000 0.000000
0.458893 1.000000 0.000000
0.514151 1.000000 0.000000
0.569408 1.000000 0.000000
0.624666 1.000000 0.000000
0.679923 1.000000 0.000000
0.735181 1.000000 0.000000
0.790438 1.000000 0.000000
0.000000 0.000000 0.162854
0.052799 0.000000 0.160612
0.108057 0.000000 0.158369
0.163314 0.000000 0.156127
0.218572 0.000000 0.153884
0.273829 0.000000 0.151642
0.329087 0.000000 0.149399
0.384344 0.000000 0.147157
0.439602 0.000000 0.144914
0.494859 0.000000 0.142672
0.550117 0.000000 0.140429
0.605374 0.000000 0.138187
0.660632 0.000000 0.135944
0.715889 0.000000 0.133702
0.771147 0.000000 0.131459
0.826404 0.000000 0.129217
0.881662 0.000000 0.126974
0.000000 0.067232 0.157076
0.047021 0.064990 0.154834
0.102279 0.062747 0.152591
0.157536 0.060505 0.150349
0.212794 0.058262 0.148106
0.268051 0.056020 0.145864
0.323309 0.053777 0.143621
0.378566 0.051535 0.141379
0.433824 0.049292 0.139136
0.489081 0.047050 0.136894
0.544339 0.044807 0.134651
0.599596 0.042565 0.132409
0.654854 0.040322 0.130166
0.710111 0.038080 0.127924
0.765369 0.035837 0.125681
0.820626 0.033595 0.123439
0.875884 0.031352 0.121196
0.000000 0.136923 0.151298
0.041243 0.134680 0.149055
0.096500 0.132438 0.146813
0.151758 0.130195 0.144570
0.207015 0.127953 0.142328
0.262273 0.125710 0.140085
0.317530 0.123468 0.137843
0.372788 0.121225 0.135600
0.428045 0.118983 0.133358
0.483303 0.116740 0.131115
0.538560 0.114498 0.128873
0.593818 0.112255 0.126630
0.649075 0.110013 0.124388
0.704333 0.107770 0.122145
0.759590 0.105528 0.119903
0.814848 0.103285 0.117660
0.870105 0.101043 0.115418
0.000000 0.206613 0.145520
0.035465 0.204371 0.143277
0.090722 0.202128 0.141035
0.145980 0.199886 0.138792
0.201237 0.197643 0.136550
0.256495 0.195401 0.134307
0.311752 0.193158 0.132065
0.367010 0.190916 0.129822
0.422267 0.188673 0.127580
0.477525 0.186431 0.125337
0.532782 0.184188 0.123095
0.588040 0.181946 0.120852
0.643297 0.179703 0.118610
0.698555 0.177461 0.116367
0.753812 0.175218 0.114125
0.809070 0.172976 0.111882
0.864327 0.170733 0.109640
0.000000 0.276304 0.139741
0.029686 0.274061 0.137499
0.084944 0.271819 0.135256
0.140201 0.269576 0.133014
0.195459 0.267334 0.130771
0.250716 0.265091 0.128529
0.305974 0.262849 0.126286
0.361231 0.260606 0.124044
0.416489 0.258364 0.121801
0.471746 0.256121 0.119559
0.527004 0.253879 0.117316
0.582261 0.251636 0.115074
0.637519 0.249394 0.112831
0.692776 0.247151 0.110589
0.748034 0.244909 0.108346
0.803291 0.242666 0.106104
0.858549 0.240424 0.103861
0.000000 0.345994 0.133963
0.023908 0.343752 0.131720
0.079165 0.341509 0.129478
0.134423 0.339267 0.127235
0.189680 0.337024 0.124993
0.244938 0.334782 0.122750
0.300195 0.332539 0.120508
0.355453 0.330297 0.118265
0.410710 0.328054 0.116023
0.465968 0.325812 0.113780
0.521225 0.323569 0.111538
0.576483 0.321327 0.109295
0.631740 0.319084 0.107053
0.686998 0.316842 0.104810
0.742255 0.314599 0.102568
0.797513 0.312357 0.100325
0.852770 0.310114 0.098083
0.000000 0.415685 0.128185
0.018130 0.413442 0.125942
0.073387 0.411200 0.123700
0.128645 0.408957 0.121457
0.183902 0.406715 0.119215
0.239160 0.404472 0.116972
0.294417 0.402230 0.114730
0.349675 0.399987 0.112487
0.404932 0.397745 0.110245
0.460190 0.395502 0.108002
0.515447 0.393260 0.105760
0.570705 0.391017 0.103517
0.625962 0.388775 0.101275
0.681220 0.386532 0.099032
0.736477 0.384290 0.096790
0.791735 0.382047 0.094547
0.846992 0.379805 0.092305
0.000000 0.485375 0.122406
0.012351 0.483133 0.120164
0.067609 0.480890 0.117921
0.122866 0.478648 0.115679
0.178124 0.476405 0.113436
0.233381 0.474163 0.111194
0.288639 0.471920 0.108951
0.343896 0.469678 0.106709
0.399154 0.467435 0.104466
0.454411 0.465193 0.102224
0.509669 0.462950 0.099981
0.564926 0.460708 0.097739
0.620184 0.458465 0.095496
0.675441 0.456223 0.093254
0.730699 0.453980 0.091011
0.785956 0.451738 0.088769
0.841214 0.449495 0.086526
0.000000 0.555066 0.116628
0.006573 0.552823 0.114386
0.061831 0.550581 0.112143
0.117088 0.548338 0.109901
0.172346 0.546096 0.107658
0.227603 0.543853 0.105416
0.282861 0.541611 0.103173
0.338118 0.539368 0.100931
0.393376 0.537126 0.098688
0.448633 0.534883 0.096446
0.503891 0.532641 0.094203
0.559148 0.530398 0.091961
0.614406 0.528156 0.089718
0.669663 0.525913 0.087476
0.724921 0.523671 0.085233
0.780178 0.521428 0.082991
0.835436 0.519186 0.080748
0.000000 0.624756 0.110850
0.000795 0.622514 0.108607
0.056052 0.620271 0.106365
0.111310 0.618029 0.104122
0.166567 0.615786 0.101880
0.221825 0.613544 0.099637
0.277082 0.611301 0.097395
0.332340 0.609059 0.095152
0.387597 0.606816 0.092910
0.442855 0.604574 0.090667
0.498112 0.602331 0.088425
0.553370 0.600089 0.086182
0.608627 0.597846 0.083940
0.663885 0.595604 0.081697
0.719142 0.593361 0.079455
0.774400 0.591119 0.077212
0.829657 0.588876 0.074970
0.000000 0.694447 0.105072
0.000000 0.692204 0.102829
0.050274 0.689962 0.100587
0.105532 0.687719 0.098344
0.160789 0.685477 0.096102
0.216047 0.683234 0.093859
0.271304 0.680992 0.091617
0.326562 0.678749 0.089374
0.381819 0.676507 0.087132
0.437077 0.674264 0.084889
0.492334 0.672022 0.082647
0.547592 0.669779 0.080404
0.602849 0.667537 0.078162
0.658107 0.665294 0.075919
0.713364 0.663052 0.073677
0.768622 0.660809 0.071434
0.823879 0.658567 0.069192
0.000000 0.764137 0.099293
0.000000 0.761895 0.097051
0.044496 0.759652 0.094808
0.099753 0.757410 0.092566
0.155011 0.755167 0.090323
0.210268 0.752925 0.088081
0.265526 0.750682 0.085838
0.320783 0.748440 0.083596
0.376041 0.746197 0.081353
0.431298 0.743955 0.079111
0.486556 0.741712 0.076868
0.541813 0.739470 0.074626
0.597071 0.737227 0.072383
0.652328 0.734985 0.070141
0.707586 0.732742 0.067898
0.762843 0.730500 0.065656
0.818101 0.728257 0.063413
0.000000 0.833828 0.093515
0.000000 0.831585 0.091273
0.038718 0.829343 0.089030
0.093975 0.827100 0.086788
0.149233 0.824858 0.084545
0.204490 0.822615 0.082303
0.259748 0.820373 0.080060
0.315005 0.818130 0.077817
0.370263 0.815888 0.075575
0.425520 0.813645 0.073333
0.480778 0.811403 0.071090
0.536035 0.809160 0.068848
0.591293 0.806918 0.066605
0.646550 0.804675 0.064363
0.701808 0.802433 0.062120
0.757065 0.800190 0.059878
0.812323 0.797948 0.057635
0.000000 0.903518 0.087737
0.000000 0.901275 0.085494
0.032939 0.899033 0.083252
0.088197 0.896790 0.081009
0.143454 0.894548 0.078767
0.198712 0.892305 0.076524
0.253969 0.890063 0.074282
0.309227 0.887820 0.072039
0.364484 0.885578 0.069797
0.419742 0.883335 0.067554
0.474999 0.881093 0.065312
0.530257 0.878850 0.063069
0.585514 0.876608 0.060827
0.640772 0.874365 0.058584
0.696029 0.872123 0.056342
0.751287 0.869880 0.054099
0.806544 0.867638 0.051857
0.000000 0.973208 0.081958
0.000000 0.970966 0.079716
0.027161 0.968723 0.077473
0.082418 0.966481 0.075231
0.137676 0.964238 0.072988
0.192933 0.961996 0.070746
0.248191 0.959753 0.068503
0.303448 0.957511 0.066261
0.358706 0.955268 0.064018
0.413963 0.953026 0.061776
0.469221 0.950783 0.059533
0.524478 0.948541 0.057291
0.579736 0.946298 0.055048
0.634993 0.944056 0.052806
0.690251 0.941813 0.050563
0.745508 0.939571 0.048321
0.800766 0.937328 0.046078
0.000000 1.000000 0.076180
0.000000 1.000000 0.073938
0.021383 1.000000 0.071695
0.076640 1.000000 0.069453
0.131898 1.000000 0.067210
0.187155 1.000000 0.064968
0.242413 1.000000 0.062725
0.297670 1.000000 0.060483
0.352928 1.000000 0.058240
0.408185 1.000000 0.055998
0.463443 1.000000 0.053755
0.518700 1.000000 0.051513
0.573958 1.000000 0.049270
0.629215 1.000000 0.047028
0.684473 1.000000 0.044785
0.739730 1.000000 0.042543
0.794988 1.000000 0.040300
0.000000 1.000000 0.070402
0.000000 1.000000 0.068159
0.015604 1.000000 0.065917
0.070862 1.000000 0.063674
0.126119 1.000000 0.061432
0.181377 1.000000 0.059189
0.236634 1.000000 0.056947
0.291892 1.000000 0.054704
0.347149 1.000000 0.052462
0.402407 1.000000 0.050219
0.457664 1.000000 0.047977
0.512922 1.000000 0.045734
0.568179 1.000000 0.043492
0.623437 1.000000 0.041249
0.678694 1.000000 0.039007
0.733952 1.000000 0.036764
0.789209 1.000000 0.034522
0.000000 0.000000 0.244282
0.051570 0.000000 0.242039
0.106828 0.000000 0.239797
0.162085 0.000000 0.237554
0.217343 0.000000 0.235312
0.272600 0.000000 0.233069
0.327858 0.000000 0.230827
0.383115 0.000000 0.228584
0.438373 0.000000 0.226342
0.493630 0.000000 0.224099
0.548888 0.000000 0.221857
0.604145 0.000000 0.219614
0.659403 0.000000 0.217372
0.714660 0.000000 0.215129
0.769918 0.000000 0.212887
0.825175 0.000000 0.210644
0.880433 0.000000 0.208402
0.000000 0.066003 0.238503
