app/src/main/assets/luts/cyan_glow.cube
# ApexStudio filter: cyan_glow
LUT_3D_SIZE 5
DOMAIN_MIN 0.0 0.0 0.0
DOMAIN_MAX 1.0 1.0 1.0
0.000000 0.000000 0.000000
0.221030 0.000000 0.000000
0.442060 0.000000 0.000000
0.663090 0.000000 0.000000
0.884120 0.000000 0.000000
0.000000 0.278762 0.000000
0.197917 0.269792 0.000000
0.418947 0.260822 0.000000
0.639977 0.251852 0.000000
0.861007 0.242882 0.000000
0.000000 0.557524 0.000000
0.174804 0.548554 0.000000
0.395834 0.539584 0.000000
0.616864 0.530614 0.000000
0.837894 0.521644 0.000000
0.000000 0.836286 0.000000
0.151691 0.827316 0.000000
0.372721 0.818346 0.000000
0.593751 0.809376 0.000000
0.814781 0.800406 0.000000
0.000000 1.000000 0.000000
0.128578 1.000000 0.000000
0.349608 1.000000 0.000000
0.570638 1.000000 0.000000
0.791668 1.000000 0.000000
0.000000 0.000000 0.325709
0.216114 0.000000 0.316739
0.437144 0.000000 0.307769
0.658174 0.000000 0.298799
0.879204 0.000000 0.289829
0.000000 0.273846 0.302596
0.193001 0.264876 0.293626
0.414031 0.255906 0.284656
0.635061 0.246936 0.275686
0.856091 0.237966 0.266716
0.000000 0.552608 0.279482
0.169888 0.543637 0.270512
0.390918 0.534668 0.261543
0.611948 0.525698 0.252572
0.832978 0.516728 0.243602
0.000000 0.831369 0.256369
0.146774 0.822399 0.247399
0.367804 0.813429 0.238429
0.588834 0.804459 0.229459
0.809864 0.795489 0.220489
0.000000 1.000000 0.233256
0.123661 1.000000 0.224286
0.344691 1.000000 0.215316
0.565721 1.000000 0.206346
0.786751 1.000000 0.197376
0.000000 0.000000 0.651417
0.211198 0.000000 0.642447
0.432227 0.000000 0.633477
0.653258 0.000000 0.624507
0.874287 0.000000 0.615537
0.000000 0.268929 0.628304
0.188084 0.259959 0.619334
0.409114 0.250989 0.610364
0.630144 0.242019 0.601394
0.851174 0.233049 0.592424
0.000000 0.547691 0.605191
0.164971 0.538721 0.596221
0.386001 0.529751 0.587251
0.607031 0.520781 0.578281
0.828061 0.511811 0.569311
0.000000 0.826453 0.582078
0.141858 0.817483 0.573108
0.362888 0.808513 0.564138
0.583918 0.799543 0.555168
0.804948 0.790573 0.546198
0.000000 1.000000 0.558965
0.118745 1.000000 0.549995
0.339775 1.000000 0.541025
0.560805 1.000000 0.532055
0.781835 1.000000 0.523085
0.000000 0.000000 0.977126
0.206281 0.000000 0.968156
0.427311 0.000000 0.959186
0.648341 0.000000 0.950216
0.869371 0.000000 0.941246
0.000000 0.264013 0.954013
0.183168 0.255043 0.945043
0.404198 0.246073 0.936073
0.625228 0.237103 0.927103
0.846258 0.228133 0.918133
0.000000 0.542775 0.930900
0.160055 0.533805 0.921930
0.381085 0.524835 0.912960
0.602115 0.515865 0.903990
0.823145 0.506895 0.895020
0.000000 0.821537 0.907787
0.136942 0.812567 0.898817
0.357972 0.803597 0.889847
0.579002 0.794627 0.880877
0.800032 0.785657 0.871907
0.000000 1.000000 0.884674
0.113829 1.000000 0.875704
0.334859 1.000000 0.866734
0.555889 1.000000 0.857764
0.776919 1.000000 0.848794
0.000000 0.000000 1.000000
0.201365 0.000000 1.000000
0.422395 0.000000 1.000000
0.643425 0.000000 1.000000
0.864455 0.000000 1.000000
0.000000 0.259097 1.000000
0.178252 0.250127 1.000000
0.399282 0.241157 1.000000
0.620312 0.232187 1.000000
0.841342 0.223217 1.000000
0.000000 0.537859 1.000000
0.155139 0.528889 1.000000
0.376169 0.519919 1.000000
0.597199 0.510949 1.000000
0.818229 0.501979 1.000000
0.000000 0.816621 1.000000
0.132026 0.807651 1.000000
0.353056 0.798681 1.000000
0.574086 0.789711 1.000000
0.795116 0.780741 1.000000
0.000000 1.000000 1.000000
0.108913 1.000000 1.000000
0.329943 1.000000 1.000000
0.550973 1.000000 1.000000
0.772003 1.000000 1.000000
