app/src/main/assets/luts/deep_abyss.cube
# ApexStudio filter: deep_abyss
LUT_3D_SIZE 17
DOMAIN_MIN 0.0 0.0 0.0
DOMAIN_MAX 1.0 1.0 1.0
0.000000 0.000000 0.120000
0.000000 0.000000 0.120000
0.026250 0.000000 0.120000
0.079375 0.000000 0.120000
0.132500 0.000000 0.120000
0.185625 0.000000 0.120000
0.238750 0.000000 0.120000
0.291875 0.000000 0.120000
0.345000 0.000000 0.120000
0.398125 0.000000 0.120000
0.451250 0.000000 0.120000
0.504375 0.000000 0.120000
0.557500 0.000000 0.120000
0.610625 0.000000 0.120000
0.663750 0.000000 0.120000
0.716875 0.000000 0.120000
0.770000 0.000000 0.120000
0.000000 0.019375 0.120000
0.000000 0.019375 0.120000
0.026250 0.019375 0.120000
0.079375 0.019375 0.120000
0.132500 0.019375 0.120000
0.185625 0.019375 0.120000
0.238750 0.019375 0.120000
0.291875 0.019375 0.120000
0.345000 0.019375 0.120000
0.398125 0.019375 0.120000
0.451250 0.019375 0.120000
0.504375 0.019375 0.120000
0.557500 0.019375 0.120000
0.610625 0.019375 0.120000
0.663750 0.019375 0.120000
0.716875 0.019375 0.120000
0.770000 0.019375 0.120000
0.000000 0.078750 0.120000
0.000000 0.078750 0.120000
0.026250 0.078750 0.120000
0.079375 0.078750 0.120000
0.132500 0.078750 0.120000
0.185625 0.078750 0.120000
0.238750 0.078750 0.120000
0.291875 0.078750 0.120000
0.345000 0.078750 0.120000
0.398125 0.078750 0.120000
0.451250 0.078750 0.120000
0.504375 0.078750 0.120000
0.557500 0.078750 0.120000
0.610625 0.078750 0.120000
0.663750 0.078750 0.120000
0.716875 0.078750 0.120000
0.770000 0.078750 0.120000
0.000000 0.138125 0.120000
0.000000 0.138125 0.120000
0.026250 0.138125 0.120000
0.079375 0.138125 0.120000
0.132500 0.138125 0.120000
0.185625 0.138125 0.120000
0.238750 0.138125 0.120000
0.291875 0.138125 0.120000
0.345000 0.138125 0.120000
0.398125 0.138125 0.120000
0.451250 0.138125 0.120000
0.504375 0.138125 0.120000
0.557500 0.138125 0.120000
0.610625 0.138125 0.120000
0.663750 0.138125 0.120000
0.716875 0.138125 0.120000
0.770000 0.138125 0.120000
0.000000 0.197500 0.120000
0.000000 0.197500 0.120000
0.026250 0.197500 0.120000
0.079375 0.197500 0.120000
0.132500 0.197500 0.120000
0.185625 0.197500 0.120000
0.238750 0.197500 0.120000
0.291875 0.197500 0.120000
0.345000 0.197500 0.120000
0.398125 0.197500 0.120000
0.451250 0.197500 0.120000
0.504375 0.197500 0.120000
0.557500 0.197500 0.120000
0.610625 0.197500 0.120000
0.663750 0.197500 0.120000
0.716875 0.197500 0.120000
0.770000 0.197500 0.120000
0.000000 0.256875 0.120000
0.000000 0.256875 0.120000
0.026250 0.256875 0.120000
0.079375 0.256875 0.120000
0.132500 0.256875 0.120000
0.185625 0.256875 0.120000
0.238750 0.256875 0.120000
0.291875 0.256875 0.120000
0.345000 0.256875 0.120000
0.398125 0.256875 0.120000
0.451250 0.256875 0.120000
0.504375 0.256875 0.120000
0.557500 0.256875 0.120000
0.610625 0.256875 0.120000
0.663750 0.256875 0.120000
0.716875 0.256875 0.120000
0.770000 0.256875 0.120000
0.000000 0.316250 0.120000
0.000000 0.316250 0.120000
0.026250 0.316250 0.120000
0.079375 0.316250 0.120000
0.132500 0.316250 0.120000
0.185625 0.316250 0.120000
0.238750 0.316250 0.120000
0.291875 0.316250 0.120000
0.345000 0.316250 0.120000
0.398125 0.316250 0.120000
0.451250 0.316250 0.120000
0.504375 0.316250 0.120000
0.557500 0.316250 0.120000
0.610625 0.316250 0.120000
0.663750 0.316250 0.120000
0.716875 0.316250 0.120000
0.770000 0.316250 0.120000
0.000000 0.375625 0.120000
0.000000 0.375625 0.120000
0.026250 0.375625 0.120000
0.079375 0.375625 0.120000
0.132500 0.375625 0.120000
0.185625 0.375625 0.120000
0.238750 0.375625 0.120000
0.291875 0.375625 0.120000
0.345000 0.375625 0.120000
0.398125 0.375625 0.120000
0.451250 0.375625 0.120000
0.504375 0.375625 0.120000
0.557500 0.375625 0.120000
0.610625 0.375625 0.120000
0.663750 0.375625 0.120000
0.716875 0.375625 0.120000
0.770000 0.375625 0.120000
0.000000 0.435000 0.120000
0.000000 0.435000 0.120000
0.026250 0.435000 0.120000
0.079375 0.435000 0.120000
0.132500 0.435000 0.120000
0.185625 0.435000 0.120000
0.238750 0.435000 0.120000
0.291875 0.435000 0.120000
0.345000 0.435000 0.120000
0.398125 0.435000 0.120000
0.451250 0.435000 0.120000
0.504375 0.435000 0.120000
0.557500 0.435000 0.120000
0.610625 0.435000 0.120000
0.663750 0.435000 0.120000
0.716875 0.435000 0.120000
0.770000 0.435000 0.120000
0.000000 0.494375 0.120000
0.000000 0.494375 0.120000
0.026250 0.494375 0.120000
0.079375 0.494375 0.120000
0.132500 0.494375 0.120000
0.185625 0.494375 0.120000
0.238750 0.494375 0.120000
0.291875 0.494375 0.120000
0.345000 0.494375 0.120000
0.398125 0.494375 0.120000
0.451250 0.494375 0.120000
0.504375 0.494375 0.120000
0.557500 0.494375 0.120000
0.610625 0.494375 0.120000
0.663750 0.494375 0.120000
0.716875 0.494375 0.120000
0.770000 0.494375 0.120000
0.000000 0.553750 0.120000
0.000000 0.553750 0.120000
0.026250 0.553750 0.120000
0.079375 0.553750 0.120000
0.132500 0.553750 0.120000
0.185625 0.553750 0.120000
0.238750 0.553750 0.120000
0.291875 0.553750 0.120000
0.345000 0.553750 0.120000
0.398125 0.553750 0.120000
0.451250 0.553750 0.120000
0.504375 0.553750 0.120000
0.557500 0.553750 0.120000
0.610625 0.553750 0.120000
0.663750 0.553750 0.120000
0.716875 0.553750 0.120000
0.770000 0.553750 0.120000
0.000000 0.613125 0.120000
0.000000 0.613125 0.120000
0.026250 0.613125 0.120000
0.079375 0.613125 0.120000
0.132500 0.613125 0.120000
0.185625 0.613125 0.120000
0.238750 0.613125 0.120000
0.291875 0.613125 0.120000
0.345000 0.613125 0.120000
0.398125 0.613125 0.120000
0.451250 0.613125 0.120000
0.504375 0.613125 0.120000
0.557500 0.613125 0.120000
0.610625 0.613125 0.120000
0.663750 0.613125 0.120000
0.716875 0.613125 0.120000
0.770000 0.613125 0.120000
0.000000 0.672500 0.120000
0.000000 0.672500 0.120000
0.026250 0.672500 0.120000
0.079375 0.672500 0.120000
0.132500 0.672500 0.120000
0.185625 0.672500 0.120000
0.238750 0.672500 0.120000
0.291875 0.672500 0.120000
0.345000 0.672500 0.120000
0.398125 0.672500 0.120000
0.451250 0.672500 0.120000
0.504375 0.672500 0.120000
0.557500 0.672500 0.120000
0.610625 0.672500 0.120000
0.663750 0.672500 0.120000
0.716875 0.672500 0.120000
0.770000 0.672500 0.120000
0.000000 0.731875 0.120000
0.000000 0.731875 0.120000
0.026250 0.731875 0.120000
0.079375 0.731875 0.120000
0.132500 0.731875 0.120000
0.185625 0.731875 0.120000
0.238750 0.731875 0.120000
0.291875 0.731875 0.120000
0.345000 0.731875 0.120000
0.398125 0.731875 0.120000
0.451250 0.731875 0.120000
0.504375 0.731875 0.120000
0.557500 0.731875 0.120000
0.610625 0.731875 0.120000
0.663750 0.731875 0.120000
0.716875 0.731875 0.120000
0.770000 0.731875 0.120000
0.000000 0.791250 0.120000
0.000000 0.791250 0.120000
0.026250 0.791250 0.120000
0.079375 0.791250 0.120000
0.132500 0.791250 0.120000
0.185625 0.791250 0.120000
0.238750 0.791250 0.120000
0.291875 0.791250 0.120000
0.345000 0.791250 0.120000
0.398125 0.791250 0.120000
0.451250 0.791250 0.120000
0.504375 0.791250 0.120000
0.557500 0.791250 0.120000
0.610625 0.791250 0.120000
0.663750 0.791250 0.120000
0.716875 0.791250 0.120000
0.770000 0.791250 0.120000
0.000000 0.850625 0.120000
0.000000 0.850625 0.120000
0.026250 0.850625 0.120000
0.079375 0.850625 0.120000
0.132500 0.850625 0.120000
0.185625 0.850625 0.120000
0.238750 0.850625 0.120000
0.291875 0.850625 0.120000
0.345000 0.850625 0.120000
0.398125 0.850625 0.120000
0.451250 0.850625 0.120000
0.504375 0.850625 0.120000
0.557500 0.850625 0.120000
0.610625 0.850625 0.120000
0.663750 0.850625 0.120000
0.716875 0.850625 0.120000
0.770000 0.850625 0.120000
0.000000 0.910000 0.120000
0.000000 0.910000 0.120000
0.026250 0.910000 0.120000
0.079375 0.910000 0.120000
0.132500 0.910000 0.120000
0.185625 0.910000 0.120000
0.238750 0.910000 0.120000
0.291875 0.910000 0.120000
0.345000 0.910000 0.120000
0.398125 0.910000 0.120000
0.451250 0.910000 0.120000
0.504375 0.910000 0.120000
0.557500 0.910000 0.120000
0.610625 0.910000 0.120000
0.663750 0.910000 0.120000
0.716875 0.910000 0.120000
0.770000 0.910000 0.120000
0.000000 0.000000 0.201250
0.000000 0.000000 0.201250
0.026250 0.000000 0.201250
0.079375 0.000000 0.201250
0.132500 0.000000 0.201250
0.185625 0.000000 0.201250
0.238750 0.000000 0.201250
0.291875 0.000000 0.201250
0.345000 0.000000 0.201250
0.398125 0.000000 0.201250
0.451250 0.000000 0.201250
0.504375 0.000000 0.201250
0.557500 0.000000 0.201250
0.610625 0.000000 0.201250
0.663750 0.000000 0.201250
0.716875 0.000000 0.201250
0.770000 0.000000 0.201250
0.000000 0.019375 0.201250
0.000000 0.019375 0.201250
0.026250 0.019375 0.201250
0.079375 0.019375 0.201250
0.132500 0.019375 0.201250
0.185625 0.019375 0.201250
0.238750 0.019375 0.201250
0.291875 0.019375 0.201250
0.345000 0.019375 0.201250
0.398125 0.019375 0.201250
0.451250 0.019375 0.201250
0.504375 0.019375 0.201250
0.557500 0.019375 0.201250
0.610625 0.019375 0.201250
0.663750 0.019375 0.201250
0.716875 0.019375 0.201250
0.770000 0.019375 0.201250
0.000000 0.078750 0.201250
0.000000 0.078750 0.201250
0.026250 0.078750 0.201250
0.079375 0.078750 0.201250
0.132500 0.078750 0.201250
0.185625 0.078750 0.201250
0.238750 0.078750 0.201250
0.291875 0.078750 0.201250
0.345000 0.078750 0.201250
0.398125 0.078750 0.201250
0.451250 0.078750 0.201250
0.504375 0.078750 0.201250
0.557500 0.078750 0.201250
0.610625 0.078750 0.201250
0.663750 0.078750 0.201250
0.716875 0.078750 0.201250
0.770000 0.078750 0.201250
0.000000 0.138125 0.201250
0.000000 0.138125 0.201250
0.026250 0.138125 0.201250
0.079375 0.138125 0.201250
0.132500 0.138125 0.201250
0.185625 0.138125 0.201250
0.238750 0.138125 0.201250
0.291875 0.138125 0.201250
0.345000 0.138125 0.201250
0.398125 0.138125 0.201250
0.451250 0.138125 0.201250
0.504375 0.138125 0.201250
0.557500 0.138125 0.201250
0.610625 0.138125 0.201250
0.663750 0.138125 0.201250
0.716875 0.138125 0.201250
0.770000 0.138125 0.201250
0.000000 0.197500 0.201250
0.000000 0.197500 0.201250
0.026250 0.197500 0.201250
0.079375 0.197500 0.201250
0.132500 0.197500 0.201250
0.185625 0.197500 0.201250
0.238750 0.197500 0.201250
0.291875 0.197500 0.201250
0.345000 0.197500 0.201250
0.398125 0.197500 0.201250
0.451250 0.197500 0.201250
0.504375 0.197500 0.201250
0.557500 0.197500 0.201250
0.610625 0.197500 0.201250
0.663750 0.197500 0.201250
0.716875 0.197500 0.201250
0.770000 0.197500 0.201250
0.000000 0.256875 0.201250
0.000000 0.256875 0.201250
0.026250 0.256875 0.201250
0.079375 0.256875 0.201250
0.132500 0.256875 0.201250
0.185625 0.256875 0.201250
0.238750 0.256875 0.201250
0.291875 0.256875 0.201250
0.345000 0.256875 0.201250
0.398125 0.256875 0.201250
0.451250 0.256875 0.201250
0.504375 0.256875 0.201250
0.557500 0.256875 0.201250
0.610625 0.256875 0.201250
0.663750 0.256875 0.201250
0.716875 0.256875 0.201250
0.770000 0.256875 0.201250
0.000000 0.316250 0.201250
0.000000 0.316250 0.201250
0.026250 0.316250 0.201250
0.079375 0.316250 0.201250
0.132500 0.316250 0.201250
0.185625 0.316250 0.201250
0.238750 0.316250 0.201250
0.291875 0.316250 0.201250
0.345000 0.316250 0.201250
0.398125 0.316250 0.201250
0.451250 0.316250 0.201250
0.504375 0.316250 0.201250
0.557500 0.316250 0.201250
0.610625 0.316250 0.201250
0.663750 0.316250 0.201250
0.716875 0.316250 0.201250
0.770000 0.316250 0.201250
0.000000 0.375625 0.201250
0.000000 0.375625 0.201250
0.026250 0.375625 0.201250
0.079375 0.375625 0.201250
0.132500 0.375625 0.201250
0.185625 0.375625 0.201250
0.238750 0.375625 0.201250
0.291875 0.375625 0.201250
0.345000 0.375625 0.201250
0.398125 0.375625 0.201250
0.451250 0.375625 0.201250
0.504375 0.375625 0.201250
0.557500 0.375625 0.201250
0.610625 0.375625 0.201250
0.663750 0.375625 0.201250
0.716875 0.375625 0.201250
0.770000 0.375625 0.201250
0.000000 0.435000 0.201250
0.000000 0.435000 0.201250
0.026250 0.435000 0.201250
0.079375 0.435000 0.201250
0.132500 0.435000 0.201250
0.185625 0.435000 0.201250
0.238750 0.435000 0.201250
0.291875 0.435000 0.201250
0.345000 0.435000 0.201250
0.398125 0.435000 0.201250
0.451250 0.435000 0.201250
0.504375 0.435000 0.201250
0.557500 0.435000 0.201250
0.610625 0.435000 0.201250
0.663750 0.435000 0.201250
0.716875 0.435000 0.201250
0.770000 0.435000 0.201250
0.000000 0.494375 0.201250
0.000000 0.494375 0.201250
0.026250 0.494375 0.201250
0.079375 0.494375 0.201250
0.132500 0.494375 0.201250
0.185625 0.494375 0.201250
0.238750 0.494375 0.201250
0.291875 0.494375 0.201250
0.345000 0.494375 0.201250
0.398125 0.494375 0.201250
0.451250 0.494375 0.201250
0.504375 0.494375 0.201250
0.557500 0.494375 0.201250
0.610625 0.494375 0.201250
0.663750 0.494375 0.201250
0.716875 0.494375 0.201250
0.770000 0.494375 0.201250
0.000000 0.553750 0.201250
0.000000 0.553750 0.201250
0.026250 0.553750 0.201250
0.079375 0.553750 0.201250
0.132500 0.553750 0.201250
0.185625 0.553750 0.201250
0.238750 0.553750 0.201250
0.291875 0.553750 0.201250
0.345000 0.553750 0.201250
0.398125 0.553750 0.201250
0.451250 0.553750 0.201250
0.504375 0.553750 0.201250
0.557500 0.553750 0.201250
0.610625 0.553750 0.201250
0.663750 0.553750 0.201250
0.716875 0.553750 0.201250
0.770000 0.553750 0.201250
0.000000 0.613125 0.201250
0.000000 0.613125 0.201250
0.026250 0.613125 0.201250
0.079375 0.613125 0.201250
0.132500 0.613125 0.201250
0.185625 0.613125 0.201250
0.238750 0.613125 0.201250
0.291875 0.613125 0.201250
0.345000 0.613125 0.201250
0.398125 0.613125 0.201250
0.451250 0.613125 0.201250
0.504375 0.613125 0.201250
0.557500 0.613125 0.201250
0.610625 0.613125 0.201250
0.663750 0.613125 0.201250
0.716875 0.613125 0.201250
0.770000 0.613125 0.201250
0.000000 0.672500 0.201250
0.000000 0.672500 0.201250
0.026250 0.672500 0.201250
0.079375 0.672500 0.201250
0.132500 0.672500 0.201250
0.185625 0.672500 0.201250
0.238750 0.672500 0.201250
0.291875 0.672500 0.201250
0.345000 0.672500 0.201250
0.398125 0.672500 0.201250
0.451250 0.672500 0.201250
0.504375 0.672500 0.201250
0.557500 0.672500 0.201250
0.610625 0.672500 0.201250
0.663750 0.672500 0.201250
0.716875 0.672500 0.201250
0.770000 0.672500 0.201250
0.000000 0.731875 0.201250
0.000000 0.731875 0.201250
0.026250 0.731875 0.201250
0.079375 0.731875 0.201250
0.132500 0.731875 0.201250
0.185625 0.731875 0.201250
0.238750 0.731875 0.201250
0.291875 0.731875 0.201250
0.345000 0.731875 0.201250
0.398125 0.731875 0.201250
0.451250 0.731875 0.201250
0.504375 0.731875 0.201250
0.557500 0.731875 0.201250
0.610625 0.731875 0.201250
0.663750 0.731875 0.201250
0.716875 0.731875 0.201250
0.770000 0.731875 0.201250
0.000000 0.791250 0.201250
0.000000 0.791250 0.201250
0.026250 0.791250 0.201250
0.079375 0.791250 0.201250
0.132500 0.791250 0.201250
0.185625 0.791250 0.201250
0.238750 0.791250 0.201250
0.291875 0.791250 0.201250
0.345000 0.791250 0.201250
0.398125 0.791250 0.201250
0.451250 0.791250 0.201250
0.504375 0.791250 0.201250
0.557500 0.791250 0.201250
0.610625 0.791250 0.201250
0.663750 0.791250 0.201250
0.716875 0.791250 0.201250
0.770000 0.791250 0.201250
0.000000 0.850625 0.201250
0.000000 0.850625 0.201250
0.026250 0.850625 0.201250
0.079375 0.850625 0.201250
0.132500 0.850625 0.201250
0.185625 0.850625 0.201250
0.238750 0.850625 0.201250
0.291875 0.850625 0.201250
0.345000 0.850625 0.201250
0.398125 0.850625 0.201250
0.451250 0.850625 0.201250
0.504375 0.850625 0.201250
0.557500 0.850625 0.201250
0.610625 0.850625 0.201250
0.663750 0.850625 0.201250
0.716875 0.850625 0.201250
0.770000 0.850625 0.201250
0.000000 0.910000 0.201250
0.000000 0.910000 0.201250
0.026250 0.910000 0.201250
0.079375 0.910000 0.201250
0.132500 0.910000 0.201250
0.185625 0.910000 0.201250
0.238750 0.910000 0.201250
0.291875 0.910000 0.201250
0.345000 0.910000 0.201250
0.398125 0.910000 0.201250
0.451250 0.910000 0.201250
0.504375 0.910000 0.201250
0.557500 0.910000 0.201250
0.610625 0.910000 0.201250
0.663750 0.910000 0.201250
0.716875 0.910000 0.201250
0.770000 0.910000 0.201250
0.000000 0.000000 0.282500
0.000000 0.000000 0.282500
0.026250 0.000000 0.282500
0.079375 0.000000 0.282500
0.132500 0.000000 0.282500
0.185625 0.000000 0.282500
0.238750 0.000000 0.282500
0.291875 0.000000 0.282500
0.345000 0.000000 0.282500
0.398125 0.000000 0.282500
0.451250 0.000000 0.282500
0.504375 0.000000 0.282500
0.557500 0.000000 0.282500
0.610625 0.000000 0.282500
0.663750 0.000000 0.282500
0.716875 0.000000 0.282500
0.770000 0.000000 0.282500
0.000000 0.019375 0.282500
0.000000 0.019375 0.282500
0.026250 0.019375 0.282500
0.079375 0.019375 0.282500
0.132500 0.019375 0.282500
0.185625 0.019375 0.282500
0.238750 0.019375 0.282500
0.291875 0.019375 0.282500
0.345000 0.019375 0.282500
0.398125 0.019375 0.282500
0.451250 0.019375 0.282500
0.504375 0.019375 0.282500
0.557500 0.019375 0.282500
0.610625 0.019375 0.282500
0.663750 0.019375 0.282500
0.716875 0.019375 0.282500
0.770000 0.019375 0.282500
0.000000 0.078750 0.282500
0.000000 0.078750 0.282500
0.026250 0.078750 0.282500
0.079375 0.078750 0.282500
0.132500 0.078750 0.282500
0.185625 0.078750 0.282500
0.238750 0.078750 0.282500
0.291875 0.078750 0.282500
0.345000 0.078750 0.282500
0.398125 0.078750 0.282500
0.451250 0.078750 0.282500
0.504375 0.078750 0.282500
0.557500 0.078750 0.282500
0.610625 0.078750 0.282500
0.663750 0.078750 0.282500
0.716875 0.078750 0.282500
0.770000 0.078750 0.282500
0.000000 0.138125 0.282500
0.000000 0.138125 0.282500
0.026250 0.138125 0.282500
0.079375 0.138125 0.282500
0.132500 0.138125 0.282500
0.185625 0.138125 0.282500
0.238750 0.138125 0.282500
0.291875 0.138125 0.282500
0.345000 0.138125 0.282500
0.398125 0.138125 0.282500
0.451250 0.138125 0.282500
0.504375 0.138125 0.282500
0.557500 0.138125 0.282500
0.610625 0.138125 0.282500
0.663750 0.138125 0.282500
0.716875 0.138125 0.282500
0.770000 0.138125 0.282500
0.000000 0.197500 0.282500
0.000000 0.197500 0.282500
0.026250 0.197500 0.282500
0.079375 0.197500 0.282500
0.132500 0.197500 0.282500
0.185625 0.197500 0.282500
0.238750 0.197500 0.282500
0.291875 0.197500 0.282500
0.345000 0.197500 0.282500
0.398125 0.197500 0.282500
0.451250 0.197500 0.282500
0.504375 0.197500 0.282500
0.557500 0.197500 0.282500
0.610625 0.197500 0.282500
0.663750 0.197500 0.282500
0.716875 0.197500 0.282500
0.770000 0.197500 0.282500
0.000000 0.256875 0.282500
0.000000 0.256875 0.282500
0.026250 0.256875 0.282500
0.079375 0.256875 0.282500
0.132500 0.256875 0.282500
0.185625 0.256875 0.282500
0.238750 0.256875 0.282500
0.291875 0.256875 0.282500
0.345000 0.256875 0.282500
0.398125 0.256875 0.282500
0.451250 0.256875 0.282500
0.504375 0.256875 0.282500
0.557500 0.256875 0.282500
0.610625 0.256875 0.282500
0.663750 0.256875 0.282500
0.716875 0.256875 0.282500
0.770000 0.256875 0.282500
0.000000 0.316250 0.282500
0.000000 0.316250 0.282500
0.026250 0.316250 0.282500
0.079375 0.316250 0.282500
0.132500 0.316250 0.282500
0.185625 0.316250 0.282500
0.238750 0.316250 0.282500
0.291875 0.316250 0.282500
0.345000 0.316250 0.282500
0.398125 0.316250 0.282500
0.451250 0.316250 0.282500
0.504375 0.316250 0.282500
0.557500 0.316250 0.282500
0.610625 0.316250 0.282500
0.663750 0.316250 0.282500
0.716875 0.316250 0.282500
0.770000 0.316250 0.282500
0.000000 0.375625 0.282500
0.000000 0.375625 0.282500
0.026250 0.375625 0.282500
0.079375 0.375625 0.282500
0.132500 0.375625 0.282500
0.185625 0.375625 0.282500
0.238750 0.375625 0.282500
0.291875 0.375625 0.282500
0.345000 0.375625 0.282500
0.398125 0.375625 0.282500
0.451250 0.375625 0.282500
0.504375 0.375625 0.282500
0.557500 0.375625 0.282500
0.610625 0.375625 0.282500
0.663750 0.375625 0.282500
0.716875 0.375625 0.282500
0.770000 0.375625 0.282500
0.000000 0.435000 0.282500
0.000000 0.435000 0.282500
0.026250 0.435000 0.282500
0.079375 0.435000 0.282500
0.132500 0.435000 0.282500
0.185625 0.435000 0.282500
0.238750 0.435000 0.282500
0.291875 0.435000 0.282500
0.345000 0.435000 0.282500
0.398125 0.435000 0.282500
0.451250 0.435000 0.282500
0.504375 0.435000 0.282500
0.557500 0.435000 0.282500
0.610625 0.435000 0.282500
0.663750 0.435000 0.282500
0.716875 0.435000 0.282500
0.770000 0.435000 0.282500
0.000000 0.494375 0.282500
0.000000 0.494375 0.282500
0.026250 0.494375 0.282500
0.079375 0.494375 0.282500
0.132500 0.494375 0.282500
0.185625 0.494375 0.282500
0.238750 0.494375 0.282500
0.291875 0.494375 0.282500
0.345000 0.494375 0.282500
0.398125 0.494375 0.282500
0.451250 0.494375 0.282500
0.504375 0.494375 0.282500
0.557500 0.494375 0.282500
0.610625 0.494375 0.282500
0.663750 0.494375 0.282500
0.716875 0.494375 0.282500
0.770000 0.494375 0.282500
0.000000 0.553750 0.282500
0.000000 0.553750 0.282500
0.026250 0.553750 0.282500
0.079375 0.553750 0.282500
0.132500 0.553750 0.282500
0.185625 0.553750 0.282500
0.238750 0.553750 0.282500
0.291875 0.553750 0.282500
0.345000 0.553750 0.282500
0.398125 0.553750 0.282500
0.451250 0.553750 0.282500
0.504375 0.553750 0.282500
0.557500 0.553750 0.282500
0.610625 0.553750 0.282500
0.663750 0.553750 0.282500
0.716875 0.553750 0.282500
0.770000 0.553750 0.282500
0.000000 0.613125 0.282500
0.000000 0.613125 0.282500
0.026250 0.613125 0.282500
0.079375 0.613125 0.282500
0.132500 0.613125 0.282500
0.185625 0.613125 0.282500
0.238750 0.613125 0.282500
0.291875 0.613125 0.282500
0.345000 0.613125 0.282500
0.398125 0.613125 0.282500
0.451250 0.613125 0.282500
0.504375 0.613125 0.282500
0.557500 0.613125 0.282500
0.610625 0.613125 0.282500
0.663750 0.613125 0.282500
0.716875 0.613125 0.282500
0.770000 0.613125 0.282500
0.000000 0.672500 0.282500
0.000000 0.672500 0.282500
0.026250 0.672500 0.282500
0.079375 0.672500 0.282500
0.132500 0.672500 0.282500
0.185625 0.672500 0.282500
0.238750 0.672500 0.282500
0.291875 0.672500 0.282500
0.345000 0.672500 0.282500
0.398125 0.672500 0.282500
0.451250 0.672500 0.282500
0.504375 0.672500 0.282500
0.557500 0.672500 0.282500
0.610625 0.672500 0.282500
0.663750 0.672500 0.282500
0.716875 0.672500 0.282500
0.770000 0.672500 0.282500
0.000000 0.731875 0.282500
0.000000 0.731875 0.282500
0.026250 0.731875 0.282500
0.079375 0.731875 0.282500
0.132500 0.731875 0.282500
0.185625 0.731875 0.282500
0.238750 0.731875 0.282500
0.291875 0.731875 0.282500
0.345000 0.731875 0.282500
0.398125 0.731875 0.282500
0.451250 0.731875 0.282500
0.504375 0.731875 0.282500
0.557500 0.731875 0.282500
0.610625 0.731875 0.282500
0.663750 0.731875 0.282500
0.716875 0.731875 0.282500
0.770000 0.731875 0.282500
0.000000 0.791250 0.282500
0.000000 0.791250 0.282500
0.026250 0.791250 0.282500
0.079375 0.791250 0.282500
0.132500 0.791250 0.282500
0.185625 0.791250 0.282500
0.238750 0.791250 0.282500
0.291875 0.791250 0.282500
0.345000 0.791250 0.282500
0.398125 0.791250 0.282500
0.451250 0.791250 0.282500
0.504375 0.791250 0.282500
0.557500 0.791250 0.282500
0.610625 0.791250 0.282500
0.663750 0.791250 0.282500
0.716875 0.791250 0.282500
0.770000 0.791250 0.282500
0.000000 0.850625 0.282500
0.000000 0.850625 0.282500
0.026250 0.850625 0.282500
0.079375 0.850625 0.282500
0.132500 0.850625 0.282500
0.185625 0.850625 0.282500
0.238750 0.850625 0.282500
0.291875 0.850625 0.282500
0.345000 0.850625 0.282500
0.398125 0.850625 0.282500
0.451250 0.850625 0.282500
0.504375 0.850625 0.282500
0.557500 0.850625 0.282500
0.610625 0.850625 0.282500
0.663750 0.850625 0.282500
0.716875 0.850625 0.282500
0.770000 0.850625 0.282500
0.000000 0.910000 0.282500
0.000000 0.910000 0.282500
0.026250 0.910000 0.282500
0.079375 0.910000 0.282500
0.132500 0.910000 0.282500
0.185625 0.910000 0.282500
0.238750 0.910000 0.282500
0.291875 0.910000 0.282500
0.345000 0.910000 0.282500
0.398125 0.910000 0.282500
0.451250 0.910000 0.282500
0.504375 0.910000 0.282500
0.557500 0.910000 0.282500
0.610625 0.910000 0.282500
0.663750 0.910000 0.282500
0.716875 0.910000 0.282500
0.770000 0.910000 0.282500
0.000000 0.000000 0.363750
0.000000 0.000000 0.363750
0.026250 0.000000 0.363750
0.079375 0.000000 0.363750
0.132500 0.000000 0.363750
0.185625 0.000000 0.363750
0.238750 0.000000 0.363750
0.291875 0.000000 0.363750
0.345000 0.000000 0.363750
0.398125 0.000000 0.363750
0.451250 0.000000 0.363750
0.504375 0.000000 0.363750
0.557500 0.000000 0.363750
0.610625 0.000000 0.363750
0.663750 0.000000 0.363750
0.716875 0.000000 0.363750
0.770000 0.000000 0.363750
0.000000 0.019375 0.363750
