app/src/main/assets/luts/deep_abyss.cube
# ApexStudio filter: deep_abyss
LUT_3D_SIZE 5
DOMAIN_MIN 0.0 0.0 0.0
DOMAIN_MAX 1.0 1.0 1.0
0.000000 0.000000 0.120000
0.132500 0.000000 0.120000
0.345000 0.000000 0.120000
0.557500 0.000000 0.120000
0.770000 0.000000 0.120000
0.000000 0.197500 0.120000
0.132500 0.197500 0.120000
0.345000 0.197500 0.120000
0.557500 0.197500 0.120000
0.770000 0.197500 0.120000
0.000000 0.435000 0.120000
0.132500 0.435000 0.120000
0.345000 0.435000 0.120000
0.557500 0.435000 0.120000
0.770000 0.435000 0.120000
0.000000 0.672500 0.120000
0.132500 0.672500 0.120000
0.345000 0.672500 0.120000
0.557500 0.672500 0.120000
0.770000 0.672500 0.120000
0.000000 0.910000 0.120000
0.132500 0.910000 0.120000
0.345000 0.910000 0.120000
0.557500 0.910000 0.120000
0.770000 0.910000 0.120000
0.000000 0.000000 0.445000
0.132500 0.000000 0.445000
0.345000 0.000000 0.445000
0.557500 0.000000 0.445000
0.770000 0.000000 0.445000
0.000000 0.197500 0.445000
0.132500 0.197500 0.445000
0.345000 0.197500 0.445000
0.557500 0.197500 0.445000
0.770000 0.197500 0.445000
0.000000 0.435000 0.445000
0.132500 0.435000 0.445000
0.345000 0.435000 0.445000
0.557500 0.435000 0.445000
0.770000 0.435000 0.445000
0.000000 0.672500 0.445000
0.132500 0.672500 0.445000
0.345000 0.672500 0.445000
0.557500 0.672500 0.445000
0.770000 0.672500 0.445000
0.000000 0.910000 0.445000
0.132500 0.910000 0.445000
0.345000 0.910000 0.445000
0.557500 0.910000 0.445000
0.770000 0.910000 0.445000
0.000000 0.000000 0.770000
0.132500 0.000000 0.770000
0.345000 0.000000 0.770000
0.557500 0.000000 0.770000
0.770000 0.000000 0.770000
0.000000 0.197500 0.770000
0.132500 0.197500 0.770000
0.345000 0.197500 0.770000
0.557500 0.197500 0.770000
0.770000 0.197500 0.770000
0.000000 0.435000 0.770000
0.132500 0.435000 0.770000
0.345000 0.435000 0.770000
0.557500 0.435000 0.770000
0.770000 0.435000 0.770000
0.000000 0.672500 0.770000
0.132500 0.672500 0.770000
0.345000 0.672500 0.770000
0.557500 0.672500 0.770000
0.770000 0.672500 0.770000
0.000000 0.910000 0.770000
0.132500 0.910000 0.770000
0.345000 0.910000 0.770000
0.557500 0.910000 0.770000
0.770000 0.910000 0.770000
0.000000 0.000000 1.000000
0.132500 0.000000 1.000000
0.345000 0.000000 1.000000
0.557500 0.000000 1.000000
0.770000 0.000000 1.000000
0.000000 0.197500 1.000000
0.132500 0.197500 1.000000
0.345000 0.197500 1.000000
0.557500 0.197500 1.000000
0.770000 0.197500 1.000000
0.000000 0.435000 1.000000
0.132500 0.435000 1.000000
0.345000 0.435000 1.000000
0.557500 0.435000 1.000000
0.770000 0.435000 1.000000
0.000000 0.672500 1.000000
0.132500 0.672500 1.000000
0.345000 0.672500 1.000000
0.557500 0.672500 1.000000
0.770000 0.672500 1.000000
0.000000 0.910000 1.000000
0.132500 0.910000 1.000000
0.345000 0.910000 1.000000
0.557500 0.910000 1.000000
0.770000 0.910000 1.000000
0.000000 0.000000 1.000000
0.132500 0.000000 1.000000
0.345000 0.000000 1.000000
0.557500 0.000000 1.000000
0.770000 0.000000 1.000000
0.000000 0.197500 1.000000
0.132500 0.197500 1.000000
0.345000 0.197500 1.000000
0.557500 0.197500 1.000000
0.770000 0.197500 1.000000
0.000000 0.435000 1.000000
0.132500 0.435000 1.000000
0.345000 0.435000 1.000000
0.557500 0.435000 1.000000
0.770000 0.435000 1.000000
0.000000 0.672500 1.000000
0.132500 0.672500 1.000000
0.345000 0.672500 1.000000
0.557500 0.672500 1.000000
0.770000 0.672500 1.000000
0.000000 0.910000 1.000000
0.132500 0.910000 1.000000
0.345000 0.910000 1.000000
0.557500 0.910000 1.000000
0.770000 0.910000 1.000000
