app/src/main/assets/luts/deep_abyss.cube
# ApexStudio filter: deep_abyss
LUT_3D_SIZE 9
DOMAIN_MIN 0.0 0.0 0.0
DOMAIN_MAX 1.0 1.0 1.0
0.000000 0.000000 0.120000
0.026250 0.000000 0.120000
0.132500 0.000000 0.120000
0.238750 0.000000 0.120000
0.345000 0.000000 0.120000
0.451250 0.000000 0.120000
0.557500 0.000000 0.120000
0.663750 0.000000 0.120000
0.770000 0.000000 0.120000
0.000000 0.078750 0.120000
0.026250 0.078750 0.120000
0.132500 0.078750 0.120000
0.238750 0.078750 0.120000
0.345000 0.078750 0.120000
0.451250 0.078750 0.120000
0.557500 0.078750 0.120000
0.663750 0.078750 0.120000
0.770000 0.078750 0.120000
0.000000 0.197500 0.120000
0.026250 0.197500 0.120000
0.132500 0.197500 0.120000
0.238750 0.197500 0.120000
0.345000 0.197500 0.120000
0.451250 0.197500 0.120000
0.557500 0.197500 0.120000
0.663750 0.197500 0.120000
0.770000 0.197500 0.120000
0.000000 0.316250 0.120000
0.026250 0.316250 0.120000
0.132500 0.316250 0.120000
0.238750 0.316250 0.120000
0.345000 0.316250 0.120000
0.451250 0.316250 0.120000
0.557500 0.316250 0.120000
0.663750 0.316250 0.120000
0.770000 0.316250 0.120000
0.000000 0.435000 0.120000
0.026250 0.435000 0.120000
0.132500 0.435000 0.120000
0.238750 0.435000 0.120000
0.345000 0.435000 0.120000
0.451250 0.435000 0.120000
0.557500 0.435000 0.120000
0.663750 0.435000 0.120000
0.770000 0.435000 0.120000
0.000000 0.553750 0.120000
0.026250 0.553750 0.120000
0.132500 0.553750 0.120000
0.238750 0.553750 0.120000
0.345000 0.553750 0.120000
0.451250 0.553750 0.120000
0.557500 0.553750 0.120000
0.663750 0.553750 0.120000
0.770000 0.553750 0.120000
0.000000 0.672500 0.120000
0.026250 0.672500 0.120000
0.132500 0.672500 0.120000
0.238750 0.672500 0.120000
0.345000 0.672500 0.120000
0.451250 0.672500 0.120000
0.557500 0.672500 0.120000
0.663750 0.672500 0.120000
0.770000 0.672500 0.120000
0.000000 0.791250 0.120000
0.026250 0.791250 0.120000
0.132500 0.791250 0.120000
0.238750 0.791250 0.120000
0.345000 0.791250 0.120000
0.451250 0.791250 0.120000
0.557500 0.791250 0.120000
0.663750 0.791250 0.120000
0.770000 0.791250 0.120000
0.000000 0.910000 0.120000
0.026250 0.910000 0.120000
0.132500 0.910000 0.120000
0.238750 0.910000 0.120000
0.345000 0.910000 0.120000
0.451250 0.910000 0.120000
0.557500 0.910000 0.120000
0.663750 0.910000 0.120000
0.770000 0.910000 0.120000
0.000000 0.000000 0.282500
0.026250 0.000000 0.282500
0.132500 0.000000 0.282500
0.238750 0.000000 0.282500
0.345000 0.000000 0.282500
0.451250 0.000000 0.282500
0.557500 0.000000 0.282500
0.663750 0.000000 0.282500
0.770000 0.000000 0.282500
0.000000 0.078750 0.282500
0.026250 0.078750 0.282500
0.132500 0.078750 0.282500
0.238750 0.078750 0.282500
0.345000 0.078750 0.282500
0.451250 0.078750 0.282500
0.557500 0.078750 0.282500
0.663750 0.078750 0.282500
0.770000 0.078750 0.282500
0.000000 0.197500 0.282500
0.026250 0.197500 0.282500
0.132500 0.197500 0.282500
0.238750 0.197500 0.282500
0.345000 0.197500 0.282500
0.451250 0.197500 0.282500
0.557500 0.197500 0.282500
0.663750 0.197500 0.282500
0.770000 0.197500 0.282500
0.000000 0.316250 0.282500
0.026250 0.316250 0.282500
0.132500 0.316250 0.282500
0.238750 0.316250 0.282500
0.345000 0.316250 0.282500
0.451250 0.316250 0.282500
0.557500 0.316250 0.282500
0.663750 0.316250 0.282500
0.770000 0.316250 0.282500
0.000000 0.435000 0.282500
0.026250 0.435000 0.282500
0.132500 0.435000 0.282500
0.238750 0.435000 0.282500
0.345000 0.435000 0.282500
0.451250 0.435000 0.282500
0.557500 0.435000 0.282500
0.663750 0.435000 0.282500
0.770000 0.435000 0.282500
0.000000 0.553750 0.282500
0.026250 0.553750 0.282500
0.132500 0.553750 0.282500
0.238750 0.553750 0.282500
0.345000 0.553750 0.282500
0.451250 0.553750 0.282500
0.557500 0.553750 0.282500
0.663750 0.553750 0.282500
0.770000 0.553750 0.282500
0.000000 0.672500 0.282500
0.026250 0.672500 0.282500
0.132500 0.672500 0.282500
0.238750 0.672500 0.282500
0.345000 0.672500 0.282500
0.451250 0.672500 0.282500
0.557500 0.672500 0.282500
0.663750 0.672500 0.282500
0.770000 0.672500 0.282500
0.000000 0.791250 0.282500
0.026250 0.791250 0.282500
0.132500 0.791250 0.282500
0.238750 0.791250 0.282500
0.345000 0.791250 0.282500
0.451250 0.791250 0.282500
0.557500 0.791250 0.282500
0.663750 0.791250 0.282500
0.770000 0.791250 0.282500
0.000000 0.910000 0.282500
0.026250 0.910000 0.282500
0.132500 0.910000 0.282500
0.238750 0.910000 0.282500
0.345000 0.910000 0.282500
0.451250 0.910000 0.282500
0.557500 0.910000 0.282500
0.663750 0.910000 0.282500
0.770000 0.910000 0.282500
0.000000 0.000000 0.445000
0.026250 0.000000 0.445000
0.132500 0.000000 0.445000
0.238750 0.000000 0.445000
0.345000 0.000000 0.445000
0.451250 0.000000 0.445000
0.557500 0.000000 0.445000
0.663750 0.000000 0.445000
0.770000 0.000000 0.445000
0.000000 0.078750 0.445000
0.026250 0.078750 0.445000
0.132500 0.078750 0.445000
0.238750 0.078750 0.445000
0.345000 0.078750 0.445000
0.451250 0.078750 0.445000
0.557500 0.078750 0.445000
0.663750 0.078750 0.445000
0.770000 0.078750 0.445000
0.000000 0.197500 0.445000
0.026250 0.197500 0.445000
0.132500 0.197500 0.445000
0.238750 0.197500 0.445000
0.345000 0.197500 0.445000
0.451250 0.197500 0.445000
0.557500 0.197500 0.445000
0.663750 0.197500 0.445000
0.770000 0.197500 0.445000
0.000000 0.316250 0.445000
0.026250 0.316250 0.445000
0.132500 0.316250 0.445000
0.238750 0.316250 0.445000
0.345000 0.316250 0.445000
0.451250 0.316250 0.445000
0.557500 0.316250 0.445000
0.663750 0.316250 0.445000
0.770000 0.316250 0.445000
0.000000 0.435000 0.445000
0.026250 0.435000 0.445000
0.132500 0.435000 0.445000
0.238750 0.435000 0.445000
0.345000 0.435000 0.445000
0.451250 0.435000 0.445000
0.557500 0.435000 0.445000
0.663750 0.435000 0.445000
0.770000 0.435000 0.445000
0.000000 0.553750 0.445000
0.026250 0.553750 0.445000
0.132500 0.553750 0.445000
0.238750 0.553750 0.445000
0.345000 0.553750 0.445000
0.451250 0.553750 0.445000
0.557500 0.553750 0.445000
0.663750 0.553750 0.445000
0.770000 0.553750 0.445000
0.000000 0.672500 0.445000
0.026250 0.672500 0.445000
0.132500 0.672500 0.445000
0.238750 0.672500 0.445000
0.345000 0.672500 0.445000
0.451250 0.672500 0.445000
0.557500 0.672500 0.445000
0.663750 0.672500 0.445000
0.770000 0.672500 0.445000
0.000000 0.791250 0.445000
0.026250 0.791250 0.445000
0.132500 0.791250 0.445000
0.238750 0.791250 0.445000
0.345000 0.791250 0.445000
0.451250 0.791250 0.445000
0.557500 0.791250 0.445000
0.663750 0.791250 0.445000
0.770000 0.791250 0.445000
0.000000 0.910000 0.445000
0.026250 0.910000 0.445000
0.132500 0.910000 0.445000
0.238750 0.910000 0.445000
0.345000 0.910000 0.445000
0.451250 0.910000 0.445000
0.557500 0.910000 0.445000
0.663750 0.910000 0.445000
0.770000 0.910000 0.445000
0.000000 0.000000 0.607500
0.026250 0.000000 0.607500
0.132500 0.000000 0.607500
0.238750 0.000000 0.607500
0.345000 0.000000 0.607500
0.451250 0.000000 0.607500
0.557500 0.000000 0.607500
0.663750 0.000000 0.607500
0.770000 0.000000 0.607500
0.000000 0.078750 0.607500
0.026250 0.078750 0.607500
0.132500 0.078750 0.607500
0.238750 0.078750 0.607500
0.345000 0.078750 0.607500
0.451250 0.078750 0.607500
0.557500 0.078750 0.607500
0.663750 0.078750 0.607500
0.770000 0.078750 0.607500
0.000000 0.197500 0.607500
0.026250 0.197500 0.607500
0.132500 0.197500 0.607500
0.238750 0.197500 0.607500
0.345000 0.197500 0.607500
0.451250 0.197500 0.607500
0.557500 0.197500 0.607500
0.663750 0.197500 0.607500
0.770000 0.197500 0.607500
0.000000 0.316250 0.607500
0.026250 0.316250 0.607500
0.132500 0.316250 0.607500
0.238750 0.316250 0.607500
0.345000 0.316250 0.607500
0.451250 0.316250 0.607500
0.557500 0.316250 0.607500
0.663750 0.316250 0.607500
0.770000 0.316250 0.607500
0.000000 0.435000 0.607500
0.026250 0.435000 0.607500
0.132500 0.435000 0.607500
0.238750 0.435000 0.607500
0.345000 0.435000 0.607500
0.451250 0.435000 0.607500
0.557500 0.435000 0.607500
0.663750 0.435000 0.607500
0.770000 0.435000 0.607500
0.000000 0.553750 0.607500
0.026250 0.553750 0.607500
0.132500 0.553750 0.607500
0.238750 0.553750 0.607500
0.345000 0.553750 0.607500
0.451250 0.553750 0.607500
0.557500 0.553750 0.607500
0.663750 0.553750 0.607500
0.770000 0.553750 0.607500
0.000000 0.672500 0.607500
0.026250 0.672500 0.607500
0.132500 0.672500 0.607500
0.238750 0.672500 0.607500
0.345000 0.672500 0.607500
0.451250 0.672500 0.607500
0.557500 0.672500 0.607500
0.663750 0.672500 0.607500
0.770000 0.672500 0.607500
0.000000 0.791250 0.607500
0.026250 0.791250 0.607500
0.132500 0.791250 0.607500
0.238750 0.791250 0.607500
0.345000 0.791250 0.607500
0.451250 0.791250 0.607500
0.557500 0.791250 0.607500
0.663750 0.791250 0.607500
0.770000 0.791250 0.607500
0.000000 0.910000 0.607500
0.026250 0.910000 0.607500
0.132500 0.910000 0.607500
0.238750 0.910000 0.607500
0.345000 0.910000 0.607500
0.451250 0.910000 0.607500
0.557500 0.910000 0.607500
0.663750 0.910000 0.607500
0.770000 0.910000 0.607500
0.000000 0.000000 0.770000
0.026250 0.000000 0.770000
0.132500 0.000000 0.770000
0.238750 0.000000 0.770000
0.345000 0.000000 0.770000
0.451250 0.000000 0.770000
0.557500 0.000000 0.770000
0.663750 0.000000 0.770000
0.770000 0.000000 0.770000
0.000000 0.078750 0.770000
0.026250 0.078750 0.770000
0.132500 0.078750 0.770000
0.238750 0.078750 0.770000
0.345000 0.078750 0.770000
0.451250 0.078750 0.770000
0.557500 0.078750 0.770000
0.663750 0.078750 0.770000
0.770000 0.078750 0.770000
0.000000 0.197500 0.770000
0.026250 0.197500 0.770000
0.132500 0.197500 0.770000
0.238750 0.197500 0.770000
0.345000 0.197500 0.770000
0.451250 0.197500 0.770000
0.557500 0.197500 0.770000
0.663750 0.197500 0.770000
0.770000 0.197500 0.770000
0.000000 0.316250 0.770000
0.026250 0.316250 0.770000
0.132500 0.316250 0.770000
0.238750 0.316250 0.770000
0.345000 0.316250 0.770000
0.451250 0.316250 0.770000
0.557500 0.316250 0.770000
0.663750 0.316250 0.770000
0.770000 0.316250 0.770000
0.000000 0.435000 0.770000
0.026250 0.435000 0.770000
0.132500 0.435000 0.770000
0.238750 0.435000 0.770000
0.345000 0.435000 0.770000
0.451250 0.435000 0.770000
0.557500 0.435000 0.770000
0.663750 0.435000 0.770000
0.770000 0.435000 0.770000
0.000000 0.553750 0.770000
0.026250 0.553750 0.770000
0.132500 0.553750 0.770000
0.238750 0.553750 0.770000
0.345000 0.553750 0.770000
0.451250 0.553750 0.770000
0.557500 0.553750 0.770000
0.663750 0.553750 0.770000
0.770000 0.553750 0.770000
0.000000 0.672500 0.770000
0.026250 0.672500 0.770000
0.132500 0.672500 0.770000
0.238750 0.672500 0.770000
0.345000 0.672500 0.770000
0.451250 0.672500 0.770000
0.557500 0.672500 0.770000
0.663750 0.672500 0.770000
0.770000 0.672500 0.770000
0.000000 0.791250 0.770000
0.026250 0.791250 0.770000
0.132500 0.791250 0.770000
0.238750 0.791250 0.770000
0.345000 0.791250 0.770000
0.451250 0.791250 0.770000
0.557500 0.791250 0.770000
0.663750 0.791250 0.770000
0.770000 0.791250 0.770000
0.000000 0.910000 0.770000
0.026250 0.910000 0.770000
0.132500 0.910000 0.770000
0.238750 0.910000 0.770000
0.345000 0.910000 0.770000
0.451250 0.910000 0.770000
0.557500 0.910000 0.770000
0.663750 0.910000 0.770000
0.770000 0.910000 0.770000
0.000000 0.000000 0.932500
0.026250 0.000000 0.932500
0.132500 0.000000 0.932500
0.238750 0.000000 0.932500
0.345000 0.000000 0.932500
0.451250 0.000000 0.932500
0.557500 0.000000 0.932500
0.663750 0.000000 0.932500
0.770000 0.000000 0.932500
0.000000 0.078750 0.932500
0.026250 0.078750 0.932500
0.132500 0.078750 0.932500
0.238750 0.078750 0.932500
0.345000 0.078750 0.932500
0.451250 0.078750 0.932500
0.557500 0.078750 0.932500
0.663750 0.078750 0.932500
0.770000 0.078750 0.932500
0.000000 0.197500 0.932500
0.026250 0.197500 0.932500
0.132500 0.197500 0.932500
0.238750 0.197500 0.932500
0.345000 0.197500 0.932500
0.451250 0.197500 0.932500
0.557500 0.197500 0.932500
0.663750 0.197500 0.932500
0.770000 0.197500 0.932500
0.000000 0.316250 0.932500
0.026250 0.316250 0.932500
0.132500 0.316250 0.932500
0.238750 0.316250 0.932500
0.345000 0.316250 0.932500
0.451250 0.316250 0.932500
0.557500 0.316250 0.932500
0.663750 0.316250 0.932500
0.770000 0.316250 0.932500
0.000000 0.435000 0.932500
0.026250 0.435000 0.932500
0.132500 0.435000 0.932500
0.238750 0.435000 0.932500
0.345000 0.435000 0.932500
0.451250 0.435000 0.932500
0.557500 0.435000 0.932500
0.663750 0.435000 0.932500
0.770000 0.435000 0.932500
0.000000 0.553750 0.932500
0.026250 0.553750 0.932500
0.132500 0.553750 0.932500
0.238750 0.553750 0.932500
0.345000 0.553750 0.932500
0.451250 0.553750 0.932500
0.557500 0.553750 0.932500
0.663750 0.553750 0.932500
0.770000 0.553750 0.932500
0.000000 0.672500 0.932500
0.026250 0.672500 0.932500
0.132500 0.672500 0.932500
0.238750 0.672500 0.932500
0.345000 0.672500 0.932500
0.451250 0.672500 0.932500
0.557500 0.672500 0.932500
0.663750 0.672500 0.932500
0.770000 0.672500 0.932500
0.000000 0.791250 0.932500
0.026250 0.791250 0.932500
0.132500 0.791250 0.932500
0.238750 0.791250 0.932500
0.345000 0.791250 0.932500
0.451250 0.791250 0.932500
0.557500 0.791250 0.932500
0.663750 0.791250 0.932500
0.770000 0.791250 0.932500
0.000000 0.910000 0.932500
0.026250 0.910000 0.932500
0.132500 0.910000 0.932500
0.238750 0.910000 0.932500
0.345000 0.910000 0.932500
0.451250 0.910000 0.932500
0.557500 0.910000 0.932500
0.663750 0.910000 0.932500
0.770000 0.910000 0.932500
0.000000 0.000000 1.000000
0.026250 0.000000 1.000000
0.132500 0.000000 1.000000
0.238750 0.000000 1.000000
0.345000 0.000000 1.000000
0.451250 0.000000 1.000000
0.557500 0.000000 1.000000
0.663750 0.000000 1.000000
0.770000 0.000000 1.000000
0.000000 0.078750 1.000000
0.026250 0.078750 1.000000
0.132500 0.078750 1.000000
0.238750 0.078750 1.000000
0.345000 0.078750 1.000000
0.451250 0.078750 1.000000
0.557500 0.078750 1.000000
0.663750 0.078750 1.000000
0.770000 0.078750 1.000000
0.000000 0.197500 1.000000
0.026250 0.197500 1.000000
0.132500 0.197500 1.000000
0.238750 0.197500 1.000000
0.345000 0.197500 1.000000
0.451250 0.197500 1.000000
0.557500 0.197500 1.000000
0.663750 0.197500 1.000000
0.770000 0.197500 1.000000
0.000000 0.316250 1.000000
0.026250 0.316250 1.000000
0.132500 0.316250 1.000000
0.238750 0.316250 1.000000
0.345000 0.316250 1.000000
0.451250 0.316250 1.000000
0.557500 0.316250 1.000000
0.663750 0.316250 1.000000
0.770000 0.316250 1.000000
0.000000 0.435000 1.000000
0.026250 0.435000 1.000000
0.132500 0.435000 1.000000
0.238750 0.435000 1.000000
0.345000 0.435000 1.000000
0.451250 0.435000 1.000000
0.557500 0.435000 1.000000
0.663750 0.435000 1.000000
0.770000 0.435000 1.000000
0.000000 0.553750 1.000000
0.026250 0.553750 1.000000
0.132500 0.553750 1.000000
0.238750 0.553750 1.000000
0.345000 0.553750 1.000000
0.451250 0.553750 1.000000
0.557500 0.553750 1.000000
0.663750 0.553750 1.000000
0.770000 0.553750 1.000000
0.000000 0.672500 1.000000
0.026250 0.672500 1.000000
0.132500 0.672500 1.000000
0.238750 0.672500 1.000000
0.345000 0.672500 1.000000
0.451250 0.672500 1.000000
0.557500 0.672500 1.000000
0.663750 0.672500 1.000000
0.770000 0.672500 1.000000
0.000000 0.791250 1.000000
0.026250 0.791250 1.000000
0.132500 0.791250 1.000000
0.238750 0.791250 1.000000
0.345000 0.791250 1.000000
0.451250 0.791250 1.000000
0.557500 0.791250 1.000000
0.663750 0.791250 1.000000
0.770000 0.791250 1.000000
0.000000 0.910000 1.000000
0.026250 0.910000 1.000000
0.132500 0.910000 1.000000
0.238750 0.910000 1.000000
0.345000 0.910000 1.000000
0.451250 0.910000 1.000000
0.557500 0.910000 1.000000
0.663750 0.910000 1.000000
0.770000 0.910000 1.000000
0.000000 0.000000 1.000000
0.026250 0.000000 1.000000
0.132500 0.000000 1.000000
0.238750 0.000000 1.000000
0.345000 0.000000 1.000000
0.451250 0.000000 1.000000
0.557500 0.000000 1.000000
0.663750 0.000000 1.000000
0.770000 0.000000 1.000000
0.000000 0.078750 1.000000
0.026250 0.078750 1.000000
0.132500 0.078750 1.000000
0.238750 0.078750 1.000000
0.345000 0.078750 1.000000
0.451250 0.078750 1.000000
0.557500 0.078750 1.000000
0.663750 0.078750 1.000000
0.770000 0.078750 1.000000
0.000000 0.197500 1.000000
0.026250 0.197500 1.000000
0.132500 0.197500 1.000000
0.238750 0.197500 1.000000
0.345000 0.197500 1.000000
0.451250 0.197500 1.000000
0.557500 0.197500 1.000000
0.663750 0.197500 1.000000
0.770000 0.197500 1.000000
0.000000 0.316250 1.000000
0.026250 0.316250 1.000000
0.132500 0.316250 1.000000
0.238750 0.316250 1.000000
0.345000 0.316250 1.000000
0.451250 0.316250 1.000000
0.557500 0.316250 1.000000
0.663750 0.316250 1.000000
0.770000 0.316250 1.000000
0.000000 0.435000 1.000000
0.026250 0.435000 1.000000
0.132500 0.435000 1.000000
0.238750 0.435000 1.000000
0.345000 0.435000 1.000000
0.451250 0.435000 1.000000
0.557500 0.435000 1.000000
0.663750 0.435000 1.000000
0.770000 0.435000 1.000000
0.000000 0.553750 1.000000
0.026250 0.553750 1.000000
0.132500 0.553750 1.000000
0.238750 0.553750 1.000000
0.345000 0.553750 1.000000
0.451250 0.553750 1.000000
0.557500 0.553750 1.000000
0.663750 0.553750 1.000000
0.770000 0.553750 1.000000
0.000000 0.672500 1.000000
0.026250 0.672500 1.000000
0.132500 0.672500 1.000000
0.238750 0.672500 1.000000
0.345000 0.672500 1.000000
0.451250 0.672500 1.000000
0.557500 0.672500 1.000000
0.663750 0.672500 1.000000
0.770000 0.672500 1.000000
0.000000 0.791250 1.000000
0.026250 0.791250 1.000000
0.132500 0.791250 1.000000
0.238750 0.791250 1.000000
0.345000 0.791250 1.000000
0.451250 0.791250 1.000000
0.557500 0.791250 1.000000
0.663750 0.791250 1.000000
0.770000 0.791250 1.000000
0.000000 0.910000 1.000000
0.026250 0.910000 1.000000
0.132500 0.910000 1.000000
0.238750 0.910000 1.000000
0.345000 0.910000 1.000000
0.451250 0.910000 1.000000
0.557500 0.910000 1.000000
0.663750 0.910000 1.000000
0.770000 0.910000 1.000000
0.000000 0.000000 1.000000
0.026250 0.000000 1.000000
0.132500 0.000000 1.000000
0.238750 0.000000 1.000000
0.345000 0.000000 1.000000
0.451250 0.000000 1.000000
0.557500 0.000000 1.000000
0.663750 0.000000 1.000000
0.770000 0.000000 1.000000
0.000000 0.078750 1.000000
0.026250 0.078750 1.000000
0.132500 0.078750 1.000000
0.238750 0.078750 1.000000
0.345000 0.078750 1.000000
0.451250 0.078750 1.000000
0.557500 0.078750 1.000000
0.663750 0.078750 1.000000
0.770000 0.078750 1.000000
0.000000 0.197500 1.000000
0.026250 0.197500 1.000000
0.132500 0.197500 1.000000
0.238750 0.197500 1.000000
0.345000 0.197500 1.000000
0.451250 0.197500 1.000000
0.557500 0.197500 1.000000
0.663750 0.197500 1.000000
0.770000 0.197500 1.000000
0.000000 0.316250 1.000000
0.026250 0.316250 1.000000
0.132500 0.316250 1.000000
0.238750 0.316250 1.000000
0.345000 0.316250 1.000000
0.451250 0.316250 1.000000
0.557500 0.316250 1.000000
0.663750 0.316250 1.000000
0.770000 0.316250 1.000000
0.000000 0.435000 1.000000
0.026250 0.435000 1.000000
0.132500 0.435000 1.000000
0.238750 0.435000 1.000000
0.345000 0.435000 1.000000
0.451250 0.435000 1.000000
0.557500 0.435000 1.000000
0.663750 0.435000 1.000000
0.770000 0.435000 1.000000
0.000000 0.553750 1.000000
0.026250 0.553750 1.000000
0.132500 0.553750 1.000000
0.238750 0.553750 1.000000
0.345000 0.553750 1.000000
0.451250 0.553750 1.000000
0.557500 0.553750 1.000000
0.663750 0.553750 1.000000
0.770000 0.553750 1.000000
0.000000 0.672500 1.000000
0.026250 0.672500 1.000000
0.132500 0.672500 1.000000
0.238750 0.672500 1.000000
0.345000 0.672500 1.000000
0.451250 0.672500 1.000000
0.557500 0.672500 1.000000
0.663750 0.672500 1.000000
0.770000 0.672500 1.000000
0.000000 0.791250 1.000000
0.026250 0.791250 1.000000
0.132500 0.791250 1.000000
0.238750 0.791250 1.000000
0.345000 0.791250 1.000000
0.451250 0.791250 1.000000
0.557500 0.791250 1.000000
0.663750 0.791250 1.000000
0.770000 0.791250 1.000000
0.000000 0.910000 1.000000
0.026250 0.910000 1.000000
0.132500 0.910000 1.000000
0.238750 0.910000 1.000000
0.345000 0.910000 1.000000
0.451250 0.910000 1.000000
0.557500 0.910000 1.000000
0.663750 0.910000 1.000000
0.770000 0.910000 1.000000
