app/src/main/assets/luts/disposable_camera.cube
# ApexStudio filter: disposable_camera
LUT_3D_SIZE 5
DOMAIN_MIN 0.0 0.0 0.0
DOMAIN_MAX 1.0 1.0 1.0
0.044842 0.000000 0.000000
0.295659 0.000000 0.000000
0.559612 0.000000 0.000000
0.830192 0.000000 0.000000
1.000000 0.000000 0.000000
0.044842 0.250000 0.000000
0.295659 0.250000 0.000000
0.559612 0.250000 0.000000
0.830192 0.250000 0.000000
1.000000 0.250000 0.000000
0.044842 0.500000 0.000000
0.295659 0.500000 0.000000
0.559612 0.500000 0.000000
0.830192 0.500000 0.000000
1.000000 0.500000 0.000000
0.044842 0.750000 0.000000
0.295659 0.750000 0.000000
0.559612 0.750000 0.000000
0.830192 0.750000 0.000000
1.000000 0.750000 0.000000
0.044842 1.000000 0.000000
0.295659 1.000000 0.000000
0.559612 1.000000 0.000000
0.830192 1.000000 0.000000
1.000000 1.000000 0.000000
0.044842 0.000000 0.205134
0.295659 0.000000 0.205134
0.559612 0.000000 0.205134
0.830192 0.000000 0.205134
1.000000 0.000000 0.205134
0.044842 0.250000 0.205134
0.295659 0.250000 0.205134
0.559612 0.250000 0.205134
0.830192 0.250000 0.205134
1.000000 0.250000 0.205134
0.044842 0.500000 0.205134
0.295659 0.500000 0.205134
0.559612 0.500000 0.205134
0.830192 0.500000 0.205134
1.000000 0.500000 0.205134
0.044842 0.750000 0.205134
0.295659 0.750000 0.205134
0.559612 0.750000 0.205134
0.830192 0.750000 0.205134
1.000000 0.750000 0.205134
0.044842 1.000000 0.205134
0.295659 1.000000 0.205134
0.559612 1.000000 0.205134
0.830192 1.000000 0.205134
1.000000 1.000000 0.205134
0.044842 0.000000 0.444068
0.295659 0.000000 0.444068
0.559612 0.000000 0.444068
0.830192 0.000000 0.444068
1.000000 0.000000 0.444068
0.044842 0.250000 0.444068
0.295659 0.250000 0.444068
0.559612 0.250000 0.444068
0.830192 0.250000 0.444068
1.000000 0.250000 0.444068
0.044842 0.500000 0.444068
0.295659 0.500000 0.444068
0.559612 0.500000 0.444068
0.830192 0.500000 0.444068
1.000000 0.500000 0.444068
0.044842 0.750000 0.444068
0.295659 0.750000 0.444068
0.559612 0.750000 0.444068
0.830192 0.750000 0.444068
1.000000 0.750000 0.444068
0.044842 1.000000 0.444068
0.295659 1.000000 0.444068
0.559612 1.000000 0.444068
0.830192 1.000000 0.444068
1.000000 1.000000 0.444068
0.044842 0.000000 0.676391
0.295659 0.000000 0.676391
0.559612 0.000000 0.676391
0.830192 0.000000 0.676391
1.000000 0.000000 0.676391
0.044842 0.250000 0.676391
0.295659 0.250000 0.676391
0.559612 0.250000 0.676391
0.830192 0.250000 0.676391
1.000000 0.250000 0.676391
0.044842 0.500000 0.676391
0.295659 0.500000 0.676391
0.559612 0.500000 0.676391
0.830192 0.500000 0.676391
1.000000 0.500000 0.676391
0.044842 0.750000 0.676391
0.295659 0.750000 0.676391
0.559612 0.750000 0.676391
0.830192 0.750000 0.676391
1.000000 0.750000 0.676391
0.044842 1.000000 0.676391
0.295659 1.000000 0.676391
0.559612 1.000000 0.676391
0.830192 1.000000 0.676391
1.000000 1.000000 0.676391
0.044842 0.000000 0.904707
0.295659 0.000000 0.904707
0.559612 0.000000 0.904707
0.830192 0.000000 0.904707
1.000000 0.000000 0.904707
0.044842 0.250000 0.904707
0.295659 0.250000 0.904707
0.559612 0.250000 0.904707
0.830192 0.250000 0.904707
1.000000 0.250000 0.904707
0.044842 0.500000 0.904707
0.295659 0.500000 0.904707
0.559612 0.500000 0.904707
0.830192 0.500000 0.904707
1.000000 0.500000 0.904707
0.044842 0.750000 0.904707
0.295659 0.750000 0.904707
0.559612 0.750000 0.904707
0.830192 0.750000 0.904707
1.000000 0.750000 0.904707
0.044842 1.000000 0.904707
0.295659 1.000000 0.904707
0.559612 1.000000 0.904707
0.830192 1.000000 0.904707
1.000000 1.000000 0.904707
