app/src/main/assets/luts/disposable_camera.cube
# ApexStudio filter: disposable_camera
LUT_3D_SIZE 17
DOMAIN_MIN 0.0 0.0 0.0
DOMAIN_MAX 1.0 1.0 1.0
0.044842 0.000000 0.000000
0.105294 0.000000 0.000000
0.167644 0.000000 0.000000
0.231203 0.000000 0.000000
0.295659 0.000000 0.000000
0.360830 0.000000 0.000000
0.426599 0.000000 0.000000
0.492880 0.000000 0.000000
0.559612 0.000000 0.000000
0.626744 0.000000 0.000000
0.694239 0.000000 0.000000
0.762064 0.000000 0.000000
0.830192 0.000000 0.000000
0.898602 0.000000 0.000000
0.967273 0.000000 0.000000
1.000000 0.000000 0.000000
1.000000 0.000000 0.000000
0.044842 0.062500 0.000000
0.105294 0.062500 0.000000
0.167644 0.062500 0.000000
0.231203 0.062500 0.000000
0.295659 0.062500 0.000000
0.360830 0.062500 0.000000
0.426599 0.062500 0.000000
0.492880 0.062500 0.000000
0.559612 0.062500 0.000000
0.626744 0.062500 0.000000
0.694239 0.062500 0.000000
0.762064 0.062500 0.000000
0.830192 0.062500 0.000000
0.898602 0.062500 0.000000
0.967273 0.062500 0.000000
1.000000 0.062500 0.000000
1.000000 0.062500 0.000000
0.044842 0.125000 0.000000
0.105294 0.125000 0.000000
0.167644 0.125000 0.000000
0.231203 0.125000 0.000000
0.295659 0.125000 0.000000
0.360830 0.125000 0.000000
0.426599 0.125000 0.000000
0.492880 0.125000 0.000000
0.559612 0.125000 0.000000
0.626744 0.125000 0.000000
0.694239 0.125000 0.000000
0.762064 0.125000 0.000000
0.830192 0.125000 0.000000
0.898602 0.125000 0.000000
0.967273 0.125000 0.000000
1.000000 0.125000 0.000000
1.000000 0.125000 0.000000
0.044842 0.187500 0.000000
0.105294 0.187500 0.000000
0.167644 0.187500 0.000000
0.231203 0.187500 0.000000
0.295659 0.187500 0.000000
0.360830 0.187500 0.000000
0.426599 0.187500 0.000000
0.492880 0.187500 0.000000
0.559612 0.187500 0.000000
0.626744 0.187500 0.000000
0.694239 0.187500 0.000000
0.762064 0.187500 0.000000
0.830192 0.187500 0.000000
0.898602 0.187500 0.000000
0.967273 0.187500 0.000000
1.000000 0.187500 0.000000
1.000000 0.187500 0.000000
0.044842 0.250000 0.000000
0.105294 0.250000 0.000000
0.167644 0.250000 0.000000
0.231203 0.250000 0.000000
0.295659 0.250000 0.000000
0.360830 0.250000 0.000000
0.426599 0.250000 0.000000
0.492880 0.250000 0.000000
0.559612 0.250000 0.000000
0.626744 0.250000 0.000000
0.694239 0.250000 0.000000
0.762064 0.250000 0.000000
0.830192 0.250000 0.000000
0.898602 0.250000 0.000000
0.967273 0.250000 0.000000
1.000000 0.250000 0.000000
1.000000 0.250000 0.000000
0.044842 0.312500 0.000000
0.105294 0.312500 0.000000
0.167644 0.312500 0.000000
0.231203 0.312500 0.000000
0.295659 0.312500 0.000000
0.360830 0.312500 0.000000
0.426599 0.312500 0.000000
0.492880 0.312500 0.000000
0.559612 0.312500 0.000000
0.626744 0.312500 0.000000
0.694239 0.312500 0.000000
0.762064 0.312500 0.000000
0.830192 0.312500 0.000000
0.898602 0.312500 0.000000
0.967273 0.312500 0.000000
1.000000 0.312500 0.000000
1.000000 0.312500 0.000000
0.044842 0.375000 0.000000
0.105294 0.375000 0.000000
0.167644 0.375000 0.000000
0.231203 0.375000 0.000000
0.295659 0.375000 0.000000
0.360830 0.375000 0.000000
0.426599 0.375000 0.000000
0.492880 0.375000 0.000000
0.559612 0.375000 0.000000
0.626744 0.375000 0.000000
0.694239 0.375000 0.000000
0.762064 0.375000 0.000000
0.830192 0.375000 0.000000
0.898602 0.375000 0.000000
0.967273 0.375000 0.000000
1.000000 0.375000 0.000000
1.000000 0.375000 0.000000
0.044842 0.437500 0.000000
0.105294 0.437500 0.000000
0.167644 0.437500 0.000000
0.231203 0.437500 0.000000
0.295659 0.437500 0.000000
0.360830 0.437500 0.000000
0.426599 0.437500 0.000000
0.492880 0.437500 0.000000
0.559612 0.437500 0.000000
0.626744 0.437500 0.000000
0.694239 0.437500 0.000000
0.762064 0.437500 0.000000
0.830192 0.437500 0.000000
0.898602 0.437500 0.000000
0.967273 0.437500 0.000000
1.000000 0.437500 0.000000
1.000000 0.437500 0.000000
0.044842 0.500000 0.000000
0.105294 0.500000 0.000000
0.167644 0.500000 0.000000
0.231203 0.500000 0.000000
0.295659 0.500000 0.000000
0.360830 0.500000 0.000000
0.426599 0.500000 0.000000
0.492880 0.500000 0.000000
0.559612 0.500000 0.000000
0.626744 0.500000 0.000000
0.694239 0.500000 0.000000
0.762064 0.500000 0.000000
0.830192 0.500000 0.000000
0.898602 0.500000 0.000000
0.967273 0.500000 0.000000
1.000000 0.500000 0.000000
1.000000 0.500000 0.000000
0.044842 0.562500 0.000000
0.105294 0.562500 0.000000
0.167644 0.562500 0.000000
0.231203 0.562500 0.000000
0.295659 0.562500 0.000000
0.360830 0.562500 0.000000
0.426599 0.562500 0.000000
0.492880 0.562500 0.000000
0.559612 0.562500 0.000000
0.626744 0.562500 0.000000
0.694239 0.562500 0.000000
0.762064 0.562500 0.000000
0.830192 0.562500 0.000000
0.898602 0.562500 0.000000
0.967273 0.562500 0.000000
1.000000 0.562500 0.000000
1.000000 0.562500 0.000000
0.044842 0.625000 0.000000
0.105294 0.625000 0.000000
0.167644 0.625000 0.000000
0.231203 0.625000 0.000000
0.295659 0.625000 0.000000
0.360830 0.625000 0.000000
0.426599 0.625000 0.000000
0.492880 0.625000 0.000000
0.559612 0.625000 0.000000
0.626744 0.625000 0.000000
0.694239 0.625000 0.000000
0.762064 0.625000 0.000000
0.830192 0.625000 0.000000
0.898602 0.625000 0.000000
0.967273 0.625000 0.000000
1.000000 0.625000 0.000000
1.000000 0.625000 0.000000
0.044842 0.687500 0.000000
0.105294 0.687500 0.000000
0.167644 0.687500 0.000000
0.231203 0.687500 0.000000
0.295659 0.687500 0.000000
0.360830 0.687500 0.000000
0.426599 0.687500 0.000000
0.492880 0.687500 0.000000
0.559612 0.687500 0.000000
0.626744 0.687500 0.000000
0.694239 0.687500 0.000000
0.762064 0.687500 0.000000
0.830192 0.687500 0.000000
0.898602 0.687500 0.000000
0.967273 0.687500 0.000000
1.000000 0.687500 0.000000
1.000000 0.687500 0.000000
0.044842 0.750000 0.000000
0.105294 0.750000 0.000000
0.167644 0.750000 0.000000
0.231203 0.750000 0.000000
0.295659 0.750000 0.000000
0.360830 0.750000 0.000000
0.426599 0.750000 0.000000
0.492880 0.750000 0.000000
0.559612 0.750000 0.000000
0.626744 0.750000 0.000000
0.694239 0.750000 0.000000
0.762064 0.750000 0.000000
0.830192 0.750000 0.000000
0.898602 0.750000 0.000000
0.967273 0.750000 0.000000
1.000000 0.750000 0.000000
1.000000 0.750000 0.000000
0.044842 0.812500 0.000000
0.105294 0.812500 0.000000
0.167644 0.812500 0.000000
0.231203 0.812500 0.000000
0.295659 0.812500 0.000000
0.360830 0.812500 0.000000
0.426599 0.812500 0.000000
0.492880 0.812500 0.000000
0.559612 0.812500 0.000000
0.626744 0.812500 0.000000
0.694239 0.812500 0.000000
0.762064 0.812500 0.000000
0.830192 0.812500 0.000000
0.898602 0.812500 0.000000
0.967273 0.812500 0.000000
1.000000 0.812500 0.000000
1.000000 0.812500 0.000000
0.044842 0.875000 0.000000
0.105294 0.875000 0.000000
0.167644 0.875000 0.000000
0.231203 0.875000 0.000000
0.295659 0.875000 0.000000
0.360830 0.875000 0.000000
0.426599 0.875000 0.000000
0.492880 0.875000 0.000000
0.559612 0.875000 0.000000
0.626744 0.875000 0.000000
0.694239 0.875000 0.000000
0.762064 0.875000 0.000000
0.830192 0.875000 0.000000
0.898602 0.875000 0.000000
0.967273 0.875000 0.000000
1.000000 0.875000 0.000000
1.000000 0.875000 0.000000
0.044842 0.937500 0.000000
0.105294 0.937500 0.000000
0.167644 0.937500 0.000000
0.231203 0.937500 0.000000
0.295659 0.937500 0.000000
0.360830 0.937500 0.000000
0.426599 0.937500 0.000000
0.492880 0.937500 0.000000
0.559612 0.937500 0.000000
0.626744 0.937500 0.000000
0.694239 0.937500 0.000000
0.762064 0.937500 0.000000
0.830192 0.937500 0.000000
0.898602 0.937500 0.000000
0.967273 0.937500 0.000000
1.000000 0.937500 0.000000
1.000000 0.937500 0.000000
0.044842 1.000000 0.000000
0.105294 1.000000 0.000000
0.167644 1.000000 0.000000
0.231203 1.000000 0.000000
0.295659 1.000000 0.000000
0.360830 1.000000 0.000000
0.426599 1.000000 0.000000
0.492880 1.000000 0.000000
0.559612 1.000000 0.000000
0.626744 1.000000 0.000000
0.694239 1.000000 0.000000
0.762064 1.000000 0.000000
0.830192 1.000000 0.000000
0.898602 1.000000 0.000000
0.967273 1.000000 0.000000
1.000000 1.000000 0.000000
1.000000 1.000000 0.000000
0.044842 0.000000 0.014630
0.105294 0.000000 0.014630
0.167644 0.000000 0.014630
0.231203 0.000000 0.014630
0.295659 0.000000 0.014630
0.360830 0.000000 0.014630
0.426599 0.000000 0.014630
0.492880 0.000000 0.014630
0.559612 0.000000 0.014630
0.626744 0.000000 0.014630
0.694239 0.000000 0.014630
0.762064 0.000000 0.014630
0.830192 0.000000 0.014630
0.898602 0.000000 0.014630
0.967273 0.000000 0.014630
1.000000 0.000000 0.014630
1.000000 0.000000 0.014630
0.044842 0.062500 0.014630
0.105294 0.062500 0.014630
0.167644 0.062500 0.014630
0.231203 0.062500 0.014630
0.295659 0.062500 0.014630
0.360830 0.062500 0.014630
0.426599 0.062500 0.014630
0.492880 0.062500 0.014630
0.559612 0.062500 0.014630
0.626744 0.062500 0.014630
0.694239 0.062500 0.014630
0.762064 0.062500 0.014630
0.830192 0.062500 0.014630
0.898602 0.062500 0.014630
0.967273 0.062500 0.014630
1.000000 0.062500 0.014630
1.000000 0.062500 0.014630
0.044842 0.125000 0.014630
0.105294 0.125000 0.014630
0.167644 0.125000 0.014630
0.231203 0.125000 0.014630
0.295659 0.125000 0.014630
0.360830 0.125000 0.014630
0.426599 0.125000 0.014630
0.492880 0.125000 0.014630
0.559612 0.125000 0.014630
0.626744 0.125000 0.014630
0.694239 0.125000 0.014630
0.762064 0.125000 0.014630
0.830192 0.125000 0.014630
0.898602 0.125000 0.014630
0.967273 0.125000 0.014630
1.000000 0.125000 0.014630
1.000000 0.125000 0.014630
0.044842 0.187500 0.014630
0.105294 0.187500 0.014630
0.167644 0.187500 0.014630
0.231203 0.187500 0.014630
0.295659 0.187500 0.014630
0.360830 0.187500 0.014630
0.426599 0.187500 0.014630
0.492880 0.187500 0.014630
0.559612 0.187500 0.014630
0.626744 0.187500 0.014630
0.694239 0.187500 0.014630
0.762064 0.187500 0.014630
0.830192 0.187500 0.014630
0.898602 0.187500 0.014630
0.967273 0.187500 0.014630
1.000000 0.187500 0.014630
1.000000 0.187500 0.014630
0.044842 0.250000 0.014630
0.105294 0.250000 0.014630
0.167644 0.250000 0.014630
0.231203 0.250000 0.014630
0.295659 0.250000 0.014630
0.360830 0.250000 0.014630
0.426599 0.250000 0.014630
0.492880 0.250000 0.014630
0.559612 0.250000 0.014630
0.626744 0.250000 0.014630
0.694239 0.250000 0.014630
0.762064 0.250000 0.014630
0.830192 0.250000 0.014630
0.898602 0.250000 0.014630
0.967273 0.250000 0.014630
1.000000 0.250000 0.014630
1.000000 0.250000 0.014630
0.044842 0.312500 0.014630
0.105294 0.312500 0.014630
0.167644 0.312500 0.014630
0.231203 0.312500 0.014630
0.295659 0.312500 0.014630
0.360830 0.312500 0.014630
0.426599 0.312500 0.014630
0.492880 0.312500 0.014630
0.559612 0.312500 0.014630
0.626744 0.312500 0.014630
0.694239 0.312500 0.014630
0.762064 0.312500 0.014630
0.830192 0.312500 0.014630
0.898602 0.312500 0.014630
0.967273 0.312500 0.014630
1.000000 0.312500 0.014630
1.000000 0.312500 0.014630
0.044842 0.375000 0.014630
0.105294 0.375000 0.014630
0.167644 0.375000 0.014630
0.231203 0.375000 0.014630
0.295659 0.375000 0.014630
0.360830 0.375000 0.014630
0.426599 0.375000 0.014630
0.492880 0.375000 0.014630
0.559612 0.375000 0.014630
0.626744 0.375000 0.014630
0.694239 0.375000 0.014630
0.762064 0.375000 0.014630
0.830192 0.375000 0.014630
0.898602 0.375000 0.014630
0.967273 0.375000 0.014630
1.000000 0.375000 0.014630
1.000000 0.375000 0.014630
0.044842 0.437500 0.014630
0.105294 0.437500 0.014630
0.167644 0.437500 0.014630
0.231203 0.437500 0.014630
0.295659 0.437500 0.014630
0.360830 0.437500 0.014630
0.426599 0.437500 0.014630
0.492880 0.437500 0.014630
0.559612 0.437500 0.014630
0.626744 0.437500 0.014630
0.694239 0.437500 0.014630
0.762064 0.437500 0.014630
0.830192 0.437500 0.014630
0.898602 0.437500 0.014630
0.967273 0.437500 0.014630
1.000000 0.437500 0.014630
1.000000 0.437500 0.014630
0.044842 0.500000 0.014630
0.105294 0.500000 0.014630
0.167644 0.500000 0.014630
0.231203 0.500000 0.014630
0.295659 0.500000 0.014630
0.360830 0.500000 0.014630
0.426599 0.500000 0.014630
0.492880 0.500000 0.014630
0.559612 0.500000 0.014630
0.626744 0.500000 0.014630
0.694239 0.500000 0.014630
0.762064 0.500000 0.014630
0.830192 0.500000 0.014630
0.898602 0.500000 0.014630
0.967273 0.500000 0.014630
1.000000 0.500000 0.014630
1.000000 0.500000 0.014630
0.044842 0.562500 0.014630
0.105294 0.562500 0.014630
0.167644 0.562500 0.014630
0.231203 0.562500 0.014630
0.295659 0.562500 0.014630
0.360830 0.562500 0.014630
0.426599 0.562500 0.014630
0.492880 0.562500 0.014630
0.559612 0.562500 0.014630
0.626744 0.562500 0.014630
0.694239 0.562500 0.014630
0.762064 0.562500 0.014630
0.830192 0.562500 0.014630
0.898602 0.562500 0.014630
0.967273 0.562500 0.014630
1.000000 0.562500 0.014630
1.000000 0.562500 0.014630
0.044842 0.625000 0.014630
0.105294 0.625000 0.014630
0.167644 0.625000 0.014630
0.231203 0.625000 0.014630
0.295659 0.625000 0.014630
0.360830 0.625000 0.014630
0.426599 0.625000 0.014630
0.492880 0.625000 0.014630
0.559612 0.625000 0.014630
0.626744 0.625000 0.014630
0.694239 0.625000 0.014630
0.762064 0.625000 0.014630
0.830192 0.625000 0.014630
0.898602 0.625000 0.014630
0.967273 0.625000 0.014630
1.000000 0.625000 0.014630
1.000000 0.625000 0.014630
0.044842 0.687500 0.014630
0.105294 0.687500 0.014630
0.167644 0.687500 0.014630
0.231203 0.687500 0.014630
0.295659 0.687500 0.014630
0.360830 0.687500 0.014630
0.426599 0.687500 0.014630
0.492880 0.687500 0.014630
0.559612 0.687500 0.014630
0.626744 0.687500 0.014630
0.694239 0.687500 0.014630
0.762064 0.687500 0.014630
0.830192 0.687500 0.014630
0.898602 0.687500 0.014630
0.967273 0.687500 0.014630
1.000000 0.687500 0.014630
1.000000 0.687500 0.014630
0.044842 0.750000 0.014630
0.105294 0.750000 0.014630
0.167644 0.750000 0.014630
0.231203 0.750000 0.014630
0.295659 0.750000 0.014630
0.360830 0.750000 0.014630
0.426599 0.750000 0.014630
0.492880 0.750000 0.014630
0.559612 0.750000 0.014630
0.626744 0.750000 0.014630
0.694239 0.750000 0.014630
0.762064 0.750000 0.014630
0.830192 0.750000 0.014630
0.898602 0.750000 0.014630
0.967273 0.750000 0.014630
1.000000 0.750000 0.014630
1.000000 0.750000 0.014630
0.044842 0.812500 0.014630
0.105294 0.812500 0.014630
0.167644 0.812500 0.014630
0.231203 0.812500 0.014630
0.295659 0.812500 0.014630
0.360830 0.812500 0.014630
0.426599 0.812500 0.014630
0.492880 0.812500 0.014630
0.559612 0.812500 0.014630
0.626744 0.812500 0.014630
0.694239 0.812500 0.014630
0.762064 0.812500 0.014630
0.830192 0.812500 0.014630
0.898602 0.812500 0.014630
0.967273 0.812500 0.014630
1.000000 0.812500 0.014630
1.000000 0.812500 0.014630
0.044842 0.875000 0.014630
0.105294 0.875000 0.014630
0.167644 0.875000 0.014630
0.231203 0.875000 0.014630
0.295659 0.875000 0.014630
0.360830 0.875000 0.014630
0.426599 0.875000 0.014630
0.492880 0.875000 0.014630
0.559612 0.875000 0.014630
0.626744 0.875000 0.014630
0.694239 0.875000 0.014630
0.762064 0.875000 0.014630
0.830192 0.875000 0.014630
0.898602 0.875000 0.014630
0.967273 0.875000 0.014630
1.000000 0.875000 0.014630
1.000000 0.875000 0.014630
0.044842 0.937500 0.014630
0.105294 0.937500 0.014630
0.167644 0.937500 0.014630
0.231203 0.937500 0.014630
0.295659 0.937500 0.014630
0.360830 0.937500 0.014630
0.426599 0.937500 0.014630
0.492880 0.937500 0.014630
0.559612 0.937500 0.014630
0.626744 0.937500 0.014630
0.694239 0.937500 0.014630
0.762064 0.937500 0.014630
0.830192 0.937500 0.014630
0.898602 0.937500 0.014630
0.967273 0.937500 0.014630
1.000000 0.937500 0.014630
1.000000 0.937500 0.014630
0.044842 1.000000 0.014630
0.105294 1.000000 0.014630
0.167644 1.000000 0.014630
0.231203 1.000000 0.014630
0.295659 1.000000 0.014630
0.360830 1.000000 0.014630
0.426599 1.000000 0.014630
0.492880 1.000000 0.014630
0.559612 1.000000 0.014630
0.626744 1.000000 0.014630
0.694239 1.000000 0.014630
0.762064 1.000000 0.014630
0.830192 1.000000 0.014630
0.898602 1.000000 0.014630
0.967273 1.000000 0.014630
1.000000 1.000000 0.014630
1.000000 1.000000 0.014630
0.044842 0.000000 0.080603
0.105294 0.000000 0.080603
0.167644 0.000000 0.080603
0.231203 0.000000 0.080603
0.295659 0.000000 0.080603
0.360830 0.000000 0.080603
0.426599 0.000000 0.080603
0.492880 0.000000 0.080603
0.559612 0.000000 0.080603
0.626744 0.000000 0.080603
0.694239 0.000000 0.080603
0.762064 0.000000 0.080603
0.830192 0.000000 0.080603
0.898602 0.000000 0.080603
0.967273 0.000000 0.080603
1.000000 0.000000 0.080603
1.000000 0.000000 0.080603
0.044842 0.062500 0.080603
0.105294 0.062500 0.080603
0.167644 0.062500 0.080603
0.231203 0.062500 0.080603
0.295659 0.062500 0.080603
0.360830 0.062500 0.080603
0.426599 0.062500 0.080603
0.492880 0.062500 0.080603
0.559612 0.062500 0.080603
0.626744 0.062500 0.080603
0.694239 0.062500 0.080603
0.762064 0.062500 0.080603
0.830192 0.062500 0.080603
0.898602 0.062500 0.080603
0.967273 0.062500 0.080603
1.000000 0.062500 0.080603
1.000000 0.062500 0.080603
0.044842 0.125000 0.080603
0.105294 0.125000 0.080603
0.167644 0.125000 0.080603
0.231203 0.125000 0.080603
0.295659 0.125000 0.080603
0.360830 0.125000 0.080603
0.426599 0.125000 0.080603
0.492880 0.125000 0.080603
0.559612 0.125000 0.080603
0.626744 0.125000 0.080603
0.694239 0.125000 0.080603
0.762064 0.125000 0.080603
0.830192 0.125000 0.080603
0.898602 0.125000 0.080603
0.967273 0.125000 0.080603
1.000000 0.125000 0.080603
1.000000 0.125000 0.080603
0.044842 0.187500 0.080603
0.105294 0.187500 0.080603
0.167644 0.187500 0.080603
0.231203 0.187500 0.080603
0.295659 0.187500 0.080603
0.360830 0.187500 0.080603
0.426599 0.187500 0.080603
0.492880 0.187500 0.080603
0.559612 0.187500 0.080603
0.626744 0.187500 0.080603
0.694239 0.187500 0.080603
0.762064 0.187500 0.080603
0.830192 0.187500 0.080603
0.898602 0.187500 0.080603
0.967273 0.187500 0.080603
1.000000 0.187500 0.080603
1.000000 0.187500 0.080603
0.044842 0.250000 0.080603
0.105294 0.250000 0.080603
0.167644 0.250000 0.080603
0.231203 0.250000 0.080603
0.295659 0.250000 0.080603
0.360830 0.250000 0.080603
0.426599 0.250000 0.080603
0.492880 0.250000 0.080603
0.559612 0.250000 0.080603
0.626744 0.250000 0.080603
0.694239 0.250000 0.080603
0.762064 0.250000 0.080603
0.830192 0.250000 0.080603
0.898602 0.250000 0.080603
0.967273 0.250000 0.080603
1.000000 0.250000 0.080603
1.000000 0.250000 0.080603
0.044842 0.312500 0.080603
0.105294 0.312500 0.080603
0.167644 0.312500 0.080603
0.231203 0.312500 0.080603
0.295659 0.312500 0.080603
0.360830 0.312500 0.080603
0.426599 0.312500 0.080603
0.492880 0.312500 0.080603
0.559612 0.312500 0.080603
0.626744 0.312500 0.080603
0.694239 0.312500 0.080603
0.762064 0.312500 0.080603
0.830192 0.312500 0.080603
0.898602 0.312500 0.080603
0.967273 0.312500 0.080603
1.000000 0.312500 0.080603
1.000000 0.312500 0.080603
0.044842 0.375000 0.080603
0.105294 0.375000 0.080603
0.167644 0.375000 0.080603
0.231203 0.375000 0.080603
0.295659 0.375000 0.080603
0.360830 0.375000 0.080603
0.426599 0.375000 0.080603
0.492880 0.375000 0.080603
0.559612 0.375000 0.080603
0.626744 0.375000 0.080603
0.694239 0.375000 0.080603
0.762064 0.375000 0.080603
0.830192 0.375000 0.080603
0.898602 0.375000 0.080603
0.967273 0.375000 0.080603
1.000000 0.375000 0.080603
1.000000 0.375000 0.080603
0.044842 0.437500 0.080603
0.105294 0.437500 0.080603
0.167644 0.437500 0.080603
0.231203 0.437500 0.080603
0.295659 0.437500 0.080603
0.360830 0.437500 0.080603
0.426599 0.437500 0.080603
0.492880 0.437500 0.080603
0.559612 0.437500 0.080603
0.626744 0.437500 0.080603
0.694239 0.437500 0.080603
0.762064 0.437500 0.080603
0.830192 0.437500 0.080603
0.898602 0.437500 0.080603
0.967273 0.437500 0.080603
1.000000 0.437500 0.080603
1.000000 0.437500 0.080603
0.044842 0.500000 0.080603
0.105294 0.500000 0.080603
0.167644 0.500000 0.080603
0.231203 0.500000 0.080603
0.295659 0.500000 0.080603
0.360830 0.500000 0.080603
0.426599 0.500000 0.080603
0.492880 0.500000 0.080603
0.559612 0.500000 0.080603
0.626744 0.500000 0.080603
0.694239 0.500000 0.080603
0.762064 0.500000 0.080603
0.830192 0.500000 0.080603
0.898602 0.500000 0.080603
0.967273 0.500000 0.080603
1.000000 0.500000 0.080603
1.000000 0.500000 0.080603
0.044842 0.562500 0.080603
0.105294 0.562500 0.080603
0.167644 0.562500 0.080603
0.231203 0.562500 0.080603
0.295659 0.562500 0.080603
0.360830 0.562500 0.080603
0.426599 0.562500 0.080603
0.492880 0.562500 0.080603
0.559612 0.562500 0.080603
0.626744 0.562500 0.080603
0.694239 0.562500 0.080603
0.762064 0.562500 0.080603
0.830192 0.562500 0.080603
0.898602 0.562500 0.080603
0.967273 0.562500 0.080603
1.000000 0.562500 0.080603
1.000000 0.562500 0.080603
0.044842 0.625000 0.080603
0.105294 0.625000 0.080603
0.167644 0.625000 0.080603
0.231203 0.625000 0.080603
0.295659 0.625000 0.080603
0.360830 0.625000 0.080603
0.426599 0.625000 0.080603
0.492880 0.625000 0.080603
0.559612 0.625000 0.080603
0.626744 0.625000 0.080603
0.694239 0.625000 0.080603
0.762064 0.625000 0.080603
0.830192 0.625000 0.080603
0.898602 0.625000 0.080603
0.967273 0.625000 0.080603
1.000000 0.625000 0.080603
1.000000 0.625000 0.080603
0.044842 0.687500 0.080603
0.105294 0.687500 0.080603
0.167644 0.687500 0.080603
0.231203 0.687500 0.080603
0.295659 0.687500 0.080603
0.360830 0.687500 0.080603
0.426599 0.687500 0.080603
0.492880 0.687500 0.080603
0.559612 0.687500 0.080603
0.626744 0.687500 0.080603
0.694239 0.687500 0.080603
0.762064 0.687500 0.080603
0.830192 0.687500 0.080603
0.898602 0.687500 0.080603
0.967273 0.687500 0.080603
1.000000 0.687500 0.080603
1.000000 0.687500 0.080603
0.044842 0.750000 0.080603
0.105294 0.750000 0.080603
0.167644 0.750000 0.080603
0.231203 0.750000 0.080603
0.295659 0.750000 0.080603
0.360830 0.750000 0.080603
0.426599 0.750000 0.080603
0.492880 0.750000 0.080603
0.559612 0.750000 0.080603
0.626744 0.750000 0.080603
0.694239 0.750000 0.080603
0.762064 0.750000 0.080603
0.830192 0.750000 0.080603
0.898602 0.750000 0.080603
0.967273 0.750000 0.080603
1.000000 0.750000 0.080603
1.000000 0.750000 0.080603
0.044842 0.812500 0.080603
0.105294 0.812500 0.080603
0.167644 0.812500 0.080603
0.231203 0.812500 0.080603
0.295659 0.812500 0.080603
0.360830 0.812500 0.080603
0.426599 0.812500 0.080603
0.492880 0.812500 0.080603
0.559612 0.812500 0.080603
0.626744 0.812500 0.080603
0.694239 0.812500 0.080603
0.762064 0.812500 0.080603
0.830192 0.812500 0.080603
0.898602 0.812500 0.080603
0.967273 0.812500 0.080603
1.000000 0.812500 0.080603
1.000000 0.812500 0.080603
0.044842 0.875000 0.080603
0.105294 0.875000 0.080603
0.167644 0.875000 0.080603
0.231203 0.875000 0.080603
0.295659 0.875000 0.080603
0.360830 0.875000 0.080603
0.426599 0.875000 0.080603
0.492880 0.875000 0.080603
0.559612 0.875000 0.080603
0.626744 0.875000 0.080603
0.694239 0.875000 0.080603
0.762064 0.875000 0.080603
0.830192 0.875000 0.080603
0.898602 0.875000 0.080603
0.967273 0.875000 0.080603
1.000000 0.875000 0.080603
1.000000 0.875000 0.080603
0.044842 0.937500 0.080603
0.105294 0.937500 0.080603
0.167644 0.937500 0.080603
0.231203 0.937500 0.080603
0.295659 0.937500 0.080603
0.360830 0.937500 0.080603
0.426599 0.937500 0.080603
0.492880 0.937500 0.080603
0.559612 0.937500 0.080603
0.626744 0.937500 0.080603
0.694239 0.937500 0.080603
0.762064 0.937500 0.080603
0.830192 0.937500 0.080603
0.898602 0.937500 0.080603
0.967273 0.937500 0.080603
1.000000 0.937500 0.080603
1.000000 0.937500 0.080603
0.044842 1.000000 0.080603
0.105294 1.000000 0.080603
0.167644 1.000000 0.080603
0.231203 1.000000 0.080603
0.295659 1.000000 0.080603
0.360830 1.000000 0.080603
0.426599 1.000000 0.080603
0.492880 1.000000 0.080603
0.559612 1.000000 0.080603
0.626744 1.000000 0.080603
0.694239 1.000000 0.080603
0.762064 1.000000 0.080603
0.830192 1.000000 0.080603
0.898602 1.000000 0.080603
0.967273 1.000000 0.080603
1.000000 1.000000 0.080603
1.000000 1.000000 0.080603
0.044842 0.000000 0.143569
0.105294 0.000000 0.143569
0.167644 0.000000 0.143569
0.231203 0.000000 0.143569
0.295659 0.000000 0.143569
0.360830 0.000000 0.143569
0.426599 0.000000 0.143569
0.492880 0.000000 0.143569
0.559612 0.000000 0.143569
0.626744 0.000000 0.143569
0.694239 0.000000 0.143569
0.762064 0.000000 0.143569
0.830192 0.000000 0.143569
0.898602 0.000000 0.143569
0.967273 0.000000 0.143569
1.000000 0.000000 0.143569
1.000000 0.000000 0.143569
0.044842 0.062500 0.143569
