app/src/main/assets/luts/disposable_camera.cube
# ApexStudio filter: disposable_camera
LUT_3D_SIZE 9
DOMAIN_MIN 0.0 0.0 0.0
DOMAIN_MAX 1.0 1.0 1.0
0.044842 0.000000 0.000000
0.167644 0.000000 0.000000
0.295659 0.000000 0.000000
0.426599 0.000000 0.000000
0.559612 0.000000 0.000000
0.694239 0.000000 0.000000
0.830192 0.000000 0.000000
0.967273 0.000000 0.000000
1.000000 0.000000 0.000000
0.044842 0.125000 0.000000
0.167644 0.125000 0.000000
0.295659 0.125000 0.000000
0.426599 0.125000 0.000000
0.559612 0.125000 0.000000
0.694239 0.125000 0.000000
0.830192 0.125000 0.000000
0.967273 0.125000 0.000000
1.000000 0.125000 0.000000
0.044842 0.250000 0.000000
0.167644 0.250000 0.000000
0.295659 0.250000 0.000000
0.426599 0.250000 0.000000
0.559612 0.250000 0.000000
0.694239 0.250000 0.000000
0.830192 0.250000 0.000000
0.967273 0.250000 0.000000
1.000000 0.250000 0.000000
0.044842 0.375000 0.000000
0.167644 0.375000 0.000000
0.295659 0.375000 0.000000
0.426599 0.375000 0.000000
0.559612 0.375000 0.000000
0.694239 0.375000 0.000000
0.830192 0.375000 0.000000
0.967273 0.375000 0.000000
1.000000 0.375000 0.000000
0.044842 0.500000 0.000000
0.167644 0.500000 0.000000
0.295659 0.500000 0.000000
0.426599 0.500000 0.000000
0.559612 0.500000 0.000000
0.694239 0.500000 0.000000
0.830192 0.500000 0.000000
0.967273 0.500000 0.000000
1.000000 0.500000 0.000000
0.044842 0.625000 0.000000
0.167644 0.625000 0.000000
0.295659 0.625000 0.000000
0.426599 0.625000 0.000000
0.559612 0.625000 0.000000
0.694239 0.625000 0.000000
0.830192 0.625000 0.000000
0.967273 0.625000 0.000000
1.000000 0.625000 0.000000
0.044842 0.750000 0.000000
0.167644 0.750000 0.000000
0.295659 0.750000 0.000000
0.426599 0.750000 0.000000
0.559612 0.750000 0.000000
0.694239 0.750000 0.000000
0.830192 0.750000 0.000000
0.967273 0.750000 0.000000
1.000000 0.750000 0.000000
0.044842 0.875000 0.000000
0.167644 0.875000 0.000000
0.295659 0.875000 0.000000
0.426599 0.875000 0.000000
0.559612 0.875000 0.000000
0.694239 0.875000 0.000000
0.830192 0.875000 0.000000
0.967273 0.875000 0.000000
1.000000 0.875000 0.000000
0.044842 1.000000 0.000000
0.167644 1.000000 0.000000
0.295659 1.000000 0.000000
0.426599 1.000000 0.000000
0.559612 1.000000 0.000000
0.694239 1.000000 0.000000
0.830192 1.000000 0.000000
0.967273 1.000000 0.000000
1.000000 1.000000 0.000000
0.044842 0.000000 0.080603
0.167644 0.000000 0.080603
0.295659 0.000000 0.080603
0.426599 0.000000 0.080603
0.559612 0.000000 0.080603
0.694239 0.000000 0.080603
0.830192 0.000000 0.080603
0.967273 0.000000 0.080603
1.000000 0.000000 0.080603
0.044842 0.125000 0.080603
0.167644 0.125000 0.080603
0.295659 0.125000 0.080603
0.426599 0.125000 0.080603
0.559612 0.125000 0.080603
0.694239 0.125000 0.080603
0.830192 0.125000 0.080603
0.967273 0.125000 0.080603
1.000000 0.125000 0.080603
0.044842 0.250000 0.080603
0.167644 0.250000 0.080603
0.295659 0.250000 0.080603
0.426599 0.250000 0.080603
0.559612 0.250000 0.080603
0.694239 0.250000 0.080603
0.830192 0.250000 0.080603
0.967273 0.250000 0.080603
1.000000 0.250000 0.080603
0.044842 0.375000 0.080603
0.167644 0.375000 0.080603
0.295659 0.375000 0.080603
0.426599 0.375000 0.080603
0.559612 0.375000 0.080603
0.694239 0.375000 0.080603
0.830192 0.375000 0.080603
0.967273 0.375000 0.080603
1.000000 0.375000 0.080603
0.044842 0.500000 0.080603
0.167644 0.500000 0.080603
0.295659 0.500000 0.080603
0.426599 0.500000 0.080603
0.559612 0.500000 0.080603
0.694239 0.500000 0.080603
0.830192 0.500000 0.080603
0.967273 0.500000 0.080603
1.000000 0.500000 0.080603
0.044842 0.625000 0.080603
0.167644 0.625000 0.080603
0.295659 0.625000 0.080603
0.426599 0.625000 0.080603
0.559612 0.625000 0.080603
0.694239 0.625000 0.080603
0.830192 0.625000 0.080603
0.967273 0.625000 0.080603
1.000000 0.625000 0.080603
0.044842 0.750000 0.080603
0.167644 0.750000 0.080603
0.295659 0.750000 0.080603
0.426599 0.750000 0.080603
0.559612 0.750000 0.080603
0.694239 0.750000 0.080603
0.830192 0.750000 0.080603
0.967273 0.750000 0.080603
1.000000 0.750000 0.080603
0.044842 0.875000 0.080603
0.167644 0.875000 0.080603
0.295659 0.875000 0.080603
0.426599 0.875000 0.080603
0.559612 0.875000 0.080603
0.694239 0.875000 0.080603
0.830192 0.875000 0.080603
0.967273 0.875000 0.080603
1.000000 0.875000 0.080603
0.044842 1.000000 0.080603
0.167644 1.000000 0.080603
0.295659 1.000000 0.080603
0.426599 1.000000 0.080603
0.559612 1.000000 0.080603
0.694239 1.000000 0.080603
0.830192 1.000000 0.080603
0.967273 1.000000 0.080603
1.000000 1.000000 0.080603
0.044842 0.000000 0.205134
0.167644 0.000000 0.205134
0.295659 0.000000 0.205134
0.426599 0.000000 0.205134
0.559612 0.000000 0.205134
0.694239 0.000000 0.205134
0.830192 0.000000 0.205134
0.967273 0.000000 0.205134
1.000000 0.000000 0.205134
0.044842 0.125000 0.205134
0.167644 0.125000 0.205134
0.295659 0.125000 0.205134
0.426599 0.125000 0.205134
0.559612 0.125000 0.205134
0.694239 0.125000 0.205134
0.830192 0.125000 0.205134
0.967273 0.125000 0.205134
1.000000 0.125000 0.205134
0.044842 0.250000 0.205134
0.167644 0.250000 0.205134
0.295659 0.250000 0.205134
0.426599 0.250000 0.205134
0.559612 0.250000 0.205134
0.694239 0.250000 0.205134
0.830192 0.250000 0.205134
0.967273 0.250000 0.205134
1.000000 0.250000 0.205134
0.044842 0.375000 0.205134
0.167644 0.375000 0.205134
0.295659 0.375000 0.205134
0.426599 0.375000 0.205134
0.559612 0.375000 0.205134
0.694239 0.375000 0.205134
0.830192 0.375000 0.205134
0.967273 0.375000 0.205134
1.000000 0.375000 0.205134
0.044842 0.500000 0.205134
0.167644 0.500000 0.205134
0.295659 0.500000 0.205134
0.426599 0.500000 0.205134
0.559612 0.500000 0.205134
0.694239 0.500000 0.205134
0.830192 0.500000 0.205134
0.967273 0.500000 0.205134
1.000000 0.500000 0.205134
0.044842 0.625000 0.205134
0.167644 0.625000 0.205134
0.295659 0.625000 0.205134
0.426599 0.625000 0.205134
0.559612 0.625000 0.205134
0.694239 0.625000 0.205134
0.830192 0.625000 0.205134
0.967273 0.625000 0.205134
1.000000 0.625000 0.205134
0.044842 0.750000 0.205134
0.167644 0.750000 0.205134
0.295659 0.750000 0.205134
0.426599 0.750000 0.205134
0.559612 0.750000 0.205134
0.694239 0.750000 0.205134
0.830192 0.750000 0.205134
0.967273 0.750000 0.205134
1.000000 0.750000 0.205134
0.044842 0.875000 0.205134
0.167644 0.875000 0.205134
0.295659 0.875000 0.205134
0.426599 0.875000 0.205134
0.559612 0.875000 0.205134
0.694239 0.875000 0.205134
0.830192 0.875000 0.205134
0.967273 0.875000 0.205134
1.000000 0.875000 0.205134
0.044842 1.000000 0.205134
0.167644 1.000000 0.205134
0.295659 1.000000 0.205134
0.426599 1.000000 0.205134
0.559612 1.000000 0.205134
0.694239 1.000000 0.205134
0.830192 1.000000 0.205134
0.967273 1.000000 0.205134
1.000000 1.000000 0.205134
0.044842 0.000000 0.325725
0.167644 0.000000 0.325725
0.295659 0.000000 0.325725
0.426599 0.000000 0.325725
0.559612 0.000000 0.325725
0.694239 0.000000 0.325725
0.830192 0.000000 0.325725
0.967273 0.000000 0.325725
1.000000 0.000000 0.325725
0.044842 0.125000 0.325725
0.167644 0.125000 0.325725
0.295659 0.125000 0.325725
0.426599 0.125000 0.325725
0.559612 0.125000 0.325725
0.694239 0.125000 0.325725
0.830192 0.125000 0.325725
0.967273 0.125000 0.325725
1.000000 0.125000 0.325725
0.044842 0.250000 0.325725
0.167644 0.250000 0.325725
0.295659 0.250000 0.325725
0.426599 0.250000 0.325725
0.559612 0.250000 0.325725
0.694239 0.250000 0.325725
0.830192 0.250000 0.325725
0.967273 0.250000 0.325725
1.000000 0.250000 0.325725
0.044842 0.375000 0.325725
0.167644 0.375000 0.325725
0.295659 0.375000 0.325725
0.426599 0.375000 0.325725
0.559612 0.375000 0.325725
0.694239 0.375000 0.325725
0.830192 0.375000 0.325725
0.967273 0.375000 0.325725
1.000000 0.375000 0.325725
0.044842 0.500000 0.325725
0.167644 0.500000 0.325725
0.295659 0.500000 0.325725
0.426599 0.500000 0.325725
0.559612 0.500000 0.325725
0.694239 0.500000 0.325725
0.830192 0.500000 0.325725
0.967273 0.500000 0.325725
1.000000 0.500000 0.325725
0.044842 0.625000 0.325725
0.167644 0.625000 0.325725
0.295659 0.625000 0.325725
0.426599 0.625000 0.325725
0.559612 0.625000 0.325725
0.694239 0.625000 0.325725
0.830192 0.625000 0.325725
0.967273 0.625000 0.325725
1.000000 0.625000 0.325725
0.044842 0.750000 0.325725
0.167644 0.750000 0.325725
0.295659 0.750000 0.325725
0.426599 0.750000 0.325725
0.559612 0.750000 0.325725
0.694239 0.750000 0.325725
0.830192 0.750000 0.325725
0.967273 0.750000 0.325725
1.000000 0.750000 0.325725
0.044842 0.875000 0.325725
0.167644 0.875000 0.325725
0.295659 0.875000 0.325725
0.426599 0.875000 0.325725
0.559612 0.875000 0.325725
0.694239 0.875000 0.325725
0.830192 0.875000 0.325725
0.967273 0.875000 0.325725
1.000000 0.875000 0.325725
0.044842 1.000000 0.325725
0.167644 1.000000 0.325725
0.295659 1.000000 0.325725
0.426599 1.000000 0.325725
0.559612 1.000000 0.325725
0.694239 1.000000 0.325725
0.830192 1.000000 0.325725
0.967273 1.000000 0.325725
1.000000 1.000000 0.325725
0.044842 0.000000 0.444068
0.167644 0.000000 0.444068
0.295659 0.000000 0.444068
0.426599 0.000000 0.444068
0.559612 0.000000 0.444068
0.694239 0.000000 0.444068
0.830192 0.000000 0.444068
0.967273 0.000000 0.444068
1.000000 0.000000 0.444068
0.044842 0.125000 0.444068
0.167644 0.125000 0.444068
0.295659 0.125000 0.444068
0.426599 0.125000 0.444068
0.559612 0.125000 0.444068
0.694239 0.125000 0.444068
0.830192 0.125000 0.444068
0.967273 0.125000 0.444068
1.000000 0.125000 0.444068
0.044842 0.250000 0.444068
0.167644 0.250000 0.444068
0.295659 0.250000 0.444068
0.426599 0.250000 0.444068
0.559612 0.250000 0.444068
0.694239 0.250000 0.444068
0.830192 0.250000 0.444068
0.967273 0.250000 0.444068
1.000000 0.250000 0.444068
0.044842 0.375000 0.444068
0.167644 0.375000 0.444068
0.295659 0.375000 0.444068
0.426599 0.375000 0.444068
0.559612 0.375000 0.444068
0.694239 0.375000 0.444068
0.830192 0.375000 0.444068
0.967273 0.375000 0.444068
1.000000 0.375000 0.444068
0.044842 0.500000 0.444068
0.167644 0.500000 0.444068
0.295659 0.500000 0.444068
0.426599 0.500000 0.444068
0.559612 0.500000 0.444068
0.694239 0.500000 0.444068
0.830192 0.500000 0.444068
0.967273 0.500000 0.444068
1.000000 0.500000 0.444068
0.044842 0.625000 0.444068
0.167644 0.625000 0.444068
0.295659 0.625000 0.444068
0.426599 0.625000 0.444068
0.559612 0.625000 0.444068
0.694239 0.625000 0.444068
0.830192 0.625000 0.444068
0.967273 0.625000 0.444068
1.000000 0.625000 0.444068
0.044842 0.750000 0.444068
0.167644 0.750000 0.444068
0.295659 0.750000 0.444068
0.426599 0.750000 0.444068
0.559612 0.750000 0.444068
0.694239 0.750000 0.444068
0.830192 0.750000 0.444068
0.967273 0.750000 0.444068
1.000000 0.750000 0.444068
0.044842 0.875000 0.444068
0.167644 0.875000 0.444068
0.295659 0.875000 0.444068
0.426599 0.875000 0.444068
0.559612 0.875000 0.444068
0.694239 0.875000 0.444068
0.830192 0.875000 0.444068
0.967273 0.875000 0.444068
1.000000 0.875000 0.444068
0.044842 1.000000 0.444068
0.167644 1.000000 0.444068
0.295659 1.000000 0.444068
0.426599 1.000000 0.444068
0.559612 1.000000 0.444068
0.694239 1.000000 0.444068
0.830192 1.000000 0.444068
0.967273 1.000000 0.444068
1.000000 1.000000 0.444068
0.044842 0.000000 0.560836
0.167644 0.000000 0.560836
0.295659 0.000000 0.560836
0.426599 0.000000 0.560836
0.559612 0.000000 0.560836
0.694239 0.000000 0.560836
0.830192 0.000000 0.560836
0.967273 0.000000 0.560836
1.000000 0.000000 0.560836
0.044842 0.125000 0.560836
0.167644 0.125000 0.560836
0.295659 0.125000 0.560836
0.426599 0.125000 0.560836
0.559612 0.125000 0.560836
0.694239 0.125000 0.560836
0.830192 0.125000 0.560836
0.967273 0.125000 0.560836
1.000000 0.125000 0.560836
0.044842 0.250000 0.560836
0.167644 0.250000 0.560836
0.295659 0.250000 0.560836
0.426599 0.250000 0.560836
0.559612 0.250000 0.560836
0.694239 0.250000 0.560836
0.830192 0.250000 0.560836
0.967273 0.250000 0.560836
1.000000 0.250000 0.560836
0.044842 0.375000 0.560836
0.167644 0.375000 0.560836
0.295659 0.375000 0.560836
0.426599 0.375000 0.560836
0.559612 0.375000 0.560836
0.694239 0.375000 0.560836
0.830192 0.375000 0.560836
0.967273 0.375000 0.560836
1.000000 0.375000 0.560836
0.044842 0.500000 0.560836
0.167644 0.500000 0.560836
0.295659 0.500000 0.560836
0.426599 0.500000 0.560836
0.559612 0.500000 0.560836
0.694239 0.500000 0.560836
0.830192 0.500000 0.560836
0.967273 0.500000 0.560836
1.000000 0.500000 0.560836
0.044842 0.625000 0.560836
0.167644 0.625000 0.560836
0.295659 0.625000 0.560836
0.426599 0.625000 0.560836
0.559612 0.625000 0.560836
0.694239 0.625000 0.560836
0.830192 0.625000 0.560836
0.967273 0.625000 0.560836
1.000000 0.625000 0.560836
0.044842 0.750000 0.560836
0.167644 0.750000 0.560836
0.295659 0.750000 0.560836
0.426599 0.750000 0.560836
0.559612 0.750000 0.560836
0.694239 0.750000 0.560836
0.830192 0.750000 0.560836
0.967273 0.750000 0.560836
1.000000 0.750000 0.560836
0.044842 0.875000 0.560836
0.167644 0.875000 0.560836
0.295659 0.875000 0.560836
0.426599 0.875000 0.560836
0.559612 0.875000 0.560836
0.694239 0.875000 0.560836
0.830192 0.875000 0.560836
0.967273 0.875000 0.560836
1.000000 0.875000 0.560836
0.044842 1.000000 0.560836
0.167644 1.000000 0.560836
0.295659 1.000000 0.560836
0.426599 1.000000 0.560836
0.559612 1.000000 0.560836
0.694239 1.000000 0.560836
0.830192 1.000000 0.560836
0.967273 1.000000 0.560836
1.000000 1.000000 0.560836
0.044842 0.000000 0.676391
0.167644 0.000000 0.676391
0.295659 0.000000 0.676391
0.426599 0.000000 0.676391
0.559612 0.000000 0.676391
0.694239 0.000000 0.676391
0.830192 0.000000 0.676391
0.967273 0.000000 0.676391
1.000000 0.000000 0.676391
0.044842 0.125000 0.676391
0.167644 0.125000 0.676391
0.295659 0.125000 0.676391
0.426599 0.125000 0.676391
0.559612 0.125000 0.676391
0.694239 0.125000 0.676391
0.830192 0.125000 0.676391
0.967273 0.125000 0.676391
1.000000 0.125000 0.676391
0.044842 0.250000 0.676391
0.167644 0.250000 0.676391
0.295659 0.250000 0.676391
0.426599 0.250000 0.676391
0.559612 0.250000 0.676391
0.694239 0.250000 0.676391
0.830192 0.250000 0.676391
0.967273 0.250000 0.676391
1.000000 0.250000 0.676391
0.044842 0.375000 0.676391
0.167644 0.375000 0.676391
0.295659 0.375000 0.676391
0.426599 0.375000 0.676391
0.559612 0.375000 0.676391
0.694239 0.375000 0.676391
0.830192 0.375000 0.676391
0.967273 0.375000 0.676391
1.000000 0.375000 0.676391
0.044842 0.500000 0.676391
0.167644 0.500000 0.676391
0.295659 0.500000 0.676391
0.426599 0.500000 0.676391
0.559612 0.500000 0.676391
0.694239 0.500000 0.676391
0.830192 0.500000 0.676391
0.967273 0.500000 0.676391
1.000000 0.500000 0.676391
0.044842 0.625000 0.676391
0.167644 0.625000 0.676391
0.295659 0.625000 0.676391
0.426599 0.625000 0.676391
0.559612 0.625000 0.676391
0.694239 0.625000 0.676391
0.830192 0.625000 0.676391
0.967273 0.625000 0.676391
1.000000 0.625000 0.676391
0.044842 0.750000 0.676391
0.167644 0.750000 0.676391
0.295659 0.750000 0.676391
0.426599 0.750000 0.676391
0.559612 0.750000 0.676391
0.694239 0.750000 0.676391
0.830192 0.750000 0.676391
0.967273 0.750000 0.676391
1.000000 0.750000 0.676391
0.044842 0.875000 0.676391
0.167644 0.875000 0.676391
0.295659 0.875000 0.676391
0.426599 0.875000 0.676391
0.559612 0.875000 0.676391
0.694239 0.875000 0.676391
0.830192 0.875000 0.676391
0.967273 0.875000 0.676391
1.000000 0.875000 0.676391
0.044842 1.000000 0.676391
0.167644 1.000000 0.676391
0.295659 1.000000 0.676391
0.426599 1.000000 0.676391
0.559612 1.000000 0.676391
0.694239 1.000000 0.676391
0.830192 1.000000 0.676391
0.967273 1.000000 0.676391
1.000000 1.000000 0.676391
0.044842 0.000000 0.790963
0.167644 0.000000 0.790963
0.295659 0.000000 0.790963
0.426599 0.000000 0.790963
0.559612 0.000000 0.790963
0.694239 0.000000 0.790963
0.830192 0.000000 0.790963
0.967273 0.000000 0.790963
1.000000 0.000000 0.790963
0.044842 0.125000 0.790963
0.167644 0.125000 0.790963
0.295659 0.125000 0.790963
0.426599 0.125000 0.790963
0.559612 0.125000 0.790963
0.694239 0.125000 0.790963
0.830192 0.125000 0.790963
0.967273 0.125000 0.790963
1.000000 0.125000 0.790963
0.044842 0.250000 0.790963
0.167644 0.250000 0.790963
0.295659 0.250000 0.790963
0.426599 0.250000 0.790963
0.559612 0.250000 0.790963
0.694239 0.250000 0.790963
0.830192 0.250000 0.790963
0.967273 0.250000 0.790963
1.000000 0.250000 0.790963
0.044842 0.375000 0.790963
0.167644 0.375000 0.790963
0.295659 0.375000 0.790963
0.426599 0.375000 0.790963
0.559612 0.375000 0.790963
0.694239 0.375000 0.790963
0.830192 0.375000 0.790963
0.967273 0.375000 0.790963
1.000000 0.375000 0.790963
0.044842 0.500000 0.790963
0.167644 0.500000 0.790963
0.295659 0.500000 0.790963
0.426599 0.500000 0.790963
0.559612 0.500000 0.790963
0.694239 0.500000 0.790963
0.830192 0.500000 0.790963
0.967273 0.500000 0.790963
1.000000 0.500000 0.790963
0.044842 0.625000 0.790963
0.167644 0.625000 0.790963
0.295659 0.625000 0.790963
0.426599 0.625000 0.790963
0.559612 0.625000 0.790963
0.694239 0.625000 0.790963
0.830192 0.625000 0.790963
0.967273 0.625000 0.790963
1.000000 0.625000 0.790963
0.044842 0.750000 0.790963
0.167644 0.750000 0.790963
0.295659 0.750000 0.790963
0.426599 0.750000 0.790963
0.559612 0.750000 0.790963
0.694239 0.750000 0.790963
0.830192 0.750000 0.790963
0.967273 0.750000 0.790963
1.000000 0.750000 0.790963
0.044842 0.875000 0.790963
0.167644 0.875000 0.790963
0.295659 0.875000 0.790963
0.426599 0.875000 0.790963
0.559612 0.875000 0.790963
0.694239 0.875000 0.790963
0.830192 0.875000 0.790963
0.967273 0.875000 0.790963
1.000000 0.875000 0.790963
0.044842 1.000000 0.790963
0.167644 1.000000 0.790963
0.295659 1.000000 0.790963
0.426599 1.000000 0.790963
0.559612 1.000000 0.790963
0.694239 1.000000 0.790963
0.830192 1.000000 0.790963
0.967273 1.000000 0.790963
1.000000 1.000000 0.790963
0.044842 0.000000 0.904707
0.167644 0.000000 0.904707
0.295659 0.000000 0.904707
0.426599 0.000000 0.904707
0.559612 0.000000 0.904707
0.694239 0.000000 0.904707
0.830192 0.000000 0.904707
0.967273 0.000000 0.904707
1.000000 0.000000 0.904707
0.044842 0.125000 0.904707
0.167644 0.125000 0.904707
0.295659 0.125000 0.904707
0.426599 0.125000 0.904707
0.559612 0.125000 0.904707
0.694239 0.125000 0.904707
0.830192 0.125000 0.904707
0.967273 0.125000 0.904707
1.000000 0.125000 0.904707
0.044842 0.250000 0.904707
0.167644 0.250000 0.904707
0.295659 0.250000 0.904707
0.426599 0.250000 0.904707
0.559612 0.250000 0.904707
0.694239 0.250000 0.904707
0.830192 0.250000 0.904707
0.967273 0.250000 0.904707
1.000000 0.250000 0.904707
0.044842 0.375000 0.904707
0.167644 0.375000 0.904707
0.295659 0.375000 0.904707
0.426599 0.375000 0.904707
0.559612 0.375000 0.904707
0.694239 0.375000 0.904707
0.830192 0.375000 0.904707
0.967273 0.375000 0.904707
1.000000 0.375000 0.904707
0.044842 0.500000 0.904707
0.167644 0.500000 0.904707
0.295659 0.500000 0.904707
0.426599 0.500000 0.904707
0.559612 0.500000 0.904707
0.694239 0.500000 0.904707
0.830192 0.500000 0.904707
0.967273 0.500000 0.904707
1.000000 0.500000 0.904707
0.044842 0.625000 0.904707
0.167644 0.625000 0.904707
0.295659 0.625000 0.904707
0.426599 0.625000 0.904707
0.559612 0.625000 0.904707
0.694239 0.625000 0.904707
0.830192 0.625000 0.904707
0.967273 0.625000 0.904707
1.000000 0.625000 0.904707
0.044842 0.750000 0.904707
0.167644 0.750000 0.904707
0.295659 0.750000 0.904707
0.426599 0.750000 0.904707
0.559612 0.750000 0.904707
0.694239 0.750000 0.904707
0.830192 0.750000 0.904707
0.967273 0.750000 0.904707
1.000000 0.750000 0.904707
0.044842 0.875000 0.904707
0.167644 0.875000 0.904707
0.295659 0.875000 0.904707
0.426599 0.875000 0.904707
0.559612 0.875000 0.904707
0.694239 0.875000 0.904707
0.830192 0.875000 0.904707
0.967273 0.875000 0.904707
1.000000 0.875000 0.904707
0.044842 1.000000 0.904707
0.167644 1.000000 0.904707
0.295659 1.000000 0.904707
0.426599 1.000000 0.904707
0.559612 1.000000 0.904707
0.694239 1.000000 0.904707
0.830192 1.000000 0.904707
0.967273 1.000000 0.904707
1.000000 1.000000 0.904707
