app/src/main/assets/luts/eighties_grain.cube
# ApexStudio filter: eighties_grain
LUT_3D_SIZE 9
DOMAIN_MIN 0.0 0.0 0.0
DOMAIN_MAX 1.0 1.0 1.0
0.060007 0.000000 0.113207
0.220057 0.000000 0.098257
0.380107 0.000000 0.083307
0.540157 0.000000 0.068357
0.700207 0.000000 0.053407
0.860257 0.000000 0.038457
1.000000 0.000000 0.023507
1.000000 0.000000 0.008557
1.000000 0.000000 0.000000
0.039206 0.093235 0.092406
0.199256 0.078285 0.077456
0.359306 0.063335 0.062506
0.519356 0.048385 0.047556
0.679406 0.033435 0.032606
0.839456 0.018485 0.017656
0.999506 0.003535 0.002706
1.000000 0.000000 0.000000
1.000000 0.000000 0.000000
0.012522 0.225652 0.065722
0.172572 0.210702 0.050772
0.332622 0.195752 0.035822
0.492672 0.180802 0.020872
0.652722 0.165852 0.005922
0.812772 0.150902 0.000000
0.972822 0.135952 0.000000
1.000000 0.121002 0.000000
1.000000 0.112032 0.000000
0.000000 0.362125 0.038222
0.145072 0.347175 0.023272
0.305122 0.332225 0.008322
0.465172 0.317275 0.000000
0.625222 0.302325 0.000000
0.785272 0.287375 0.000000
0.945322 0.272425 0.000000
1.000000 0.257475 0.000000
1.000000 0.248505 0.000000
0.000000 0.501204 0.010196
0.117046 0.486254 0.000000
0.277096 0.471304 0.000000
0.437146 0.456354 0.000000
0.597196 0.441404 0.000000
0.757246 0.426454 0.000000
0.917296 0.411504 0.000000
1.000000 0.396554 0.000000
1.000000 0.387584 0.000000
0.000000 0.642225 0.000000
0.088628 0.627275 0.000000
0.248678 0.612325 0.000000
0.408728 0.597375 0.000000
0.568778 0.582425 0.000000
0.728828 0.567475 0.000000
0.888878 0.552525 0.000000
1.000000 0.537575 0.000000
1.000000 0.528605 0.000000
0.000000 0.784799 0.000000
0.059898 0.769849 0.000000
0.219948 0.754899 0.000000
0.379998 0.739949 0.000000
0.540048 0.724999 0.000000
0.700098 0.710049 0.000000
0.860148 0.695099 0.000000
1.000000 0.680149 0.000000
1.000000 0.671179 0.000000
0.000000 0.928670 0.000000
0.030907 0.913720 0.000000
0.190957 0.898770 0.000000
0.351007 0.883820 0.000000
0.511057 0.868870 0.000000
0.671107 0.853920 0.000000
0.831157 0.838970 0.000000
0.991207 0.824020 0.000000
1.000000 0.815050 0.000000
0.000000 1.000000 0.000000
0.001691 1.000000 0.000000
0.161741 1.000000 0.000000
0.321791 1.000000 0.000000
0.481841 1.000000 0.000000
0.641891 0.998906 0.000000
0.801941 0.983956 0.000000
0.961991 0.969006 0.000000
1.000000 0.960036 0.000000
0.053737 0.000000 0.299437
0.213787 0.000000 0.284487
0.373837 0.000000 0.269537
0.533887 0.000000 0.254587
0.693937 0.000000 0.239637
0.853987 0.000000 0.224687
1.000000 0.000000 0.209737
1.000000 0.000000 0.194787
1.000000 0.000000 0.185817
0.032936 0.086965 0.278636
0.192986 0.072015 0.263686
0.353036 0.057065 0.248736
0.513086 0.042115 0.233786
0.673136 0.027165 0.218836
0.833186 0.012215 0.203886
0.993236 0.000000 0.188936
1.000000 0.000000 0.173986
1.000000 0.000000 0.165016
0.006252 0.219382 0.251952
0.166302 0.204432 0.237002
0.326352 0.189482 0.222052
0.486402 0.174532 0.207102
0.646452 0.159582 0.192152
0.806502 0.144632 0.177202
0.966552 0.129682 0.162252
1.000000 0.114732 0.147302
1.000000 0.105762 0.138332
0.000000 0.355855 0.224452
0.138802 0.340905 0.209502
0.298852 0.325955 0.194552
0.458902 0.311005 0.179602
0.618952 0.296055 0.164652
0.779002 0.281105 0.149702
0.939052 0.266155 0.134752
1.000000 0.251205 0.119802
1.000000 0.242235 0.110832
0.000000 0.494934 0.196426
0.110776 0.479984 0.181476
0.270826 0.465034 0.166526
0.430876 0.450084 0.151576
0.590926 0.435134 0.136626
0.750976 0.420184 0.121676
0.911026 0.405234 0.106726
1.000000 0.390284 0.091776
1.000000 0.381314 0.082806
0.000000 0.635955 0.168008
0.082358 0.621005 0.153058
0.242408 0.606055 0.138108
0.402458 0.591105 0.123158
0.562508 0.576155 0.108208
0.722558 0.561205 0.093258
0.882608 0.546255 0.078308
1.000000 0.531305 0.063358
1.000000 0.522335 0.054388
0.000000 0.778529 0.139278
0.053628 0.763579 0.124328
0.213678 0.748629 0.109378
0.373728 0.733679 0.094428
0.533778 0.718729 0.079478
0.693828 0.703779 0.064528
0.853878 0.688829 0.049578
1.000000 0.673879 0.034628
1.000000 0.664909 0.025658
0.000000 0.922400 0.110287
0.024637 0.907450 0.095337
0.184687 0.892500 0.080387
0.344737 0.877550 0.065437
0.504787 0.862600 0.050487
0.664837 0.847650 0.035537
0.824887 0.832700 0.020587
0.984937 0.817750 0.005637
1.000000 0.808780 0.000000
0.000000 1.000000 0.081071
0.000000 1.000000 0.066121
0.155471 1.000000 0.051171
0.315521 1.000000 0.036221
0.475571 1.000000 0.021271
0.635621 0.992636 0.006321
0.795671 0.977686 0.000000
0.955721 0.962736 0.000000
1.000000 0.953766 0.000000
0.047467 0.000000 0.485667
0.207517 0.000000 0.470717
0.367567 0.000000 0.455767
0.527617 0.000000 0.440817
0.687667 0.000000 0.425867
0.847717 0.000000 0.410917
1.000000 0.000000 0.395967
1.000000 0.000000 0.381017
1.000000 0.000000 0.372047
0.026666 0.080695 0.464866
0.186716 0.065745 0.449916
0.346766 0.050795 0.434966
0.506816 0.035845 0.420016
0.666866 0.020895 0.405066
0.826916 0.005945 0.390116
0.986966 0.000000 0.375166
1.000000 0.000000 0.360216
1.000000 0.000000 0.351246
0.000000 0.213112 0.438182
0.160032 0.198162 0.423232
0.320082 0.183212 0.408282
0.480132 0.168262 0.393332
0.640182 0.153312 0.378382
0.800232 0.138362 0.363432
0.960282 0.123412 0.348482
1.000000 0.108462 0.333532
1.000000 0.099492 0.324562
0.000000 0.349585 0.410682
0.132532 0.334635 0.395732
0.292582 0.319685 0.380782
0.452632 0.304735 0.365832
0.612682 0.289785 0.350882
0.772732 0.274835 0.335932
0.932782 0.259885 0.320982
1.000000 0.244935 0.306032
1.000000 0.235965 0.297062
0.000000 0.488664 0.382656
0.104506 0.473714 0.367706
0.264556 0.458764 0.352756
0.424606 0.443814 0.337806
0.584656 0.428864 0.322856
0.744706 0.413914 0.307906
0.904756 0.398964 0.292956
1.000000 0.384014 0.278006
1.000000 0.375044 0.269036
0.000000 0.629685 0.354238
0.076088 0.614735 0.339288
0.236138 0.599785 0.324338
0.396188 0.584835 0.309388
0.556238 0.569885 0.294438
0.716288 0.554935 0.279488
0.876338 0.539985 0.264538
1.000000 0.525035 0.249588
1.000000 0.516065 0.240618
0.000000 0.772259 0.325508
0.047358 0.757309 0.310558
0.207408 0.742359 0.295608
0.367458 0.727409 0.280658
0.527508 0.712459 0.265708
0.687558 0.697509 0.250758
0.847608 0.682559 0.235808
1.000000 0.667609 0.220858
1.000000 0.658639 0.211888
0.000000 0.916130 0.296517
0.018367 0.901180 0.281567
0.178417 0.886230 0.266617
0.338467 0.871280 0.251667
0.498517 0.856330 0.236717
0.658567 0.841380 0.221767
0.818617 0.826430 0.206817
0.978667 0.811480 0.191867
1.000000 0.802510 0.182897
0.000000 1.000000 0.267301
0.000000 1.000000 0.252351
0.149201 1.000000 0.237401
0.309251 1.000000 0.222451
0.469301 1.000000 0.207501
0.629351 0.986366 0.192551
0.789401 0.971416 0.177601
0.949451 0.956466 0.162651
1.000000 0.947496 0.153681
0.041197 0.000000 0.671897
0.201247 0.000000 0.656947
0.361297 0.000000 0.641997
0.521347 0.000000 0.627047
0.681397 0.000000 0.612097
0.841447 0.000000 0.597147
1.000000 0.000000 0.582197
1.000000 0.000000 0.567247
1.000000 0.000000 0.558277
0.020396 0.074425 0.651096
0.180446 0.059475 0.636146
0.340496 0.044525 0.621196
0.500546 0.029575 0.606246
0.660596 0.014625 0.591296
0.820646 0.000000 0.576346
0.980696 0.000000 0.561396
1.000000 0.000000 0.546446
1.000000 0.000000 0.537476
0.000000 0.206842 0.624412
0.153762 0.191892 0.609462
0.313812 0.176942 0.594512
0.473862 0.161992 0.579562
0.633912 0.147042 0.564612
0.793962 0.132092 0.549662
0.954012 0.117142 0.534712
1.000000 0.102192 0.519762
1.000000 0.093222 0.510792
0.000000 0.343315 0.596912
0.126262 0.328365 0.581962
0.286312 0.313415 0.567012
0.446362 0.298465 0.552062
0.606412 0.283515 0.537112
0.766462 0.268565 0.522162
0.926512 0.253615 0.507212
1.000000 0.238665 0.492262
1.000000 0.229695 0.483292
0.000000 0.482394 0.568886
0.098236 0.467444 0.553936
0.258286 0.452494 0.538986
0.418336 0.437544 0.524036
0.578386 0.422594 0.509086
0.738436 0.407644 0.494136
0.898486 0.392694 0.479186
1.000000 0.377744 0.464236
1.000000 0.368774 0.455266
0.000000 0.623415 0.540468
0.069818 0.608465 0.525518
0.229868 0.593515 0.510568
0.389918 0.578565 0.495618
0.549968 0.563615 0.480668
0.710018 0.548665 0.465718
0.870068 0.533715 0.450768
1.000000 0.518765 0.435818
1.000000 0.509795 0.426848
0.000000 0.765989 0.511738
0.041088 0.751039 0.496788
0.201138 0.736089 0.481838
0.361188 0.721139 0.466888
0.521238 0.706189 0.451938
0.681288 0.691239 0.436988
0.841338 0.676289 0.422038
1.000000 0.661339 0.407088
1.000000 0.652369 0.398118
0.000000 0.909860 0.482747
0.012097 0.894910 0.467797
0.172147 0.879960 0.452847
0.332197 0.865010 0.437897
0.492247 0.850060 0.422947
0.652297 0.835110 0.407997
0.812347 0.820160 0.393047
0.972397 0.805210 0.378097
1.000000 0.796240 0.369127
0.000000 1.000000 0.453531
0.000000 1.000000 0.438581
0.142931 1.000000 0.423631
0.302981 1.000000 0.408681
0.463031 0.995046 0.393731
0.623081 0.980096 0.378781
0.783131 0.965146 0.363831
0.943181 0.950196 0.348881
1.000000 0.941226 0.339911
0.034927 0.000000 0.858127
0.194977 0.000000 0.843177
0.355027 0.000000 0.828227
0.515077 0.000000 0.813277
0.675127 0.000000 0.798327
0.835177 0.000000 0.783377
0.995227 0.000000 0.768427
1.000000 0.000000 0.753477
1.000000 0.000000 0.744507
0.014126 0.068155 0.837326
0.174176 0.053205 0.822376
0.334226 0.038255 0.807426
0.494276 0.023305 0.792476
0.654326 0.008355 0.777526
0.814376 0.000000 0.762576
0.974426 0.000000 0.747626
1.000000 0.000000 0.732676
1.000000 0.000000 0.723706
0.000000 0.200572 0.810642
0.147492 0.185622 0.795692
0.307542 0.170672 0.780742
0.467592 0.155722 0.765792
0.627642 0.140772 0.750842
0.787692 0.125822 0.735892
0.947742 0.110872 0.720942
1.000000 0.095922 0.705992
1.000000 0.086952 0.697022
0.000000 0.337045 0.783142
0.119992 0.322095 0.768192
0.280042 0.307145 0.753242
0.440092 0.292195 0.738292
0.600142 0.277245 0.723342
0.760192 0.262295 0.708392
0.920242 0.247345 0.693442
1.000000 0.232395 0.678492
1.000000 0.223425 0.669522
0.000000 0.476124 0.755116
0.091966 0.461174 0.740166
0.252016 0.446224 0.725216
0.412066 0.431274 0.710266
0.572116 0.416324 0.695316
0.732166 0.401374 0.680366
0.892216 0.386424 0.665416
1.000000 0.371474 0.650466
1.000000 0.362504 0.641496
0.000000 0.617145 0.726698
0.063548 0.602195 0.711748
0.223598 0.587245 0.696798
0.383648 0.572295 0.681848
0.543698 0.557345 0.666898
0.703748 0.542395 0.651948
0.863798 0.527445 0.636998
1.000000 0.512495 0.622048
1.000000 0.503525 0.613078
0.000000 0.759719 0.697968
0.034818 0.744769 0.683018
0.194868 0.729819 0.668068
0.354918 0.714869 0.653118
0.514968 0.699919 0.638168
0.675018 0.684969 0.623218
0.835068 0.670019 0.608268
0.995118 0.655069 0.593318
1.000000 0.646099 0.584348
0.000000 0.903590 0.668977
0.005827 0.888640 0.654027
0.165877 0.873690 0.639077
0.325927 0.858740 0.624127
0.485977 0.843790 0.609177
0.646027 0.828840 0.594227
0.806077 0.813890 0.579277
0.966127 0.798940 0.564327
1.000000 0.789970 0.555357
0.000000 1.000000 0.639761
0.000000 1.000000 0.624811
0.136661 1.000000 0.609861
0.296711 1.000000 0.594911
0.456761 0.988776 0.579961
0.616811 0.973826 0.565011
0.776861 0.958876 0.550061
0.936911 0.943926 0.535111
1.000000 0.934956 0.526141
0.028657 0.000000 1.000000
0.188707 0.000000 1.000000
0.348757 0.000000 1.000000
0.508807 0.000000 0.999507
0.668857 0.000000 0.984557
0.828907 0.000000 0.969607
0.988957 0.000000 0.954657
1.000000 0.000000 0.939707
1.000000 0.000000 0.930737
0.007856 0.061885 1.000000
0.167906 0.046935 1.000000
0.327956 0.031985 0.993656
0.488006 0.017035 0.978706
0.648056 0.002085 0.963756
0.808106 0.000000 0.948806
0.968156 0.000000 0.933856
1.000000 0.000000 0.918906
1.000000 0.000000 0.909936
0.000000 0.194302 0.996872
0.141222 0.179352 0.981922
0.301272 0.164402 0.966972
0.461322 0.149452 0.952022
0.621372 0.134502 0.937072
0.781422 0.119552 0.922122
0.941472 0.104602 0.907172
1.000000 0.089652 0.892222
1.000000 0.080682 0.883252
0.000000 0.330775 0.969372
0.113722 0.315825 0.954422
0.273772 0.300875 0.939472
0.433822 0.285925 0.924522
0.593872 0.270975 0.909572
0.753922 0.256025 0.894622
0.913972 0.241075 0.879672
1.000000 0.226125 0.864722
1.000000 0.217155 0.855752
0.000000 0.469854 0.941346
0.085696 0.454904 0.926396
0.245746 0.439954 0.911446
0.405796 0.425004 0.896496
0.565846 0.410054 0.881546
0.725896 0.395104 0.866596
0.885946 0.380154 0.851646
1.000000 0.365204 0.836696
1.000000 0.356234 0.827726
0.000000 0.610875 0.912928
0.057278 0.595925 0.897978
0.217328 0.580975 0.883028
0.377378 0.566025 0.868078
0.537428 0.551075 0.853128
0.697478 0.536125 0.838178
0.857528 0.521175 0.823228
1.000000 0.506225 0.808278
1.000000 0.497255 0.799308
0.000000 0.753449 0.884198
0.028548 0.738499 0.869248
0.188598 0.723549 0.854298
0.348648 0.708599 0.839348
0.508698 0.693649 0.824398
0.668748 0.678699 0.809448
0.828798 0.663749 0.794498
0.988848 0.648799 0.779548
1.000000 0.639829 0.770578
0.000000 0.897320 0.855207
0.000000 0.882370 0.840257
0.159607 0.867420 0.825307
0.319657 0.852470 0.810357
0.479707 0.837520 0.795407
0.639757 0.822570 0.780457
0.799807 0.807620 0.765507
0.959857 0.792670 0.750557
1.000000 0.783700 0.741587
0.000000 1.000000 0.825991
0.000000 1.000000 0.811041
0.130391 1.000000 0.796091
0.290441 0.997456 0.781141
0.450491 0.982506 0.766191
0.610541 0.967556 0.751241
0.770591 0.952606 0.736291
0.930641 0.937656 0.721341
1.000000 0.928686 0.712371
0.022387 0.000000 1.000000
0.182437 0.000000 1.000000
0.342487 0.000000 1.000000
0.502537 0.000000 1.000000
0.662587 0.000000 1.000000
0.822637 0.000000 1.000000
0.982687 0.000000 1.000000
1.000000 0.000000 1.000000
1.000000 0.000000 1.000000
0.001586 0.055615 1.000000
0.161636 0.040665 1.000000
0.321686 0.025715 1.000000
0.481736 0.010765 1.000000
0.641786 0.000000 1.000000
0.801836 0.000000 1.000000
0.961886 0.000000 1.000000
1.000000 0.000000 1.000000
1.000000 0.000000 1.000000
0.000000 0.188032 1.000000
0.134952 0.173082 1.000000
0.295002 0.158132 1.000000
0.455052 0.143182 1.000000
0.615102 0.128232 1.000000
0.775152 0.113282 1.000000
0.935202 0.098332 1.000000
1.000000 0.083382 1.000000
1.000000 0.074412 1.000000
0.000000 0.324505 1.000000
0.107452 0.309555 1.000000
0.267502 0.294605 1.000000
0.427552 0.279655 1.000000
0.587602 0.264705 1.000000
0.747652 0.249755 1.000000
0.907702 0.234805 1.000000
1.000000 0.219855 1.000000
1.000000 0.210885 1.000000
0.000000 0.463584 1.000000
0.079426 0.448634 1.000000
0.239476 0.433684 1.000000
0.399526 0.418734 1.000000
0.559576 0.403784 1.000000
0.719626 0.388834 1.000000
0.879676 0.373884 1.000000
1.000000 0.358934 1.000000
1.000000 0.349964 1.000000
0.000000 0.604605 1.000000
0.051008 0.589655 1.000000
0.211058 0.574705 1.000000
0.371108 0.559755 1.000000
0.531158 0.544805 1.000000
0.691208 0.529855 1.000000
0.851258 0.514905 1.000000
1.000000 0.499955 0.994508
1.000000 0.490985 0.985538
0.000000 0.747179 1.000000
0.022278 0.732229 1.000000
0.182328 0.717279 1.000000
0.342378 0.702329 1.000000
0.502428 0.687379 1.000000
0.662478 0.672429 0.995678
0.822528 0.657479 0.980728
0.982578 0.642529 0.965778
1.000000 0.633559 0.956808
0.000000 0.891050 1.000000
0.000000 0.876100 1.000000
0.153337 0.861150 1.000000
0.313387 0.846200 0.996587
0.473437 0.831250 0.981637
0.633487 0.816300 0.966687
0.793537 0.801350 0.951737
0.953587 0.786400 0.936787
1.000000 0.777430 0.927817
0.000000 1.000000 1.000000
0.000000 1.000000 0.997271
0.124121 1.000000 0.982321
0.284171 0.991186 0.967371
0.444221 0.976236 0.952421
0.604271 0.961286 0.937471
0.764321 0.946336 0.922521
0.924371 0.931386 0.907571
1.000000 0.922416 0.898601
0.018420 0.000000 1.000000
0.178470 0.000000 1.000000
0.338520 0.000000 1.000000
0.498570 0.000000 1.000000
0.658620 0.000000 1.000000
0.818670 0.000000 1.000000
0.978720 0.000000 1.000000
1.000000 0.000000 1.000000
1.000000 0.000000 1.000000
0.000000 0.051648 1.000000
0.157669 0.036698 1.000000
0.317719 0.021748 1.000000
0.477769 0.006798 1.000000
0.637819 0.000000 1.000000
0.797869 0.000000 1.000000
0.957919 0.000000 1.000000
1.000000 0.000000 1.000000
1.000000 0.000000 1.000000
0.000000 0.184065 1.000000
0.130985 0.169115 1.000000
0.291035 0.154165 1.000000
0.451085 0.139215 1.000000
0.611135 0.124265 1.000000
0.771185 0.109315 1.000000
0.931235 0.094365 1.000000
1.000000 0.079415 1.000000
1.000000 0.070445 1.000000
0.000000 0.320538 1.000000
0.103484 0.305588 1.000000
0.263534 0.290638 1.000000
0.423584 0.275688 1.000000
0.583634 0.260738 1.000000
0.743684 0.245788 1.000000
0.903734 0.230838 1.000000
1.000000 0.215888 1.000000
1.000000 0.206918 1.000000
0.000000 0.459617 1.000000
0.075458 0.444667 1.000000
0.235508 0.429717 1.000000
0.395558 0.414767 1.000000
0.555608 0.399817 1.000000
0.715658 0.384867 1.000000
0.875708 0.369917 1.000000
1.000000 0.354967 1.000000
1.000000 0.345997 1.000000
0.000000 0.600638 1.000000
0.047041 0.585688 1.000000
0.207091 0.570738 1.000000
0.367141 0.555788 1.000000
0.527191 0.540838 1.000000
0.687241 0.525888 1.000000
0.847291 0.510938 1.000000
1.000000 0.495988 1.000000
1.000000 0.487018 1.000000
0.000000 0.743212 1.000000
0.018311 0.728262 1.000000
0.178361 0.713312 1.000000
0.338411 0.698362 1.000000
0.498461 0.683412 1.000000
0.658511 0.668462 1.000000
0.818561 0.653512 1.000000
0.978611 0.638562 1.000000
1.000000 0.629592 1.000000
0.000000 0.887082 1.000000
0.000000 0.872132 1.000000
0.149370 0.857182 1.000000
0.309420 0.842232 1.000000
0.469470 0.827282 1.000000
0.629520 0.812332 1.000000
0.789570 0.797382 1.000000
0.949620 0.782432 1.000000
1.000000 0.773462 1.000000
0.000000 1.000000 1.000000
0.000000 1.000000 1.000000
0.120154 1.000000 1.000000
0.280204 0.987218 1.000000
0.440254 0.972268 1.000000
0.600304 0.957318 1.000000
0.760354 0.942368 1.000000
0.920404 0.927418 1.000000
1.000000 0.918448 1.000000
0.018420 0.000000 1.000000
0.178470 0.000000 1.000000
0.338520 0.000000 1.000000
0.498570 0.000000 1.000000
0.658620 0.000000 1.000000
0.818670 0.000000 1.000000
0.978720 0.000000 1.000000
1.000000 0.000000 1.000000
1.000000 0.000000 1.000000
0.000000 0.051648 1.000000
0.157669 0.036698 1.000000
0.317719 0.021748 1.000000
0.477769 0.006798 1.000000
0.637819 0.000000 1.000000
0.797869 0.000000 1.000000
0.957919 0.000000 1.000000
1.000000 0.000000 1.000000
1.000000 0.000000 1.000000
0.000000 0.184065 1.000000
0.130985 0.169115 1.000000
0.291035 0.154165 1.000000
0.451085 0.139215 1.000000
0.611135 0.124265 1.000000
0.771185 0.109315 1.000000
0.931235 0.094365 1.000000
1.000000 0.079415 1.000000
1.000000 0.070445 1.000000
0.000000 0.320538 1.000000
0.103484 0.305588 1.000000
0.263534 0.290638 1.000000
0.423584 0.275688 1.000000
0.583634 0.260738 1.000000
0.743684 0.245788 1.000000
0.903734 0.230838 1.000000
1.000000 0.215888 1.000000
1.000000 0.206918 1.000000
0.000000 0.459617 1.000000
0.075458 0.444667 1.000000
0.235508 0.429717 1.000000
0.395558 0.414767 1.000000
0.555608 0.399817 1.000000
0.715658 0.384867 1.000000
0.875708 0.369917 1.000000
1.000000 0.354967 1.000000
1.000000 0.345997 1.000000
0.000000 0.600638 1.000000
0.047041 0.585688 1.000000
0.207091 0.570738 1.000000
0.367141 0.555788 1.000000
0.527191 0.540838 1.000000
0.687241 0.525888 1.000000
0.847291 0.510938 1.000000
1.000000 0.495988 1.000000
1.000000 0.487018 1.000000
0.000000 0.743212 1.000000
0.018311 0.728262 1.000000
0.178361 0.713312 1.000000
0.338411 0.698362 1.000000
0.498461 0.683412 1.000000
0.658511 0.668462 1.000000
0.818561 0.653512 1.000000
0.978611 0.638562 1.000000
1.000000 0.629592 1.000000
0.000000 0.887082 1.000000
0.000000 0.872132 1.000000
0.149370 0.857182 1.000000
0.309420 0.842232 1.000000
0.469470 0.827282 1.000000
0.629520 0.812332 1.000000
0.789570 0.797382 1.000000
0.949620 0.782432 1.000000
1.000000 0.773462 1.000000
0.000000 1.000000 1.000000
0.000000 1.000000 1.000000
0.120154 1.000000 1.000000
0.280204 0.987218 1.000000
0.440254 0.972268 1.000000
0.600304 0.957318 1.000000
0.760354 0.942368 1.000000
0.920404 0.927418 1.000000
1.000000 0.918448 1.000000
