app/src/main/assets/luts/eighties_grain.cube
# ApexStudio filter: eighties_grain
LUT_3D_SIZE 17
DOMAIN_MIN 0.0 0.0 0.0
DOMAIN_MAX 1.0 1.0 1.0
0.060007 0.000000 0.113207
0.140032 0.000000 0.105732
0.220057 0.000000 0.098257
0.300082 0.000000 0.090782
0.380107 0.000000 0.083307
0.460132 0.000000 0.075832
0.540157 0.000000 0.068357
0.620182 0.000000 0.060882
0.700207 0.000000 0.053407
0.780232 0.000000 0.045932
0.860257 0.000000 0.038457
0.940282 0.000000 0.030982
1.000000 0.000000 0.023507
1.000000 0.000000 0.016032
1.000000 0.000000 0.008557
1.000000 0.000000 0.001082
1.000000 0.000000 0.000000
0.051979 0.029848 0.105179
0.132004 0.022373 0.097704
0.212029 0.014898 0.090229
0.292054 0.007423 0.082754
0.372079 0.000000 0.075279
0.452104 0.000000 0.067804
0.532129 0.000000 0.060329
0.612154 0.000000 0.052854
0.692179 0.000000 0.045379
0.772204 0.000000 0.037904
0.852229 0.000000 0.030429
0.932254 0.000000 0.022954
1.000000 0.000000 0.015479
1.000000 0.000000 0.008004
1.000000 0.000000 0.000529
1.000000 0.000000 0.000000
1.000000 0.000000 0.000000
0.039206 0.093235 0.092406
0.119231 0.085760 0.084931
0.199256 0.078285 0.077456
0.279281 0.070810 0.069981
0.359306 0.063335 0.062506
0.439331 0.055860 0.055031
0.519356 0.048385 0.047556
0.599381 0.040910 0.040081
0.679406 0.033435 0.032606
0.759431 0.025960 0.025131
0.839456 0.018485 0.017656
0.919481 0.011010 0.010181
0.999506 0.003535 0.002706
1.000000 0.000000 0.000000
1.000000 0.000000 0.000000
1.000000 0.000000 0.000000
1.000000 0.000000 0.000000
0.025998 0.158778 0.079198
0.106023 0.151303 0.071723
0.186048 0.143828 0.064248
0.266073 0.136353 0.056773
0.346098 0.128878 0.049298
0.426123 0.121403 0.041823
0.506148 0.113928 0.034348
0.586173 0.106453 0.026873
0.666198 0.098978 0.019398
0.746223 0.091503 0.011923
0.826248 0.084028 0.004448
0.906273 0.076553 0.000000
0.986298 0.069078 0.000000
1.000000 0.061603 0.000000
1.000000 0.054128 0.000000
1.000000 0.046653 0.000000
1.000000 0.045158 0.000000
0.012522 0.225652 0.065722
0.092547 0.218177 0.058247
0.172572 0.210702 0.050772
0.252597 0.203227 0.043297
0.332622 0.195752 0.035822
0.412647 0.188277 0.028347
0.492672 0.180802 0.020872
0.572697 0.173327 0.013397
0.652722 0.165852 0.005922
0.732747 0.158377 0.000000
0.812772 0.150902 0.000000
0.892797 0.143427 0.000000
0.972822 0.135952 0.000000
1.000000 0.128477 0.000000
1.000000 0.121002 0.000000
1.000000 0.113527 0.000000
1.000000 0.112032 0.000000
0.000000 0.293502 0.052050
0.078875 0.286027 0.044575
0.158900 0.278552 0.037100
0.238925 0.271077 0.029625
0.318950 0.263602 0.022150
0.398975 0.256127 0.014675
0.479000 0.248652 0.007200
0.559025 0.241177 0.000000
0.639050 0.233702 0.000000
0.719075 0.226227 0.000000
0.799100 0.218752 0.000000
0.879125 0.211277 0.000000
0.959150 0.203802 0.000000
1.000000 0.196327 0.000000
1.000000 0.188852 0.000000
1.000000 0.181377 0.000000
1.000000 0.179882 0.000000
0.000000 0.362125 0.038222
0.065047 0.354650 0.030747
0.145072 0.347175 0.023272
0.225097 0.339700 0.015797
0.305122 0.332225 0.008322
0.385147 0.324750 0.000847
0.465172 0.317275 0.000000
0.545197 0.309800 0.000000
0.625222 0.302325 0.000000
0.705247 0.294850 0.000000
0.785272 0.287375 0.000000
0.865297 0.279900 0.000000
0.945322 0.272425 0.000000
1.000000 0.264950 0.000000
1.000000 0.257475 0.000000
1.000000 0.250000 0.000000
1.000000 0.248505 0.000000
0.000000 0.431390 0.024264
0.051089 0.423915 0.016789
0.131114 0.416440 0.009314
0.211139 0.408965 0.001839
0.291164 0.401490 0.000000
0.371189 0.394015 0.000000
0.451214 0.386540 0.000000
0.531239 0.379065 0.000000
0.611264 0.371590 0.000000
0.691289 0.364115 0.000000
0.771314 0.356640 0.000000
0.851339 0.349165 0.000000
0.931364 0.341690 0.000000
1.000000 0.334215 0.000000
1.000000 0.326740 0.000000
1.000000 0.319265 0.000000
1.000000 0.317770 0.000000
0.000000 0.501204 0.010196
0.037021 0.493729 0.002721
0.117046 0.486254 0.000000
0.197071 0.478779 0.000000
0.277096 0.471304 0.000000
0.357121 0.463829 0.000000
0.437146 0.456354 0.000000
0.517171 0.448879 0.000000
0.597196 0.441404 0.000000
0.677221 0.433929 0.000000
0.757246 0.426454 0.000000
0.837271 0.418979 0.000000
0.917296 0.411504 0.000000
0.997321 0.404029 0.000000
1.000000 0.396554 0.000000
1.000000 0.389079 0.000000
1.000000 0.387584 0.000000
0.000000 0.571501 0.000000
0.022855 0.564026 0.000000
0.102880 0.556551 0.000000
0.182905 0.549076 0.000000
0.262930 0.541601 0.000000
0.342955 0.534126 0.000000
0.422980 0.526651 0.000000
0.503005 0.519176 0.000000
0.583030 0.511701 0.000000
0.663055 0.504226 0.000000
0.743080 0.496751 0.000000
0.823105 0.489276 0.000000
0.903130 0.481801 0.000000
0.983155 0.474326 0.000000
1.000000 0.466851 0.000000
1.000000 0.459376 0.000000
1.000000 0.457881 0.000000
0.000000 0.642225 0.000000
0.008603 0.634750 0.000000
0.088628 0.627275 0.000000
0.168653 0.619800 0.000000
0.248678 0.612325 0.000000
0.328703 0.604850 0.000000
0.408728 0.597375 0.000000
0.488753 0.589900 0.000000
0.568778 0.582425 0.000000
0.648803 0.574950 0.000000
0.728828 0.567475 0.000000
0.808853 0.560000 0.000000
0.888878 0.552525 0.000000
0.968903 0.545050 0.000000
1.000000 0.537575 0.000000
1.000000 0.530100 0.000000
1.000000 0.528605 0.000000
0.000000 0.713336 0.000000
0.000000 0.705861 0.000000
0.074299 0.698386 0.000000
0.154324 0.690911 0.000000
0.234349 0.683436 0.000000
0.314374 0.675961 0.000000
0.394399 0.668486 0.000000
0.474424 0.661011 0.000000
0.554449 0.653536 0.000000
0.634474 0.646061 0.000000
0.714499 0.638586 0.000000
0.794524 0.631111 0.000000
0.874549 0.623636 0.000000
0.954574 0.616161 0.000000
1.000000 0.608686 0.000000
1.000000 0.601211 0.000000
1.000000 0.599716 0.000000
0.000000 0.784799 0.000000
0.000000 0.777324 0.000000
0.059898 0.769849 0.000000
0.139923 0.762374 0.000000
0.219948 0.754899 0.000000
0.299973 0.747424 0.000000
0.379998 0.739949 0.000000
0.460023 0.732474 0.000000
0.540048 0.724999 0.000000
0.620073 0.717524 0.000000
0.700098 0.710049 0.000000
0.780123 0.702574 0.000000
0.860148 0.695099 0.000000
0.940173 0.687624 0.000000
1.000000 0.680149 0.000000
1.000000 0.672674 0.000000
1.000000 0.671179 0.000000
0.000000 0.856585 0.000000
0.000000 0.849110 0.000000
0.045433 0.841635 0.000000
0.125458 0.834160 0.000000
0.205483 0.826685 0.000000
0.285508 0.819210 0.000000
0.365533 0.811735 0.000000
0.445558 0.804260 0.000000
0.525583 0.796785 0.000000
0.605608 0.789310 0.000000
0.685633 0.781835 0.000000
0.765658 0.774360 0.000000
0.845683 0.766885 0.000000
0.925708 0.759410 0.000000
1.000000 0.751935 0.000000
1.000000 0.744460 0.000000
1.000000 0.742965 0.000000
0.000000 0.928670 0.000000
0.000000 0.921195 0.000000
0.030907 0.913720 0.000000
0.110932 0.906245 0.000000
0.190957 0.898770 0.000000
0.270982 0.891295 0.000000
0.351007 0.883820 0.000000
0.431032 0.876345 0.000000
0.511057 0.868870 0.000000
0.591082 0.861395 0.000000
0.671107 0.853920 0.000000
0.751132 0.846445 0.000000
0.831157 0.838970 0.000000
0.911182 0.831495 0.000000
0.991207 0.824020 0.000000
1.000000 0.816545 0.000000
1.000000 0.815050 0.000000
0.000000 1.000000 0.000000
0.000000 0.993558 0.000000
0.016325 0.986083 0.000000
0.096350 0.978608 0.000000
0.176375 0.971133 0.000000
0.256400 0.963658 0.000000
0.336425 0.956183 0.000000
0.416450 0.948708 0.000000
0.496475 0.941233 0.000000
0.576500 0.933758 0.000000
0.656525 0.926283 0.000000
0.736550 0.918808 0.000000
0.816575 0.911333 0.000000
0.896600 0.903858 0.000000
0.976625 0.896383 0.000000
1.000000 0.888908 0.000000
1.000000 0.887413 0.000000
0.000000 1.000000 0.000000
0.000000 1.000000 0.000000
0.001691 1.000000 0.000000
0.081716 1.000000 0.000000
0.161741 1.000000 0.000000
0.241766 1.000000 0.000000
0.321791 1.000000 0.000000
0.401816 1.000000 0.000000
0.481841 1.000000 0.000000
0.561866 1.000000 0.000000
0.641891 0.998906 0.000000
0.721916 0.991431 0.000000
0.801941 0.983956 0.000000
0.881966 0.976481 0.000000
0.961991 0.969006 0.000000
1.000000 0.961531 0.000000
1.000000 0.960036 0.000000
0.056872 0.000000 0.206322
0.136897 0.000000 0.198847
0.216922 0.000000 0.191372
0.296947 0.000000 0.183897
0.376972 0.000000 0.176422
0.456997 0.000000 0.168947
0.537022 0.000000 0.161472
0.617047 0.000000 0.153997
0.697072 0.000000 0.146522
0.777097 0.000000 0.139047
0.857122 0.000000 0.131572
0.937147 0.000000 0.124097
1.000000 0.000000 0.116622
1.000000 0.000000 0.109147
1.000000 0.000000 0.101672
1.000000 0.000000 0.094197
1.000000 0.000000 0.092702
0.048844 0.026713 0.198294
0.128869 0.019238 0.190819
0.208894 0.011763 0.183344
0.288919 0.004288 0.175869
0.368944 0.000000 0.168394
0.448969 0.000000 0.160919
0.528994 0.000000 0.153444
0.609019 0.000000 0.145969
0.689044 0.000000 0.138494
0.769069 0.000000 0.131019
0.849094 0.000000 0.123544
0.929119 0.000000 0.116069
1.000000 0.000000 0.108594
1.000000 0.000000 0.101119
1.000000 0.000000 0.093644
1.000000 0.000000 0.086169
1.000000 0.000000 0.084674
0.036071 0.090100 0.185521
0.116096 0.082625 0.178046
0.196121 0.075150 0.170571
0.276146 0.067675 0.163096
0.356171 0.060200 0.155621
0.436196 0.052725 0.148146
0.516221 0.045250 0.140671
0.596246 0.037775 0.133196
0.676271 0.030300 0.125721
0.756296 0.022825 0.118246
0.836321 0.015350 0.110771
0.916346 0.007875 0.103296
0.996371 0.000400 0.095821
1.000000 0.000000 0.088346
1.000000 0.000000 0.080871
1.000000 0.000000 0.073396
1.000000 0.000000 0.071901
0.022863 0.155643 0.172313
0.102888 0.148168 0.164838
0.182913 0.140693 0.157363
0.262938 0.133218 0.149888
0.342963 0.125743 0.142413
0.422988 0.118268 0.134938
0.503013 0.110793 0.127463
0.583038 0.103318 0.119988
0.663063 0.095843 0.112513
0.743088 0.088368 0.105038
0.823113 0.080893 0.097563
0.903138 0.073418 0.090088
0.983163 0.065943 0.082613
1.000000 0.058468 0.075138
1.000000 0.050993 0.067663
1.000000 0.043518 0.060188
1.000000 0.042023 0.058693
0.009387 0.222517 0.158837
0.089412 0.215042 0.151362
0.169437 0.207567 0.143887
0.249462 0.200092 0.136412
0.329487 0.192617 0.128937
0.409512 0.185142 0.121462
0.489537 0.177667 0.113987
0.569562 0.170192 0.106512
0.649587 0.162717 0.099037
0.729612 0.155242 0.091562
0.809637 0.147767 0.084087
0.889662 0.140292 0.076612
0.969687 0.132817 0.069137
1.000000 0.125342 0.061662
1.000000 0.117867 0.054187
1.000000 0.110392 0.046712
1.000000 0.108897 0.045217
0.000000 0.290367 0.145165
0.075740 0.282892 0.137690
0.155765 0.275417 0.130215
0.235790 0.267942 0.122740
0.315815 0.260467 0.115265
0.395840 0.252992 0.107790
0.475865 0.245517 0.100315
0.555890 0.238042 0.092840
0.635915 0.230567 0.085365
0.715940 0.223092 0.077890
0.795965 0.215617 0.070415
0.875990 0.208142 0.062940
0.956015 0.200667 0.055465
1.000000 0.193192 0.047990
1.000000 0.185717 0.040515
1.000000 0.178242 0.033040
1.000000 0.176747 0.031545
0.000000 0.358990 0.131337
0.061912 0.351515 0.123862
0.141937 0.344040 0.116387
0.221962 0.336565 0.108912
0.301987 0.329090 0.101437
0.382012 0.321615 0.093962
0.462037 0.314140 0.086487
0.542062 0.306665 0.079012
0.622087 0.299190 0.071537
0.702112 0.291715 0.064062
0.782137 0.284240 0.056587
0.862162 0.276765 0.049112
0.942187 0.269290 0.041637
1.000000 0.261815 0.034162
1.000000 0.254340 0.026687
1.000000 0.246865 0.019212
1.000000 0.245370 0.017717
0.000000 0.428255 0.117379
0.047954 0.420780 0.109904
0.127979 0.413305 0.102429
0.208004 0.405830 0.094954
0.288029 0.398355 0.087479
0.368054 0.390880 0.080004
0.448079 0.383405 0.072529
0.528104 0.375930 0.065054
0.608129 0.368455 0.057579
0.688154 0.360980 0.050104
0.768179 0.353505 0.042629
0.848204 0.346030 0.035154
0.928229 0.338555 0.027679
1.000000 0.331080 0.020204
1.000000 0.323605 0.012729
1.000000 0.316130 0.005254
1.000000 0.314635 0.003759
0.000000 0.498069 0.103311
0.033886 0.490594 0.095836
0.113911 0.483119 0.088361
0.193936 0.475644 0.080886
0.273961 0.468169 0.073411
0.353986 0.460694 0.065936
0.434011 0.453219 0.058461
0.514036 0.445744 0.050986
0.594061 0.438269 0.043511
0.674086 0.430794 0.036036
0.754111 0.423319 0.028561
0.834136 0.415844 0.021086
0.914161 0.408369 0.013611
0.994186 0.400894 0.006136
1.000000 0.393419 0.000000
1.000000 0.385944 0.000000
1.000000 0.384449 0.000000
0.000000 0.568366 0.089145
0.019720 0.560891 0.081670
0.099745 0.553416 0.074195
0.179770 0.545941 0.066720
0.259795 0.538466 0.059245
0.339820 0.530991 0.051770
0.419845 0.523516 0.044295
0.499870 0.516041 0.036820
0.579895 0.508566 0.029345
0.659920 0.501091 0.021870
0.739945 0.493616 0.014395
0.819970 0.486141 0.006920
0.899995 0.478666 0.000000
0.980020 0.471191 0.000000
1.000000 0.463716 0.000000
1.000000 0.456241 0.000000
1.000000 0.454746 0.000000
0.000000 0.639090 0.074893
0.005468 0.631615 0.067418
0.085493 0.624140 0.059943
0.165518 0.616665 0.052468
0.245543 0.609190 0.044993
0.325568 0.601715 0.037518
0.405593 0.594240 0.030043
0.485618 0.586765 0.022568
0.565643 0.579290 0.015093
0.645668 0.571815 0.007618
0.725693 0.564340 0.000143
0.805718 0.556865 0.000000
0.885743 0.549390 0.000000
0.965768 0.541915 0.000000
1.000000 0.534440 0.000000
1.000000 0.526965 0.000000
1.000000 0.525470 0.000000
0.000000 0.710201 0.060564
0.000000 0.702726 0.053089
0.071164 0.695251 0.045614
0.151189 0.687776 0.038139
0.231214 0.680301 0.030664
0.311239 0.672826 0.023189
0.391264 0.665351 0.015714
0.471289 0.657876 0.008239
0.551314 0.650401 0.000764
0.631339 0.642926 0.000000
0.711364 0.635451 0.000000
0.791389 0.627976 0.000000
0.871414 0.620501 0.000000
0.951439 0.613026 0.000000
1.000000 0.605551 0.000000
1.000000 0.598076 0.000000
1.000000 0.596581 0.000000
0.000000 0.781664 0.046163
0.000000 0.774189 0.038688
0.056763 0.766714 0.031213
0.136788 0.759239 0.023738
0.216813 0.751764 0.016263
0.296838 0.744289 0.008788
0.376863 0.736814 0.001313
0.456888 0.729339 0.000000
0.536913 0.721864 0.000000
0.616938 0.714389 0.000000
0.696963 0.706914 0.000000
0.776988 0.699439 0.000000
0.857013 0.691964 0.000000
0.937038 0.684489 0.000000
1.000000 0.677014 0.000000
1.000000 0.669539 0.000000
1.000000 0.668044 0.000000
0.000000 0.853450 0.031698
0.000000 0.845975 0.024223
0.042298 0.838500 0.016748
0.122323 0.831025 0.009273
0.202348 0.823550 0.001798
0.282373 0.816075 0.000000
0.362398 0.808600 0.000000
0.442423 0.801125 0.000000
0.522448 0.793650 0.000000
0.602473 0.786175 0.000000
0.682498 0.778700 0.000000
0.762523 0.771225 0.000000
0.842548 0.763750 0.000000
0.922573 0.756275 0.000000
1.000000 0.748800 0.000000
1.000000 0.741325 0.000000
1.000000 0.739830 0.000000
0.000000 0.925535 0.017172
0.000000 0.918060 0.009697
0.027772 0.910585 0.002222
0.107797 0.903110 0.000000
0.187822 0.895635 0.000000
0.267847 0.888160 0.000000
0.347872 0.880685 0.000000
0.427897 0.873210 0.000000
0.507922 0.865735 0.000000
0.587947 0.858260 0.000000
0.667972 0.850785 0.000000
0.747997 0.843310 0.000000
0.828022 0.835835 0.000000
0.908047 0.828360 0.000000
0.988072 0.820885 0.000000
1.000000 0.813410 0.000000
1.000000 0.811915 0.000000
0.000000 0.997898 0.002590
0.000000 0.990423 0.000000
0.013190 0.982948 0.000000
0.093215 0.975473 0.000000
0.173240 0.967998 0.000000
0.253265 0.960523 0.000000
0.333290 0.953048 0.000000
0.413315 0.945573 0.000000
0.493340 0.938098 0.000000
0.573365 0.930623 0.000000
0.653390 0.923148 0.000000
0.733415 0.915673 0.000000
0.813440 0.908198 0.000000
0.893465 0.900723 0.000000
0.973490 0.893248 0.000000
1.000000 0.885773 0.000000
1.000000 0.884278 0.000000
0.000000 1.000000 0.000000
0.000000 1.000000 0.000000
0.000000 1.000000 0.000000
0.078581 1.000000 0.000000
0.158606 1.000000 0.000000
0.238631 1.000000 0.000000
0.318656 1.000000 0.000000
0.398681 1.000000 0.000000
0.478706 1.000000 0.000000
0.558731 1.000000 0.000000
0.638756 0.995771 0.000000
0.718781 0.988296 0.000000
0.798806 0.980821 0.000000
0.878831 0.973346 0.000000
0.958856 0.965871 0.000000
1.000000 0.958396 0.000000
1.000000 0.956901 0.000000
0.053737 0.000000 0.299437
0.133762 0.000000 0.291962
0.213787 0.000000 0.284487
0.293812 0.000000 0.277012
0.373837 0.000000 0.269537
0.453862 0.000000 0.262062
0.533887 0.000000 0.254587
0.613912 0.000000 0.247112
0.693937 0.000000 0.239637
0.773962 0.000000 0.232162
0.853987 0.000000 0.224687
0.934012 0.000000 0.217212
1.000000 0.000000 0.209737
1.000000 0.000000 0.202262
1.000000 0.000000 0.194787
1.000000 0.000000 0.187312
1.000000 0.000000 0.185817
0.045709 0.023578 0.291409
0.125734 0.016103 0.283934
0.205759 0.008628 0.276459
0.285784 0.001153 0.268984
0.365809 0.000000 0.261509
0.445834 0.000000 0.254034
0.525859 0.000000 0.246559
0.605884 0.000000 0.239084
0.685909 0.000000 0.231609
0.765934 0.000000 0.224134
0.845959 0.000000 0.216659
0.925984 0.000000 0.209184
1.000000 0.000000 0.201709
1.000000 0.000000 0.194234
1.000000 0.000000 0.186759
1.000000 0.000000 0.179284
1.000000 0.000000 0.177789
0.032936 0.086965 0.278636
0.112961 0.079490 0.271161
0.192986 0.072015 0.263686
0.273011 0.064540 0.256211
0.353036 0.057065 0.248736
0.433061 0.049590 0.241261
0.513086 0.042115 0.233786
0.593111 0.034640 0.226311
0.673136 0.027165 0.218836
0.753161 0.019690 0.211361
0.833186 0.012215 0.203886
0.913211 0.004740 0.196411
0.993236 0.000000 0.188936
1.000000 0.000000 0.181461
1.000000 0.000000 0.173986
1.000000 0.000000 0.166511
1.000000 0.000000 0.165016
0.019728 0.152508 0.265428
0.099753 0.145033 0.257953
0.179778 0.137558 0.250478
0.259803 0.130083 0.243003
0.339828 0.122608 0.235528
0.419853 0.115133 0.228053
0.499878 0.107658 0.220578
0.579903 0.100183 0.213103
0.659928 0.092708 0.205628
0.739953 0.085233 0.198153
0.819978 0.077758 0.190678
0.900003 0.070283 0.183203
0.980028 0.062808 0.175728
1.000000 0.055333 0.168253
1.000000 0.047858 0.160778
1.000000 0.040383 0.153303
1.000000 0.038888 0.151808
0.006252 0.219382 0.251952
0.086277 0.211907 0.244477
0.166302 0.204432 0.237002
0.246327 0.196957 0.229527
0.326352 0.189482 0.222052
0.406377 0.182007 0.214577
0.486402 0.174532 0.207102
0.566427 0.167057 0.199627
0.646452 0.159582 0.192152
0.726477 0.152107 0.184677
0.806502 0.144632 0.177202
0.886527 0.137157 0.169727
0.966552 0.129682 0.162252
1.000000 0.122207 0.154777
1.000000 0.114732 0.147302
1.000000 0.107257 0.139827
1.000000 0.105762 0.138332
0.000000 0.287232 0.238280
0.072605 0.279757 0.230805
0.152630 0.272282 0.223330
0.232655 0.264807 0.215855
0.312680 0.257332 0.208380
0.392705 0.249857 0.200905
0.472730 0.242382 0.193430
0.552755 0.234907 0.185955
0.632780 0.227432 0.178480
0.712805 0.219957 0.171005
0.792830 0.212482 0.163530
0.872855 0.205007 0.156055
0.952880 0.197532 0.148580
1.000000 0.190057 0.141105
1.000000 0.182582 0.133630
1.000000 0.175107 0.126155
1.000000 0.173612 0.124660
0.000000 0.355855 0.224452
0.058777 0.348380 0.216977
0.138802 0.340905 0.209502
0.218827 0.333430 0.202027
0.298852 0.325955 0.194552
0.378877 0.318480 0.187077
0.458902 0.311005 0.179602
0.538927 0.303530 0.172127
0.618952 0.296055 0.164652
0.698977 0.288580 0.157177
0.779002 0.281105 0.149702
0.859027 0.273630 0.142227
0.939052 0.266155 0.134752
1.000000 0.258680 0.127277
1.000000 0.251205 0.119802
1.000000 0.243730 0.112327
1.000000 0.242235 0.110832
0.000000 0.425120 0.210494
0.044819 0.417645 0.203019
0.124844 0.410170 0.195544
0.204869 0.402695 0.188069
0.284894 0.395220 0.180594
0.364919 0.387745 0.173119
0.444944 0.380270 0.165644
0.524969 0.372795 0.158169
0.604994 0.365320 0.150694
0.685019 0.357845 0.143219
0.765044 0.350370 0.135744
0.845069 0.342895 0.128269
0.925094 0.335420 0.120794
1.000000 0.327945 0.113319
1.000000 0.320470 0.105844
1.000000 0.312995 0.098369
1.000000 0.311500 0.096874
0.000000 0.494934 0.196426
0.030751 0.487459 0.188951
0.110776 0.479984 0.181476
0.190801 0.472509 0.174001
0.270826 0.465034 0.166526
0.350851 0.457559 0.159051
0.430876 0.450084 0.151576
0.510901 0.442609 0.144101
0.590926 0.435134 0.136626
0.670951 0.427659 0.129151
0.750976 0.420184 0.121676
0.831001 0.412709 0.114201
0.911026 0.405234 0.106726
0.991051 0.397759 0.099251
1.000000 0.390284 0.091776
1.000000 0.382809 0.084301
1.000000 0.381314 0.082806
0.000000 0.565231 0.182260
0.016585 0.557756 0.174785
0.096610 0.550281 0.167310
0.176635 0.542806 0.159835
0.256660 0.535331 0.152360
0.336685 0.527856 0.144885
0.416710 0.520381 0.137410
0.496735 0.512906 0.129935
0.576760 0.505431 0.122460
0.656785 0.497956 0.114985
0.736810 0.490481 0.107510
0.816835 0.483006 0.100035
0.896860 0.475531 0.092560
0.976885 0.468056 0.085085
1.000000 0.460581 0.077610
1.000000 0.453106 0.070135
1.000000 0.451611 0.068640
0.000000 0.635955 0.168008
0.002333 0.628480 0.160533
0.082358 0.621005 0.153058
0.162383 0.613530 0.145583
0.242408 0.606055 0.138108
0.322433 0.598580 0.130633
0.402458 0.591105 0.123158
0.482483 0.583630 0.115683
0.562508 0.576155 0.108208
0.642533 0.568680 0.100733
0.722558 0.561205 0.093258
0.802583 0.553730 0.085783
0.882608 0.546255 0.078308
0.962633 0.538780 0.070833
1.000000 0.531305 0.063358
1.000000 0.523830 0.055883
1.000000 0.522335 0.054388
0.000000 0.707066 0.153679
0.000000 0.699591 0.146204
0.068029 0.692116 0.138729
0.148054 0.684641 0.131254
0.228079 0.677166 0.123779
0.308104 0.669691 0.116304
0.388129 0.662216 0.108829
0.468154 0.654741 0.101354
0.548179 0.647266 0.093879
0.628204 0.639791 0.086404
0.708229 0.632316 0.078929
0.788254 0.624841 0.071454
0.868279 0.617366 0.063979
0.948304 0.609891 0.056504
1.000000 0.602416 0.049029
1.000000 0.594941 0.041554
1.000000 0.593446 0.040059
0.000000 0.778529 0.139278
0.000000 0.771054 0.131803
0.053628 0.763579 0.124328
0.133653 0.756104 0.116853
0.213678 0.748629 0.109378
0.293703 0.741154 0.101903
0.373728 0.733679 0.094428
0.453753 0.726204 0.086953
0.533778 0.718729 0.079478
0.613803 0.711254 0.072003
0.693828 0.703779 0.064528
0.773853 0.696304 0.057053
0.853878 0.688829 0.049578
0.933903 0.681354 0.042103
1.000000 0.673879 0.034628
1.000000 0.666404 0.027153
1.000000 0.664909 0.025658
0.000000 0.850315 0.124813
0.000000 0.842840 0.117338
0.039163 0.835365 0.109863
0.119188 0.827890 0.102388
0.199213 0.820415 0.094913
0.279238 0.812940 0.087438
0.359263 0.805465 0.079963
0.439288 0.797990 0.072488
0.519313 0.790515 0.065013
0.599338 0.783040 0.057538
0.679363 0.775565 0.050063
0.759388 0.768090 0.042588
0.839413 0.760615 0.035113
0.919438 0.753140 0.027638
0.999463 0.745665 0.020163
1.000000 0.738190 0.012688
1.000000 0.736695 0.011193
0.000000 0.922400 0.110287
0.000000 0.914925 0.102812
0.024637 0.907450 0.095337
0.104662 0.899975 0.087862
0.184687 0.892500 0.080387
0.264712 0.885025 0.072912
0.344737 0.877550 0.065437
0.424762 0.870075 0.057962
0.504787 0.862600 0.050487
0.584812 0.855125 0.043012
0.664837 0.847650 0.035537
0.744862 0.840175 0.028062
0.824887 0.832700 0.020587
0.904912 0.825225 0.013112
0.984937 0.817750 0.005637
1.000000 0.810275 0.000000
1.000000 0.808780 0.000000
0.000000 0.994763 0.095705
0.000000 0.987288 0.088230
0.010055 0.979813 0.080755
0.090080 0.972338 0.073280
0.170105 0.964863 0.065805
0.250130 0.957388 0.058330
0.330155 0.949913 0.050855
0.410180 0.942438 0.043380
0.490205 0.934963 0.035905
0.570230 0.927488 0.028430
0.650255 0.920013 0.020955
0.730280 0.912538 0.013480
0.810305 0.905063 0.006005
0.890330 0.897588 0.000000
0.970355 0.890113 0.000000
1.000000 0.882638 0.000000
1.000000 0.881143 0.000000
0.000000 1.000000 0.081071
0.000000 1.000000 0.073596
0.000000 1.000000 0.066121
0.075446 1.000000 0.058646
0.155471 1.000000 0.051171
0.235496 1.000000 0.043696
0.315521 1.000000 0.036221
0.395546 1.000000 0.028746
0.475571 1.000000 0.021271
0.555596 1.000000 0.013796
0.635621 0.992636 0.006321
0.715646 0.985161 0.000000
0.795671 0.977686 0.000000
0.875696 0.970211 0.000000
0.955721 0.962736 0.000000
1.000000 0.955261 0.000000
1.000000 0.953766 0.000000
0.050602 0.000000 0.392552
0.130627 0.000000 0.385077
0.210652 0.000000 0.377602
0.290677 0.000000 0.370127
0.370702 0.000000 0.362652
0.450727 0.000000 0.355177
0.530752 0.000000 0.347702
0.610777 0.000000 0.340227
0.690802 0.000000 0.332752
0.770827 0.000000 0.325277
0.850852 0.000000 0.317802
0.930877 0.000000 0.310327
1.000000 0.000000 0.302852
1.000000 0.000000 0.295377
1.000000 0.000000 0.287902
1.000000 0.000000 0.280427
1.000000 0.000000 0.278932
0.042574 0.020443 0.384524
