app/src/main/assets/luts/eighties_grain.cube
# ApexStudio filter: eighties_grain
LUT_3D_SIZE 5
DOMAIN_MIN 0.0 0.0 0.0
DOMAIN_MAX 1.0 1.0 1.0
0.060007 0.000000 0.113207
0.380107 0.000000 0.083307
0.700207 0.000000 0.053407
1.000000 0.000000 0.023507
1.000000 0.000000 0.000000
0.012522 0.225652 0.065722
0.332622 0.195752 0.035822
0.652722 0.165852 0.005922
0.972822 0.135952 0.000000
1.000000 0.112032 0.000000
0.000000 0.501204 0.010196
0.277096 0.471304 0.000000
0.597196 0.441404 0.000000
0.917296 0.411504 0.000000
1.000000 0.387584 0.000000
0.000000 0.784799 0.000000
0.219948 0.754899 0.000000
0.540048 0.724999 0.000000
0.860148 0.695099 0.000000
1.000000 0.671179 0.000000
0.000000 1.000000 0.000000
0.161741 1.000000 0.000000
0.481841 1.000000 0.000000
0.801941 0.983956 0.000000
1.000000 0.960036 0.000000
0.047467 0.000000 0.485667
0.367567 0.000000 0.455767
0.687667 0.000000 0.425867
1.000000 0.000000 0.395967
1.000000 0.000000 0.372047
0.000000 0.213112 0.438182
0.320082 0.183212 0.408282
0.640182 0.153312 0.378382
0.960282 0.123412 0.348482
1.000000 0.099492 0.324562
0.000000 0.488664 0.382656
0.264556 0.458764 0.352756
0.584656 0.428864 0.322856
0.904756 0.398964 0.292956
1.000000 0.375044 0.269036
0.000000 0.772259 0.325508
0.207408 0.742359 0.295608
0.527508 0.712459 0.265708
0.847608 0.682559 0.235808
1.000000 0.658639 0.211888
0.000000 1.000000 0.267301
0.149201 1.000000 0.237401
0.469301 1.000000 0.207501
0.789401 0.971416 0.177601
1.000000 0.947496 0.153681
0.034927 0.000000 0.858127
0.355027 0.000000 0.828227
0.675127 0.000000 0.798327
0.995227 0.000000 0.768427
1.000000 0.000000 0.744507
0.000000 0.200572 0.810642
0.307542 0.170672 0.780742
0.627642 0.140772 0.750842
0.947742 0.110872 0.720942
1.000000 0.086952 0.697022
0.000000 0.476124 0.755116
0.252016 0.446224 0.725216
0.572116 0.416324 0.695316
0.892216 0.386424 0.665416
1.000000 0.362504 0.641496
0.000000 0.759719 0.697968
0.194868 0.729819 0.668068
0.514968 0.699919 0.638168
0.835068 0.670019 0.608268
1.000000 0.646099 0.584348
0.000000 1.000000 0.639761
0.136661 1.000000 0.609861
0.456761 0.988776 0.579961
0.776861 0.958876 0.550061
1.000000 0.934956 0.526141
0.022387 0.000000 1.000000
0.342487 0.000000 1.000000
0.662587 0.000000 1.000000
0.982687 0.000000 1.000000
1.000000 0.000000 1.000000
0.000000 0.188032 1.000000
0.295002 0.158132 1.000000
0.615102 0.128232 1.000000
0.935202 0.098332 1.000000
1.000000 0.074412 1.000000
0.000000 0.463584 1.000000
0.239476 0.433684 1.000000
0.559576 0.403784 1.000000
0.879676 0.373884 1.000000
1.000000 0.349964 1.000000
0.000000 0.747179 1.000000
0.182328 0.717279 1.000000
0.502428 0.687379 1.000000
0.822528 0.657479 0.980728
1.000000 0.633559 0.956808
0.000000 1.000000 1.000000
0.124121 1.000000 0.982321
0.444221 0.976236 0.952421
0.764321 0.946336 0.922521
1.000000 0.922416 0.898601
0.018420 0.000000 1.000000
0.338520 0.000000 1.000000
0.658620 0.000000 1.000000
0.978720 0.000000 1.000000
1.000000 0.000000 1.000000
0.000000 0.184065 1.000000
0.291035 0.154165 1.000000
0.611135 0.124265 1.000000
0.931235 0.094365 1.000000
1.000000 0.070445 1.000000
0.000000 0.459617 1.000000
0.235508 0.429717 1.000000
0.555608 0.399817 1.000000
0.875708 0.369917 1.000000
1.000000 0.345997 1.000000
0.000000 0.743212 1.000000
0.178361 0.713312 1.000000
0.498461 0.683412 1.000000
0.818561 0.653512 1.000000
1.000000 0.629592 1.000000
0.000000 1.000000 1.000000
0.120154 1.000000 1.000000
0.440254 0.972268 1.000000
0.760354 0.942368 1.000000
1.000000 0.918448 1.000000
