app/src/main/assets/luts/electric_lime.cube
# ApexStudio filter: electric_lime
LUT_3D_SIZE 17
DOMAIN_MIN 0.0 0.0 0.0
DOMAIN_MAX 1.0 1.0 1.0
0.000000 0.150000 0.000000
0.006250 0.150000 0.000000
0.062500 0.150000 0.000000
0.118750 0.150000 0.000000
0.175000 0.150000 0.000000
0.231250 0.150000 0.000000
0.287500 0.150000 0.000000
0.343750 0.150000 0.000000
0.400000 0.150000 0.000000
0.456250 0.150000 0.000000
0.512500 0.150000 0.000000
0.568750 0.150000 0.000000
0.625000 0.150000 0.000000
0.681250 0.150000 0.000000
0.737500 0.150000 0.000000
0.793750 0.150000 0.000000
0.850000 0.150000 0.000000
0.000000 0.237500 0.000000
0.006250 0.237500 0.000000
0.062500 0.237500 0.000000
0.118750 0.237500 0.000000
0.175000 0.237500 0.000000
0.231250 0.237500 0.000000
0.287500 0.237500 0.000000
0.343750 0.237500 0.000000
0.400000 0.237500 0.000000
0.456250 0.237500 0.000000
0.512500 0.237500 0.000000
0.568750 0.237500 0.000000
0.625000 0.237500 0.000000
0.681250 0.237500 0.000000
0.737500 0.237500 0.000000
0.793750 0.237500 0.000000
0.850000 0.237500 0.000000
0.000000 0.325000 0.000000
0.006250 0.325000 0.000000
0.062500 0.325000 0.000000
0.118750 0.325000 0.000000
0.175000 0.325000 0.000000
0.231250 0.325000 0.000000
0.287500 0.325000 0.000000
0.343750 0.325000 0.000000
0.400000 0.325000 0.000000
0.456250 0.325000 0.000000
0.512500 0.325000 0.000000
0.568750 0.325000 0.000000
0.625000 0.325000 0.000000
0.681250 0.325000 0.000000
0.737500 0.325000 0.000000
0.793750 0.325000 0.000000
0.850000 0.325000 0.000000
0.000000 0.412500 0.000000
0.006250 0.412500 0.000000
0.062500 0.412500 0.000000
0.118750 0.412500 0.000000
0.175000 0.412500 0.000000
0.231250 0.412500 0.000000
0.287500 0.412500 0.000000
0.343750 0.412500 0.000000
0.400000 0.412500 0.000000
0.456250 0.412500 0.000000
0.512500 0.412500 0.000000
0.568750 0.412500 0.000000
0.625000 0.412500 0.000000
0.681250 0.412500 0.000000
0.737500 0.412500 0.000000
0.793750 0.412500 0.000000
0.850000 0.412500 0.000000
0.000000 0.500000 0.000000
0.006250 0.500000 0.000000
0.062500 0.500000 0.000000
0.118750 0.500000 0.000000
0.175000 0.500000 0.000000
0.231250 0.500000 0.000000
0.287500 0.500000 0.000000
0.343750 0.500000 0.000000
0.400000 0.500000 0.000000
0.456250 0.500000 0.000000
0.512500 0.500000 0.000000
0.568750 0.500000 0.000000
0.625000 0.500000 0.000000
0.681250 0.500000 0.000000
0.737500 0.500000 0.000000
0.793750 0.500000 0.000000
0.850000 0.500000 0.000000
0.000000 0.587500 0.000000
0.006250 0.587500 0.000000
0.062500 0.587500 0.000000
0.118750 0.587500 0.000000
0.175000 0.587500 0.000000
0.231250 0.587500 0.000000
0.287500 0.587500 0.000000
0.343750 0.587500 0.000000
0.400000 0.587500 0.000000
0.456250 0.587500 0.000000
0.512500 0.587500 0.000000
0.568750 0.587500 0.000000
0.625000 0.587500 0.000000
0.681250 0.587500 0.000000
0.737500 0.587500 0.000000
0.793750 0.587500 0.000000
0.850000 0.587500 0.000000
0.000000 0.675000 0.000000
0.006250 0.675000 0.000000
0.062500 0.675000 0.000000
0.118750 0.675000 0.000000
0.175000 0.675000 0.000000
0.231250 0.675000 0.000000
0.287500 0.675000 0.000000
0.343750 0.675000 0.000000
0.400000 0.675000 0.000000
0.456250 0.675000 0.000000
0.512500 0.675000 0.000000
0.568750 0.675000 0.000000
0.625000 0.675000 0.000000
0.681250 0.675000 0.000000
0.737500 0.675000 0.000000
0.793750 0.675000 0.000000
0.850000 0.675000 0.000000
0.000000 0.762500 0.000000
0.006250 0.762500 0.000000
0.062500 0.762500 0.000000
0.118750 0.762500 0.000000
0.175000 0.762500 0.000000
0.231250 0.762500 0.000000
0.287500 0.762500 0.000000
0.343750 0.762500 0.000000
0.400000 0.762500 0.000000
0.456250 0.762500 0.000000
0.512500 0.762500 0.000000
0.568750 0.762500 0.000000
0.625000 0.762500 0.000000
0.681250 0.762500 0.000000
0.737500 0.762500 0.000000
0.793750 0.762500 0.000000
0.850000 0.762500 0.000000
0.000000 0.850000 0.000000
0.006250 0.850000 0.000000
0.062500 0.850000 0.000000
0.118750 0.850000 0.000000
0.175000 0.850000 0.000000
0.231250 0.850000 0.000000
0.287500 0.850000 0.000000
0.343750 0.850000 0.000000
0.400000 0.850000 0.000000
0.456250 0.850000 0.000000
0.512500 0.850000 0.000000
0.568750 0.850000 0.000000
0.625000 0.850000 0.000000
0.681250 0.850000 0.000000
0.737500 0.850000 0.000000
0.793750 0.850000 0.000000
0.850000 0.850000 0.000000
0.000000 0.937500 0.000000
0.006250 0.937500 0.000000
0.062500 0.937500 0.000000
0.118750 0.937500 0.000000
0.175000 0.937500 0.000000
0.231250 0.937500 0.000000
0.287500 0.937500 0.000000
0.343750 0.937500 0.000000
0.400000 0.937500 0.000000
0.456250 0.937500 0.000000
0.512500 0.937500 0.000000
0.568750 0.937500 0.000000
0.625000 0.937500 0.000000
0.681250 0.937500 0.000000
0.737500 0.937500 0.000000
0.793750 0.937500 0.000000
0.850000 0.937500 0.000000
0.000000 1.000000 0.000000
0.006250 1.000000 0.000000
0.062500 1.000000 0.000000
0.118750 1.000000 0.000000
0.175000 1.000000 0.000000
0.231250 1.000000 0.000000
0.287500 1.000000 0.000000
0.343750 1.000000 0.000000
0.400000 1.000000 0.000000
0.456250 1.000000 0.000000
0.512500 1.000000 0.000000
0.568750 1.000000 0.000000
0.625000 1.000000 0.000000
0.681250 1.000000 0.000000
0.737500 1.000000 0.000000
0.793750 1.000000 0.000000
0.850000 1.000000 0.000000
0.000000 1.000000 0.000000
0.006250 1.000000 0.000000
0.062500 1.000000 0.000000
0.118750 1.000000 0.000000
0.175000 1.000000 0.000000
0.231250 1.000000 0.000000
0.287500 1.000000 0.000000
0.343750 1.000000 0.000000
0.400000 1.000000 0.000000
0.456250 1.000000 0.000000
0.512500 1.000000 0.000000
0.568750 1.000000 0.000000
0.625000 1.000000 0.000000
0.681250 1.000000 0.000000
0.737500 1.000000 0.000000
0.793750 1.000000 0.000000
0.850000 1.000000 0.000000
0.000000 1.000000 0.000000
0.006250 1.000000 0.000000
0.062500 1.000000 0.000000
0.118750 1.000000 0.000000
0.175000 1.000000 0.000000
0.231250 1.000000 0.000000
0.287500 1.000000 0.000000
0.343750 1.000000 0.000000
0.400000 1.000000 0.000000
0.456250 1.000000 0.000000
0.512500 1.000000 0.000000
0.568750 1.000000 0.000000
0.625000 1.000000 0.000000
0.681250 1.000000 0.000000
0.737500 1.000000 0.000000
0.793750 1.000000 0.000000
0.850000 1.000000 0.000000
0.000000 1.000000 0.000000
0.006250 1.000000 0.000000
0.062500 1.000000 0.000000
0.118750 1.000000 0.000000
0.175000 1.000000 0.000000
0.231250 1.000000 0.000000
0.287500 1.000000 0.000000
0.343750 1.000000 0.000000
0.400000 1.000000 0.000000
0.456250 1.000000 0.000000
0.512500 1.000000 0.000000
0.568750 1.000000 0.000000
0.625000 1.000000 0.000000
0.681250 1.000000 0.000000
0.737500 1.000000 0.000000
0.793750 1.000000 0.000000
0.850000 1.000000 0.000000
0.000000 1.000000 0.000000
0.006250 1.000000 0.000000
0.062500 1.000000 0.000000
0.118750 1.000000 0.000000
0.175000 1.000000 0.000000
0.231250 1.000000 0.000000
0.287500 1.000000 0.000000
0.343750 1.000000 0.000000
0.400000 1.000000 0.000000
0.456250 1.000000 0.000000
0.512500 1.000000 0.000000
0.568750 1.000000 0.000000
0.625000 1.000000 0.000000
0.681250 1.000000 0.000000
0.737500 1.000000 0.000000
0.793750 1.000000 0.000000
0.850000 1.000000 0.000000
0.000000 1.000000 0.000000
0.006250 1.000000 0.000000
0.062500 1.000000 0.000000
0.118750 1.000000 0.000000
0.175000 1.000000 0.000000
0.231250 1.000000 0.000000
0.287500 1.000000 0.000000
0.343750 1.000000 0.000000
0.400000 1.000000 0.000000
0.456250 1.000000 0.000000
0.512500 1.000000 0.000000
0.568750 1.000000 0.000000
0.625000 1.000000 0.000000
0.681250 1.000000 0.000000
0.737500 1.000000 0.000000
0.793750 1.000000 0.000000
0.850000 1.000000 0.000000
0.000000 1.000000 0.000000
0.006250 1.000000 0.000000
0.062500 1.000000 0.000000
0.118750 1.000000 0.000000
0.175000 1.000000 0.000000
0.231250 1.000000 0.000000
0.287500 1.000000 0.000000
0.343750 1.000000 0.000000
0.400000 1.000000 0.000000
0.456250 1.000000 0.000000
0.512500 1.000000 0.000000
0.568750 1.000000 0.000000
0.625000 1.000000 0.000000
0.681250 1.000000 0.000000
0.737500 1.000000 0.000000
0.793750 1.000000 0.000000
0.850000 1.000000 0.000000
0.000000 0.150000 0.000000
0.006250 0.150000 0.000000
0.062500 0.150000 0.000000
0.118750 0.150000 0.000000
0.175000 0.150000 0.000000
0.231250 0.150000 0.000000
0.287500 0.150000 0.000000
0.343750 0.150000 0.000000
0.400000 0.150000 0.000000
0.456250 0.150000 0.000000
0.512500 0.150000 0.000000
0.568750 0.150000 0.000000
0.625000 0.150000 0.000000
0.681250 0.150000 0.000000
0.737500 0.150000 0.000000
0.793750 0.150000 0.000000
0.850000 0.150000 0.000000
0.000000 0.237500 0.000000
0.006250 0.237500 0.000000
0.062500 0.237500 0.000000
0.118750 0.237500 0.000000
0.175000 0.237500 0.000000
0.231250 0.237500 0.000000
0.287500 0.237500 0.000000
0.343750 0.237500 0.000000
0.400000 0.237500 0.000000
0.456250 0.237500 0.000000
0.512500 0.237500 0.000000
0.568750 0.237500 0.000000
0.625000 0.237500 0.000000
0.681250 0.237500 0.000000
0.737500 0.237500 0.000000
0.793750 0.237500 0.000000
0.850000 0.237500 0.000000
0.000000 0.325000 0.000000
0.006250 0.325000 0.000000
0.062500 0.325000 0.000000
0.118750 0.325000 0.000000
0.175000 0.325000 0.000000
0.231250 0.325000 0.000000
0.287500 0.325000 0.000000
0.343750 0.325000 0.000000
0.400000 0.325000 0.000000
0.456250 0.325000 0.000000
0.512500 0.325000 0.000000
0.568750 0.325000 0.000000
0.625000 0.325000 0.000000
0.681250 0.325000 0.000000
0.737500 0.325000 0.000000
0.793750 0.325000 0.000000
0.850000 0.325000 0.000000
0.000000 0.412500 0.000000
0.006250 0.412500 0.000000
0.062500 0.412500 0.000000
0.118750 0.412500 0.000000
0.175000 0.412500 0.000000
0.231250 0.412500 0.000000
0.287500 0.412500 0.000000
0.343750 0.412500 0.000000
0.400000 0.412500 0.000000
0.456250 0.412500 0.000000
0.512500 0.412500 0.000000
0.568750 0.412500 0.000000
0.625000 0.412500 0.000000
0.681250 0.412500 0.000000
0.737500 0.412500 0.000000
0.793750 0.412500 0.000000
0.850000 0.412500 0.000000
0.000000 0.500000 0.000000
0.006250 0.500000 0.000000
0.062500 0.500000 0.000000
0.118750 0.500000 0.000000
0.175000 0.500000 0.000000
0.231250 0.500000 0.000000
0.287500 0.500000 0.000000
0.343750 0.500000 0.000000
0.400000 0.500000 0.000000
0.456250 0.500000 0.000000
0.512500 0.500000 0.000000
0.568750 0.500000 0.000000
0.625000 0.500000 0.000000
0.681250 0.500000 0.000000
0.737500 0.500000 0.000000
0.793750 0.500000 0.000000
0.850000 0.500000 0.000000
0.000000 0.587500 0.000000
0.006250 0.587500 0.000000
0.062500 0.587500 0.000000
0.118750 0.587500 0.000000
0.175000 0.587500 0.000000
0.231250 0.587500 0.000000
0.287500 0.587500 0.000000
0.343750 0.587500 0.000000
0.400000 0.587500 0.000000
0.456250 0.587500 0.000000
0.512500 0.587500 0.000000
0.568750 0.587500 0.000000
0.625000 0.587500 0.000000
0.681250 0.587500 0.000000
0.737500 0.587500 0.000000
0.793750 0.587500 0.000000
0.850000 0.587500 0.000000
0.000000 0.675000 0.000000
0.006250 0.675000 0.000000
0.062500 0.675000 0.000000
0.118750 0.675000 0.000000
0.175000 0.675000 0.000000
0.231250 0.675000 0.000000
0.287500 0.675000 0.000000
0.343750 0.675000 0.000000
0.400000 0.675000 0.000000
0.456250 0.675000 0.000000
0.512500 0.675000 0.000000
0.568750 0.675000 0.000000
0.625000 0.675000 0.000000
0.681250 0.675000 0.000000
0.737500 0.675000 0.000000
0.793750 0.675000 0.000000
0.850000 0.675000 0.000000
0.000000 0.762500 0.000000
0.006250 0.762500 0.000000
0.062500 0.762500 0.000000
0.118750 0.762500 0.000000
0.175000 0.762500 0.000000
0.231250 0.762500 0.000000
0.287500 0.762500 0.000000
0.343750 0.762500 0.000000
0.400000 0.762500 0.000000
0.456250 0.762500 0.000000
0.512500 0.762500 0.000000
0.568750 0.762500 0.000000
0.625000 0.762500 0.000000
0.681250 0.762500 0.000000
0.737500 0.762500 0.000000
0.793750 0.762500 0.000000
0.850000 0.762500 0.000000
0.000000 0.850000 0.000000
0.006250 0.850000 0.000000
0.062500 0.850000 0.000000
0.118750 0.850000 0.000000
0.175000 0.850000 0.000000
0.231250 0.850000 0.000000
0.287500 0.850000 0.000000
0.343750 0.850000 0.000000
0.400000 0.850000 0.000000
0.456250 0.850000 0.000000
0.512500 0.850000 0.000000
0.568750 0.850000 0.000000
0.625000 0.850000 0.000000
0.681250 0.850000 0.000000
0.737500 0.850000 0.000000
0.793750 0.850000 0.000000
0.850000 0.850000 0.000000
0.000000 0.937500 0.000000
0.006250 0.937500 0.000000
0.062500 0.937500 0.000000
0.118750 0.937500 0.000000
0.175000 0.937500 0.000000
0.231250 0.937500 0.000000
0.287500 0.937500 0.000000
0.343750 0.937500 0.000000
0.400000 0.937500 0.000000
0.456250 0.937500 0.000000
0.512500 0.937500 0.000000
0.568750 0.937500 0.000000
0.625000 0.937500 0.000000
0.681250 0.937500 0.000000
0.737500 0.937500 0.000000
0.793750 0.937500 0.000000
0.850000 0.937500 0.000000
0.000000 1.000000 0.000000
0.006250 1.000000 0.000000
0.062500 1.000000 0.000000
0.118750 1.000000 0.000000
0.175000 1.000000 0.000000
0.231250 1.000000 0.000000
0.287500 1.000000 0.000000
0.343750 1.000000 0.000000
0.400000 1.000000 0.000000
0.456250 1.000000 0.000000
0.512500 1.000000 0.000000
0.568750 1.000000 0.000000
0.625000 1.000000 0.000000
0.681250 1.000000 0.000000
0.737500 1.000000 0.000000
0.793750 1.000000 0.000000
0.850000 1.000000 0.000000
0.000000 1.000000 0.000000
0.006250 1.000000 0.000000
0.062500 1.000000 0.000000
0.118750 1.000000 0.000000
0.175000 1.000000 0.000000
0.231250 1.000000 0.000000
0.287500 1.000000 0.000000
0.343750 1.000000 0.000000
0.400000 1.000000 0.000000
0.456250 1.000000 0.000000
0.512500 1.000000 0.000000
0.568750 1.000000 0.000000
0.625000 1.000000 0.000000
0.681250 1.000000 0.000000
0.737500 1.000000 0.000000
0.793750 1.000000 0.000000
0.850000 1.000000 0.000000
0.000000 1.000000 0.000000
0.006250 1.000000 0.000000
0.062500 1.000000 0.000000
0.118750 1.000000 0.000000
0.175000 1.000000 0.000000
0.231250 1.000000 0.000000
0.287500 1.000000 0.000000
0.343750 1.000000 0.000000
0.400000 1.000000 0.000000
0.456250 1.000000 0.000000
0.512500 1.000000 0.000000
0.568750 1.000000 0.000000
0.625000 1.000000 0.000000
0.681250 1.000000 0.000000
0.737500 1.000000 0.000000
0.793750 1.000000 0.000000
0.850000 1.000000 0.000000
0.000000 1.000000 0.000000
0.006250 1.000000 0.000000
0.062500 1.000000 0.000000
0.118750 1.000000 0.000000
0.175000 1.000000 0.000000
0.231250 1.000000 0.000000
0.287500 1.000000 0.000000
0.343750 1.000000 0.000000
0.400000 1.000000 0.000000
0.456250 1.000000 0.000000
0.512500 1.000000 0.000000
0.568750 1.000000 0.000000
0.625000 1.000000 0.000000
0.681250 1.000000 0.000000
0.737500 1.000000 0.000000
0.793750 1.000000 0.000000
0.850000 1.000000 0.000000
0.000000 1.000000 0.000000
0.006250 1.000000 0.000000
0.062500 1.000000 0.000000
0.118750 1.000000 0.000000
0.175000 1.000000 0.000000
0.231250 1.000000 0.000000
0.287500 1.000000 0.000000
0.343750 1.000000 0.000000
0.400000 1.000000 0.000000
0.456250 1.000000 0.000000
0.512500 1.000000 0.000000
0.568750 1.000000 0.000000
0.625000 1.000000 0.000000
0.681250 1.000000 0.000000
0.737500 1.000000 0.000000
0.793750 1.000000 0.000000
0.850000 1.000000 0.000000
0.000000 1.000000 0.000000
0.006250 1.000000 0.000000
0.062500 1.000000 0.000000
0.118750 1.000000 0.000000
0.175000 1.000000 0.000000
0.231250 1.000000 0.000000
0.287500 1.000000 0.000000
0.343750 1.000000 0.000000
0.400000 1.000000 0.000000
0.456250 1.000000 0.000000
0.512500 1.000000 0.000000
0.568750 1.000000 0.000000
0.625000 1.000000 0.000000
0.681250 1.000000 0.000000
0.737500 1.000000 0.000000
0.793750 1.000000 0.000000
0.850000 1.000000 0.000000
0.000000 1.000000 0.000000
0.006250 1.000000 0.000000
0.062500 1.000000 0.000000
0.118750 1.000000 0.000000
0.175000 1.000000 0.000000
0.231250 1.000000 0.000000
0.287500 1.000000 0.000000
0.343750 1.000000 0.000000
0.400000 1.000000 0.000000
0.456250 1.000000 0.000000
0.512500 1.000000 0.000000
0.568750 1.000000 0.000000
0.625000 1.000000 0.000000
0.681250 1.000000 0.000000
0.737500 1.000000 0.000000
0.793750 1.000000 0.000000
0.850000 1.000000 0.000000
0.000000 0.150000 0.026250
0.006250 0.150000 0.026250
0.062500 0.150000 0.026250
0.118750 0.150000 0.026250
0.175000 0.150000 0.026250
0.231250 0.150000 0.026250
0.287500 0.150000 0.026250
0.343750 0.150000 0.026250
0.400000 0.150000 0.026250
0.456250 0.150000 0.026250
0.512500 0.150000 0.026250
0.568750 0.150000 0.026250
0.625000 0.150000 0.026250
0.681250 0.150000 0.026250
0.737500 0.150000 0.026250
0.793750 0.150000 0.026250
0.850000 0.150000 0.026250
0.000000 0.237500 0.026250
0.006250 0.237500 0.026250
0.062500 0.237500 0.026250
0.118750 0.237500 0.026250
0.175000 0.237500 0.026250
0.231250 0.237500 0.026250
0.287500 0.237500 0.026250
0.343750 0.237500 0.026250
0.400000 0.237500 0.026250
0.456250 0.237500 0.026250
0.512500 0.237500 0.026250
0.568750 0.237500 0.026250
0.625000 0.237500 0.026250
0.681250 0.237500 0.026250
0.737500 0.237500 0.026250
0.793750 0.237500 0.026250
0.850000 0.237500 0.026250
0.000000 0.325000 0.026250
0.006250 0.325000 0.026250
0.062500 0.325000 0.026250
0.118750 0.325000 0.026250
0.175000 0.325000 0.026250
0.231250 0.325000 0.026250
0.287500 0.325000 0.026250
0.343750 0.325000 0.026250
0.400000 0.325000 0.026250
0.456250 0.325000 0.026250
0.512500 0.325000 0.026250
0.568750 0.325000 0.026250
0.625000 0.325000 0.026250
0.681250 0.325000 0.026250
0.737500 0.325000 0.026250
0.793750 0.325000 0.026250
0.850000 0.325000 0.026250
0.000000 0.412500 0.026250
0.006250 0.412500 0.026250
0.062500 0.412500 0.026250
0.118750 0.412500 0.026250
0.175000 0.412500 0.026250
0.231250 0.412500 0.026250
0.287500 0.412500 0.026250
0.343750 0.412500 0.026250
0.400000 0.412500 0.026250
0.456250 0.412500 0.026250
0.512500 0.412500 0.026250
0.568750 0.412500 0.026250
0.625000 0.412500 0.026250
0.681250 0.412500 0.026250
0.737500 0.412500 0.026250
0.793750 0.412500 0.026250
0.850000 0.412500 0.026250
0.000000 0.500000 0.026250
0.006250 0.500000 0.026250
0.062500 0.500000 0.026250
0.118750 0.500000 0.026250
0.175000 0.500000 0.026250
0.231250 0.500000 0.026250
0.287500 0.500000 0.026250
0.343750 0.500000 0.026250
0.400000 0.500000 0.026250
0.456250 0.500000 0.026250
0.512500 0.500000 0.026250
0.568750 0.500000 0.026250
0.625000 0.500000 0.026250
0.681250 0.500000 0.026250
0.737500 0.500000 0.026250
0.793750 0.500000 0.026250
0.850000 0.500000 0.026250
0.000000 0.587500 0.026250
0.006250 0.587500 0.026250
0.062500 0.587500 0.026250
0.118750 0.587500 0.026250
0.175000 0.587500 0.026250
0.231250 0.587500 0.026250
0.287500 0.587500 0.026250
0.343750 0.587500 0.026250
0.400000 0.587500 0.026250
0.456250 0.587500 0.026250
0.512500 0.587500 0.026250
0.568750 0.587500 0.026250
0.625000 0.587500 0.026250
0.681250 0.587500 0.026250
0.737500 0.587500 0.026250
0.793750 0.587500 0.026250
0.850000 0.587500 0.026250
0.000000 0.675000 0.026250
0.006250 0.675000 0.026250
0.062500 0.675000 0.026250
0.118750 0.675000 0.026250
0.175000 0.675000 0.026250
0.231250 0.675000 0.026250
0.287500 0.675000 0.026250
0.343750 0.675000 0.026250
0.400000 0.675000 0.026250
0.456250 0.675000 0.026250
0.512500 0.675000 0.026250
0.568750 0.675000 0.026250
0.625000 0.675000 0.026250
0.681250 0.675000 0.026250
0.737500 0.675000 0.026250
0.793750 0.675000 0.026250
0.850000 0.675000 0.026250
0.000000 0.762500 0.026250
0.006250 0.762500 0.026250
0.062500 0.762500 0.026250
0.118750 0.762500 0.026250
0.175000 0.762500 0.026250
0.231250 0.762500 0.026250
0.287500 0.762500 0.026250
0.343750 0.762500 0.026250
0.400000 0.762500 0.026250
0.456250 0.762500 0.026250
0.512500 0.762500 0.026250
0.568750 0.762500 0.026250
0.625000 0.762500 0.026250
0.681250 0.762500 0.026250
0.737500 0.762500 0.026250
0.793750 0.762500 0.026250
0.850000 0.762500 0.026250
0.000000 0.850000 0.026250
0.006250 0.850000 0.026250
0.062500 0.850000 0.026250
0.118750 0.850000 0.026250
0.175000 0.850000 0.026250
0.231250 0.850000 0.026250
0.287500 0.850000 0.026250
0.343750 0.850000 0.026250
0.400000 0.850000 0.026250
0.456250 0.850000 0.026250
0.512500 0.850000 0.026250
0.568750 0.850000 0.026250
0.625000 0.850000 0.026250
0.681250 0.850000 0.026250
0.737500 0.850000 0.026250
0.793750 0.850000 0.026250
0.850000 0.850000 0.026250
0.000000 0.937500 0.026250
0.006250 0.937500 0.026250
0.062500 0.937500 0.026250
0.118750 0.937500 0.026250
0.175000 0.937500 0.026250
0.231250 0.937500 0.026250
0.287500 0.937500 0.026250
0.343750 0.937500 0.026250
0.400000 0.937500 0.026250
0.456250 0.937500 0.026250
0.512500 0.937500 0.026250
0.568750 0.937500 0.026250
0.625000 0.937500 0.026250
0.681250 0.937500 0.026250
0.737500 0.937500 0.026250
0.793750 0.937500 0.026250
0.850000 0.937500 0.026250
0.000000 1.000000 0.026250
0.006250 1.000000 0.026250
0.062500 1.000000 0.026250
0.118750 1.000000 0.026250
0.175000 1.000000 0.026250
0.231250 1.000000 0.026250
0.287500 1.000000 0.026250
0.343750 1.000000 0.026250
0.400000 1.000000 0.026250
0.456250 1.000000 0.026250
0.512500 1.000000 0.026250
0.568750 1.000000 0.026250
0.625000 1.000000 0.026250
0.681250 1.000000 0.026250
0.737500 1.000000 0.026250
0.793750 1.000000 0.026250
0.850000 1.000000 0.026250
0.000000 1.000000 0.026250
0.006250 1.000000 0.026250
0.062500 1.000000 0.026250
0.118750 1.000000 0.026250
0.175000 1.000000 0.026250
0.231250 1.000000 0.026250
0.287500 1.000000 0.026250
0.343750 1.000000 0.026250
0.400000 1.000000 0.026250
0.456250 1.000000 0.026250
0.512500 1.000000 0.026250
0.568750 1.000000 0.026250
0.625000 1.000000 0.026250
0.681250 1.000000 0.026250
0.737500 1.000000 0.026250
0.793750 1.000000 0.026250
0.850000 1.000000 0.026250
0.000000 1.000000 0.026250
0.006250 1.000000 0.026250
0.062500 1.000000 0.026250
0.118750 1.000000 0.026250
0.175000 1.000000 0.026250
0.231250 1.000000 0.026250
0.287500 1.000000 0.026250
0.343750 1.000000 0.026250
0.400000 1.000000 0.026250
0.456250 1.000000 0.026250
0.512500 1.000000 0.026250
0.568750 1.000000 0.026250
0.625000 1.000000 0.026250
0.681250 1.000000 0.026250
0.737500 1.000000 0.026250
0.793750 1.000000 0.026250
0.850000 1.000000 0.026250
0.000000 1.000000 0.026250
0.006250 1.000000 0.026250
0.062500 1.000000 0.026250
0.118750 1.000000 0.026250
0.175000 1.000000 0.026250
0.231250 1.000000 0.026250
0.287500 1.000000 0.026250
0.343750 1.000000 0.026250
0.400000 1.000000 0.026250
0.456250 1.000000 0.026250
0.512500 1.000000 0.026250
0.568750 1.000000 0.026250
0.625000 1.000000 0.026250
0.681250 1.000000 0.026250
0.737500 1.000000 0.026250
0.793750 1.000000 0.026250
0.850000 1.000000 0.026250
0.000000 1.000000 0.026250
0.006250 1.000000 0.026250
0.062500 1.000000 0.026250
0.118750 1.000000 0.026250
0.175000 1.000000 0.026250
0.231250 1.000000 0.026250
0.287500 1.000000 0.026250
0.343750 1.000000 0.026250
0.400000 1.000000 0.026250
0.456250 1.000000 0.026250
0.512500 1.000000 0.026250
0.568750 1.000000 0.026250
0.625000 1.000000 0.026250
0.681250 1.000000 0.026250
0.737500 1.000000 0.026250
0.793750 1.000000 0.026250
0.850000 1.000000 0.026250
0.000000 1.000000 0.026250
0.006250 1.000000 0.026250
0.062500 1.000000 0.026250
0.118750 1.000000 0.026250
0.175000 1.000000 0.026250
0.231250 1.000000 0.026250
0.287500 1.000000 0.026250
0.343750 1.000000 0.026250
0.400000 1.000000 0.026250
0.456250 1.000000 0.026250
0.512500 1.000000 0.026250
0.568750 1.000000 0.026250
0.625000 1.000000 0.026250
0.681250 1.000000 0.026250
0.737500 1.000000 0.026250
0.793750 1.000000 0.026250
0.850000 1.000000 0.026250
0.000000 1.000000 0.026250
0.006250 1.000000 0.026250
0.062500 1.000000 0.026250
0.118750 1.000000 0.026250
0.175000 1.000000 0.026250
0.231250 1.000000 0.026250
0.287500 1.000000 0.026250
0.343750 1.000000 0.026250
0.400000 1.000000 0.026250
0.456250 1.000000 0.026250
0.512500 1.000000 0.026250
0.568750 1.000000 0.026250
0.625000 1.000000 0.026250
0.681250 1.000000 0.026250
0.737500 1.000000 0.026250
0.793750 1.000000 0.026250
0.850000 1.000000 0.026250
0.000000 0.150000 0.079375
0.006250 0.150000 0.079375
0.062500 0.150000 0.079375
0.118750 0.150000 0.079375
0.175000 0.150000 0.079375
0.231250 0.150000 0.079375
0.287500 0.150000 0.079375
0.343750 0.150000 0.079375
0.400000 0.150000 0.079375
0.456250 0.150000 0.079375
0.512500 0.150000 0.079375
0.568750 0.150000 0.079375
0.625000 0.150000 0.079375
0.681250 0.150000 0.079375
0.737500 0.150000 0.079375
0.793750 0.150000 0.079375
0.850000 0.150000 0.079375
0.000000 0.237500 0.079375
