app/src/main/assets/luts/electric_lime.cube
# ApexStudio filter: electric_lime
LUT_3D_SIZE 5
DOMAIN_MIN 0.0 0.0 0.0
DOMAIN_MAX 1.0 1.0 1.0
0.000000 0.150000 0.000000
0.175000 0.150000 0.000000
0.400000 0.150000 0.000000
0.625000 0.150000 0.000000
0.850000 0.150000 0.000000
0.000000 0.500000 0.000000
0.175000 0.500000 0.000000
0.400000 0.500000 0.000000
0.625000 0.500000 0.000000
0.850000 0.500000 0.000000
0.000000 0.850000 0.000000
0.175000 0.850000 0.000000
0.400000 0.850000 0.000000
0.625000 0.850000 0.000000
0.850000 0.850000 0.000000
0.000000 1.000000 0.000000
0.175000 1.000000 0.000000
0.400000 1.000000 0.000000
0.625000 1.000000 0.000000
0.850000 1.000000 0.000000
0.000000 1.000000 0.000000
0.175000 1.000000 0.000000
0.400000 1.000000 0.000000
0.625000 1.000000 0.000000
0.850000 1.000000 0.000000
0.000000 0.150000 0.132500
0.175000 0.150000 0.132500
0.400000 0.150000 0.132500
0.625000 0.150000 0.132500
0.850000 0.150000 0.132500
0.000000 0.500000 0.132500
0.175000 0.500000 0.132500
0.400000 0.500000 0.132500
0.625000 0.500000 0.132500
0.850000 0.500000 0.132500
0.000000 0.850000 0.132500
0.175000 0.850000 0.132500
0.400000 0.850000 0.132500
0.625000 0.850000 0.132500
0.850000 0.850000 0.132500
0.000000 1.000000 0.132500
0.175000 1.000000 0.132500
0.400000 1.000000 0.132500
0.625000 1.000000 0.132500
0.850000 1.000000 0.132500
0.000000 1.000000 0.132500
0.175000 1.000000 0.132500
0.400000 1.000000 0.132500
0.625000 1.000000 0.132500
0.850000 1.000000 0.132500
0.000000 0.150000 0.345000
0.175000 0.150000 0.345000
0.400000 0.150000 0.345000
0.625000 0.150000 0.345000
0.850000 0.150000 0.345000
0.000000 0.500000 0.345000
0.175000 0.500000 0.345000
0.400000 0.500000 0.345000
0.625000 0.500000 0.345000
0.850000 0.500000 0.345000
0.000000 0.850000 0.345000
0.175000 0.850000 0.345000
0.400000 0.850000 0.345000
0.625000 0.850000 0.345000
0.850000 0.850000 0.345000
0.000000 1.000000 0.345000
0.175000 1.000000 0.345000
0.400000 1.000000 0.345000
0.625000 1.000000 0.345000
0.850000 1.000000 0.345000
0.000000 1.000000 0.345000
0.175000 1.000000 0.345000
0.400000 1.000000 0.345000
0.625000 1.000000 0.345000
0.850000 1.000000 0.345000
0.000000 0.150000 0.557500
0.175000 0.150000 0.557500
0.400000 0.150000 0.557500
0.625000 0.150000 0.557500
0.850000 0.150000 0.557500
0.000000 0.500000 0.557500
0.175000 0.500000 0.557500
0.400000 0.500000 0.557500
0.625000 0.500000 0.557500
0.850000 0.500000 0.557500
0.000000 0.850000 0.557500
0.175000 0.850000 0.557500
0.400000 0.850000 0.557500
0.625000 0.850000 0.557500
0.850000 0.850000 0.557500
0.000000 1.000000 0.557500
0.175000 1.000000 0.557500
0.400000 1.000000 0.557500
0.625000 1.000000 0.557500
0.850000 1.000000 0.557500
0.000000 1.000000 0.557500
0.175000 1.000000 0.557500
0.400000 1.000000 0.557500
0.625000 1.000000 0.557500
0.850000 1.000000 0.557500
0.000000 0.150000 0.770000
0.175000 0.150000 0.770000
0.400000 0.150000 0.770000
0.625000 0.150000 0.770000
0.850000 0.150000 0.770000
0.000000 0.500000 0.770000
0.175000 0.500000 0.770000
0.400000 0.500000 0.770000
0.625000 0.500000 0.770000
0.850000 0.500000 0.770000
0.000000 0.850000 0.770000
0.175000 0.850000 0.770000
0.400000 0.850000 0.770000
0.625000 0.850000 0.770000
0.850000 0.850000 0.770000
0.000000 1.000000 0.770000
0.175000 1.000000 0.770000
0.400000 1.000000 0.770000
0.625000 1.000000 0.770000
0.850000 1.000000 0.770000
0.000000 1.000000 0.770000
0.175000 1.000000 0.770000
0.400000 1.000000 0.770000
0.625000 1.000000 0.770000
0.850000 1.000000 0.770000
