app/src/main/assets/luts/expired_film.cube
# ApexStudio filter: expired_film
LUT_3D_SIZE 9
DOMAIN_MIN 0.0 0.0 0.0
DOMAIN_MAX 1.0 1.0 1.0
0.020000 0.000000 0.080000
0.151250 0.000000 0.080000
0.282500 0.000000 0.080000
0.413750 0.000000 0.080000
0.545000 0.000000 0.080000
0.676250 0.000000 0.080000
0.807500 0.000000 0.080000
0.938750 0.000000 0.080000
1.000000 0.000000 0.080000
0.020000 0.098750 0.080000
0.151250 0.098750 0.080000
0.282500 0.098750 0.080000
0.413750 0.098750 0.080000
0.545000 0.098750 0.080000
0.676250 0.098750 0.080000
0.807500 0.098750 0.080000
0.938750 0.098750 0.080000
1.000000 0.098750 0.080000
0.020000 0.217500 0.080000
0.151250 0.217500 0.080000
0.282500 0.217500 0.080000
0.413750 0.217500 0.080000
0.545000 0.217500 0.080000
0.676250 0.217500 0.080000
0.807500 0.217500 0.080000
0.938750 0.217500 0.080000
1.000000 0.217500 0.080000
0.020000 0.336250 0.080000
0.151250 0.336250 0.080000
0.282500 0.336250 0.080000
0.413750 0.336250 0.080000
0.545000 0.336250 0.080000
0.676250 0.336250 0.080000
0.807500 0.336250 0.080000
0.938750 0.336250 0.080000
1.000000 0.336250 0.080000
0.020000 0.455000 0.080000
0.151250 0.455000 0.080000
0.282500 0.455000 0.080000
0.413750 0.455000 0.080000
0.545000 0.455000 0.080000
0.676250 0.455000 0.080000
0.807500 0.455000 0.080000
0.938750 0.455000 0.080000
1.000000 0.455000 0.080000
0.020000 0.573750 0.080000
0.151250 0.573750 0.080000
0.282500 0.573750 0.080000
0.413750 0.573750 0.080000
0.545000 0.573750 0.080000
0.676250 0.573750 0.080000
0.807500 0.573750 0.080000
0.938750 0.573750 0.080000
1.000000 0.573750 0.080000
0.020000 0.692500 0.080000
0.151250 0.692500 0.080000
0.282500 0.692500 0.080000
0.413750 0.692500 0.080000
0.545000 0.692500 0.080000
0.676250 0.692500 0.080000
0.807500 0.692500 0.080000
0.938750 0.692500 0.080000
1.000000 0.692500 0.080000
0.020000 0.811250 0.080000
0.151250 0.811250 0.080000
0.282500 0.811250 0.080000
0.413750 0.811250 0.080000
0.545000 0.811250 0.080000
0.676250 0.811250 0.080000
0.807500 0.811250 0.080000
0.938750 0.811250 0.080000
1.000000 0.811250 0.080000
0.020000 0.930000 0.080000
0.151250 0.930000 0.080000
0.282500 0.930000 0.080000
0.413750 0.930000 0.080000
0.545000 0.930000 0.080000
0.676250 0.930000 0.080000
0.807500 0.930000 0.080000
0.938750 0.930000 0.080000
1.000000 0.930000 0.080000
0.020000 0.000000 0.223750
0.151250 0.000000 0.223750
0.282500 0.000000 0.223750
0.413750 0.000000 0.223750
0.545000 0.000000 0.223750
0.676250 0.000000 0.223750
0.807500 0.000000 0.223750
0.938750 0.000000 0.223750
1.000000 0.000000 0.223750
0.020000 0.098750 0.223750
0.151250 0.098750 0.223750
0.282500 0.098750 0.223750
0.413750 0.098750 0.223750
0.545000 0.098750 0.223750
0.676250 0.098750 0.223750
0.807500 0.098750 0.223750
0.938750 0.098750 0.223750
1.000000 0.098750 0.223750
0.020000 0.217500 0.223750
0.151250 0.217500 0.223750
0.282500 0.217500 0.223750
0.413750 0.217500 0.223750
0.545000 0.217500 0.223750
0.676250 0.217500 0.223750
0.807500 0.217500 0.223750
0.938750 0.217500 0.223750
1.000000 0.217500 0.223750
0.020000 0.336250 0.223750
0.151250 0.336250 0.223750
0.282500 0.336250 0.223750
0.413750 0.336250 0.223750
0.545000 0.336250 0.223750
0.676250 0.336250 0.223750
0.807500 0.336250 0.223750
0.938750 0.336250 0.223750
1.000000 0.336250 0.223750
0.020000 0.455000 0.223750
0.151250 0.455000 0.223750
0.282500 0.455000 0.223750
0.413750 0.455000 0.223750
0.545000 0.455000 0.223750
0.676250 0.455000 0.223750
0.807500 0.455000 0.223750
0.938750 0.455000 0.223750
1.000000 0.455000 0.223750
0.020000 0.573750 0.223750
0.151250 0.573750 0.223750
0.282500 0.573750 0.223750
0.413750 0.573750 0.223750
0.545000 0.573750 0.223750
0.676250 0.573750 0.223750
0.807500 0.573750 0.223750
0.938750 0.573750 0.223750
1.000000 0.573750 0.223750
0.020000 0.692500 0.223750
0.151250 0.692500 0.223750
0.282500 0.692500 0.223750
0.413750 0.692500 0.223750
0.545000 0.692500 0.223750
0.676250 0.692500 0.223750
0.807500 0.692500 0.223750
0.938750 0.692500 0.223750
1.000000 0.692500 0.223750
0.020000 0.811250 0.223750
0.151250 0.811250 0.223750
0.282500 0.811250 0.223750
0.413750 0.811250 0.223750
0.545000 0.811250 0.223750
0.676250 0.811250 0.223750
0.807500 0.811250 0.223750
0.938750 0.811250 0.223750
1.000000 0.811250 0.223750
0.020000 0.930000 0.223750
0.151250 0.930000 0.223750
0.282500 0.930000 0.223750
0.413750 0.930000 0.223750
0.545000 0.930000 0.223750
0.676250 0.930000 0.223750
0.807500 0.930000 0.223750
0.938750 0.930000 0.223750
1.000000 0.930000 0.223750
0.020000 0.000000 0.367500
0.151250 0.000000 0.367500
0.282500 0.000000 0.367500
0.413750 0.000000 0.367500
0.545000 0.000000 0.367500
0.676250 0.000000 0.367500
0.807500 0.000000 0.367500
0.938750 0.000000 0.367500
1.000000 0.000000 0.367500
0.020000 0.098750 0.367500
0.151250 0.098750 0.367500
0.282500 0.098750 0.367500
0.413750 0.098750 0.367500
0.545000 0.098750 0.367500
0.676250 0.098750 0.367500
0.807500 0.098750 0.367500
0.938750 0.098750 0.367500
1.000000 0.098750 0.367500
0.020000 0.217500 0.367500
0.151250 0.217500 0.367500
0.282500 0.217500 0.367500
0.413750 0.217500 0.367500
0.545000 0.217500 0.367500
0.676250 0.217500 0.367500
0.807500 0.217500 0.367500
0.938750 0.217500 0.367500
1.000000 0.217500 0.367500
0.020000 0.336250 0.367500
0.151250 0.336250 0.367500
0.282500 0.336250 0.367500
0.413750 0.336250 0.367500
0.545000 0.336250 0.367500
0.676250 0.336250 0.367500
0.807500 0.336250 0.367500
0.938750 0.336250 0.367500
1.000000 0.336250 0.367500
0.020000 0.455000 0.367500
0.151250 0.455000 0.367500
0.282500 0.455000 0.367500
0.413750 0.455000 0.367500
0.545000 0.455000 0.367500
0.676250 0.455000 0.367500
0.807500 0.455000 0.367500
0.938750 0.455000 0.367500
1.000000 0.455000 0.367500
0.020000 0.573750 0.367500
0.151250 0.573750 0.367500
0.282500 0.573750 0.367500
0.413750 0.573750 0.367500
0.545000 0.573750 0.367500
0.676250 0.573750 0.367500
0.807500 0.573750 0.367500
0.938750 0.573750 0.367500
1.000000 0.573750 0.367500
0.020000 0.692500 0.367500
0.151250 0.692500 0.367500
0.282500 0.692500 0.367500
0.413750 0.692500 0.367500
0.545000 0.692500 0.367500
0.676250 0.692500 0.367500
0.807500 0.692500 0.367500
0.938750 0.692500 0.367500
1.000000 0.692500 0.367500
0.020000 0.811250 0.367500
0.151250 0.811250 0.367500
0.282500 0.811250 0.367500
0.413750 0.811250 0.367500
0.545000 0.811250 0.367500
0.676250 0.811250 0.367500
0.807500 0.811250 0.367500
0.938750 0.811250 0.367500
1.000000 0.811250 0.367500
0.020000 0.930000 0.367500
0.151250 0.930000 0.367500
0.282500 0.930000 0.367500
0.413750 0.930000 0.367500
0.545000 0.930000 0.367500
0.676250 0.930000 0.367500
0.807500 0.930000 0.367500
0.938750 0.930000 0.367500
1.000000 0.930000 0.367500
0.020000 0.000000 0.511250
0.151250 0.000000 0.511250
0.282500 0.000000 0.511250
0.413750 0.000000 0.511250
0.545000 0.000000 0.511250
0.676250 0.000000 0.511250
0.807500 0.000000 0.511250
0.938750 0.000000 0.511250
1.000000 0.000000 0.511250
0.020000 0.098750 0.511250
0.151250 0.098750 0.511250
0.282500 0.098750 0.511250
0.413750 0.098750 0.511250
0.545000 0.098750 0.511250
0.676250 0.098750 0.511250
0.807500 0.098750 0.511250
0.938750 0.098750 0.511250
1.000000 0.098750 0.511250
0.020000 0.217500 0.511250
0.151250 0.217500 0.511250
0.282500 0.217500 0.511250
0.413750 0.217500 0.511250
0.545000 0.217500 0.511250
0.676250 0.217500 0.511250
0.807500 0.217500 0.511250
0.938750 0.217500 0.511250
1.000000 0.217500 0.511250
0.020000 0.336250 0.511250
0.151250 0.336250 0.511250
0.282500 0.336250 0.511250
0.413750 0.336250 0.511250
0.545000 0.336250 0.511250
0.676250 0.336250 0.511250
0.807500 0.336250 0.511250
0.938750 0.336250 0.511250
1.000000 0.336250 0.511250
0.020000 0.455000 0.511250
0.151250 0.455000 0.511250
0.282500 0.455000 0.511250
0.413750 0.455000 0.511250
0.545000 0.455000 0.511250
0.676250 0.455000 0.511250
0.807500 0.455000 0.511250
0.938750 0.455000 0.511250
1.000000 0.455000 0.511250
0.020000 0.573750 0.511250
0.151250 0.573750 0.511250
0.282500 0.573750 0.511250
0.413750 0.573750 0.511250
0.545000 0.573750 0.511250
0.676250 0.573750 0.511250
0.807500 0.573750 0.511250
0.938750 0.573750 0.511250
1.000000 0.573750 0.511250
0.020000 0.692500 0.511250
0.151250 0.692500 0.511250
0.282500 0.692500 0.511250
0.413750 0.692500 0.511250
0.545000 0.692500 0.511250
0.676250 0.692500 0.511250
0.807500 0.692500 0.511250
0.938750 0.692500 0.511250
1.000000 0.692500 0.511250
0.020000 0.811250 0.511250
0.151250 0.811250 0.511250
0.282500 0.811250 0.511250
0.413750 0.811250 0.511250
0.545000 0.811250 0.511250
0.676250 0.811250 0.511250
0.807500 0.811250 0.511250
0.938750 0.811250 0.511250
1.000000 0.811250 0.511250
0.020000 0.930000 0.511250
0.151250 0.930000 0.511250
0.282500 0.930000 0.511250
0.413750 0.930000 0.511250
0.545000 0.930000 0.511250
0.676250 0.930000 0.511250
0.807500 0.930000 0.511250
0.938750 0.930000 0.511250
1.000000 0.930000 0.511250
0.020000 0.000000 0.655000
0.151250 0.000000 0.655000
0.282500 0.000000 0.655000
0.413750 0.000000 0.655000
0.545000 0.000000 0.655000
0.676250 0.000000 0.655000
0.807500 0.000000 0.655000
0.938750 0.000000 0.655000
1.000000 0.000000 0.655000
0.020000 0.098750 0.655000
0.151250 0.098750 0.655000
0.282500 0.098750 0.655000
0.413750 0.098750 0.655000
0.545000 0.098750 0.655000
0.676250 0.098750 0.655000
0.807500 0.098750 0.655000
0.938750 0.098750 0.655000
1.000000 0.098750 0.655000
0.020000 0.217500 0.655000
0.151250 0.217500 0.655000
0.282500 0.217500 0.655000
0.413750 0.217500 0.655000
0.545000 0.217500 0.655000
0.676250 0.217500 0.655000
0.807500 0.217500 0.655000
0.938750 0.217500 0.655000
1.000000 0.217500 0.655000
0.020000 0.336250 0.655000
0.151250 0.336250 0.655000
0.282500 0.336250 0.655000
0.413750 0.336250 0.655000
0.545000 0.336250 0.655000
0.676250 0.336250 0.655000
0.807500 0.336250 0.655000
0.938750 0.336250 0.655000
1.000000 0.336250 0.655000
0.020000 0.455000 0.655000
0.151250 0.455000 0.655000
0.282500 0.455000 0.655000
0.413750 0.455000 0.655000
0.545000 0.455000 0.655000
0.676250 0.455000 0.655000
0.807500 0.455000 0.655000
0.938750 0.455000 0.655000
1.000000 0.455000 0.655000
0.020000 0.573750 0.655000
0.151250 0.573750 0.655000
0.282500 0.573750 0.655000
0.413750 0.573750 0.655000
0.545000 0.573750 0.655000
0.676250 0.573750 0.655000
0.807500 0.573750 0.655000
0.938750 0.573750 0.655000
1.000000 0.573750 0.655000
0.020000 0.692500 0.655000
0.151250 0.692500 0.655000
0.282500 0.692500 0.655000
0.413750 0.692500 0.655000
0.545000 0.692500 0.655000
0.676250 0.692500 0.655000
0.807500 0.692500 0.655000
0.938750 0.692500 0.655000
1.000000 0.692500 0.655000
0.020000 0.811250 0.655000
0.151250 0.811250 0.655000
0.282500 0.811250 0.655000
0.413750 0.811250 0.655000
0.545000 0.811250 0.655000
0.676250 0.811250 0.655000
0.807500 0.811250 0.655000
0.938750 0.811250 0.655000
1.000000 0.811250 0.655000
0.020000 0.930000 0.655000
0.151250 0.930000 0.655000
0.282500 0.930000 0.655000
0.413750 0.930000 0.655000
0.545000 0.930000 0.655000
0.676250 0.930000 0.655000
0.807500 0.930000 0.655000
0.938750 0.930000 0.655000
1.000000 0.930000 0.655000
0.020000 0.000000 0.798750
0.151250 0.000000 0.798750
0.282500 0.000000 0.798750
0.413750 0.000000 0.798750
0.545000 0.000000 0.798750
0.676250 0.000000 0.798750
0.807500 0.000000 0.798750
0.938750 0.000000 0.798750
1.000000 0.000000 0.798750
0.020000 0.098750 0.798750
0.151250 0.098750 0.798750
0.282500 0.098750 0.798750
0.413750 0.098750 0.798750
0.545000 0.098750 0.798750
0.676250 0.098750 0.798750
0.807500 0.098750 0.798750
0.938750 0.098750 0.798750
1.000000 0.098750 0.798750
0.020000 0.217500 0.798750
0.151250 0.217500 0.798750
0.282500 0.217500 0.798750
0.413750 0.217500 0.798750
0.545000 0.217500 0.798750
0.676250 0.217500 0.798750
0.807500 0.217500 0.798750
0.938750 0.217500 0.798750
1.000000 0.217500 0.798750
0.020000 0.336250 0.798750
0.151250 0.336250 0.798750
0.282500 0.336250 0.798750
0.413750 0.336250 0.798750
0.545000 0.336250 0.798750
0.676250 0.336250 0.798750
0.807500 0.336250 0.798750
0.938750 0.336250 0.798750
1.000000 0.336250 0.798750
0.020000 0.455000 0.798750
0.151250 0.455000 0.798750
0.282500 0.455000 0.798750
0.413750 0.455000 0.798750
0.545000 0.455000 0.798750
0.676250 0.455000 0.798750
0.807500 0.455000 0.798750
0.938750 0.455000 0.798750
1.000000 0.455000 0.798750
0.020000 0.573750 0.798750
0.151250 0.573750 0.798750
0.282500 0.573750 0.798750
0.413750 0.573750 0.798750
0.545000 0.573750 0.798750
0.676250 0.573750 0.798750
0.807500 0.573750 0.798750
0.938750 0.573750 0.798750
1.000000 0.573750 0.798750
0.020000 0.692500 0.798750
0.151250 0.692500 0.798750
0.282500 0.692500 0.798750
0.413750 0.692500 0.798750
0.545000 0.692500 0.798750
0.676250 0.692500 0.798750
0.807500 0.692500 0.798750
0.938750 0.692500 0.798750
1.000000 0.692500 0.798750
0.020000 0.811250 0.798750
0.151250 0.811250 0.798750
0.282500 0.811250 0.798750
0.413750 0.811250 0.798750
0.545000 0.811250 0.798750
0.676250 0.811250 0.798750
0.807500 0.811250 0.798750
0.938750 0.811250 0.798750
1.000000 0.811250 0.798750
0.020000 0.930000 0.798750
0.151250 0.930000 0.798750
0.282500 0.930000 0.798750
0.413750 0.930000 0.798750
0.545000 0.930000 0.798750
0.676250 0.930000 0.798750
0.807500 0.930000 0.798750
0.938750 0.930000 0.798750
1.000000 0.930000 0.798750
0.020000 0.000000 0.942500
0.151250 0.000000 0.942500
0.282500 0.000000 0.942500
0.413750 0.000000 0.942500
0.545000 0.000000 0.942500
0.676250 0.000000 0.942500
0.807500 0.000000 0.942500
0.938750 0.000000 0.942500
1.000000 0.000000 0.942500
0.020000 0.098750 0.942500
0.151250 0.098750 0.942500
0.282500 0.098750 0.942500
0.413750 0.098750 0.942500
0.545000 0.098750 0.942500
0.676250 0.098750 0.942500
0.807500 0.098750 0.942500
0.938750 0.098750 0.942500
1.000000 0.098750 0.942500
0.020000 0.217500 0.942500
0.151250 0.217500 0.942500
0.282500 0.217500 0.942500
0.413750 0.217500 0.942500
0.545000 0.217500 0.942500
0.676250 0.217500 0.942500
0.807500 0.217500 0.942500
0.938750 0.217500 0.942500
1.000000 0.217500 0.942500
0.020000 0.336250 0.942500
0.151250 0.336250 0.942500
0.282500 0.336250 0.942500
0.413750 0.336250 0.942500
0.545000 0.336250 0.942500
0.676250 0.336250 0.942500
0.807500 0.336250 0.942500
0.938750 0.336250 0.942500
1.000000 0.336250 0.942500
0.020000 0.455000 0.942500
0.151250 0.455000 0.942500
0.282500 0.455000 0.942500
0.413750 0.455000 0.942500
0.545000 0.455000 0.942500
0.676250 0.455000 0.942500
0.807500 0.455000 0.942500
0.938750 0.455000 0.942500
1.000000 0.455000 0.942500
0.020000 0.573750 0.942500
0.151250 0.573750 0.942500
0.282500 0.573750 0.942500
0.413750 0.573750 0.942500
0.545000 0.573750 0.942500
0.676250 0.573750 0.942500
0.807500 0.573750 0.942500
0.938750 0.573750 0.942500
1.000000 0.573750 0.942500
0.020000 0.692500 0.942500
0.151250 0.692500 0.942500
0.282500 0.692500 0.942500
0.413750 0.692500 0.942500
0.545000 0.692500 0.942500
0.676250 0.692500 0.942500
0.807500 0.692500 0.942500
0.938750 0.692500 0.942500
1.000000 0.692500 0.942500
0.020000 0.811250 0.942500
0.151250 0.811250 0.942500
0.282500 0.811250 0.942500
0.413750 0.811250 0.942500
0.545000 0.811250 0.942500
0.676250 0.811250 0.942500
0.807500 0.811250 0.942500
0.938750 0.811250 0.942500
1.000000 0.811250 0.942500
0.020000 0.930000 0.942500
0.151250 0.930000 0.942500
0.282500 0.930000 0.942500
0.413750 0.930000 0.942500
0.545000 0.930000 0.942500
0.676250 0.930000 0.942500
0.807500 0.930000 0.942500
0.938750 0.930000 0.942500
1.000000 0.930000 0.942500
0.020000 0.000000 1.000000
0.151250 0.000000 1.000000
0.282500 0.000000 1.000000
0.413750 0.000000 1.000000
0.545000 0.000000 1.000000
0.676250 0.000000 1.000000
0.807500 0.000000 1.000000
0.938750 0.000000 1.000000
1.000000 0.000000 1.000000
0.020000 0.098750 1.000000
0.151250 0.098750 1.000000
0.282500 0.098750 1.000000
0.413750 0.098750 1.000000
0.545000 0.098750 1.000000
0.676250 0.098750 1.000000
0.807500 0.098750 1.000000
0.938750 0.098750 1.000000
1.000000 0.098750 1.000000
0.020000 0.217500 1.000000
0.151250 0.217500 1.000000
0.282500 0.217500 1.000000
0.413750 0.217500 1.000000
0.545000 0.217500 1.000000
0.676250 0.217500 1.000000
0.807500 0.217500 1.000000
0.938750 0.217500 1.000000
1.000000 0.217500 1.000000
0.020000 0.336250 1.000000
0.151250 0.336250 1.000000
0.282500 0.336250 1.000000
0.413750 0.336250 1.000000
0.545000 0.336250 1.000000
0.676250 0.336250 1.000000
0.807500 0.336250 1.000000
0.938750 0.336250 1.000000
1.000000 0.336250 1.000000
0.020000 0.455000 1.000000
0.151250 0.455000 1.000000
0.282500 0.455000 1.000000
0.413750 0.455000 1.000000
0.545000 0.455000 1.000000
0.676250 0.455000 1.000000
0.807500 0.455000 1.000000
0.938750 0.455000 1.000000
1.000000 0.455000 1.000000
0.020000 0.573750 1.000000
0.151250 0.573750 1.000000
0.282500 0.573750 1.000000
0.413750 0.573750 1.000000
0.545000 0.573750 1.000000
0.676250 0.573750 1.000000
0.807500 0.573750 1.000000
0.938750 0.573750 1.000000
1.000000 0.573750 1.000000
0.020000 0.692500 1.000000
0.151250 0.692500 1.000000
0.282500 0.692500 1.000000
0.413750 0.692500 1.000000
0.545000 0.692500 1.000000
0.676250 0.692500 1.000000
0.807500 0.692500 1.000000
0.938750 0.692500 1.000000
1.000000 0.692500 1.000000
0.020000 0.811250 1.000000
0.151250 0.811250 1.000000
0.282500 0.811250 1.000000
0.413750 0.811250 1.000000
0.545000 0.811250 1.000000
0.676250 0.811250 1.000000
0.807500 0.811250 1.000000
0.938750 0.811250 1.000000
1.000000 0.811250 1.000000
0.020000 0.930000 1.000000
0.151250 0.930000 1.000000
0.282500 0.930000 1.000000
0.413750 0.930000 1.000000
0.545000 0.930000 1.000000
0.676250 0.930000 1.000000
0.807500 0.930000 1.000000
0.938750 0.930000 1.000000
1.000000 0.930000 1.000000
0.020000 0.000000 1.000000
0.151250 0.000000 1.000000
0.282500 0.000000 1.000000
0.413750 0.000000 1.000000
0.545000 0.000000 1.000000
0.676250 0.000000 1.000000
0.807500 0.000000 1.000000
0.938750 0.000000 1.000000
1.000000 0.000000 1.000000
0.020000 0.098750 1.000000
0.151250 0.098750 1.000000
0.282500 0.098750 1.000000
0.413750 0.098750 1.000000
0.545000 0.098750 1.000000
0.676250 0.098750 1.000000
0.807500 0.098750 1.000000
0.938750 0.098750 1.000000
1.000000 0.098750 1.000000
0.020000 0.217500 1.000000
0.151250 0.217500 1.000000
0.282500 0.217500 1.000000
0.413750 0.217500 1.000000
0.545000 0.217500 1.000000
0.676250 0.217500 1.000000
0.807500 0.217500 1.000000
0.938750 0.217500 1.000000
1.000000 0.217500 1.000000
0.020000 0.336250 1.000000
0.151250 0.336250 1.000000
0.282500 0.336250 1.000000
0.413750 0.336250 1.000000
0.545000 0.336250 1.000000
0.676250 0.336250 1.000000
0.807500 0.336250 1.000000
0.938750 0.336250 1.000000
1.000000 0.336250 1.000000
0.020000 0.455000 1.000000
0.151250 0.455000 1.000000
0.282500 0.455000 1.000000
0.413750 0.455000 1.000000
0.545000 0.455000 1.000000
0.676250 0.455000 1.000000
0.807500 0.455000 1.000000
0.938750 0.455000 1.000000
1.000000 0.455000 1.000000
0.020000 0.573750 1.000000
0.151250 0.573750 1.000000
0.282500 0.573750 1.000000
0.413750 0.573750 1.000000
0.545000 0.573750 1.000000
0.676250 0.573750 1.000000
0.807500 0.573750 1.000000
0.938750 0.573750 1.000000
1.000000 0.573750 1.000000
0.020000 0.692500 1.000000
0.151250 0.692500 1.000000
0.282500 0.692500 1.000000
0.413750 0.692500 1.000000
0.545000 0.692500 1.000000
0.676250 0.692500 1.000000
0.807500 0.692500 1.000000
0.938750 0.692500 1.000000
1.000000 0.692500 1.000000
0.020000 0.811250 1.000000
0.151250 0.811250 1.000000
0.282500 0.811250 1.000000
0.413750 0.811250 1.000000
0.545000 0.811250 1.000000
0.676250 0.811250 1.000000
0.807500 0.811250 1.000000
0.938750 0.811250 1.000000
1.000000 0.811250 1.000000
0.020000 0.930000 1.000000
0.151250 0.930000 1.000000
0.282500 0.930000 1.000000
0.413750 0.930000 1.000000
0.545000 0.930000 1.000000
0.676250 0.930000 1.000000
0.807500 0.930000 1.000000
0.938750 0.930000 1.000000
1.000000 0.930000 1.000000
