app/src/main/assets/luts/expired_film.cube
# ApexStudio filter: expired_film
LUT_3D_SIZE 17
DOMAIN_MIN 0.0 0.0 0.0
DOMAIN_MAX 1.0 1.0 1.0
0.020000 0.000000 0.080000
0.085625 0.000000 0.080000
0.151250 0.000000 0.080000
0.216875 0.000000 0.080000
0.282500 0.000000 0.080000
0.348125 0.000000 0.080000
0.413750 0.000000 0.080000
0.479375 0.000000 0.080000
0.545000 0.000000 0.080000
0.610625 0.000000 0.080000
0.676250 0.000000 0.080000
0.741875 0.000000 0.080000
0.807500 0.000000 0.080000
0.873125 0.000000 0.080000
0.938750 0.000000 0.080000
1.000000 0.000000 0.080000
1.000000 0.000000 0.080000
0.020000 0.039375 0.080000
0.085625 0.039375 0.080000
0.151250 0.039375 0.080000
0.216875 0.039375 0.080000
0.282500 0.039375 0.080000
0.348125 0.039375 0.080000
0.413750 0.039375 0.080000
0.479375 0.039375 0.080000
0.545000 0.039375 0.080000
0.610625 0.039375 0.080000
0.676250 0.039375 0.080000
0.741875 0.039375 0.080000
0.807500 0.039375 0.080000
0.873125 0.039375 0.080000
0.938750 0.039375 0.080000
1.000000 0.039375 0.080000
1.000000 0.039375 0.080000
0.020000 0.098750 0.080000
0.085625 0.098750 0.080000
0.151250 0.098750 0.080000
0.216875 0.098750 0.080000
0.282500 0.098750 0.080000
0.348125 0.098750 0.080000
0.413750 0.098750 0.080000
0.479375 0.098750 0.080000
0.545000 0.098750 0.080000
0.610625 0.098750 0.080000
0.676250 0.098750 0.080000
0.741875 0.098750 0.080000
0.807500 0.098750 0.080000
0.873125 0.098750 0.080000
0.938750 0.098750 0.080000
1.000000 0.098750 0.080000
1.000000 0.098750 0.080000
0.020000 0.158125 0.080000
0.085625 0.158125 0.080000
0.151250 0.158125 0.080000
0.216875 0.158125 0.080000
0.282500 0.158125 0.080000
0.348125 0.158125 0.080000
0.413750 0.158125 0.080000
0.479375 0.158125 0.080000
0.545000 0.158125 0.080000
0.610625 0.158125 0.080000
0.676250 0.158125 0.080000
0.741875 0.158125 0.080000
0.807500 0.158125 0.080000
0.873125 0.158125 0.080000
0.938750 0.158125 0.080000
1.000000 0.158125 0.080000
1.000000 0.158125 0.080000
0.020000 0.217500 0.080000
0.085625 0.217500 0.080000
0.151250 0.217500 0.080000
0.216875 0.217500 0.080000
0.282500 0.217500 0.080000
0.348125 0.217500 0.080000
0.413750 0.217500 0.080000
0.479375 0.217500 0.080000
0.545000 0.217500 0.080000
0.610625 0.217500 0.080000
0.676250 0.217500 0.080000
0.741875 0.217500 0.080000
0.807500 0.217500 0.080000
0.873125 0.217500 0.080000
0.938750 0.217500 0.080000
1.000000 0.217500 0.080000
1.000000 0.217500 0.080000
0.020000 0.276875 0.080000
0.085625 0.276875 0.080000
0.151250 0.276875 0.080000
0.216875 0.276875 0.080000
0.282500 0.276875 0.080000
0.348125 0.276875 0.080000
0.413750 0.276875 0.080000
0.479375 0.276875 0.080000
0.545000 0.276875 0.080000
0.610625 0.276875 0.080000
0.676250 0.276875 0.080000
0.741875 0.276875 0.080000
0.807500 0.276875 0.080000
0.873125 0.276875 0.080000
0.938750 0.276875 0.080000
1.000000 0.276875 0.080000
1.000000 0.276875 0.080000
0.020000 0.336250 0.080000
0.085625 0.336250 0.080000
0.151250 0.336250 0.080000
0.216875 0.336250 0.080000
0.282500 0.336250 0.080000
0.348125 0.336250 0.080000
0.413750 0.336250 0.080000
0.479375 0.336250 0.080000
0.545000 0.336250 0.080000
0.610625 0.336250 0.080000
0.676250 0.336250 0.080000
0.741875 0.336250 0.080000
0.807500 0.336250 0.080000
0.873125 0.336250 0.080000
0.938750 0.336250 0.080000
1.000000 0.336250 0.080000
1.000000 0.336250 0.080000
0.020000 0.395625 0.080000
0.085625 0.395625 0.080000
0.151250 0.395625 0.080000
0.216875 0.395625 0.080000
0.282500 0.395625 0.080000
0.348125 0.395625 0.080000
0.413750 0.395625 0.080000
0.479375 0.395625 0.080000
0.545000 0.395625 0.080000
0.610625 0.395625 0.080000
0.676250 0.395625 0.080000
0.741875 0.395625 0.080000
0.807500 0.395625 0.080000
0.873125 0.395625 0.080000
0.938750 0.395625 0.080000
1.000000 0.395625 0.080000
1.000000 0.395625 0.080000
0.020000 0.455000 0.080000
0.085625 0.455000 0.080000
0.151250 0.455000 0.080000
0.216875 0.455000 0.080000
0.282500 0.455000 0.080000
0.348125 0.455000 0.080000
0.413750 0.455000 0.080000
0.479375 0.455000 0.080000
0.545000 0.455000 0.080000
0.610625 0.455000 0.080000
0.676250 0.455000 0.080000
0.741875 0.455000 0.080000
0.807500 0.455000 0.080000
0.873125 0.455000 0.080000
0.938750 0.455000 0.080000
1.000000 0.455000 0.080000
1.000000 0.455000 0.080000
0.020000 0.514375 0.080000
0.085625 0.514375 0.080000
0.151250 0.514375 0.080000
0.216875 0.514375 0.080000
0.282500 0.514375 0.080000
0.348125 0.514375 0.080000
0.413750 0.514375 0.080000
0.479375 0.514375 0.080000
0.545000 0.514375 0.080000
0.610625 0.514375 0.080000
0.676250 0.514375 0.080000
0.741875 0.514375 0.080000
0.807500 0.514375 0.080000
0.873125 0.514375 0.080000
0.938750 0.514375 0.080000
1.000000 0.514375 0.080000
1.000000 0.514375 0.080000
0.020000 0.573750 0.080000
0.085625 0.573750 0.080000
0.151250 0.573750 0.080000
0.216875 0.573750 0.080000
0.282500 0.573750 0.080000
0.348125 0.573750 0.080000
0.413750 0.573750 0.080000
0.479375 0.573750 0.080000
0.545000 0.573750 0.080000
0.610625 0.573750 0.080000
0.676250 0.573750 0.080000
0.741875 0.573750 0.080000
0.807500 0.573750 0.080000
0.873125 0.573750 0.080000
0.938750 0.573750 0.080000
1.000000 0.573750 0.080000
1.000000 0.573750 0.080000
0.020000 0.633125 0.080000
0.085625 0.633125 0.080000
0.151250 0.633125 0.080000
0.216875 0.633125 0.080000
0.282500 0.633125 0.080000
0.348125 0.633125 0.080000
0.413750 0.633125 0.080000
0.479375 0.633125 0.080000
0.545000 0.633125 0.080000
0.610625 0.633125 0.080000
0.676250 0.633125 0.080000
0.741875 0.633125 0.080000
0.807500 0.633125 0.080000
0.873125 0.633125 0.080000
0.938750 0.633125 0.080000
1.000000 0.633125 0.080000
1.000000 0.633125 0.080000
0.020000 0.692500 0.080000
0.085625 0.692500 0.080000
0.151250 0.692500 0.080000
0.216875 0.692500 0.080000
0.282500 0.692500 0.080000
0.348125 0.692500 0.080000
0.413750 0.692500 0.080000
0.479375 0.692500 0.080000
0.545000 0.692500 0.080000
0.610625 0.692500 0.080000
0.676250 0.692500 0.080000
0.741875 0.692500 0.080000
0.807500 0.692500 0.080000
0.873125 0.692500 0.080000
0.938750 0.692500 0.080000
1.000000 0.692500 0.080000
1.000000 0.692500 0.080000
0.020000 0.751875 0.080000
0.085625 0.751875 0.080000
0.151250 0.751875 0.080000
0.216875 0.751875 0.080000
0.282500 0.751875 0.080000
0.348125 0.751875 0.080000
0.413750 0.751875 0.080000
0.479375 0.751875 0.080000
0.545000 0.751875 0.080000
0.610625 0.751875 0.080000
0.676250 0.751875 0.080000
0.741875 0.751875 0.080000
0.807500 0.751875 0.080000
0.873125 0.751875 0.080000
0.938750 0.751875 0.080000
1.000000 0.751875 0.080000
1.000000 0.751875 0.080000
0.020000 0.811250 0.080000
0.085625 0.811250 0.080000
0.151250 0.811250 0.080000
0.216875 0.811250 0.080000
0.282500 0.811250 0.080000
0.348125 0.811250 0.080000
0.413750 0.811250 0.080000
0.479375 0.811250 0.080000
0.545000 0.811250 0.080000
0.610625 0.811250 0.080000
0.676250 0.811250 0.080000
0.741875 0.811250 0.080000
0.807500 0.811250 0.080000
0.873125 0.811250 0.080000
0.938750 0.811250 0.080000
1.000000 0.811250 0.080000
1.000000 0.811250 0.080000
0.020000 0.870625 0.080000
0.085625 0.870625 0.080000
0.151250 0.870625 0.080000
0.216875 0.870625 0.080000
0.282500 0.870625 0.080000
0.348125 0.870625 0.080000
0.413750 0.870625 0.080000
0.479375 0.870625 0.080000
0.545000 0.870625 0.080000
0.610625 0.870625 0.080000
0.676250 0.870625 0.080000
0.741875 0.870625 0.080000
0.807500 0.870625 0.080000
0.873125 0.870625 0.080000
0.938750 0.870625 0.080000
1.000000 0.870625 0.080000
1.000000 0.870625 0.080000
0.020000 0.930000 0.080000
0.085625 0.930000 0.080000
0.151250 0.930000 0.080000
0.216875 0.930000 0.080000
0.282500 0.930000 0.080000
0.348125 0.930000 0.080000
0.413750 0.930000 0.080000
0.479375 0.930000 0.080000
0.545000 0.930000 0.080000
0.610625 0.930000 0.080000
0.676250 0.930000 0.080000
0.741875 0.930000 0.080000
0.807500 0.930000 0.080000
0.873125 0.930000 0.080000
0.938750 0.930000 0.080000
1.000000 0.930000 0.080000
1.000000 0.930000 0.080000
0.020000 0.000000 0.151875
0.085625 0.000000 0.151875
0.151250 0.000000 0.151875
0.216875 0.000000 0.151875
0.282500 0.000000 0.151875
0.348125 0.000000 0.151875
0.413750 0.000000 0.151875
0.479375 0.000000 0.151875
0.545000 0.000000 0.151875
0.610625 0.000000 0.151875
0.676250 0.000000 0.151875
0.741875 0.000000 0.151875
0.807500 0.000000 0.151875
0.873125 0.000000 0.151875
0.938750 0.000000 0.151875
1.000000 0.000000 0.151875
1.000000 0.000000 0.151875
0.020000 0.039375 0.151875
0.085625 0.039375 0.151875
0.151250 0.039375 0.151875
0.216875 0.039375 0.151875
0.282500 0.039375 0.151875
0.348125 0.039375 0.151875
0.413750 0.039375 0.151875
0.479375 0.039375 0.151875
0.545000 0.039375 0.151875
0.610625 0.039375 0.151875
0.676250 0.039375 0.151875
0.741875 0.039375 0.151875
0.807500 0.039375 0.151875
0.873125 0.039375 0.151875
0.938750 0.039375 0.151875
1.000000 0.039375 0.151875
1.000000 0.039375 0.151875
0.020000 0.098750 0.151875
0.085625 0.098750 0.151875
0.151250 0.098750 0.151875
0.216875 0.098750 0.151875
0.282500 0.098750 0.151875
0.348125 0.098750 0.151875
0.413750 0.098750 0.151875
0.479375 0.098750 0.151875
0.545000 0.098750 0.151875
0.610625 0.098750 0.151875
0.676250 0.098750 0.151875
0.741875 0.098750 0.151875
0.807500 0.098750 0.151875
0.873125 0.098750 0.151875
0.938750 0.098750 0.151875
1.000000 0.098750 0.151875
1.000000 0.098750 0.151875
0.020000 0.158125 0.151875
0.085625 0.158125 0.151875
0.151250 0.158125 0.151875
0.216875 0.158125 0.151875
0.282500 0.158125 0.151875
0.348125 0.158125 0.151875
0.413750 0.158125 0.151875
0.479375 0.158125 0.151875
0.545000 0.158125 0.151875
0.610625 0.158125 0.151875
0.676250 0.158125 0.151875
0.741875 0.158125 0.151875
0.807500 0.158125 0.151875
0.873125 0.158125 0.151875
0.938750 0.158125 0.151875
1.000000 0.158125 0.151875
1.000000 0.158125 0.151875
0.020000 0.217500 0.151875
0.085625 0.217500 0.151875
0.151250 0.217500 0.151875
0.216875 0.217500 0.151875
0.282500 0.217500 0.151875
0.348125 0.217500 0.151875
0.413750 0.217500 0.151875
0.479375 0.217500 0.151875
0.545000 0.217500 0.151875
0.610625 0.217500 0.151875
0.676250 0.217500 0.151875
0.741875 0.217500 0.151875
0.807500 0.217500 0.151875
0.873125 0.217500 0.151875
0.938750 0.217500 0.151875
1.000000 0.217500 0.151875
1.000000 0.217500 0.151875
0.020000 0.276875 0.151875
0.085625 0.276875 0.151875
0.151250 0.276875 0.151875
0.216875 0.276875 0.151875
0.282500 0.276875 0.151875
0.348125 0.276875 0.151875
0.413750 0.276875 0.151875
0.479375 0.276875 0.151875
0.545000 0.276875 0.151875
0.610625 0.276875 0.151875
0.676250 0.276875 0.151875
0.741875 0.276875 0.151875
0.807500 0.276875 0.151875
0.873125 0.276875 0.151875
0.938750 0.276875 0.151875
1.000000 0.276875 0.151875
1.000000 0.276875 0.151875
0.020000 0.336250 0.151875
0.085625 0.336250 0.151875
0.151250 0.336250 0.151875
0.216875 0.336250 0.151875
0.282500 0.336250 0.151875
0.348125 0.336250 0.151875
0.413750 0.336250 0.151875
0.479375 0.336250 0.151875
0.545000 0.336250 0.151875
0.610625 0.336250 0.151875
0.676250 0.336250 0.151875
0.741875 0.336250 0.151875
0.807500 0.336250 0.151875
0.873125 0.336250 0.151875
0.938750 0.336250 0.151875
1.000000 0.336250 0.151875
1.000000 0.336250 0.151875
0.020000 0.395625 0.151875
0.085625 0.395625 0.151875
0.151250 0.395625 0.151875
0.216875 0.395625 0.151875
0.282500 0.395625 0.151875
0.348125 0.395625 0.151875
0.413750 0.395625 0.151875
0.479375 0.395625 0.151875
0.545000 0.395625 0.151875
0.610625 0.395625 0.151875
0.676250 0.395625 0.151875
0.741875 0.395625 0.151875
0.807500 0.395625 0.151875
0.873125 0.395625 0.151875
0.938750 0.395625 0.151875
1.000000 0.395625 0.151875
1.000000 0.395625 0.151875
0.020000 0.455000 0.151875
0.085625 0.455000 0.151875
0.151250 0.455000 0.151875
0.216875 0.455000 0.151875
0.282500 0.455000 0.151875
0.348125 0.455000 0.151875
0.413750 0.455000 0.151875
0.479375 0.455000 0.151875
0.545000 0.455000 0.151875
0.610625 0.455000 0.151875
0.676250 0.455000 0.151875
0.741875 0.455000 0.151875
0.807500 0.455000 0.151875
0.873125 0.455000 0.151875
0.938750 0.455000 0.151875
1.000000 0.455000 0.151875
1.000000 0.455000 0.151875
0.020000 0.514375 0.151875
0.085625 0.514375 0.151875
0.151250 0.514375 0.151875
0.216875 0.514375 0.151875
0.282500 0.514375 0.151875
0.348125 0.514375 0.151875
0.413750 0.514375 0.151875
0.479375 0.514375 0.151875
0.545000 0.514375 0.151875
0.610625 0.514375 0.151875
0.676250 0.514375 0.151875
0.741875 0.514375 0.151875
0.807500 0.514375 0.151875
0.873125 0.514375 0.151875
0.938750 0.514375 0.151875
1.000000 0.514375 0.151875
1.000000 0.514375 0.151875
0.020000 0.573750 0.151875
0.085625 0.573750 0.151875
0.151250 0.573750 0.151875
0.216875 0.573750 0.151875
0.282500 0.573750 0.151875
0.348125 0.573750 0.151875
0.413750 0.573750 0.151875
0.479375 0.573750 0.151875
0.545000 0.573750 0.151875
0.610625 0.573750 0.151875
0.676250 0.573750 0.151875
0.741875 0.573750 0.151875
0.807500 0.573750 0.151875
0.873125 0.573750 0.151875
0.938750 0.573750 0.151875
1.000000 0.573750 0.151875
1.000000 0.573750 0.151875
0.020000 0.633125 0.151875
0.085625 0.633125 0.151875
0.151250 0.633125 0.151875
0.216875 0.633125 0.151875
0.282500 0.633125 0.151875
0.348125 0.633125 0.151875
0.413750 0.633125 0.151875
0.479375 0.633125 0.151875
0.545000 0.633125 0.151875
0.610625 0.633125 0.151875
0.676250 0.633125 0.151875
0.741875 0.633125 0.151875
0.807500 0.633125 0.151875
0.873125 0.633125 0.151875
0.938750 0.633125 0.151875
1.000000 0.633125 0.151875
1.000000 0.633125 0.151875
0.020000 0.692500 0.151875
0.085625 0.692500 0.151875
0.151250 0.692500 0.151875
0.216875 0.692500 0.151875
0.282500 0.692500 0.151875
0.348125 0.692500 0.151875
0.413750 0.692500 0.151875
0.479375 0.692500 0.151875
0.545000 0.692500 0.151875
0.610625 0.692500 0.151875
0.676250 0.692500 0.151875
0.741875 0.692500 0.151875
0.807500 0.692500 0.151875
0.873125 0.692500 0.151875
0.938750 0.692500 0.151875
1.000000 0.692500 0.151875
1.000000 0.692500 0.151875
0.020000 0.751875 0.151875
0.085625 0.751875 0.151875
0.151250 0.751875 0.151875
0.216875 0.751875 0.151875
0.282500 0.751875 0.151875
0.348125 0.751875 0.151875
0.413750 0.751875 0.151875
0.479375 0.751875 0.151875
0.545000 0.751875 0.151875
0.610625 0.751875 0.151875
0.676250 0.751875 0.151875
0.741875 0.751875 0.151875
0.807500 0.751875 0.151875
0.873125 0.751875 0.151875
0.938750 0.751875 0.151875
1.000000 0.751875 0.151875
1.000000 0.751875 0.151875
0.020000 0.811250 0.151875
0.085625 0.811250 0.151875
0.151250 0.811250 0.151875
0.216875 0.811250 0.151875
0.282500 0.811250 0.151875
0.348125 0.811250 0.151875
0.413750 0.811250 0.151875
0.479375 0.811250 0.151875
0.545000 0.811250 0.151875
0.610625 0.811250 0.151875
0.676250 0.811250 0.151875
0.741875 0.811250 0.151875
0.807500 0.811250 0.151875
0.873125 0.811250 0.151875
0.938750 0.811250 0.151875
1.000000 0.811250 0.151875
1.000000 0.811250 0.151875
0.020000 0.870625 0.151875
0.085625 0.870625 0.151875
0.151250 0.870625 0.151875
0.216875 0.870625 0.151875
0.282500 0.870625 0.151875
0.348125 0.870625 0.151875
0.413750 0.870625 0.151875
0.479375 0.870625 0.151875
0.545000 0.870625 0.151875
0.610625 0.870625 0.151875
0.676250 0.870625 0.151875
0.741875 0.870625 0.151875
0.807500 0.870625 0.151875
0.873125 0.870625 0.151875
0.938750 0.870625 0.151875
1.000000 0.870625 0.151875
1.000000 0.870625 0.151875
0.020000 0.930000 0.151875
0.085625 0.930000 0.151875
0.151250 0.930000 0.151875
0.216875 0.930000 0.151875
0.282500 0.930000 0.151875
0.348125 0.930000 0.151875
0.413750 0.930000 0.151875
0.479375 0.930000 0.151875
0.545000 0.930000 0.151875
0.610625 0.930000 0.151875
0.676250 0.930000 0.151875
0.741875 0.930000 0.151875
0.807500 0.930000 0.151875
0.873125 0.930000 0.151875
0.938750 0.930000 0.151875
1.000000 0.930000 0.151875
1.000000 0.930000 0.151875
0.020000 0.000000 0.223750
0.085625 0.000000 0.223750
0.151250 0.000000 0.223750
0.216875 0.000000 0.223750
0.282500 0.000000 0.223750
0.348125 0.000000 0.223750
0.413750 0.000000 0.223750
0.479375 0.000000 0.223750
0.545000 0.000000 0.223750
0.610625 0.000000 0.223750
0.676250 0.000000 0.223750
0.741875 0.000000 0.223750
0.807500 0.000000 0.223750
0.873125 0.000000 0.223750
0.938750 0.000000 0.223750
1.000000 0.000000 0.223750
1.000000 0.000000 0.223750
0.020000 0.039375 0.223750
0.085625 0.039375 0.223750
0.151250 0.039375 0.223750
0.216875 0.039375 0.223750
0.282500 0.039375 0.223750
0.348125 0.039375 0.223750
0.413750 0.039375 0.223750
0.479375 0.039375 0.223750
0.545000 0.039375 0.223750
0.610625 0.039375 0.223750
0.676250 0.039375 0.223750
0.741875 0.039375 0.223750
0.807500 0.039375 0.223750
0.873125 0.039375 0.223750
0.938750 0.039375 0.223750
1.000000 0.039375 0.223750
1.000000 0.039375 0.223750
0.020000 0.098750 0.223750
0.085625 0.098750 0.223750
0.151250 0.098750 0.223750
0.216875 0.098750 0.223750
0.282500 0.098750 0.223750
0.348125 0.098750 0.223750
0.413750 0.098750 0.223750
0.479375 0.098750 0.223750
0.545000 0.098750 0.223750
0.610625 0.098750 0.223750
0.676250 0.098750 0.223750
0.741875 0.098750 0.223750
0.807500 0.098750 0.223750
0.873125 0.098750 0.223750
0.938750 0.098750 0.223750
1.000000 0.098750 0.223750
1.000000 0.098750 0.223750
0.020000 0.158125 0.223750
0.085625 0.158125 0.223750
0.151250 0.158125 0.223750
0.216875 0.158125 0.223750
0.282500 0.158125 0.223750
0.348125 0.158125 0.223750
0.413750 0.158125 0.223750
0.479375 0.158125 0.223750
0.545000 0.158125 0.223750
0.610625 0.158125 0.223750
0.676250 0.158125 0.223750
0.741875 0.158125 0.223750
0.807500 0.158125 0.223750
0.873125 0.158125 0.223750
0.938750 0.158125 0.223750
1.000000 0.158125 0.223750
1.000000 0.158125 0.223750
0.020000 0.217500 0.223750
0.085625 0.217500 0.223750
0.151250 0.217500 0.223750
0.216875 0.217500 0.223750
0.282500 0.217500 0.223750
0.348125 0.217500 0.223750
0.413750 0.217500 0.223750
0.479375 0.217500 0.223750
0.545000 0.217500 0.223750
0.610625 0.217500 0.223750
0.676250 0.217500 0.223750
0.741875 0.217500 0.223750
0.807500 0.217500 0.223750
0.873125 0.217500 0.223750
0.938750 0.217500 0.223750
1.000000 0.217500 0.223750
1.000000 0.217500 0.223750
0.020000 0.276875 0.223750
0.085625 0.276875 0.223750
0.151250 0.276875 0.223750
0.216875 0.276875 0.223750
0.282500 0.276875 0.223750
0.348125 0.276875 0.223750
0.413750 0.276875 0.223750
0.479375 0.276875 0.223750
0.545000 0.276875 0.223750
0.610625 0.276875 0.223750
0.676250 0.276875 0.223750
0.741875 0.276875 0.223750
0.807500 0.276875 0.223750
0.873125 0.276875 0.223750
0.938750 0.276875 0.223750
1.000000 0.276875 0.223750
1.000000 0.276875 0.223750
0.020000 0.336250 0.223750
0.085625 0.336250 0.223750
0.151250 0.336250 0.223750
0.216875 0.336250 0.223750
0.282500 0.336250 0.223750
0.348125 0.336250 0.223750
0.413750 0.336250 0.223750
0.479375 0.336250 0.223750
0.545000 0.336250 0.223750
0.610625 0.336250 0.223750
0.676250 0.336250 0.223750
0.741875 0.336250 0.223750
0.807500 0.336250 0.223750
0.873125 0.336250 0.223750
0.938750 0.336250 0.223750
1.000000 0.336250 0.223750
1.000000 0.336250 0.223750
0.020000 0.395625 0.223750
0.085625 0.395625 0.223750
0.151250 0.395625 0.223750
0.216875 0.395625 0.223750
0.282500 0.395625 0.223750
0.348125 0.395625 0.223750
0.413750 0.395625 0.223750
0.479375 0.395625 0.223750
0.545000 0.395625 0.223750
0.610625 0.395625 0.223750
0.676250 0.395625 0.223750
0.741875 0.395625 0.223750
0.807500 0.395625 0.223750
0.873125 0.395625 0.223750
0.938750 0.395625 0.223750
1.000000 0.395625 0.223750
1.000000 0.395625 0.223750
0.020000 0.455000 0.223750
0.085625 0.455000 0.223750
0.151250 0.455000 0.223750
0.216875 0.455000 0.223750
0.282500 0.455000 0.223750
0.348125 0.455000 0.223750
0.413750 0.455000 0.223750
0.479375 0.455000 0.223750
0.545000 0.455000 0.223750
0.610625 0.455000 0.223750
0.676250 0.455000 0.223750
0.741875 0.455000 0.223750
0.807500 0.455000 0.223750
0.873125 0.455000 0.223750
0.938750 0.455000 0.223750
1.000000 0.455000 0.223750
1.000000 0.455000 0.223750
0.020000 0.514375 0.223750
0.085625 0.514375 0.223750
0.151250 0.514375 0.223750
0.216875 0.514375 0.223750
0.282500 0.514375 0.223750
0.348125 0.514375 0.223750
0.413750 0.514375 0.223750
0.479375 0.514375 0.223750
0.545000 0.514375 0.223750
0.610625 0.514375 0.223750
0.676250 0.514375 0.223750
0.741875 0.514375 0.223750
0.807500 0.514375 0.223750
0.873125 0.514375 0.223750
0.938750 0.514375 0.223750
1.000000 0.514375 0.223750
1.000000 0.514375 0.223750
0.020000 0.573750 0.223750
0.085625 0.573750 0.223750
0.151250 0.573750 0.223750
0.216875 0.573750 0.223750
0.282500 0.573750 0.223750
0.348125 0.573750 0.223750
0.413750 0.573750 0.223750
0.479375 0.573750 0.223750
0.545000 0.573750 0.223750
0.610625 0.573750 0.223750
0.676250 0.573750 0.223750
0.741875 0.573750 0.223750
0.807500 0.573750 0.223750
0.873125 0.573750 0.223750
0.938750 0.573750 0.223750
1.000000 0.573750 0.223750
1.000000 0.573750 0.223750
0.020000 0.633125 0.223750
0.085625 0.633125 0.223750
0.151250 0.633125 0.223750
0.216875 0.633125 0.223750
0.282500 0.633125 0.223750
0.348125 0.633125 0.223750
0.413750 0.633125 0.223750
0.479375 0.633125 0.223750
0.545000 0.633125 0.223750
0.610625 0.633125 0.223750
0.676250 0.633125 0.223750
0.741875 0.633125 0.223750
0.807500 0.633125 0.223750
0.873125 0.633125 0.223750
0.938750 0.633125 0.223750
1.000000 0.633125 0.223750
1.000000 0.633125 0.223750
0.020000 0.692500 0.223750
0.085625 0.692500 0.223750
0.151250 0.692500 0.223750
0.216875 0.692500 0.223750
0.282500 0.692500 0.223750
0.348125 0.692500 0.223750
0.413750 0.692500 0.223750
0.479375 0.692500 0.223750
0.545000 0.692500 0.223750
0.610625 0.692500 0.223750
0.676250 0.692500 0.223750
0.741875 0.692500 0.223750
0.807500 0.692500 0.223750
0.873125 0.692500 0.223750
0.938750 0.692500 0.223750
1.000000 0.692500 0.223750
1.000000 0.692500 0.223750
0.020000 0.751875 0.223750
0.085625 0.751875 0.223750
0.151250 0.751875 0.223750
0.216875 0.751875 0.223750
0.282500 0.751875 0.223750
0.348125 0.751875 0.223750
0.413750 0.751875 0.223750
0.479375 0.751875 0.223750
0.545000 0.751875 0.223750
0.610625 0.751875 0.223750
0.676250 0.751875 0.223750
0.741875 0.751875 0.223750
0.807500 0.751875 0.223750
0.873125 0.751875 0.223750
0.938750 0.751875 0.223750
1.000000 0.751875 0.223750
1.000000 0.751875 0.223750
0.020000 0.811250 0.223750
0.085625 0.811250 0.223750
0.151250 0.811250 0.223750
0.216875 0.811250 0.223750
0.282500 0.811250 0.223750
0.348125 0.811250 0.223750
0.413750 0.811250 0.223750
0.479375 0.811250 0.223750
0.545000 0.811250 0.223750
0.610625 0.811250 0.223750
0.676250 0.811250 0.223750
0.741875 0.811250 0.223750
0.807500 0.811250 0.223750
0.873125 0.811250 0.223750
0.938750 0.811250 0.223750
1.000000 0.811250 0.223750
1.000000 0.811250 0.223750
0.020000 0.870625 0.223750
0.085625 0.870625 0.223750
0.151250 0.870625 0.223750
0.216875 0.870625 0.223750
0.282500 0.870625 0.223750
0.348125 0.870625 0.223750
0.413750 0.870625 0.223750
0.479375 0.870625 0.223750
0.545000 0.870625 0.223750
0.610625 0.870625 0.223750
0.676250 0.870625 0.223750
0.741875 0.870625 0.223750
0.807500 0.870625 0.223750
0.873125 0.870625 0.223750
0.938750 0.870625 0.223750
1.000000 0.870625 0.223750
1.000000 0.870625 0.223750
0.020000 0.930000 0.223750
0.085625 0.930000 0.223750
0.151250 0.930000 0.223750
0.216875 0.930000 0.223750
0.282500 0.930000 0.223750
0.348125 0.930000 0.223750
0.413750 0.930000 0.223750
0.479375 0.930000 0.223750
0.545000 0.930000 0.223750
0.610625 0.930000 0.223750
0.676250 0.930000 0.223750
0.741875 0.930000 0.223750
0.807500 0.930000 0.223750
0.873125 0.930000 0.223750
0.938750 0.930000 0.223750
1.000000 0.930000 0.223750
1.000000 0.930000 0.223750
0.020000 0.000000 0.295625
0.085625 0.000000 0.295625
0.151250 0.000000 0.295625
0.216875 0.000000 0.295625
0.282500 0.000000 0.295625
0.348125 0.000000 0.295625
0.413750 0.000000 0.295625
0.479375 0.000000 0.295625
0.545000 0.000000 0.295625
0.610625 0.000000 0.295625
0.676250 0.000000 0.295625
0.741875 0.000000 0.295625
0.807500 0.000000 0.295625
0.873125 0.000000 0.295625
0.938750 0.000000 0.295625
1.000000 0.000000 0.295625
1.000000 0.000000 0.295625
0.020000 0.039375 0.295625
