app/src/main/assets/luts/fantasy_violet.cube
# ApexStudio filter: fantasy_violet
LUT_3D_SIZE 5
DOMAIN_MIN 0.0 0.0 0.0
DOMAIN_MAX 1.0 1.0 1.0
0.080000 0.000000 0.150000
0.355000 0.000000 0.150000
0.630000 0.000000 0.150000
0.905000 0.000000 0.150000
1.000000 0.000000 0.150000
0.080000 0.205000 0.150000
0.355000 0.205000 0.150000
0.630000 0.205000 0.150000
0.905000 0.205000 0.150000
1.000000 0.205000 0.150000
0.080000 0.430000 0.150000
0.355000 0.430000 0.150000
0.630000 0.430000 0.150000
0.905000 0.430000 0.150000
1.000000 0.430000 0.150000
0.080000 0.655000 0.150000
0.355000 0.655000 0.150000
0.630000 0.655000 0.150000
0.905000 0.655000 0.150000
1.000000 0.655000 0.150000
0.080000 0.880000 0.150000
0.355000 0.880000 0.150000
0.630000 0.880000 0.150000
0.905000 0.880000 0.150000
1.000000 0.880000 0.150000
0.080000 0.000000 0.475000
0.355000 0.000000 0.475000
0.630000 0.000000 0.475000
0.905000 0.000000 0.475000
1.000000 0.000000 0.475000
0.080000 0.205000 0.475000
0.355000 0.205000 0.475000
0.630000 0.205000 0.475000
0.905000 0.205000 0.475000
1.000000 0.205000 0.475000
0.080000 0.430000 0.475000
0.355000 0.430000 0.475000
0.630000 0.430000 0.475000
0.905000 0.430000 0.475000
1.000000 0.430000 0.475000
0.080000 0.655000 0.475000
0.355000 0.655000 0.475000
0.630000 0.655000 0.475000
0.905000 0.655000 0.475000
1.000000 0.655000 0.475000
0.080000 0.880000 0.475000
0.355000 0.880000 0.475000
0.630000 0.880000 0.475000
0.905000 0.880000 0.475000
1.000000 0.880000 0.475000
0.080000 0.000000 0.800000
0.355000 0.000000 0.800000
0.630000 0.000000 0.800000
0.905000 0.000000 0.800000
1.000000 0.000000 0.800000
0.080000 0.205000 0.800000
0.355000 0.205000 0.800000
0.630000 0.205000 0.800000
0.905000 0.205000 0.800000
1.000000 0.205000 0.800000
0.080000 0.430000 0.800000
0.355000 0.430000 0.800000
0.630000 0.430000 0.800000
0.905000 0.430000 0.800000
1.000000 0.430000 0.800000
0.080000 0.655000 0.800000
0.355000 0.655000 0.800000
0.630000 0.655000 0.800000
0.905000 0.655000 0.800000
1.000000 0.655000 0.800000
0.080000 0.880000 0.800000
0.355000 0.880000 0.800000
0.630000 0.880000 0.800000
0.905000 0.880000 0.800000
1.000000 0.880000 0.800000
0.080000 0.000000 1.000000
0.355000 0.000000 1.000000
0.630000 0.000000 1.000000
0.905000 0.000000 1.000000
1.000000 0.000000 1.000000
0.080000 0.205000 1.000000
0.355000 0.205000 1.000000
0.630000 0.205000 1.000000
0.905000 0.205000 1.000000
1.000000 0.205000 1.000000
0.080000 0.430000 1.000000
0.355000 0.430000 1.000000
0.630000 0.430000 1.000000
0.905000 0.430000 1.000000
1.000000 0.430000 1.000000
0.080000 0.655000 1.000000
0.355000 0.655000 1.000000
0.630000 0.655000 1.000000
0.905000 0.655000 1.000000
1.000000 0.655000 1.000000
0.080000 0.880000 1.000000
0.355000 0.880000 1.000000
0.630000 0.880000 1.000000
0.905000 0.880000 1.000000
1.000000 0.880000 1.000000
0.080000 0.000000 1.000000
0.355000 0.000000 1.000000
0.630000 0.000000 1.000000
0.905000 0.000000 1.000000
1.000000 0.000000 1.000000
0.080000 0.205000 1.000000
0.355000 0.205000 1.000000
0.630000 0.205000 1.000000
0.905000 0.205000 1.000000
1.000000 0.205000 1.000000
0.080000 0.430000 1.000000
0.355000 0.430000 1.000000
0.630000 0.430000 1.000000
0.905000 0.430000 1.000000
1.000000 0.430000 1.000000
0.080000 0.655000 1.000000
0.355000 0.655000 1.000000
0.630000 0.655000 1.000000
0.905000 0.655000 1.000000
1.000000 0.655000 1.000000
0.080000 0.880000 1.000000
0.355000 0.880000 1.000000
0.630000 0.880000 1.000000
0.905000 0.880000 1.000000
1.000000 0.880000 1.000000
