app/src/main/assets/luts/fantasy_violet.cube
# ApexStudio filter: fantasy_violet
LUT_3D_SIZE 17
DOMAIN_MIN 0.0 0.0 0.0
DOMAIN_MAX 1.0 1.0 1.0
0.080000 0.000000 0.150000
0.148750 0.000000 0.150000
0.217500 0.000000 0.150000
0.286250 0.000000 0.150000
0.355000 0.000000 0.150000
0.423750 0.000000 0.150000
0.492500 0.000000 0.150000
0.561250 0.000000 0.150000
0.630000 0.000000 0.150000
0.698750 0.000000 0.150000
0.767500 0.000000 0.150000
0.836250 0.000000 0.150000
0.905000 0.000000 0.150000
0.973750 0.000000 0.150000
1.000000 0.000000 0.150000
1.000000 0.000000 0.150000
1.000000 0.000000 0.150000
0.080000 0.036250 0.150000
0.148750 0.036250 0.150000
0.217500 0.036250 0.150000
0.286250 0.036250 0.150000
0.355000 0.036250 0.150000
0.423750 0.036250 0.150000
0.492500 0.036250 0.150000
0.561250 0.036250 0.150000
0.630000 0.036250 0.150000
0.698750 0.036250 0.150000
0.767500 0.036250 0.150000
0.836250 0.036250 0.150000
0.905000 0.036250 0.150000
0.973750 0.036250 0.150000
1.000000 0.036250 0.150000
1.000000 0.036250 0.150000
1.000000 0.036250 0.150000
0.080000 0.092500 0.150000
0.148750 0.092500 0.150000
0.217500 0.092500 0.150000
0.286250 0.092500 0.150000
0.355000 0.092500 0.150000
0.423750 0.092500 0.150000
0.492500 0.092500 0.150000
0.561250 0.092500 0.150000
0.630000 0.092500 0.150000
0.698750 0.092500 0.150000
0.767500 0.092500 0.150000
0.836250 0.092500 0.150000
0.905000 0.092500 0.150000
0.973750 0.092500 0.150000
1.000000 0.092500 0.150000
1.000000 0.092500 0.150000
1.000000 0.092500 0.150000
0.080000 0.148750 0.150000
0.148750 0.148750 0.150000
0.217500 0.148750 0.150000
0.286250 0.148750 0.150000
0.355000 0.148750 0.150000
0.423750 0.148750 0.150000
0.492500 0.148750 0.150000
0.561250 0.148750 0.150000
0.630000 0.148750 0.150000
0.698750 0.148750 0.150000
0.767500 0.148750 0.150000
0.836250 0.148750 0.150000
0.905000 0.148750 0.150000
0.973750 0.148750 0.150000
1.000000 0.148750 0.150000
1.000000 0.148750 0.150000
1.000000 0.148750 0.150000
0.080000 0.205000 0.150000
0.148750 0.205000 0.150000
0.217500 0.205000 0.150000
0.286250 0.205000 0.150000
0.355000 0.205000 0.150000
0.423750 0.205000 0.150000
0.492500 0.205000 0.150000
0.561250 0.205000 0.150000
0.630000 0.205000 0.150000
0.698750 0.205000 0.150000
0.767500 0.205000 0.150000
0.836250 0.205000 0.150000
0.905000 0.205000 0.150000
0.973750 0.205000 0.150000
1.000000 0.205000 0.150000
1.000000 0.205000 0.150000
1.000000 0.205000 0.150000
0.080000 0.261250 0.150000
0.148750 0.261250 0.150000
0.217500 0.261250 0.150000
0.286250 0.261250 0.150000
0.355000 0.261250 0.150000
0.423750 0.261250 0.150000
0.492500 0.261250 0.150000
0.561250 0.261250 0.150000
0.630000 0.261250 0.150000
0.698750 0.261250 0.150000
0.767500 0.261250 0.150000
0.836250 0.261250 0.150000
0.905000 0.261250 0.150000
0.973750 0.261250 0.150000
1.000000 0.261250 0.150000
1.000000 0.261250 0.150000
1.000000 0.261250 0.150000
0.080000 0.317500 0.150000
0.148750 0.317500 0.150000
0.217500 0.317500 0.150000
0.286250 0.317500 0.150000
0.355000 0.317500 0.150000
0.423750 0.317500 0.150000
0.492500 0.317500 0.150000
0.561250 0.317500 0.150000
0.630000 0.317500 0.150000
0.698750 0.317500 0.150000
0.767500 0.317500 0.150000
0.836250 0.317500 0.150000
0.905000 0.317500 0.150000
0.973750 0.317500 0.150000
1.000000 0.317500 0.150000
1.000000 0.317500 0.150000
1.000000 0.317500 0.150000
0.080000 0.373750 0.150000
0.148750 0.373750 0.150000
0.217500 0.373750 0.150000
0.286250 0.373750 0.150000
0.355000 0.373750 0.150000
0.423750 0.373750 0.150000
0.492500 0.373750 0.150000
0.561250 0.373750 0.150000
0.630000 0.373750 0.150000
0.698750 0.373750 0.150000
0.767500 0.373750 0.150000
0.836250 0.373750 0.150000
0.905000 0.373750 0.150000
0.973750 0.373750 0.150000
1.000000 0.373750 0.150000
1.000000 0.373750 0.150000
1.000000 0.373750 0.150000
0.080000 0.430000 0.150000
0.148750 0.430000 0.150000
0.217500 0.430000 0.150000
0.286250 0.430000 0.150000
0.355000 0.430000 0.150000
0.423750 0.430000 0.150000
0.492500 0.430000 0.150000
0.561250 0.430000 0.150000
0.630000 0.430000 0.150000
0.698750 0.430000 0.150000
0.767500 0.430000 0.150000
0.836250 0.430000 0.150000
0.905000 0.430000 0.150000
0.973750 0.430000 0.150000
1.000000 0.430000 0.150000
1.000000 0.430000 0.150000
1.000000 0.430000 0.150000
0.080000 0.486250 0.150000
0.148750 0.486250 0.150000
0.217500 0.486250 0.150000
0.286250 0.486250 0.150000
0.355000 0.486250 0.150000
0.423750 0.486250 0.150000
0.492500 0.486250 0.150000
0.561250 0.486250 0.150000
0.630000 0.486250 0.150000
0.698750 0.486250 0.150000
0.767500 0.486250 0.150000
0.836250 0.486250 0.150000
0.905000 0.486250 0.150000
0.973750 0.486250 0.150000
1.000000 0.486250 0.150000
1.000000 0.486250 0.150000
1.000000 0.486250 0.150000
0.080000 0.542500 0.150000
0.148750 0.542500 0.150000
0.217500 0.542500 0.150000
0.286250 0.542500 0.150000
0.355000 0.542500 0.150000
0.423750 0.542500 0.150000
0.492500 0.542500 0.150000
0.561250 0.542500 0.150000
0.630000 0.542500 0.150000
0.698750 0.542500 0.150000
0.767500 0.542500 0.150000
0.836250 0.542500 0.150000
0.905000 0.542500 0.150000
0.973750 0.542500 0.150000
1.000000 0.542500 0.150000
1.000000 0.542500 0.150000
1.000000 0.542500 0.150000
0.080000 0.598750 0.150000
0.148750 0.598750 0.150000
0.217500 0.598750 0.150000
0.286250 0.598750 0.150000
0.355000 0.598750 0.150000
0.423750 0.598750 0.150000
0.492500 0.598750 0.150000
0.561250 0.598750 0.150000
0.630000 0.598750 0.150000
0.698750 0.598750 0.150000
0.767500 0.598750 0.150000
0.836250 0.598750 0.150000
0.905000 0.598750 0.150000
0.973750 0.598750 0.150000
1.000000 0.598750 0.150000
1.000000 0.598750 0.150000
1.000000 0.598750 0.150000
0.080000 0.655000 0.150000
0.148750 0.655000 0.150000
0.217500 0.655000 0.150000
0.286250 0.655000 0.150000
0.355000 0.655000 0.150000
0.423750 0.655000 0.150000
0.492500 0.655000 0.150000
0.561250 0.655000 0.150000
0.630000 0.655000 0.150000
0.698750 0.655000 0.150000
0.767500 0.655000 0.150000
0.836250 0.655000 0.150000
0.905000 0.655000 0.150000
0.973750 0.655000 0.150000
1.000000 0.655000 0.150000
1.000000 0.655000 0.150000
1.000000 0.655000 0.150000
0.080000 0.711250 0.150000
0.148750 0.711250 0.150000
0.217500 0.711250 0.150000
0.286250 0.711250 0.150000
0.355000 0.711250 0.150000
0.423750 0.711250 0.150000
0.492500 0.711250 0.150000
0.561250 0.711250 0.150000
0.630000 0.711250 0.150000
0.698750 0.711250 0.150000
0.767500 0.711250 0.150000
0.836250 0.711250 0.150000
0.905000 0.711250 0.150000
0.973750 0.711250 0.150000
1.000000 0.711250 0.150000
1.000000 0.711250 0.150000
1.000000 0.711250 0.150000
0.080000 0.767500 0.150000
0.148750 0.767500 0.150000
0.217500 0.767500 0.150000
0.286250 0.767500 0.150000
0.355000 0.767500 0.150000
0.423750 0.767500 0.150000
0.492500 0.767500 0.150000
0.561250 0.767500 0.150000
0.630000 0.767500 0.150000
0.698750 0.767500 0.150000
0.767500 0.767500 0.150000
0.836250 0.767500 0.150000
0.905000 0.767500 0.150000
0.973750 0.767500 0.150000
1.000000 0.767500 0.150000
1.000000 0.767500 0.150000
1.000000 0.767500 0.150000
0.080000 0.823750 0.150000
0.148750 0.823750 0.150000
0.217500 0.823750 0.150000
0.286250 0.823750 0.150000
0.355000 0.823750 0.150000
0.423750 0.823750 0.150000
0.492500 0.823750 0.150000
0.561250 0.823750 0.150000
0.630000 0.823750 0.150000
0.698750 0.823750 0.150000
0.767500 0.823750 0.150000
0.836250 0.823750 0.150000
0.905000 0.823750 0.150000
0.973750 0.823750 0.150000
1.000000 0.823750 0.150000
1.000000 0.823750 0.150000
1.000000 0.823750 0.150000
0.080000 0.880000 0.150000
0.148750 0.880000 0.150000
0.217500 0.880000 0.150000
0.286250 0.880000 0.150000
0.355000 0.880000 0.150000
0.423750 0.880000 0.150000
0.492500 0.880000 0.150000
0.561250 0.880000 0.150000
0.630000 0.880000 0.150000
0.698750 0.880000 0.150000
0.767500 0.880000 0.150000
0.836250 0.880000 0.150000
0.905000 0.880000 0.150000
0.973750 0.880000 0.150000
1.000000 0.880000 0.150000
1.000000 0.880000 0.150000
1.000000 0.880000 0.150000
0.080000 0.000000 0.231250
0.148750 0.000000 0.231250
0.217500 0.000000 0.231250
0.286250 0.000000 0.231250
0.355000 0.000000 0.231250
0.423750 0.000000 0.231250
0.492500 0.000000 0.231250
0.561250 0.000000 0.231250
0.630000 0.000000 0.231250
0.698750 0.000000 0.231250
0.767500 0.000000 0.231250
0.836250 0.000000 0.231250
0.905000 0.000000 0.231250
0.973750 0.000000 0.231250
1.000000 0.000000 0.231250
1.000000 0.000000 0.231250
1.000000 0.000000 0.231250
0.080000 0.036250 0.231250
0.148750 0.036250 0.231250
0.217500 0.036250 0.231250
0.286250 0.036250 0.231250
0.355000 0.036250 0.231250
0.423750 0.036250 0.231250
0.492500 0.036250 0.231250
0.561250 0.036250 0.231250
0.630000 0.036250 0.231250
0.698750 0.036250 0.231250
0.767500 0.036250 0.231250
0.836250 0.036250 0.231250
0.905000 0.036250 0.231250
0.973750 0.036250 0.231250
1.000000 0.036250 0.231250
1.000000 0.036250 0.231250
1.000000 0.036250 0.231250
0.080000 0.092500 0.231250
0.148750 0.092500 0.231250
0.217500 0.092500 0.231250
0.286250 0.092500 0.231250
0.355000 0.092500 0.231250
0.423750 0.092500 0.231250
0.492500 0.092500 0.231250
0.561250 0.092500 0.231250
0.630000 0.092500 0.231250
0.698750 0.092500 0.231250
0.767500 0.092500 0.231250
0.836250 0.092500 0.231250
0.905000 0.092500 0.231250
0.973750 0.092500 0.231250
1.000000 0.092500 0.231250
1.000000 0.092500 0.231250
1.000000 0.092500 0.231250
0.080000 0.148750 0.231250
0.148750 0.148750 0.231250
0.217500 0.148750 0.231250
0.286250 0.148750 0.231250
0.355000 0.148750 0.231250
0.423750 0.148750 0.231250
0.492500 0.148750 0.231250
0.561250 0.148750 0.231250
0.630000 0.148750 0.231250
0.698750 0.148750 0.231250
0.767500 0.148750 0.231250
0.836250 0.148750 0.231250
0.905000 0.148750 0.231250
0.973750 0.148750 0.231250
1.000000 0.148750 0.231250
1.000000 0.148750 0.231250
1.000000 0.148750 0.231250
0.080000 0.205000 0.231250
0.148750 0.205000 0.231250
0.217500 0.205000 0.231250
0.286250 0.205000 0.231250
0.355000 0.205000 0.231250
0.423750 0.205000 0.231250
0.492500 0.205000 0.231250
0.561250 0.205000 0.231250
0.630000 0.205000 0.231250
0.698750 0.205000 0.231250
0.767500 0.205000 0.231250
0.836250 0.205000 0.231250
0.905000 0.205000 0.231250
0.973750 0.205000 0.231250
1.000000 0.205000 0.231250
1.000000 0.205000 0.231250
1.000000 0.205000 0.231250
0.080000 0.261250 0.231250
0.148750 0.261250 0.231250
0.217500 0.261250 0.231250
0.286250 0.261250 0.231250
0.355000 0.261250 0.231250
0.423750 0.261250 0.231250
0.492500 0.261250 0.231250
0.561250 0.261250 0.231250
0.630000 0.261250 0.231250
0.698750 0.261250 0.231250
0.767500 0.261250 0.231250
0.836250 0.261250 0.231250
0.905000 0.261250 0.231250
0.973750 0.261250 0.231250
1.000000 0.261250 0.231250
1.000000 0.261250 0.231250
1.000000 0.261250 0.231250
0.080000 0.317500 0.231250
0.148750 0.317500 0.231250
0.217500 0.317500 0.231250
0.286250 0.317500 0.231250
0.355000 0.317500 0.231250
0.423750 0.317500 0.231250
0.492500 0.317500 0.231250
0.561250 0.317500 0.231250
0.630000 0.317500 0.231250
0.698750 0.317500 0.231250
0.767500 0.317500 0.231250
0.836250 0.317500 0.231250
0.905000 0.317500 0.231250
0.973750 0.317500 0.231250
1.000000 0.317500 0.231250
1.000000 0.317500 0.231250
1.000000 0.317500 0.231250
0.080000 0.373750 0.231250
0.148750 0.373750 0.231250
0.217500 0.373750 0.231250
0.286250 0.373750 0.231250
0.355000 0.373750 0.231250
0.423750 0.373750 0.231250
0.492500 0.373750 0.231250
0.561250 0.373750 0.231250
0.630000 0.373750 0.231250
0.698750 0.373750 0.231250
0.767500 0.373750 0.231250
0.836250 0.373750 0.231250
0.905000 0.373750 0.231250
0.973750 0.373750 0.231250
1.000000 0.373750 0.231250
1.000000 0.373750 0.231250
1.000000 0.373750 0.231250
0.080000 0.430000 0.231250
0.148750 0.430000 0.231250
0.217500 0.430000 0.231250
0.286250 0.430000 0.231250
0.355000 0.430000 0.231250
0.423750 0.430000 0.231250
0.492500 0.430000 0.231250
0.561250 0.430000 0.231250
0.630000 0.430000 0.231250
0.698750 0.430000 0.231250
0.767500 0.430000 0.231250
0.836250 0.430000 0.231250
0.905000 0.430000 0.231250
0.973750 0.430000 0.231250
1.000000 0.430000 0.231250
1.000000 0.430000 0.231250
1.000000 0.430000 0.231250
0.080000 0.486250 0.231250
0.148750 0.486250 0.231250
0.217500 0.486250 0.231250
0.286250 0.486250 0.231250
0.355000 0.486250 0.231250
0.423750 0.486250 0.231250
0.492500 0.486250 0.231250
0.561250 0.486250 0.231250
0.630000 0.486250 0.231250
0.698750 0.486250 0.231250
0.767500 0.486250 0.231250
0.836250 0.486250 0.231250
0.905000 0.486250 0.231250
0.973750 0.486250 0.231250
1.000000 0.486250 0.231250
1.000000 0.486250 0.231250
1.000000 0.486250 0.231250
0.080000 0.542500 0.231250
0.148750 0.542500 0.231250
0.217500 0.542500 0.231250
0.286250 0.542500 0.231250
0.355000 0.542500 0.231250
0.423750 0.542500 0.231250
0.492500 0.542500 0.231250
0.561250 0.542500 0.231250
0.630000 0.542500 0.231250
0.698750 0.542500 0.231250
0.767500 0.542500 0.231250
0.836250 0.542500 0.231250
0.905000 0.542500 0.231250
0.973750 0.542500 0.231250
1.000000 0.542500 0.231250
1.000000 0.542500 0.231250
1.000000 0.542500 0.231250
0.080000 0.598750 0.231250
0.148750 0.598750 0.231250
0.217500 0.598750 0.231250
0.286250 0.598750 0.231250
0.355000 0.598750 0.231250
0.423750 0.598750 0.231250
0.492500 0.598750 0.231250
0.561250 0.598750 0.231250
0.630000 0.598750 0.231250
0.698750 0.598750 0.231250
0.767500 0.598750 0.231250
0.836250 0.598750 0.231250
0.905000 0.598750 0.231250
0.973750 0.598750 0.231250
1.000000 0.598750 0.231250
1.000000 0.598750 0.231250
1.000000 0.598750 0.231250
0.080000 0.655000 0.231250
0.148750 0.655000 0.231250
0.217500 0.655000 0.231250
0.286250 0.655000 0.231250
0.355000 0.655000 0.231250
0.423750 0.655000 0.231250
0.492500 0.655000 0.231250
0.561250 0.655000 0.231250
0.630000 0.655000 0.231250
0.698750 0.655000 0.231250
0.767500 0.655000 0.231250
0.836250 0.655000 0.231250
0.905000 0.655000 0.231250
0.973750 0.655000 0.231250
1.000000 0.655000 0.231250
1.000000 0.655000 0.231250
1.000000 0.655000 0.231250
0.080000 0.711250 0.231250
0.148750 0.711250 0.231250
0.217500 0.711250 0.231250
0.286250 0.711250 0.231250
0.355000 0.711250 0.231250
0.423750 0.711250 0.231250
0.492500 0.711250 0.231250
0.561250 0.711250 0.231250
0.630000 0.711250 0.231250
0.698750 0.711250 0.231250
0.767500 0.711250 0.231250
0.836250 0.711250 0.231250
0.905000 0.711250 0.231250
0.973750 0.711250 0.231250
1.000000 0.711250 0.231250
1.000000 0.711250 0.231250
1.000000 0.711250 0.231250
0.080000 0.767500 0.231250
0.148750 0.767500 0.231250
0.217500 0.767500 0.231250
0.286250 0.767500 0.231250
0.355000 0.767500 0.231250
0.423750 0.767500 0.231250
0.492500 0.767500 0.231250
0.561250 0.767500 0.231250
0.630000 0.767500 0.231250
0.698750 0.767500 0.231250
0.767500 0.767500 0.231250
0.836250 0.767500 0.231250
0.905000 0.767500 0.231250
0.973750 0.767500 0.231250
1.000000 0.767500 0.231250
1.000000 0.767500 0.231250
1.000000 0.767500 0.231250
0.080000 0.823750 0.231250
0.148750 0.823750 0.231250
0.217500 0.823750 0.231250
0.286250 0.823750 0.231250
0.355000 0.823750 0.231250
0.423750 0.823750 0.231250
0.492500 0.823750 0.231250
0.561250 0.823750 0.231250
0.630000 0.823750 0.231250
0.698750 0.823750 0.231250
0.767500 0.823750 0.231250
0.836250 0.823750 0.231250
0.905000 0.823750 0.231250
0.973750 0.823750 0.231250
1.000000 0.823750 0.231250
1.000000 0.823750 0.231250
1.000000 0.823750 0.231250
0.080000 0.880000 0.231250
0.148750 0.880000 0.231250
0.217500 0.880000 0.231250
0.286250 0.880000 0.231250
0.355000 0.880000 0.231250
0.423750 0.880000 0.231250
0.492500 0.880000 0.231250
0.561250 0.880000 0.231250
0.630000 0.880000 0.231250
0.698750 0.880000 0.231250
0.767500 0.880000 0.231250
0.836250 0.880000 0.231250
0.905000 0.880000 0.231250
0.973750 0.880000 0.231250
1.000000 0.880000 0.231250
1.000000 0.880000 0.231250
1.000000 0.880000 0.231250
0.080000 0.000000 0.312500
0.148750 0.000000 0.312500
0.217500 0.000000 0.312500
0.286250 0.000000 0.312500
0.355000 0.000000 0.312500
0.423750 0.000000 0.312500
0.492500 0.000000 0.312500
0.561250 0.000000 0.312500
0.630000 0.000000 0.312500
0.698750 0.000000 0.312500
0.767500 0.000000 0.312500
0.836250 0.000000 0.312500
0.905000 0.000000 0.312500
0.973750 0.000000 0.312500
1.000000 0.000000 0.312500
1.000000 0.000000 0.312500
1.000000 0.000000 0.312500
0.080000 0.036250 0.312500
0.148750 0.036250 0.312500
0.217500 0.036250 0.312500
0.286250 0.036250 0.312500
0.355000 0.036250 0.312500
0.423750 0.036250 0.312500
0.492500 0.036250 0.312500
0.561250 0.036250 0.312500
0.630000 0.036250 0.312500
0.698750 0.036250 0.312500
0.767500 0.036250 0.312500
0.836250 0.036250 0.312500
0.905000 0.036250 0.312500
0.973750 0.036250 0.312500
1.000000 0.036250 0.312500
1.000000 0.036250 0.312500
1.000000 0.036250 0.312500
0.080000 0.092500 0.312500
0.148750 0.092500 0.312500
0.217500 0.092500 0.312500
0.286250 0.092500 0.312500
0.355000 0.092500 0.312500
0.423750 0.092500 0.312500
0.492500 0.092500 0.312500
0.561250 0.092500 0.312500
0.630000 0.092500 0.312500
0.698750 0.092500 0.312500
0.767500 0.092500 0.312500
0.836250 0.092500 0.312500
0.905000 0.092500 0.312500
0.973750 0.092500 0.312500
1.000000 0.092500 0.312500
1.000000 0.092500 0.312500
1.000000 0.092500 0.312500
0.080000 0.148750 0.312500
0.148750 0.148750 0.312500
0.217500 0.148750 0.312500
0.286250 0.148750 0.312500
0.355000 0.148750 0.312500
0.423750 0.148750 0.312500
0.492500 0.148750 0.312500
0.561250 0.148750 0.312500
0.630000 0.148750 0.312500
0.698750 0.148750 0.312500
0.767500 0.148750 0.312500
0.836250 0.148750 0.312500
0.905000 0.148750 0.312500
0.973750 0.148750 0.312500
1.000000 0.148750 0.312500
1.000000 0.148750 0.312500
1.000000 0.148750 0.312500
0.080000 0.205000 0.312500
0.148750 0.205000 0.312500
0.217500 0.205000 0.312500
0.286250 0.205000 0.312500
0.355000 0.205000 0.312500
0.423750 0.205000 0.312500
0.492500 0.205000 0.312500
0.561250 0.205000 0.312500
0.630000 0.205000 0.312500
0.698750 0.205000 0.312500
0.767500 0.205000 0.312500
0.836250 0.205000 0.312500
0.905000 0.205000 0.312500
0.973750 0.205000 0.312500
1.000000 0.205000 0.312500
1.000000 0.205000 0.312500
1.000000 0.205000 0.312500
0.080000 0.261250 0.312500
0.148750 0.261250 0.312500
0.217500 0.261250 0.312500
0.286250 0.261250 0.312500
0.355000 0.261250 0.312500
0.423750 0.261250 0.312500
0.492500 0.261250 0.312500
0.561250 0.261250 0.312500
0.630000 0.261250 0.312500
0.698750 0.261250 0.312500
0.767500 0.261250 0.312500
0.836250 0.261250 0.312500
0.905000 0.261250 0.312500
0.973750 0.261250 0.312500
1.000000 0.261250 0.312500
1.000000 0.261250 0.312500
1.000000 0.261250 0.312500
0.080000 0.317500 0.312500
0.148750 0.317500 0.312500
0.217500 0.317500 0.312500
0.286250 0.317500 0.312500
0.355000 0.317500 0.312500
0.423750 0.317500 0.312500
0.492500 0.317500 0.312500
0.561250 0.317500 0.312500
0.630000 0.317500 0.312500
0.698750 0.317500 0.312500
0.767500 0.317500 0.312500
0.836250 0.317500 0.312500
0.905000 0.317500 0.312500
0.973750 0.317500 0.312500
1.000000 0.317500 0.312500
1.000000 0.317500 0.312500
1.000000 0.317500 0.312500
0.080000 0.373750 0.312500
0.148750 0.373750 0.312500
0.217500 0.373750 0.312500
0.286250 0.373750 0.312500
0.355000 0.373750 0.312500
0.423750 0.373750 0.312500
0.492500 0.373750 0.312500
0.561250 0.373750 0.312500
0.630000 0.373750 0.312500
0.698750 0.373750 0.312500
0.767500 0.373750 0.312500
0.836250 0.373750 0.312500
0.905000 0.373750 0.312500
0.973750 0.373750 0.312500
1.000000 0.373750 0.312500
1.000000 0.373750 0.312500
1.000000 0.373750 0.312500
0.080000 0.430000 0.312500
0.148750 0.430000 0.312500
0.217500 0.430000 0.312500
0.286250 0.430000 0.312500
0.355000 0.430000 0.312500
0.423750 0.430000 0.312500
0.492500 0.430000 0.312500
0.561250 0.430000 0.312500
0.630000 0.430000 0.312500
0.698750 0.430000 0.312500
0.767500 0.430000 0.312500
0.836250 0.430000 0.312500
0.905000 0.430000 0.312500
0.973750 0.430000 0.312500
1.000000 0.430000 0.312500
1.000000 0.430000 0.312500
1.000000 0.430000 0.312500
0.080000 0.486250 0.312500
0.148750 0.486250 0.312500
0.217500 0.486250 0.312500
0.286250 0.486250 0.312500
0.355000 0.486250 0.312500
0.423750 0.486250 0.312500
0.492500 0.486250 0.312500
0.561250 0.486250 0.312500
0.630000 0.486250 0.312500
0.698750 0.486250 0.312500
0.767500 0.486250 0.312500
0.836250 0.486250 0.312500
0.905000 0.486250 0.312500
0.973750 0.486250 0.312500
1.000000 0.486250 0.312500
1.000000 0.486250 0.312500
1.000000 0.486250 0.312500
0.080000 0.542500 0.312500
0.148750 0.542500 0.312500
0.217500 0.542500 0.312500
0.286250 0.542500 0.312500
0.355000 0.542500 0.312500
0.423750 0.542500 0.312500
0.492500 0.542500 0.312500
0.561250 0.542500 0.312500
0.630000 0.542500 0.312500
0.698750 0.542500 0.312500
0.767500 0.542500 0.312500
0.836250 0.542500 0.312500
0.905000 0.542500 0.312500
0.973750 0.542500 0.312500
1.000000 0.542500 0.312500
1.000000 0.542500 0.312500
1.000000 0.542500 0.312500
0.080000 0.598750 0.312500
0.148750 0.598750 0.312500
0.217500 0.598750 0.312500
0.286250 0.598750 0.312500
0.355000 0.598750 0.312500
0.423750 0.598750 0.312500
0.492500 0.598750 0.312500
0.561250 0.598750 0.312500
0.630000 0.598750 0.312500
0.698750 0.598750 0.312500
0.767500 0.598750 0.312500
0.836250 0.598750 0.312500
0.905000 0.598750 0.312500
0.973750 0.598750 0.312500
1.000000 0.598750 0.312500
1.000000 0.598750 0.312500
1.000000 0.598750 0.312500
0.080000 0.655000 0.312500
0.148750 0.655000 0.312500
0.217500 0.655000 0.312500
0.286250 0.655000 0.312500
0.355000 0.655000 0.312500
0.423750 0.655000 0.312500
0.492500 0.655000 0.312500
0.561250 0.655000 0.312500
0.630000 0.655000 0.312500
0.698750 0.655000 0.312500
0.767500 0.655000 0.312500
0.836250 0.655000 0.312500
0.905000 0.655000 0.312500
0.973750 0.655000 0.312500
1.000000 0.655000 0.312500
1.000000 0.655000 0.312500
1.000000 0.655000 0.312500
0.080000 0.711250 0.312500
0.148750 0.711250 0.312500
0.217500 0.711250 0.312500
0.286250 0.711250 0.312500
0.355000 0.711250 0.312500
0.423750 0.711250 0.312500
0.492500 0.711250 0.312500
0.561250 0.711250 0.312500
0.630000 0.711250 0.312500
0.698750 0.711250 0.312500
0.767500 0.711250 0.312500
0.836250 0.711250 0.312500
0.905000 0.711250 0.312500
0.973750 0.711250 0.312500
1.000000 0.711250 0.312500
1.000000 0.711250 0.312500
1.000000 0.711250 0.312500
0.080000 0.767500 0.312500
0.148750 0.767500 0.312500
0.217500 0.767500 0.312500
0.286250 0.767500 0.312500
0.355000 0.767500 0.312500
0.423750 0.767500 0.312500
0.492500 0.767500 0.312500
0.561250 0.767500 0.312500
0.630000 0.767500 0.312500
0.698750 0.767500 0.312500
0.767500 0.767500 0.312500
0.836250 0.767500 0.312500
0.905000 0.767500 0.312500
0.973750 0.767500 0.312500
1.000000 0.767500 0.312500
1.000000 0.767500 0.312500
1.000000 0.767500 0.312500
0.080000 0.823750 0.312500
0.148750 0.823750 0.312500
0.217500 0.823750 0.312500
0.286250 0.823750 0.312500
0.355000 0.823750 0.312500
0.423750 0.823750 0.312500
0.492500 0.823750 0.312500
0.561250 0.823750 0.312500
0.630000 0.823750 0.312500
0.698750 0.823750 0.312500
0.767500 0.823750 0.312500
0.836250 0.823750 0.312500
0.905000 0.823750 0.312500
0.973750 0.823750 0.312500
1.000000 0.823750 0.312500
1.000000 0.823750 0.312500
1.000000 0.823750 0.312500
0.080000 0.880000 0.312500
0.148750 0.880000 0.312500
0.217500 0.880000 0.312500
0.286250 0.880000 0.312500
0.355000 0.880000 0.312500
0.423750 0.880000 0.312500
0.492500 0.880000 0.312500
0.561250 0.880000 0.312500
0.630000 0.880000 0.312500
0.698750 0.880000 0.312500
0.767500 0.880000 0.312500
0.836250 0.880000 0.312500
0.905000 0.880000 0.312500
0.973750 0.880000 0.312500
1.000000 0.880000 0.312500
1.000000 0.880000 0.312500
1.000000 0.880000 0.312500
0.080000 0.000000 0.393750
0.148750 0.000000 0.393750
0.217500 0.000000 0.393750
0.286250 0.000000 0.393750
0.355000 0.000000 0.393750
0.423750 0.000000 0.393750
0.492500 0.000000 0.393750
0.561250 0.000000 0.393750
0.630000 0.000000 0.393750
0.698750 0.000000 0.393750
0.767500 0.000000 0.393750
0.836250 0.000000 0.393750
0.905000 0.000000 0.393750
0.973750 0.000000 0.393750
1.000000 0.000000 0.393750
1.000000 0.000000 0.393750
1.000000 0.000000 0.393750
0.080000 0.036250 0.393750
