app/src/main/assets/luts/film_bw_cool.cube
# ApexStudio filter: film_bw_cool
LUT_3D_SIZE 5
DOMAIN_MIN 0.0 0.0 0.0
DOMAIN_MAX 1.0 1.0 1.0
0.000000 0.000000 0.000000
0.063537 0.071012 0.082225
0.127075 0.142025 0.164450
0.190612 0.213037 0.246675
0.254150 0.284050 0.328900
0.124737 0.139412 0.161425
0.188275 0.210425 0.243650
0.251812 0.281438 0.325875
0.315350 0.352450 0.408100
0.378887 0.423462 0.490325
0.249475 0.278825 0.322850
0.313012 0.349837 0.405075
0.376550 0.420850 0.487300
0.440087 0.491862 0.569525
0.503625 0.562875 0.651750
0.374212 0.418237 0.484275
0.437750 0.489250 0.566500
0.501287 0.560262 0.648725
0.564825 0.631275 0.730950
0.628362 0.702287 0.813175
0.498950 0.557650 0.645700
0.562487 0.628662 0.727925
0.626025 0.699675 0.810150
0.689562 0.770687 0.892375
0.753100 0.841700 0.974600
0.024225 0.027075 0.031350
0.087762 0.098087 0.113575
0.151300 0.169100 0.195800
0.214838 0.240113 0.278025
0.278375 0.311125 0.360250
0.148962 0.166487 0.192775
0.212500 0.237500 0.275000
0.276038 0.308513 0.357225
0.339575 0.379525 0.439450
0.403112 0.450537 0.521675
0.273700 0.305900 0.354200
0.337237 0.376912 0.436425
0.400775 0.447925 0.518650
0.464312 0.518937 0.600875
0.527850 0.589950 0.683100
0.398438 0.445312 0.515625
0.461975 0.516325 0.597850
0.525512 0.587337 0.680075
0.589050 0.658350 0.762300
0.652587 0.729362 0.844525
0.523175 0.584725 0.677050
0.586712 0.655737 0.759275
0.650250 0.726750 0.841500
0.713788 0.797762 0.923725
0.777325 0.868775 1.000000
0.048450 0.054150 0.062700
0.111988 0.125163 0.144925
0.175525 0.196175 0.227150
0.239062 0.267187 0.309375
0.302600 0.338200 0.391600
0.173187 0.193562 0.224125
0.236725 0.264575 0.306350
0.300262 0.335587 0.388575
0.363800 0.406600 0.470800
0.427338 0.477612 0.553025
0.297925 0.332975 0.385550
0.361462 0.403987 0.467775
0.425000 0.475000 0.550000
0.488537 0.546013 0.632225
0.552075 0.617025 0.714450
0.422662 0.472387 0.546975
0.486200 0.543400 0.629200
0.549737 0.614413 0.711425
0.613275 0.685425 0.793650
0.676813 0.756437 0.875875
0.547400 0.611800 0.708400
0.610938 0.682812 0.790625
0.674475 0.753825 0.872850
0.738013 0.824838 0.955075
0.801550 0.895850 1.000000
0.072675 0.081225 0.094050
0.136212 0.152237 0.176275
0.199750 0.223250 0.258500
0.263288 0.294263 0.340725
0.326825 0.365275 0.422950
0.197413 0.220638 0.255475
0.260950 0.291650 0.337700
0.324488 0.362662 0.419925
0.388025 0.433675 0.502150
0.451562 0.504687 0.584375
0.322150 0.360050 0.416900
0.385687 0.431062 0.499125
0.449225 0.502075 0.581350
0.512762 0.573087 0.663575
0.576300 0.644100 0.745800
0.446887 0.499462 0.578325
0.510425 0.570475 0.660550
0.573963 0.641487 0.742775
0.637500 0.712500 0.825000
0.701037 0.783512 0.907225
0.571625 0.638875 0.739750
0.635162 0.709887 0.821975
0.698700 0.780900 0.904200
0.762238 0.851912 0.986425
0.825775 0.922925 1.000000
0.096900 0.108300 0.125400
0.160437 0.179312 0.207625
0.223975 0.250325 0.289850
0.287513 0.321337 0.372075
0.351050 0.392350 0.454300
0.221637 0.247712 0.286825
0.285175 0.318725 0.369050
0.348712 0.389737 0.451275
0.412250 0.460750 0.533500
0.475787 0.531762 0.615725
0.346375 0.387125 0.448250
0.409912 0.458137 0.530475
0.473450 0.529150 0.612700
0.536987 0.600162 0.694925
0.600525 0.671175 0.777150
0.471112 0.526537 0.609675
0.534650 0.597550 0.691900
0.598187 0.668562 0.774125
0.661725 0.739575 0.856350
0.725262 0.810587 0.938575
0.595850 0.665950 0.771100
0.659387 0.736962 0.853325
0.722925 0.807975 0.935550
0.786462 0.878987 1.000000
0.850000 0.950000 1.000000
