app/src/main/assets/luts/film_bw_cool.cube
# ApexStudio filter: film_bw_cool
LUT_3D_SIZE 9
DOMAIN_MIN 0.0 0.0 0.0
DOMAIN_MAX 1.0 1.0 1.0
0.000000 0.000000 0.000000
0.031769 0.035506 0.041113
0.063537 0.071012 0.082225
0.095306 0.106519 0.123338
0.127075 0.142025 0.164450
0.158844 0.177531 0.205563
0.190612 0.213037 0.246675
0.222381 0.248544 0.287788
0.254150 0.284050 0.328900
0.062369 0.069706 0.080713
0.094137 0.105212 0.121825
0.125906 0.140719 0.162938
0.157675 0.176225 0.204050
0.189444 0.211731 0.245163
0.221212 0.247237 0.286275
0.252981 0.282744 0.327388
0.284750 0.318250 0.368500
0.316519 0.353756 0.409613
0.124737 0.139412 0.161425
0.156506 0.174919 0.202538
0.188275 0.210425 0.243650
0.220044 0.245931 0.284762
0.251812 0.281438 0.325875
0.283581 0.316944 0.366987
0.315350 0.352450 0.408100
0.347119 0.387956 0.449213
0.378887 0.423462 0.490325
0.187106 0.209119 0.242138
0.218875 0.244625 0.283250
0.250644 0.280131 0.324362
0.282413 0.315637 0.365475
0.314181 0.351144 0.406587
0.345950 0.386650 0.447700
0.377719 0.422156 0.488812
0.409488 0.457662 0.529925
0.441256 0.493169 0.571037
0.249475 0.278825 0.322850
0.281244 0.314331 0.363963
0.313012 0.349837 0.405075
0.344781 0.385344 0.446188
0.376550 0.420850 0.487300
0.408319 0.456356 0.528413
0.440087 0.491862 0.569525
0.471856 0.527369 0.610638
0.503625 0.562875 0.651750
0.311844 0.348531 0.403562
0.343612 0.384037 0.444675
0.375381 0.419544 0.485787
0.407150 0.455050 0.526900
0.438919 0.490556 0.568012
0.470687 0.526062 0.609125
0.502456 0.561569 0.650237
0.534225 0.597075 0.691350
0.565994 0.632581 0.732463
0.374212 0.418237 0.484275
0.405981 0.453744 0.525388
0.437750 0.489250 0.566500
0.469519 0.524756 0.607612
0.501287 0.560262 0.648725
0.533056 0.595769 0.689837
0.564825 0.631275 0.730950
0.596594 0.666781 0.772063
0.628362 0.702287 0.813175
0.436581 0.487944 0.564988
0.468350 0.523450 0.606100
0.500119 0.558956 0.647213
0.531887 0.594463 0.688325
0.563656 0.629969 0.729438
0.595425 0.665475 0.770550
0.627194 0.700981 0.811663
0.658963 0.736487 0.852775
0.690731 0.771994 0.893887
0.498950 0.557650 0.645700
0.530719 0.593156 0.686813
0.562487 0.628662 0.727925
0.594256 0.664169 0.769038
0.626025 0.699675 0.810150
0.657794 0.735181 0.851263
0.689562 0.770687 0.892375
0.721331 0.806194 0.933488
0.753100 0.841700 0.974600
0.012113 0.013537 0.015675
0.043881 0.049044 0.056788
0.075650 0.084550 0.097900
0.107419 0.120056 0.139013
0.139187 0.155562 0.180125
0.170956 0.191069 0.221238
0.202725 0.226575 0.262350
0.234494 0.262081 0.303463
0.266262 0.297587 0.344575
0.074481 0.083244 0.096388
0.106250 0.118750 0.137500
0.138019 0.154256 0.178613
0.169788 0.189763 0.219725
0.201556 0.225269 0.260837
0.233325 0.260775 0.301950
0.265094 0.296281 0.343063
0.296862 0.331787 0.384175
0.328631 0.367294 0.425288
0.136850 0.152950 0.177100
0.168619 0.188456 0.218213
0.200387 0.223962 0.259325
0.232156 0.259469 0.300437
0.263925 0.294975 0.341550
0.295694 0.330481 0.382662
0.327462 0.365987 0.423775
0.359231 0.401494 0.464888
0.391000 0.437000 0.506000
0.199219 0.222656 0.257812
0.230987 0.258162 0.298925
0.262756 0.293669 0.340037
0.294525 0.329175 0.381150
0.326294 0.364681 0.422262
0.358062 0.400187 0.463375
0.389831 0.435694 0.504487
0.421600 0.471200 0.545600
0.453369 0.506706 0.586712
0.261587 0.292362 0.338525
0.293356 0.327869 0.379637
0.325125 0.363375 0.420750
0.356894 0.398881 0.461863
0.388662 0.434387 0.502975
0.420431 0.469894 0.544088
0.452200 0.505400 0.585200
0.483969 0.540906 0.626313
0.515737 0.576412 0.667425
0.323956 0.362069 0.419237
0.355725 0.397575 0.460350
0.387494 0.433081 0.501462
0.419262 0.468587 0.542575
0.451031 0.504094 0.583687
0.482800 0.539600 0.624800
0.514569 0.575106 0.665912
0.546337 0.610612 0.707025
0.578106 0.646119 0.748138
0.386325 0.431775 0.499950
0.418094 0.467281 0.541063
0.449862 0.502787 0.582175
0.481631 0.538294 0.623287
0.513400 0.573800 0.664400
0.545169 0.609306 0.705512
0.576937 0.644812 0.746625
0.608706 0.680319 0.787738
0.640475 0.715825 0.828850
0.448694 0.501481 0.580663
0.480463 0.536987 0.621775
0.512231 0.572494 0.662887
0.544000 0.608000 0.704000
0.575769 0.643506 0.745112
0.607537 0.679013 0.786225
0.639306 0.714519 0.827338
0.671075 0.750025 0.868450
0.702844 0.785531 0.909562
0.511062 0.571187 0.661375
0.542831 0.606694 0.702488
0.574600 0.642200 0.743600
0.606369 0.677706 0.784713
0.638137 0.713212 0.825825
0.669906 0.748719 0.866938
0.701675 0.784225 0.908050
0.733444 0.819731 0.949163
0.765212 0.855237 0.990275
0.024225 0.027075 0.031350
0.055994 0.062581 0.072463
0.087762 0.098087 0.113575
0.119531 0.133594 0.154688
0.151300 0.169100 0.195800
0.183069 0.204606 0.236912
0.214838 0.240113 0.278025
0.246606 0.275619 0.319138
0.278375 0.311125 0.360250
0.086594 0.096781 0.112062
0.118362 0.132287 0.153175
0.150131 0.167794 0.194288
0.181900 0.203300 0.235400
0.213669 0.238806 0.276513
0.245438 0.274313 0.317625
0.277206 0.309819 0.358738
0.308975 0.345325 0.399850
0.340744 0.380831 0.440963
0.148962 0.166487 0.192775
0.180731 0.201994 0.233887
0.212500 0.237500 0.275000
0.244269 0.273006 0.316113
0.276038 0.308513 0.357225
0.307806 0.344019 0.398338
0.339575 0.379525 0.439450
0.371344 0.415031 0.480563
0.403112 0.450537 0.521675
0.211331 0.236194 0.273487
0.243100 0.271700 0.314600
0.274869 0.307206 0.355713
0.306638 0.342712 0.396825
0.338406 0.378219 0.437938
0.370175 0.413725 0.479050
0.401944 0.449231 0.520163
0.433712 0.484737 0.561275
0.465481 0.520244 0.602387
0.273700 0.305900 0.354200
0.305469 0.341406 0.395313
0.337237 0.376912 0.436425
0.369006 0.412419 0.477538
0.400775 0.447925 0.518650
0.432544 0.483431 0.559763
0.464312 0.518937 0.600875
0.496081 0.554444 0.641988
0.527850 0.589950 0.683100
0.336069 0.375606 0.434913
0.367837 0.411112 0.476025
0.399606 0.446619 0.517138
0.431375 0.482125 0.558250
0.463144 0.517631 0.599362
0.494912 0.553137 0.640475
0.526681 0.588644 0.681587
0.558450 0.624150 0.722700
0.590219 0.659656 0.763813
0.398438 0.445312 0.515625
0.430206 0.480819 0.556737
0.461975 0.516325 0.597850
0.493744 0.551831 0.638962
0.525512 0.587337 0.680075
0.557281 0.622844 0.721187
0.589050 0.658350 0.762300
0.620819 0.693856 0.803413
0.652587 0.729362 0.844525
0.460806 0.515019 0.596337
0.492575 0.550525 0.637450
0.524344 0.586031 0.678562
0.556113 0.621537 0.719675
0.587881 0.657044 0.760787
0.619650 0.692550 0.801900
0.651419 0.728056 0.843013
0.683187 0.763562 0.884125
0.714956 0.799069 0.925237
0.523175 0.584725 0.677050
0.554944 0.620231 0.718163
0.586712 0.655737 0.759275
0.618481 0.691244 0.800388
0.650250 0.726750 0.841500
0.682019 0.762256 0.882613
0.713788 0.797762 0.923725
0.745556 0.833269 0.964838
0.777325 0.868775 1.000000
0.036338 0.040613 0.047025
0.068106 0.076119 0.088138
0.099875 0.111625 0.129250
0.131644 0.147131 0.170363
0.163412 0.182638 0.211475
0.195181 0.218144 0.252588
0.226950 0.253650 0.293700
0.258719 0.289156 0.334813
0.290488 0.324662 0.375925
0.098706 0.110319 0.127738
0.130475 0.145825 0.168850
0.162244 0.181331 0.209963
0.194013 0.216837 0.251075
0.225781 0.252344 0.292188
0.257550 0.287850 0.333300
0.289319 0.323356 0.374413
0.321087 0.358862 0.415525
0.352856 0.394369 0.456638
0.161075 0.180025 0.208450
0.192844 0.215531 0.249563
0.224612 0.251037 0.290675
0.256381 0.286544 0.331788
0.288150 0.322050 0.372900
0.319919 0.357556 0.414013
0.351687 0.393062 0.455125
0.383456 0.428569 0.496238
0.415225 0.464075 0.537350
0.223444 0.249731 0.289162
0.255213 0.285237 0.330275
0.286981 0.320744 0.371388
0.318750 0.356250 0.412500
0.350519 0.391756 0.453613
0.382288 0.427262 0.494725
0.414056 0.462769 0.535837
0.445825 0.498275 0.576950
0.477594 0.533781 0.618062
0.285812 0.319437 0.369875
0.317581 0.354944 0.410988
0.349350 0.390450 0.452100
0.381119 0.425956 0.493213
0.412887 0.461462 0.534325
0.444656 0.496969 0.575438
0.476425 0.532475 0.616550
0.508194 0.567981 0.657662
0.539963 0.603487 0.698775
0.348181 0.389144 0.450587
0.379950 0.424650 0.491700
0.411719 0.460156 0.532813
0.443487 0.495662 0.573925
0.475256 0.531169 0.615037
0.507025 0.566675 0.656150
0.538794 0.602181 0.697262
0.570562 0.637687 0.738375
0.602331 0.673194 0.779487
0.410550 0.458850 0.531300
0.442319 0.494356 0.572412
0.474087 0.529862 0.613525
0.505856 0.565369 0.654637
0.537625 0.600875 0.695750
0.569394 0.636381 0.736862
0.601162 0.671887 0.777975
0.632931 0.707394 0.819088
0.664700 0.742900 0.860200
0.472919 0.528556 0.612012
0.504687 0.564063 0.653125
0.536456 0.599569 0.694237
0.568225 0.635075 0.735350
0.599994 0.670581 0.776462
0.631763 0.706087 0.817575
0.663531 0.741594 0.858688
0.695300 0.777100 0.899800
0.727069 0.812606 0.940912
0.535287 0.598262 0.692725
0.567056 0.633769 0.733838
0.598825 0.669275 0.774950
0.630594 0.704781 0.816063
0.662362 0.740287 0.857175
0.694131 0.775794 0.898288
0.725900 0.811300 0.939400
0.757669 0.846806 0.980513
0.789437 0.882312 1.000000
0.048450 0.054150 0.062700
0.080219 0.089656 0.103813
0.111988 0.125163 0.144925
0.143756 0.160669 0.186038
0.175525 0.196175 0.227150
0.207294 0.231681 0.268263
0.239062 0.267187 0.309375
0.270831 0.302694 0.350488
0.302600 0.338200 0.391600
0.110819 0.123856 0.143412
0.142587 0.159362 0.184525
0.174356 0.194869 0.225638
0.206125 0.230375 0.266750
0.237894 0.265881 0.307862
0.269662 0.301387 0.348975
0.301431 0.336894 0.390088
0.333200 0.372400 0.431200
0.364969 0.407906 0.472313
0.173187 0.193562 0.224125
0.204956 0.229069 0.265238
0.236725 0.264575 0.306350
0.268494 0.300081 0.347463
0.300262 0.335587 0.388575
0.332031 0.371094 0.429688
0.363800 0.406600 0.470800
0.395569 0.442106 0.511912
0.427338 0.477612 0.553025
0.235556 0.263269 0.304838
0.267325 0.298775 0.345950
0.299094 0.334281 0.387063
0.330863 0.369787 0.428175
0.362631 0.405294 0.469288
0.394400 0.440800 0.510400
0.426169 0.476306 0.551513
0.457938 0.511813 0.592625
0.489706 0.547319 0.633738
0.297925 0.332975 0.385550
0.329694 0.368481 0.426663
0.361462 0.403987 0.467775
0.393231 0.439494 0.508888
0.425000 0.475000 0.550000
0.456769 0.510506 0.591113
0.488537 0.546013 0.632225
0.520306 0.581519 0.673338
0.552075 0.617025 0.714450
0.360294 0.402681 0.466262
0.392062 0.438187 0.507375
0.423831 0.473694 0.548488
0.455600 0.509200 0.589600
0.487369 0.544706 0.630713
0.519138 0.580213 0.671825
0.550906 0.615719 0.712938
0.582675 0.651225 0.754050
0.614444 0.686731 0.795163
0.422662 0.472387 0.546975
0.454431 0.507894 0.588088
0.486200 0.543400 0.629200
0.517969 0.578906 0.670313
0.549737 0.614413 0.711425
0.581506 0.649919 0.752538
0.613275 0.685425 0.793650
0.645044 0.720931 0.834763
0.676813 0.756437 0.875875
0.485031 0.542094 0.627688
0.516800 0.577600 0.668800
0.548569 0.613106 0.709913
0.580338 0.648613 0.751025
0.612106 0.684119 0.792138
0.643875 0.719625 0.833250
0.675644 0.755131 0.874363
0.707412 0.790637 0.915475
0.739181 0.826144 0.956588
0.547400 0.611800 0.708400
0.579169 0.647306 0.749513
0.610938 0.682812 0.790625
0.642706 0.718319 0.831738
0.674475 0.753825 0.872850
0.706244 0.789331 0.913963
0.738013 0.824838 0.955075
0.769781 0.860344 0.996188
0.801550 0.895850 1.000000
0.060563 0.067687 0.078375
0.092331 0.103194 0.119488
0.124100 0.138700 0.160600
0.155869 0.174206 0.201713
0.187637 0.209712 0.242825
0.219406 0.245219 0.283938
0.251175 0.280725 0.325050
0.282944 0.316231 0.366163
0.314712 0.351737 0.407275
0.122931 0.137394 0.159088
0.154700 0.172900 0.200200
0.186469 0.208406 0.241313
0.218238 0.243913 0.282425
0.250006 0.279419 0.323537
0.281775 0.314925 0.364650
0.313544 0.350431 0.405763
0.345312 0.385937 0.446875
0.377081 0.421444 0.487988
0.185300 0.207100 0.239800
0.217069 0.242606 0.280913
0.248837 0.278112 0.322025
0.280606 0.313619 0.363138
0.312375 0.349125 0.404250
0.344144 0.384631 0.445362
0.375913 0.420137 0.486475
0.407681 0.455644 0.527587
0.439450 0.491150 0.568700
0.247669 0.276806 0.320513
0.279438 0.312312 0.361625
0.311206 0.347819 0.402738
0.342975 0.383325 0.443850
0.374744 0.418831 0.484963
0.406512 0.454337 0.526075
0.438281 0.489844 0.567188
0.470050 0.525350 0.608300
0.501819 0.560856 0.649413
0.310038 0.346513 0.401225
0.341806 0.382019 0.442337
0.373575 0.417525 0.483450
0.405344 0.453031 0.524563
0.437112 0.488537 0.565675
0.468881 0.524044 0.606788
0.500650 0.559550 0.647900
0.532419 0.595056 0.689013
0.564188 0.630563 0.730125
0.372406 0.416219 0.481938
0.404175 0.451725 0.523050
0.435944 0.487231 0.564163
0.467712 0.522737 0.605275
0.499481 0.558244 0.646388
0.531250 0.593750 0.687500
0.563019 0.629256 0.728612
0.594788 0.664762 0.769725
0.626556 0.700269 0.810838
0.434775 0.485925 0.562650
0.466544 0.521431 0.603763
0.498313 0.556937 0.644875
0.530081 0.592444 0.685988
0.561850 0.627950 0.727100
0.593619 0.663456 0.768213
0.625387 0.698962 0.809325
0.657156 0.734469 0.850438
0.688925 0.769975 0.891550
0.497144 0.555631 0.643363
0.528913 0.591138 0.684475
0.560681 0.626644 0.725588
0.592450 0.662150 0.766700
0.624219 0.697656 0.807813
0.655988 0.733163 0.848925
0.687756 0.768669 0.890038
0.719525 0.804175 0.931150
0.751294 0.839681 0.972263
0.559512 0.625337 0.724075
0.591281 0.660844 0.765188
0.623050 0.696350 0.806300
0.654819 0.731856 0.847413
0.686587 0.767362 0.888525
0.718356 0.802869 0.929638
0.750125 0.838375 0.970750
0.781894 0.873881 1.000000
0.813662 0.909387 1.000000
0.072675 0.081225 0.094050
0.104444 0.116731 0.135163
0.136212 0.152237 0.176275
0.167981 0.187744 0.217388
0.199750 0.223250 0.258500
0.231519 0.258756 0.299613
0.263288 0.294263 0.340725
0.295056 0.329769 0.381838
0.326825 0.365275 0.422950
0.135044 0.150931 0.174763
0.166812 0.186437 0.215875
0.198581 0.221944 0.256988
0.230350 0.257450 0.298100
0.262119 0.292956 0.339213
0.293887 0.328462 0.380325
0.325656 0.363969 0.421438
0.357425 0.399475 0.462550
0.389194 0.434981 0.503663
0.197413 0.220638 0.255475
0.229181 0.256144 0.296588
0.260950 0.291650 0.337700
0.292719 0.327156 0.378812
0.324488 0.362662 0.419925
0.356256 0.398169 0.461037
0.388025 0.433675 0.502150
0.419794 0.469181 0.543263
0.451562 0.504687 0.584375
0.259781 0.290344 0.336188
0.291550 0.325850 0.377300
0.323319 0.361356 0.418413
0.355088 0.396863 0.459525
0.386856 0.432369 0.500638
0.418625 0.467875 0.541750
0.450394 0.503381 0.582863
0.482162 0.538887 0.623975
0.513931 0.574394 0.665088
0.322150 0.360050 0.416900
0.353919 0.395556 0.458013
0.385687 0.431062 0.499125
0.417456 0.466569 0.540238
0.449225 0.502075 0.581350
0.480994 0.537581 0.622463
0.512762 0.573087 0.663575
0.544531 0.608594 0.704688
0.576300 0.644100 0.745800
0.384519 0.429756 0.497613
0.416287 0.465262 0.538725
0.448056 0.500769 0.579838
0.479825 0.536275 0.620950
0.511594 0.571781 0.662062
0.543362 0.607287 0.703175
0.575131 0.642794 0.744287
0.606900 0.678300 0.785400
0.638669 0.713806 0.826513
0.446887 0.499462 0.578325
0.478656 0.534969 0.619438
0.510425 0.570475 0.660550
0.542194 0.605981 0.701663
0.573963 0.641487 0.742775
0.605731 0.676994 0.783887
0.637500 0.712500 0.825000
0.669269 0.748006 0.866113
0.701037 0.783512 0.907225
0.509256 0.569169 0.659038
0.541025 0.604675 0.700150
0.572794 0.640181 0.741263
0.604563 0.675687 0.782375
0.636331 0.711194 0.823488
0.668100 0.746700 0.864600
0.699869 0.782206 0.905713
0.731637 0.817712 0.946825
0.763406 0.853219 0.987938
0.571625 0.638875 0.739750
0.603394 0.674381 0.780863
0.635162 0.709887 0.821975
0.666931 0.745394 0.863088
0.698700 0.780900 0.904200
0.730469 0.816406 0.945313
0.762238 0.851912 0.986425
0.794006 0.887419 1.000000
0.825775 0.922925 1.000000
0.084788 0.094762 0.109725
0.116556 0.130269 0.150838
0.148325 0.165775 0.191950
0.180094 0.201281 0.233063
0.211862 0.236787 0.274175
0.243631 0.272294 0.315288
0.275400 0.307800 0.356400
0.307169 0.343306 0.397513
0.338938 0.378812 0.438625
0.147156 0.164469 0.190438
0.178925 0.199975 0.231550
0.210694 0.235481 0.272663
0.242462 0.270987 0.313775
0.274231 0.306494 0.354888
0.306000 0.342000 0.396000
0.337769 0.377506 0.437113
0.369537 0.413012 0.478225
0.401306 0.448519 0.519338
0.209525 0.234175 0.271150
0.241294 0.269681 0.312262
0.273062 0.305187 0.353375
0.304831 0.340694 0.394487
0.336600 0.376200 0.435600
0.368369 0.411706 0.476712
0.400137 0.447212 0.517825
0.431906 0.482719 0.558937
0.463675 0.518225 0.600050
0.271894 0.303881 0.351863
0.303663 0.339388 0.392975
0.335431 0.374894 0.434088
0.367200 0.410400 0.475200
0.398969 0.445906 0.516313
0.430737 0.481413 0.557425
0.462506 0.516919 0.598538
0.494275 0.552425 0.639650
0.526044 0.587931 0.680763
0.334262 0.373587 0.432575
0.366031 0.409094 0.473688
0.397800 0.444600 0.514800
0.429569 0.480106 0.555913
0.461337 0.515612 0.597025
0.493106 0.551119 0.638138
0.524875 0.586625 0.679250
0.556644 0.622131 0.720363
0.588413 0.657637 0.761475
0.396631 0.443294 0.513288
0.428400 0.478800 0.554400
0.460169 0.514306 0.595513
0.491937 0.549812 0.636625
0.523706 0.585319 0.677737
0.555475 0.620825 0.718850
0.587244 0.656331 0.759962
0.619012 0.691837 0.801075
0.650781 0.727344 0.842188
0.459000 0.513000 0.594000
0.490769 0.548506 0.635112
0.522537 0.584013 0.676225
0.554306 0.619519 0.717337
0.586075 0.655025 0.758450
0.617844 0.690531 0.799562
0.649612 0.726038 0.840675
0.681381 0.761544 0.881788
0.713150 0.797050 0.922900
0.521369 0.582706 0.674713
0.553138 0.618213 0.715825
0.584906 0.653719 0.756938
0.616675 0.689225 0.798050
0.648444 0.724731 0.839163
0.680212 0.760238 0.880275
0.711981 0.795744 0.921388
0.743750 0.831250 0.962500
0.775519 0.866756 1.000000
0.583737 0.652412 0.755425
0.615506 0.687919 0.796538
0.647275 0.723425 0.837650
0.679044 0.758931 0.878763
0.710812 0.794437 0.919875
0.742581 0.829944 0.960988
0.774350 0.865450 1.000000
0.806119 0.900956 1.000000
0.837887 0.936462 1.000000
0.096900 0.108300 0.125400
0.128669 0.143806 0.166513
0.160437 0.179312 0.207625
0.192206 0.214819 0.248738
0.223975 0.250325 0.289850
0.255744 0.285831 0.330963
0.287513 0.321337 0.372075
0.319281 0.356844 0.413188
0.351050 0.392350 0.454300
0.159269 0.178006 0.206113
0.191037 0.213512 0.247225
0.222806 0.249019 0.288338
0.254575 0.284525 0.329450
0.286344 0.320031 0.370563
0.318112 0.355537 0.411675
0.349881 0.391044 0.452788
0.381650 0.426550 0.493900
0.413419 0.462056 0.535013
0.221637 0.247712 0.286825
0.253406 0.283219 0.327937
0.285175 0.318725 0.369050
0.316944 0.354231 0.410162
0.348712 0.389737 0.451275
0.380481 0.425244 0.492387
0.412250 0.460750 0.533500
0.444019 0.496256 0.574613
0.475787 0.531762 0.615725
0.284006 0.317419 0.367538
0.315775 0.352925 0.408650
0.347544 0.388431 0.449763
0.379312 0.423937 0.490875
0.411081 0.459444 0.531988
0.442850 0.494950 0.573100
0.474619 0.530456 0.614213
0.506387 0.565962 0.655325
0.538156 0.601469 0.696438
0.346375 0.387125 0.448250
0.378144 0.422631 0.489362
0.409912 0.458137 0.530475
0.441681 0.493644 0.571588
0.473450 0.529150 0.612700
0.505219 0.564656 0.653813
0.536987 0.600162 0.694925
0.568756 0.635669 0.736038
0.600525 0.671175 0.777150
0.408744 0.456831 0.528963
0.440512 0.492337 0.570075
0.472281 0.527844 0.611187
0.504050 0.563350 0.652300
0.535819 0.598856 0.693412
0.567587 0.634362 0.734525
0.599356 0.669869 0.775637
0.631125 0.705375 0.816750
0.662894 0.740881 0.857863
0.471112 0.526537 0.609675
0.502881 0.562044 0.650787
0.534650 0.597550 0.691900
0.566419 0.633056 0.733012
0.598187 0.668562 0.774125
0.629956 0.704069 0.815237
0.661725 0.739575 0.856350
0.693494 0.775081 0.897463
0.725262 0.810587 0.938575
0.533481 0.596244 0.690388
0.565250 0.631750 0.731500
0.597019 0.667256 0.772613
0.628788 0.702762 0.813725
0.660556 0.738269 0.854838
0.692325 0.773775 0.895950
0.724094 0.809281 0.937063
0.755862 0.844787 0.978175
0.787631 0.880294 1.000000
0.595850 0.665950 0.771100
0.627619 0.701456 0.812213
0.659387 0.736962 0.853325
0.691156 0.772469 0.894438
0.722925 0.807975 0.935550
0.754694 0.843481 0.976663
0.786462 0.878987 1.000000
0.818231 0.914494 1.000000
0.850000 0.950000 1.000000
