app/src/main/assets/luts/film_cool.cube
# ApexStudio filter: film_cool
LUT_3D_SIZE 9
DOMAIN_MIN 0.0 0.0 0.0
DOMAIN_MAX 1.0 1.0 1.0
0.000000 0.000000 0.022500
0.102500 0.000000 0.022500
0.227500 0.000000 0.022500
0.352500 0.000000 0.022500
0.477500 0.000000 0.022500
0.602500 0.000000 0.022500
0.727500 0.000000 0.022500
0.852500 0.000000 0.022500
0.977500 0.000000 0.022500
0.000000 0.117500 0.022500
0.102500 0.117500 0.022500
0.227500 0.117500 0.022500
0.352500 0.117500 0.022500
0.477500 0.117500 0.022500
0.602500 0.117500 0.022500
0.727500 0.117500 0.022500
0.852500 0.117500 0.022500
0.977500 0.117500 0.022500
0.000000 0.242500 0.022500
0.102500 0.242500 0.022500
0.227500 0.242500 0.022500
0.352500 0.242500 0.022500
0.477500 0.242500 0.022500
0.602500 0.242500 0.022500
0.727500 0.242500 0.022500
0.852500 0.242500 0.022500
0.977500 0.242500 0.022500
0.000000 0.367500 0.022500
0.102500 0.367500 0.022500
0.227500 0.367500 0.022500
0.352500 0.367500 0.022500
0.477500 0.367500 0.022500
0.602500 0.367500 0.022500
0.727500 0.367500 0.022500
0.852500 0.367500 0.022500
0.977500 0.367500 0.022500
0.000000 0.492500 0.022500
0.102500 0.492500 0.022500
0.227500 0.492500 0.022500
0.352500 0.492500 0.022500
0.477500 0.492500 0.022500
0.602500 0.492500 0.022500
0.727500 0.492500 0.022500
0.852500 0.492500 0.022500
0.977500 0.492500 0.022500
0.000000 0.617500 0.022500
0.102500 0.617500 0.022500
0.227500 0.617500 0.022500
0.352500 0.617500 0.022500
0.477500 0.617500 0.022500
0.602500 0.617500 0.022500
0.727500 0.617500 0.022500
0.852500 0.617500 0.022500
0.977500 0.617500 0.022500
0.000000 0.742500 0.022500
0.102500 0.742500 0.022500
0.227500 0.742500 0.022500
0.352500 0.742500 0.022500
0.477500 0.742500 0.022500
0.602500 0.742500 0.022500
0.727500 0.742500 0.022500
0.852500 0.742500 0.022500
0.977500 0.742500 0.022500
0.000000 0.867500 0.022500
0.102500 0.867500 0.022500
0.227500 0.867500 0.022500
0.352500 0.867500 0.022500
0.477500 0.867500 0.022500
0.602500 0.867500 0.022500
0.727500 0.867500 0.022500
0.852500 0.867500 0.022500
0.977500 0.867500 0.022500
0.000000 0.992500 0.022500
0.102500 0.992500 0.022500
0.227500 0.992500 0.022500
0.352500 0.992500 0.022500
0.477500 0.992500 0.022500
0.602500 0.992500 0.022500
0.727500 0.992500 0.022500
0.852500 0.992500 0.022500
0.977500 0.992500 0.022500
0.000000 0.000000 0.147500
0.102500 0.000000 0.147500
0.227500 0.000000 0.147500
0.352500 0.000000 0.147500
0.477500 0.000000 0.147500
0.602500 0.000000 0.147500
0.727500 0.000000 0.147500
0.852500 0.000000 0.147500
0.977500 0.000000 0.147500
0.000000 0.117500 0.147500
0.102500 0.117500 0.147500
0.227500 0.117500 0.147500
0.352500 0.117500 0.147500
0.477500 0.117500 0.147500
0.602500 0.117500 0.147500
0.727500 0.117500 0.147500
0.852500 0.117500 0.147500
0.977500 0.117500 0.147500
0.000000 0.242500 0.147500
0.102500 0.242500 0.147500
0.227500 0.242500 0.147500
0.352500 0.242500 0.147500
0.477500 0.242500 0.147500
0.602500 0.242500 0.147500
0.727500 0.242500 0.147500
0.852500 0.242500 0.147500
0.977500 0.242500 0.147500
0.000000 0.367500 0.147500
0.102500 0.367500 0.147500
0.227500 0.367500 0.147500
0.352500 0.367500 0.147500
0.477500 0.367500 0.147500
0.602500 0.367500 0.147500
0.727500 0.367500 0.147500
0.852500 0.367500 0.147500
0.977500 0.367500 0.147500
0.000000 0.492500 0.147500
0.102500 0.492500 0.147500
0.227500 0.492500 0.147500
0.352500 0.492500 0.147500
0.477500 0.492500 0.147500
0.602500 0.492500 0.147500
0.727500 0.492500 0.147500
0.852500 0.492500 0.147500
0.977500 0.492500 0.147500
0.000000 0.617500 0.147500
0.102500 0.617500 0.147500
0.227500 0.617500 0.147500
0.352500 0.617500 0.147500
0.477500 0.617500 0.147500
0.602500 0.617500 0.147500
0.727500 0.617500 0.147500
0.852500 0.617500 0.147500
0.977500 0.617500 0.147500
0.000000 0.742500 0.147500
0.102500 0.742500 0.147500
0.227500 0.742500 0.147500
0.352500 0.742500 0.147500
0.477500 0.742500 0.147500
0.602500 0.742500 0.147500
0.727500 0.742500 0.147500
0.852500 0.742500 0.147500
0.977500 0.742500 0.147500
0.000000 0.867500 0.147500
0.102500 0.867500 0.147500
0.227500 0.867500 0.147500
0.352500 0.867500 0.147500
0.477500 0.867500 0.147500
0.602500 0.867500 0.147500
0.727500 0.867500 0.147500
0.852500 0.867500 0.147500
0.977500 0.867500 0.147500
0.000000 0.992500 0.147500
0.102500 0.992500 0.147500
0.227500 0.992500 0.147500
0.352500 0.992500 0.147500
0.477500 0.992500 0.147500
0.602500 0.992500 0.147500
0.727500 0.992500 0.147500
0.852500 0.992500 0.147500
0.977500 0.992500 0.147500
0.000000 0.000000 0.272500
0.102500 0.000000 0.272500
0.227500 0.000000 0.272500
0.352500 0.000000 0.272500
0.477500 0.000000 0.272500
0.602500 0.000000 0.272500
0.727500 0.000000 0.272500
0.852500 0.000000 0.272500
0.977500 0.000000 0.272500
0.000000 0.117500 0.272500
0.102500 0.117500 0.272500
0.227500 0.117500 0.272500
0.352500 0.117500 0.272500
0.477500 0.117500 0.272500
0.602500 0.117500 0.272500
0.727500 0.117500 0.272500
0.852500 0.117500 0.272500
0.977500 0.117500 0.272500
0.000000 0.242500 0.272500
0.102500 0.242500 0.272500
0.227500 0.242500 0.272500
0.352500 0.242500 0.272500
0.477500 0.242500 0.272500
0.602500 0.242500 0.272500
0.727500 0.242500 0.272500
0.852500 0.242500 0.272500
0.977500 0.242500 0.272500
0.000000 0.367500 0.272500
0.102500 0.367500 0.272500
0.227500 0.367500 0.272500
0.352500 0.367500 0.272500
0.477500 0.367500 0.272500
0.602500 0.367500 0.272500
0.727500 0.367500 0.272500
0.852500 0.367500 0.272500
0.977500 0.367500 0.272500
0.000000 0.492500 0.272500
0.102500 0.492500 0.272500
0.227500 0.492500 0.272500
0.352500 0.492500 0.272500
0.477500 0.492500 0.272500
0.602500 0.492500 0.272500
0.727500 0.492500 0.272500
0.852500 0.492500 0.272500
0.977500 0.492500 0.272500
0.000000 0.617500 0.272500
0.102500 0.617500 0.272500
0.227500 0.617500 0.272500
0.352500 0.617500 0.272500
0.477500 0.617500 0.272500
0.602500 0.617500 0.272500
0.727500 0.617500 0.272500
0.852500 0.617500 0.272500
0.977500 0.617500 0.272500
0.000000 0.742500 0.272500
0.102500 0.742500 0.272500
0.227500 0.742500 0.272500
0.352500 0.742500 0.272500
0.477500 0.742500 0.272500
0.602500 0.742500 0.272500
0.727500 0.742500 0.272500
0.852500 0.742500 0.272500
0.977500 0.742500 0.272500
0.000000 0.867500 0.272500
0.102500 0.867500 0.272500
0.227500 0.867500 0.272500
0.352500 0.867500 0.272500
0.477500 0.867500 0.272500
0.602500 0.867500 0.272500
0.727500 0.867500 0.272500
0.852500 0.867500 0.272500
0.977500 0.867500 0.272500
0.000000 0.992500 0.272500
0.102500 0.992500 0.272500
0.227500 0.992500 0.272500
0.352500 0.992500 0.272500
0.477500 0.992500 0.272500
0.602500 0.992500 0.272500
0.727500 0.992500 0.272500
0.852500 0.992500 0.272500
0.977500 0.992500 0.272500
0.000000 0.000000 0.397500
0.102500 0.000000 0.397500
0.227500 0.000000 0.397500
0.352500 0.000000 0.397500
0.477500 0.000000 0.397500
0.602500 0.000000 0.397500
0.727500 0.000000 0.397500
0.852500 0.000000 0.397500
0.977500 0.000000 0.397500
0.000000 0.117500 0.397500
0.102500 0.117500 0.397500
0.227500 0.117500 0.397500
0.352500 0.117500 0.397500
0.477500 0.117500 0.397500
0.602500 0.117500 0.397500
0.727500 0.117500 0.397500
0.852500 0.117500 0.397500
0.977500 0.117500 0.397500
0.000000 0.242500 0.397500
0.102500 0.242500 0.397500
0.227500 0.242500 0.397500
0.352500 0.242500 0.397500
0.477500 0.242500 0.397500
0.602500 0.242500 0.397500
0.727500 0.242500 0.397500
0.852500 0.242500 0.397500
0.977500 0.242500 0.397500
0.000000 0.367500 0.397500
0.102500 0.367500 0.397500
0.227500 0.367500 0.397500
0.352500 0.367500 0.397500
0.477500 0.367500 0.397500
0.602500 0.367500 0.397500
0.727500 0.367500 0.397500
0.852500 0.367500 0.397500
0.977500 0.367500 0.397500
0.000000 0.492500 0.397500
0.102500 0.492500 0.397500
0.227500 0.492500 0.397500
0.352500 0.492500 0.397500
0.477500 0.492500 0.397500
0.602500 0.492500 0.397500
0.727500 0.492500 0.397500
0.852500 0.492500 0.397500
0.977500 0.492500 0.397500
0.000000 0.617500 0.397500
0.102500 0.617500 0.397500
0.227500 0.617500 0.397500
0.352500 0.617500 0.397500
0.477500 0.617500 0.397500
0.602500 0.617500 0.397500
0.727500 0.617500 0.397500
0.852500 0.617500 0.397500
0.977500 0.617500 0.397500
0.000000 0.742500 0.397500
0.102500 0.742500 0.397500
0.227500 0.742500 0.397500
0.352500 0.742500 0.397500
0.477500 0.742500 0.397500
0.602500 0.742500 0.397500
0.727500 0.742500 0.397500
0.852500 0.742500 0.397500
0.977500 0.742500 0.397500
0.000000 0.867500 0.397500
0.102500 0.867500 0.397500
0.227500 0.867500 0.397500
0.352500 0.867500 0.397500
0.477500 0.867500 0.397500
0.602500 0.867500 0.397500
0.727500 0.867500 0.397500
0.852500 0.867500 0.397500
0.977500 0.867500 0.397500
0.000000 0.992500 0.397500
0.102500 0.992500 0.397500
0.227500 0.992500 0.397500
0.352500 0.992500 0.397500
0.477500 0.992500 0.397500
0.602500 0.992500 0.397500
0.727500 0.992500 0.397500
0.852500 0.992500 0.397500
0.977500 0.992500 0.397500
0.000000 0.000000 0.522500
0.102500 0.000000 0.522500
0.227500 0.000000 0.522500
0.352500 0.000000 0.522500
0.477500 0.000000 0.522500
0.602500 0.000000 0.522500
0.727500 0.000000 0.522500
0.852500 0.000000 0.522500
0.977500 0.000000 0.522500
0.000000 0.117500 0.522500
0.102500 0.117500 0.522500
0.227500 0.117500 0.522500
0.352500 0.117500 0.522500
0.477500 0.117500 0.522500
0.602500 0.117500 0.522500
0.727500 0.117500 0.522500
0.852500 0.117500 0.522500
0.977500 0.117500 0.522500
0.000000 0.242500 0.522500
0.102500 0.242500 0.522500
0.227500 0.242500 0.522500
0.352500 0.242500 0.522500
0.477500 0.242500 0.522500
0.602500 0.242500 0.522500
0.727500 0.242500 0.522500
0.852500 0.242500 0.522500
0.977500 0.242500 0.522500
0.000000 0.367500 0.522500
0.102500 0.367500 0.522500
0.227500 0.367500 0.522500
0.352500 0.367500 0.522500
0.477500 0.367500 0.522500
0.602500 0.367500 0.522500
0.727500 0.367500 0.522500
0.852500 0.367500 0.522500
0.977500 0.367500 0.522500
0.000000 0.492500 0.522500
0.102500 0.492500 0.522500
0.227500 0.492500 0.522500
0.352500 0.492500 0.522500
0.477500 0.492500 0.522500
0.602500 0.492500 0.522500
0.727500 0.492500 0.522500
0.852500 0.492500 0.522500
0.977500 0.492500 0.522500
0.000000 0.617500 0.522500
0.102500 0.617500 0.522500
0.227500 0.617500 0.522500
0.352500 0.617500 0.522500
0.477500 0.617500 0.522500
0.602500 0.617500 0.522500
0.727500 0.617500 0.522500
0.852500 0.617500 0.522500
0.977500 0.617500 0.522500
0.000000 0.742500 0.522500
0.102500 0.742500 0.522500
0.227500 0.742500 0.522500
0.352500 0.742500 0.522500
0.477500 0.742500 0.522500
0.602500 0.742500 0.522500
0.727500 0.742500 0.522500
0.852500 0.742500 0.522500
0.977500 0.742500 0.522500
0.000000 0.867500 0.522500
0.102500 0.867500 0.522500
0.227500 0.867500 0.522500
0.352500 0.867500 0.522500
0.477500 0.867500 0.522500
0.602500 0.867500 0.522500
0.727500 0.867500 0.522500
0.852500 0.867500 0.522500
0.977500 0.867500 0.522500
0.000000 0.992500 0.522500
0.102500 0.992500 0.522500
0.227500 0.992500 0.522500
0.352500 0.992500 0.522500
0.477500 0.992500 0.522500
0.602500 0.992500 0.522500
0.727500 0.992500 0.522500
0.852500 0.992500 0.522500
0.977500 0.992500 0.522500
0.000000 0.000000 0.647500
0.102500 0.000000 0.647500
0.227500 0.000000 0.647500
0.352500 0.000000 0.647500
0.477500 0.000000 0.647500
0.602500 0.000000 0.647500
0.727500 0.000000 0.647500
0.852500 0.000000 0.647500
0.977500 0.000000 0.647500
0.000000 0.117500 0.647500
0.102500 0.117500 0.647500
0.227500 0.117500 0.647500
0.352500 0.117500 0.647500
0.477500 0.117500 0.647500
0.602500 0.117500 0.647500
0.727500 0.117500 0.647500
0.852500 0.117500 0.647500
0.977500 0.117500 0.647500
0.000000 0.242500 0.647500
0.102500 0.242500 0.647500
0.227500 0.242500 0.647500
0.352500 0.242500 0.647500
0.477500 0.242500 0.647500
0.602500 0.242500 0.647500
0.727500 0.242500 0.647500
0.852500 0.242500 0.647500
0.977500 0.242500 0.647500
0.000000 0.367500 0.647500
0.102500 0.367500 0.647500
0.227500 0.367500 0.647500
0.352500 0.367500 0.647500
0.477500 0.367500 0.647500
0.602500 0.367500 0.647500
0.727500 0.367500 0.647500
0.852500 0.367500 0.647500
0.977500 0.367500 0.647500
0.000000 0.492500 0.647500
0.102500 0.492500 0.647500
0.227500 0.492500 0.647500
0.352500 0.492500 0.647500
0.477500 0.492500 0.647500
0.602500 0.492500 0.647500
0.727500 0.492500 0.647500
0.852500 0.492500 0.647500
0.977500 0.492500 0.647500
0.000000 0.617500 0.647500
0.102500 0.617500 0.647500
0.227500 0.617500 0.647500
0.352500 0.617500 0.647500
0.477500 0.617500 0.647500
0.602500 0.617500 0.647500
0.727500 0.617500 0.647500
0.852500 0.617500 0.647500
0.977500 0.617500 0.647500
0.000000 0.742500 0.647500
0.102500 0.742500 0.647500
0.227500 0.742500 0.647500
0.352500 0.742500 0.647500
0.477500 0.742500 0.647500
0.602500 0.742500 0.647500
0.727500 0.742500 0.647500
0.852500 0.742500 0.647500
0.977500 0.742500 0.647500
0.000000 0.867500 0.647500
0.102500 0.867500 0.647500
0.227500 0.867500 0.647500
0.352500 0.867500 0.647500
0.477500 0.867500 0.647500
0.602500 0.867500 0.647500
0.727500 0.867500 0.647500
0.852500 0.867500 0.647500
0.977500 0.867500 0.647500
0.000000 0.992500 0.647500
0.102500 0.992500 0.647500
0.227500 0.992500 0.647500
0.352500 0.992500 0.647500
0.477500 0.992500 0.647500
0.602500 0.992500 0.647500
0.727500 0.992500 0.647500
0.852500 0.992500 0.647500
0.977500 0.992500 0.647500
0.000000 0.000000 0.772500
0.102500 0.000000 0.772500
0.227500 0.000000 0.772500
0.352500 0.000000 0.772500
0.477500 0.000000 0.772500
0.602500 0.000000 0.772500
0.727500 0.000000 0.772500
0.852500 0.000000 0.772500
0.977500 0.000000 0.772500
0.000000 0.117500 0.772500
0.102500 0.117500 0.772500
0.227500 0.117500 0.772500
0.352500 0.117500 0.772500
0.477500 0.117500 0.772500
0.602500 0.117500 0.772500
0.727500 0.117500 0.772500
0.852500 0.117500 0.772500
0.977500 0.117500 0.772500
0.000000 0.242500 0.772500
0.102500 0.242500 0.772500
0.227500 0.242500 0.772500
0.352500 0.242500 0.772500
0.477500 0.242500 0.772500
0.602500 0.242500 0.772500
0.727500 0.242500 0.772500
0.852500 0.242500 0.772500
0.977500 0.242500 0.772500
0.000000 0.367500 0.772500
0.102500 0.367500 0.772500
0.227500 0.367500 0.772500
0.352500 0.367500 0.772500
0.477500 0.367500 0.772500
0.602500 0.367500 0.772500
0.727500 0.367500 0.772500
0.852500 0.367500 0.772500
0.977500 0.367500 0.772500
0.000000 0.492500 0.772500
0.102500 0.492500 0.772500
0.227500 0.492500 0.772500
0.352500 0.492500 0.772500
0.477500 0.492500 0.772500
0.602500 0.492500 0.772500
0.727500 0.492500 0.772500
0.852500 0.492500 0.772500
0.977500 0.492500 0.772500
0.000000 0.617500 0.772500
0.102500 0.617500 0.772500
0.227500 0.617500 0.772500
0.352500 0.617500 0.772500
0.477500 0.617500 0.772500
0.602500 0.617500 0.772500
0.727500 0.617500 0.772500
0.852500 0.617500 0.772500
0.977500 0.617500 0.772500
0.000000 0.742500 0.772500
0.102500 0.742500 0.772500
0.227500 0.742500 0.772500
0.352500 0.742500 0.772500
0.477500 0.742500 0.772500
0.602500 0.742500 0.772500
0.727500 0.742500 0.772500
0.852500 0.742500 0.772500
0.977500 0.742500 0.772500
0.000000 0.867500 0.772500
0.102500 0.867500 0.772500
0.227500 0.867500 0.772500
0.352500 0.867500 0.772500
0.477500 0.867500 0.772500
0.602500 0.867500 0.772500
0.727500 0.867500 0.772500
0.852500 0.867500 0.772500
0.977500 0.867500 0.772500
0.000000 0.992500 0.772500
0.102500 0.992500 0.772500
0.227500 0.992500 0.772500
0.352500 0.992500 0.772500
0.477500 0.992500 0.772500
0.602500 0.992500 0.772500
0.727500 0.992500 0.772500
0.852500 0.992500 0.772500
0.977500 0.992500 0.772500
0.000000 0.000000 0.897500
0.102500 0.000000 0.897500
0.227500 0.000000 0.897500
0.352500 0.000000 0.897500
0.477500 0.000000 0.897500
0.602500 0.000000 0.897500
0.727500 0.000000 0.897500
0.852500 0.000000 0.897500
0.977500 0.000000 0.897500
0.000000 0.117500 0.897500
0.102500 0.117500 0.897500
0.227500 0.117500 0.897500
0.352500 0.117500 0.897500
0.477500 0.117500 0.897500
0.602500 0.117500 0.897500
0.727500 0.117500 0.897500
0.852500 0.117500 0.897500
0.977500 0.117500 0.897500
0.000000 0.242500 0.897500
0.102500 0.242500 0.897500
0.227500 0.242500 0.897500
0.352500 0.242500 0.897500
0.477500 0.242500 0.897500
0.602500 0.242500 0.897500
0.727500 0.242500 0.897500
0.852500 0.242500 0.897500
0.977500 0.242500 0.897500
0.000000 0.367500 0.897500
0.102500 0.367500 0.897500
0.227500 0.367500 0.897500
0.352500 0.367500 0.897500
0.477500 0.367500 0.897500
0.602500 0.367500 0.897500
0.727500 0.367500 0.897500
0.852500 0.367500 0.897500
0.977500 0.367500 0.897500
0.000000 0.492500 0.897500
0.102500 0.492500 0.897500
0.227500 0.492500 0.897500
0.352500 0.492500 0.897500
0.477500 0.492500 0.897500
0.602500 0.492500 0.897500
0.727500 0.492500 0.897500
0.852500 0.492500 0.897500
0.977500 0.492500 0.897500
0.000000 0.617500 0.897500
0.102500 0.617500 0.897500
0.227500 0.617500 0.897500
0.352500 0.617500 0.897500
0.477500 0.617500 0.897500
0.602500 0.617500 0.897500
0.727500 0.617500 0.897500
0.852500 0.617500 0.897500
0.977500 0.617500 0.897500
0.000000 0.742500 0.897500
0.102500 0.742500 0.897500
0.227500 0.742500 0.897500
0.352500 0.742500 0.897500
0.477500 0.742500 0.897500
0.602500 0.742500 0.897500
0.727500 0.742500 0.897500
0.852500 0.742500 0.897500
0.977500 0.742500 0.897500
0.000000 0.867500 0.897500
0.102500 0.867500 0.897500
0.227500 0.867500 0.897500
0.352500 0.867500 0.897500
0.477500 0.867500 0.897500
0.602500 0.867500 0.897500
0.727500 0.867500 0.897500
0.852500 0.867500 0.897500
0.977500 0.867500 0.897500
0.000000 0.992500 0.897500
0.102500 0.992500 0.897500
0.227500 0.992500 0.897500
0.352500 0.992500 0.897500
0.477500 0.992500 0.897500
0.602500 0.992500 0.897500
0.727500 0.992500 0.897500
0.852500 0.992500 0.897500
0.977500 0.992500 0.897500
0.000000 0.000000 1.000000
0.102500 0.000000 1.000000
0.227500 0.000000 1.000000
0.352500 0.000000 1.000000
0.477500 0.000000 1.000000
0.602500 0.000000 1.000000
0.727500 0.000000 1.000000
0.852500 0.000000 1.000000
0.977500 0.000000 1.000000
0.000000 0.117500 1.000000
0.102500 0.117500 1.000000
0.227500 0.117500 1.000000
0.352500 0.117500 1.000000
0.477500 0.117500 1.000000
0.602500 0.117500 1.000000
0.727500 0.117500 1.000000
0.852500 0.117500 1.000000
0.977500 0.117500 1.000000
0.000000 0.242500 1.000000
0.102500 0.242500 1.000000
0.227500 0.242500 1.000000
0.352500 0.242500 1.000000
0.477500 0.242500 1.000000
0.602500 0.242500 1.000000
0.727500 0.242500 1.000000
0.852500 0.242500 1.000000
0.977500 0.242500 1.000000
0.000000 0.367500 1.000000
0.102500 0.367500 1.000000
0.227500 0.367500 1.000000
0.352500 0.367500 1.000000
0.477500 0.367500 1.000000
0.602500 0.367500 1.000000
0.727500 0.367500 1.000000
0.852500 0.367500 1.000000
0.977500 0.367500 1.000000
0.000000 0.492500 1.000000
0.102500 0.492500 1.000000
0.227500 0.492500 1.000000
0.352500 0.492500 1.000000
0.477500 0.492500 1.000000
0.602500 0.492500 1.000000
0.727500 0.492500 1.000000
0.852500 0.492500 1.000000
0.977500 0.492500 1.000000
0.000000 0.617500 1.000000
0.102500 0.617500 1.000000
0.227500 0.617500 1.000000
0.352500 0.617500 1.000000
0.477500 0.617500 1.000000
0.602500 0.617500 1.000000
0.727500 0.617500 1.000000
0.852500 0.617500 1.000000
0.977500 0.617500 1.000000
0.000000 0.742500 1.000000
0.102500 0.742500 1.000000
0.227500 0.742500 1.000000
0.352500 0.742500 1.000000
0.477500 0.742500 1.000000
0.602500 0.742500 1.000000
0.727500 0.742500 1.000000
0.852500 0.742500 1.000000
0.977500 0.742500 1.000000
0.000000 0.867500 1.000000
0.102500 0.867500 1.000000
0.227500 0.867500 1.000000
0.352500 0.867500 1.000000
0.477500 0.867500 1.000000
0.602500 0.867500 1.000000
0.727500 0.867500 1.000000
0.852500 0.867500 1.000000
0.977500 0.867500 1.000000
0.000000 0.992500 1.000000
0.102500 0.992500 1.000000
0.227500 0.992500 1.000000
0.352500 0.992500 1.000000
0.477500 0.992500 1.000000
0.602500 0.992500 1.000000
0.727500 0.992500 1.000000
0.852500 0.992500 1.000000
0.977500 0.992500 1.000000
