app/src/main/assets/luts/film_bw_warm.cube
# ApexStudio filter: film_bw_warm
LUT_3D_SIZE 5
DOMAIN_MIN 0.0 0.0 0.0
DOMAIN_MAX 1.0 1.0 1.0
0.000000 0.000000 0.000000
0.082225 0.074750 0.063537
0.164450 0.149500 0.127075
0.246675 0.224250 0.190612
0.328900 0.299000 0.254150
0.161425 0.146750 0.124737
0.243650 0.221500 0.188275
0.325875 0.296250 0.251812
0.408100 0.371000 0.315350
0.490325 0.445750 0.378887
0.322850 0.293500 0.249475
0.405075 0.368250 0.313012
0.487300 0.443000 0.376550
0.569525 0.517750 0.440087
0.651750 0.592500 0.503625
0.484275 0.440250 0.374212
0.566500 0.515000 0.437750
0.648725 0.589750 0.501287
0.730950 0.664500 0.564825
0.813175 0.739250 0.628362
0.645700 0.587000 0.498950
0.727925 0.661750 0.562487
0.810150 0.736500 0.626025
0.892375 0.811250 0.689562
0.974600 0.886000 0.753100
0.031350 0.028500 0.024225
0.113575 0.103250 0.087762
0.195800 0.178000 0.151300
0.278025 0.252750 0.214838
0.360250 0.327500 0.278375
0.192775 0.175250 0.148962
0.275000 0.250000 0.212500
0.357225 0.324750 0.276038
0.439450 0.399500 0.339575
0.521675 0.474250 0.403112
0.354200 0.322000 0.273700
0.436425 0.396750 0.337237
0.518650 0.471500 0.400775
0.600875 0.546250 0.464312
0.683100 0.621000 0.527850
0.515625 0.468750 0.398438
0.597850 0.543500 0.461975
0.680075 0.618250 0.525512
0.762300 0.693000 0.589050
0.844525 0.767750 0.652587
0.677050 0.615500 0.523175
0.759275 0.690250 0.586712
0.841500 0.765000 0.650250
0.923725 0.839750 0.713788
1.000000 0.914500 0.777325
0.062700 0.057000 0.048450
0.144925 0.131750 0.111988
0.227150 0.206500 0.175525
0.309375 0.281250 0.239062
0.391600 0.356000 0.302600
0.224125 0.203750 0.173187
0.306350 0.278500 0.236725
0.388575 0.353250 0.300262
0.470800 0.428000 0.363800
0.553025 0.502750 0.427338
0.385550 0.350500 0.297925
0.467775 0.425250 0.361462
0.550000 0.500000 0.425000
0.632225 0.574750 0.488537
0.714450 0.649500 0.552075
0.546975 0.497250 0.422662
0.629200 0.572000 0.486200
0.711425 0.646750 0.549737
0.793650 0.721500 0.613275
0.875875 0.796250 0.676813
0.708400 0.644000 0.547400
0.790625 0.718750 0.610938
0.872850 0.793500 0.674475
0.955075 0.868250 0.738013
1.000000 0.943000 0.801550
0.094050 0.085500 0.072675
0.176275 0.160250 0.136212
0.258500 0.235000 0.199750
0.340725 0.309750 0.263288
0.422950 0.384500 0.326825
0.255475 0.232250 0.197413
0.337700 0.307000 0.260950
0.419925 0.381750 0.324488
0.502150 0.456500 0.388025
0.584375 0.531250 0.451562
0.416900 0.379000 0.322150
0.499125 0.453750 0.385687
0.581350 0.528500 0.449225
0.663575 0.603250 0.512762
0.745800 0.678000 0.576300
0.578325 0.525750 0.446887
0.660550 0.600500 0.510425
0.742775 0.675250 0.573963
0.825000 0.750000 0.637500
0.907225 0.824750 0.701037
0.739750 0.672500 0.571625
0.821975 0.747250 0.635162
0.904200 0.822000 0.698700
0.986425 0.896750 0.762238
1.000000 0.971500 0.825775
0.125400 0.114000 0.096900
0.207625 0.188750 0.160437
0.289850 0.263500 0.223975
0.372075 0.338250 0.287513
0.454300 0.413000 0.351050
0.286825 0.260750 0.221637
0.369050 0.335500 0.285175
0.451275 0.410250 0.348712
0.533500 0.485000 0.412250
0.615725 0.559750 0.475787
0.448250 0.407500 0.346375
0.530475 0.482250 0.409912
0.612700 0.557000 0.473450
0.694925 0.631750 0.536987
0.777150 0.706500 0.600525
0.609675 0.554250 0.471112
0.691900 0.629000 0.534650
0.774125 0.703750 0.598187
0.856350 0.778500 0.661725
0.938575 0.853250 0.725262
0.771100 0.701000 0.595850
0.853325 0.775750 0.659387
0.935550 0.850500 0.722925
1.000000 0.925250 0.786462
1.000000 1.000000 0.850000
