app/src/main/assets/luts/film_noir_cinema.cube
# ApexStudio filter: film_noir_cinema
LUT_3D_SIZE 9
DOMAIN_MIN 0.0 0.0 0.0
DOMAIN_MAX 1.0 1.0 1.0
0.000205 0.000205 0.016405
0.066693 0.002343 0.018543
0.194554 0.006454 0.022654
0.322416 0.010566 0.026766
0.450277 0.014677 0.030877
0.578138 0.018788 0.034988
0.705999 0.022899 0.039099
0.833861 0.027011 0.043211
0.930105 0.030105 0.046305
0.005444 0.085769 0.021644
0.071932 0.087907 0.023782
0.199793 0.092018 0.027893
0.327655 0.096130 0.032005
0.455516 0.100241 0.036116
0.583377 0.104352 0.040227
0.711238 0.108463 0.044338
0.839100 0.112575 0.048450
0.935344 0.115669 0.051544
0.013149 0.211599 0.029349
0.079636 0.213736 0.031486
0.207498 0.217848 0.035598
0.335359 0.221959 0.039709
0.463220 0.226070 0.043820
0.591081 0.230181 0.047931
0.718943 0.234293 0.052043
0.846804 0.238404 0.056154
0.943049 0.241499 0.059249
0.020853 0.337428 0.037053
0.087341 0.339566 0.039191
0.215202 0.343677 0.043302
0.343063 0.347788 0.047413
0.470925 0.351900 0.051525
0.598786 0.356011 0.055636
0.726647 0.360122 0.059747
0.854508 0.364233 0.063858
0.950753 0.367328 0.066953
0.028557 0.463257 0.044757
0.095045 0.465395 0.046895
0.222906 0.469506 0.051006
0.350768 0.473618 0.055118
0.478629 0.477729 0.059229
0.606490 0.481840 0.063340
0.734351 0.485951 0.067451
0.862213 0.490063 0.071563
0.958457 0.493157 0.074657
0.036262 0.589087 0.052462
0.102750 0.591225 0.054600
0.230611 0.595336 0.058711
0.358472 0.599447 0.062822
0.486333 0.603558 0.066933
0.614195 0.607670 0.071045
0.742056 0.611781 0.075156
0.869917 0.615892 0.079267
0.966162 0.618987 0.082362
0.043966 0.714916 0.060166
0.110454 0.717054 0.062304
0.238315 0.721165 0.066415
0.366176 0.725276 0.070526
0.494038 0.729388 0.074638
0.621899 0.733499 0.078749
0.749760 0.737610 0.082860
0.877621 0.741721 0.086971
0.973866 0.744816 0.090066
0.051670 0.840745 0.067870
0.118158 0.842883 0.070008
0.246020 0.846995 0.074120
0.373881 0.851106 0.078231
0.501742 0.855217 0.082342
0.629603 0.859328 0.086453
0.757465 0.863440 0.090565
0.885326 0.867551 0.094676
0.981570 0.870645 0.097770
0.058905 0.958905 0.075105
0.125393 0.961043 0.077243
0.253254 0.965154 0.081354
0.381116 0.969266 0.085466
0.508977 0.973377 0.089577
0.636838 0.977488 0.093688
0.764699 0.981599 0.097799
0.892561 0.985711 0.101911
0.988805 0.988805 0.105005
0.001488 0.001488 0.118938
0.067976 0.003626 0.121076
0.195837 0.007737 0.125187
0.323698 0.011848 0.129298
0.451559 0.015959 0.133409
0.579421 0.020071 0.137521
0.707282 0.024182 0.141632
0.835143 0.028293 0.145743
0.931388 0.031388 0.148838
0.006727 0.087052 0.124177
0.073215 0.089190 0.126315
0.201076 0.093301 0.130426
0.328937 0.097412 0.134537
0.456798 0.101523 0.138648
0.584660 0.105635 0.142760
0.712521 0.109746 0.146871
0.840382 0.113857 0.150982
0.936627 0.116952 0.154077
0.014431 0.212881 0.131881
0.080919 0.215019 0.134019
0.208780 0.219130 0.138130
0.336641 0.223241 0.142241
0.464503 0.227353 0.146353
0.592364 0.231464 0.150464
0.720225 0.235575 0.154575
0.848086 0.239686 0.158686
0.944331 0.242781 0.161781
0.022135 0.338710 0.139585
0.088623 0.340848 0.141723
0.216485 0.344960 0.145835
0.344346 0.349071 0.149946
0.472207 0.353182 0.154057
0.600068 0.357293 0.158168
0.727930 0.361405 0.162280
0.855791 0.365516 0.166391
0.952035 0.368610 0.169485
0.029840 0.464540 0.147290
0.096328 0.466678 0.149428
0.224189 0.470789 0.153539
0.352050 0.474900 0.157650
0.479911 0.479011 0.161761
0.607773 0.483123 0.165873
0.735634 0.487234 0.169984
0.863495 0.491345 0.174095
0.959740 0.494440 0.177190
0.037544 0.590369 0.154994
0.104032 0.592507 0.157132
0.231893 0.596618 0.161243
0.359755 0.600730 0.165355
0.487616 0.604841 0.169466
0.615477 0.608952 0.173577
0.743338 0.613063 0.177688
0.871200 0.617175 0.181800
0.967444 0.620269 0.184894
0.045249 0.716199 0.162699
0.111736 0.718336 0.164836
0.239598 0.722448 0.168948
0.367459 0.726559 0.173059
0.495320 0.730670 0.177170
0.623181 0.734781 0.181281
0.751043 0.738893 0.185393
0.878904 0.743004 0.189504
0.975149 0.746099 0.192599
0.052953 0.842028 0.170403
0.119441 0.844166 0.172541
0.247302 0.848277 0.176652
0.375163 0.852388 0.180763
0.503025 0.856500 0.184875
0.630886 0.860611 0.188986
0.758747 0.864722 0.193097
0.886608 0.868833 0.197208
0.982853 0.871928 0.200303
0.060188 0.960188 0.177638
0.126676 0.962326 0.179776
0.254537 0.966437 0.183887
0.382398 0.970548 0.187998
0.510259 0.974659 0.192109
0.638121 0.978771 0.196221
0.765982 0.982882 0.200332
0.893843 0.986993 0.204443
0.990088 0.990088 0.207538
0.002770 0.002770 0.221470
0.069258 0.004908 0.223608
0.197119 0.009019 0.227719
0.324981 0.013131 0.231831
0.452842 0.017242 0.235942
0.580703 0.021353 0.240053
0.708564 0.025464 0.244164
0.836426 0.029576 0.248276
0.932670 0.032670 0.251370
0.008009 0.088334 0.226709
0.074497 0.090472 0.228847
0.202358 0.094583 0.232958
0.330220 0.098695 0.237070
0.458081 0.102806 0.241181
0.585942 0.106917 0.245292
0.713803 0.111028 0.249403
0.841665 0.115140 0.253515
0.937909 0.118234 0.256609
0.015714 0.214164 0.234414
0.082201 0.216301 0.236551
0.210063 0.220413 0.240663
0.337924 0.224524 0.244774
0.465785 0.228635 0.248885
0.593646 0.232746 0.252996
0.721508 0.236858 0.257108
0.849369 0.240969 0.261219
0.945614 0.244064 0.264314
0.023418 0.339993 0.242118
0.089906 0.342131 0.244256
0.217767 0.346242 0.248367
0.345628 0.350353 0.252478
0.473490 0.354465 0.256590
0.601351 0.358576 0.260701
0.729212 0.362687 0.264812
0.857073 0.366798 0.268923
0.953318 0.369893 0.272018
0.031122 0.465822 0.249822
0.097610 0.467960 0.251960
0.225471 0.472071 0.256071
0.353333 0.476183 0.260183
0.481194 0.480294 0.264294
0.609055 0.484405 0.268405
0.736916 0.488516 0.272516
0.864778 0.492628 0.276628
0.961022 0.495722 0.279722
0.038827 0.591652 0.257527
0.105315 0.593790 0.259665
0.233176 0.597901 0.263776
0.361037 0.602012 0.267887
0.488898 0.606123 0.271998
0.616760 0.610235 0.276110
0.744621 0.614346 0.280221
0.872482 0.618457 0.284332
0.968727 0.621552 0.287427
0.046531 0.717481 0.265231
0.113019 0.719619 0.267369
0.240880 0.723730 0.271480
0.368741 0.727841 0.275591
0.496603 0.731953 0.279703
0.624464 0.736064 0.283814
0.752325 0.740175 0.287925
0.880186 0.744286 0.292036
0.976431 0.747381 0.295131
0.054235 0.843310 0.272935
0.120723 0.845448 0.275073
0.248585 0.849560 0.279185
0.376446 0.853671 0.283296
0.504307 0.857782 0.287407
0.632168 0.861893 0.291518
0.760030 0.866005 0.295630
0.887891 0.870116 0.299741
0.984135 0.873210 0.302835
0.061470 0.961470 0.280170
0.127958 0.963608 0.282308
0.255819 0.967719 0.286419
0.383681 0.971831 0.290531
0.511542 0.975942 0.294642
0.639403 0.980053 0.298753
0.767264 0.984164 0.302864
0.895126 0.988276 0.306976
0.991370 0.991370 0.310070
0.004053 0.004053 0.324003
0.070541 0.006191 0.326141
0.198402 0.010302 0.330252
0.326263 0.014413 0.334363
0.454124 0.018524 0.338474
0.581986 0.022636 0.342586
0.709847 0.026747 0.346697
0.837708 0.030858 0.350808
0.933953 0.033953 0.353903
0.009292 0.089617 0.329242
0.075780 0.091755 0.331380
0.203641 0.095866 0.335491
0.331502 0.099977 0.339602
0.459363 0.104088 0.343713
0.587225 0.108200 0.347825
0.715086 0.112311 0.351936
0.842947 0.116422 0.356047
0.939192 0.119517 0.359142
0.016996 0.215446 0.336946
0.083484 0.217584 0.339084
0.211345 0.221695 0.343195
0.339206 0.225806 0.347306
0.467068 0.229918 0.351418
0.594929 0.234029 0.355529
0.722790 0.238140 0.359640
0.850651 0.242251 0.363751
0.946896 0.245346 0.366846
0.024700 0.341275 0.344650
0.091188 0.343413 0.346788
0.219050 0.347525 0.350900
0.346911 0.351636 0.355011
0.474772 0.355747 0.359122
0.602633 0.359858 0.363233
0.730495 0.363970 0.367345
0.858356 0.368081 0.371456
0.954600 0.371175 0.374550
0.032405 0.467105 0.352355
0.098893 0.469243 0.354493
0.226754 0.473354 0.358604
0.354615 0.477465 0.362715
0.482476 0.481576 0.366826
0.610338 0.485688 0.370938
0.738199 0.489799 0.375049
0.866060 0.493910 0.379160
0.962305 0.497005 0.382255
0.040109 0.592934 0.360059
0.106597 0.595072 0.362197
0.234458 0.599183 0.366308
0.362320 0.603295 0.370420
0.490181 0.607406 0.374531
0.618042 0.611517 0.378642
0.745903 0.615628 0.382753
0.873765 0.619740 0.386865
0.970009 0.622834 0.389959
0.047814 0.718764 0.367764
0.114301 0.720901 0.369901
0.242163 0.725013 0.374013
0.370024 0.729124 0.378124
0.497885 0.733235 0.382235
0.625746 0.737346 0.386346
0.753608 0.741458 0.390458
0.881469 0.745569 0.394569
0.977714 0.748664 0.397664
0.055518 0.844593 0.375468
0.122006 0.846731 0.377606
0.249867 0.850842 0.381717
0.377728 0.854953 0.385828
0.505590 0.859065 0.389940
0.633451 0.863176 0.394051
0.761312 0.867287 0.398162
0.889173 0.871398 0.402273
0.985418 0.874493 0.405368
0.062753 0.962753 0.382703
0.129241 0.964891 0.384841
0.257102 0.969002 0.388952
0.384963 0.973113 0.393063
0.512824 0.977224 0.397174
0.640686 0.981336 0.401286
0.768547 0.985447 0.405397
0.896408 0.989558 0.409508
0.992653 0.992653 0.412603
0.005335 0.005335 0.426535
0.071823 0.007473 0.428673
0.199684 0.011584 0.432784
0.327546 0.015696 0.436896
0.455407 0.019807 0.441007
0.583268 0.023918 0.445118
0.711129 0.028029 0.449229
0.838991 0.032141 0.453341
0.935235 0.035235 0.456435
0.010574 0.090899 0.431774
0.077062 0.093037 0.433912
0.204923 0.097148 0.438023
0.332785 0.101260 0.442135
0.460646 0.105371 0.446246
0.588507 0.109482 0.450357
0.716368 0.113593 0.454468
0.844230 0.117705 0.458580
0.940474 0.120799 0.461674
0.018279 0.216729 0.439479
0.084766 0.218866 0.441616
0.212628 0.222978 0.445728
0.340489 0.227089 0.449839
0.468350 0.231200 0.453950
0.596211 0.235311 0.458061
0.724073 0.239423 0.462173
0.851934 0.243534 0.466284
0.948179 0.246629 0.469379
0.025983 0.342558 0.447183
0.092471 0.344696 0.449321
0.220332 0.348807 0.453432
0.348193 0.352918 0.457543
0.476055 0.357030 0.461655
0.603916 0.361141 0.465766
0.731777 0.365252 0.469877
0.859638 0.369363 0.473988
0.955883 0.372458 0.477083
0.033687 0.468387 0.454887
0.100175 0.470525 0.457025
0.228036 0.474636 0.461136
0.355898 0.478748 0.465248
0.483759 0.482859 0.469359
0.611620 0.486970 0.473470
0.739481 0.491081 0.477581
0.867343 0.495193 0.481693
0.963587 0.498287 0.484787
0.041392 0.594217 0.462592
0.107880 0.596355 0.464730
0.235741 0.600466 0.468841
0.363602 0.604577 0.472952
0.491463 0.608688 0.477063
0.619325 0.612800 0.481175
0.747186 0.616911 0.485286
0.875047 0.621022 0.489397
0.971292 0.624117 0.492492
0.049096 0.720046 0.470296
0.115584 0.722184 0.472434
0.243445 0.726295 0.476545
0.371306 0.730406 0.480656
0.499168 0.734518 0.484768
0.627029 0.738629 0.488879
0.754890 0.742740 0.492990
0.882751 0.746851 0.497101
0.978996 0.749946 0.500196
0.056800 0.845875 0.478000
0.123288 0.848013 0.480138
0.251150 0.852125 0.484250
0.379011 0.856236 0.488361
0.506872 0.860347 0.492472
0.634733 0.864458 0.496583
0.762595 0.868570 0.500695
0.890456 0.872681 0.504806
0.986700 0.875775 0.507900
0.064035 0.964035 0.485235
0.130523 0.966173 0.487373
0.258384 0.970284 0.491484
0.386246 0.974396 0.495596
0.514107 0.978507 0.499707
0.641968 0.982618 0.503818
0.769829 0.986729 0.507929
0.897691 0.990841 0.512041
0.993935 0.993935 0.515135
0.006618 0.006618 0.529068
0.073106 0.008756 0.531206
0.200967 0.012867 0.535317
0.328828 0.016978 0.539428
0.456689 0.021089 0.543539
0.584551 0.025201 0.547651
0.712412 0.029312 0.551762
0.840273 0.033423 0.555873
0.936518 0.036518 0.558968
0.011857 0.092182 0.534307
0.078345 0.094320 0.536445
0.206206 0.098431 0.540556
0.334067 0.102542 0.544667
0.461928 0.106653 0.548778
0.589790 0.110765 0.552890
0.717651 0.114876 0.557001
0.845512 0.118987 0.561112
0.941757 0.122082 0.564207
0.019561 0.218011 0.542011
0.086049 0.220149 0.544149
0.213910 0.224260 0.548260
0.341771 0.228371 0.552371
0.469633 0.232483 0.556483
0.597494 0.236594 0.560594
0.725355 0.240705 0.564705
0.853216 0.244816 0.568816
0.949461 0.247911 0.571911
0.027265 0.343840 0.549715
0.093753 0.345978 0.551853
0.221615 0.350090 0.555965
0.349476 0.354201 0.560076
0.477337 0.358312 0.564187
0.605198 0.362423 0.568298
0.733060 0.366535 0.572410
0.860921 0.370646 0.576521
0.957165 0.373740 0.579615
0.034970 0.469670 0.557420
0.101458 0.471808 0.559558
0.229319 0.475919 0.563669
0.357180 0.480030 0.567780
0.485041 0.484141 0.571891
0.612903 0.488253 0.576003
0.740764 0.492364 0.580114
0.868625 0.496475 0.584225
0.964870 0.499570 0.587320
0.042674 0.595499 0.565124
0.109162 0.597637 0.567262
0.237023 0.601748 0.571373
0.364885 0.605860 0.575485
0.492746 0.609971 0.579596
0.620607 0.614082 0.583707
0.748468 0.618193 0.587818
0.876330 0.622305 0.591930
0.972574 0.625399 0.595024
0.050379 0.721329 0.572829
0.116866 0.723466 0.574966
0.244728 0.727578 0.579078
0.372589 0.731689 0.583189
0.500450 0.735800 0.587300
0.628311 0.739911 0.591411
0.756173 0.744023 0.595523
0.884034 0.748134 0.599634
0.980279 0.751229 0.602729
0.058083 0.847158 0.580533
0.124571 0.849296 0.582671
0.252432 0.853407 0.586782
0.380293 0.857518 0.590893
0.508155 0.861630 0.595005
0.636016 0.865741 0.599116
0.763877 0.869852 0.603227
0.891738 0.873963 0.607338
0.987983 0.877058 0.610433
0.065318 0.965318 0.587768
0.131806 0.967456 0.589906
0.259667 0.971567 0.594017
0.387528 0.975678 0.598128
0.515389 0.979789 0.602239
0.643251 0.983901 0.606351
0.771112 0.988012 0.610462
0.898973 0.992123 0.614573
0.995218 0.995218 0.617668
0.007900 0.007900 0.631600
0.074388 0.010038 0.633738
0.202249 0.014149 0.637849
0.330111 0.018261 0.641961
0.457972 0.022372 0.646072
0.585833 0.026483 0.650183
0.713694 0.030594 0.654294
0.841556 0.034706 0.658406
0.937800 0.037800 0.661500
0.013139 0.093464 0.636839
0.079627 0.095602 0.638977
0.207488 0.099713 0.643088
0.335350 0.103825 0.647200
0.463211 0.107936 0.651311
0.591072 0.112047 0.655422
0.718933 0.116158 0.659533
0.846795 0.120270 0.663645
0.943039 0.123364 0.666739
0.020844 0.219294 0.644544
0.087331 0.221431 0.646681
0.215193 0.225543 0.650793
0.343054 0.229654 0.654904
0.470915 0.233765 0.659015
0.598776 0.237876 0.663126
0.726638 0.241988 0.667238
0.854499 0.246099 0.671349
0.950744 0.249194 0.674444
0.028548 0.345123 0.652248
0.095036 0.347261 0.654386
0.222897 0.351372 0.658497
0.350758 0.355483 0.662608
0.478620 0.359595 0.666720
0.606481 0.363706 0.670831
0.734342 0.367817 0.674942
0.862203 0.371928 0.679053
0.958448 0.375023 0.682148
0.036252 0.470952 0.659952
0.102740 0.473090 0.662090
0.230601 0.477201 0.666201
0.358463 0.481313 0.670313
0.486324 0.485424 0.674424
0.614185 0.489535 0.678535
0.742046 0.493646 0.682646
0.869908 0.497758 0.686758
0.966152 0.500852 0.689852
0.043957 0.596782 0.667657
0.110445 0.598920 0.669795
0.238306 0.603031 0.673906
0.366167 0.607142 0.678017
0.494028 0.611253 0.682128
0.621890 0.615365 0.686240
0.749751 0.619476 0.690351
0.877612 0.623587 0.694462
0.973857 0.626682 0.697557
0.051661 0.722611 0.675361
0.118149 0.724749 0.677499
0.246010 0.728860 0.681610
0.373871 0.732971 0.685721
0.501733 0.737083 0.689833
0.629594 0.741194 0.693944
0.757455 0.745305 0.698055
0.885316 0.749416 0.702166
0.981561 0.752511 0.705261
0.059365 0.848440 0.683065
0.125853 0.850578 0.685203
0.253715 0.854690 0.689315
0.381576 0.858801 0.693426
0.509437 0.862912 0.697537
0.637298 0.867023 0.701648
0.765160 0.871135 0.705760
0.893021 0.875246 0.709871
0.989265 0.878340 0.712965
0.066600 0.966600 0.690300
0.133088 0.968738 0.692438
0.260949 0.972849 0.696549
0.388811 0.976961 0.700661
0.516672 0.981072 0.704772
0.644533 0.985183 0.708883
0.772394 0.989294 0.712994
0.900256 0.993406 0.717106
0.996500 0.996500 0.720200
0.009183 0.009183 0.734133
0.075671 0.011321 0.736271
0.203532 0.015432 0.740382
0.331393 0.019543 0.744493
0.459254 0.023654 0.748604
0.587116 0.027766 0.752716
0.714977 0.031877 0.756827
0.842838 0.035988 0.760938
0.939083 0.039083 0.764033
0.014422 0.094747 0.739372
0.080910 0.096885 0.741510
0.208771 0.100996 0.745621
0.336632 0.105107 0.749732
0.464493 0.109218 0.753843
0.592355 0.113330 0.757955
0.720216 0.117441 0.762066
0.848077 0.121552 0.766177
0.944322 0.124647 0.769272
0.022126 0.220576 0.747076
0.088614 0.222714 0.749214
0.216475 0.226825 0.753325
0.344336 0.230936 0.757436
0.472198 0.235048 0.761548
0.600059 0.239159 0.765659
0.727920 0.243270 0.769770
0.855781 0.247381 0.773881
0.952026 0.250476 0.776976
0.029830 0.346405 0.754780
0.096318 0.348543 0.756918
0.224180 0.352655 0.761030
0.352041 0.356766 0.765141
0.479902 0.360877 0.769252
0.607763 0.364988 0.773363
0.735625 0.369100 0.777475
0.863486 0.373211 0.781586
0.959730 0.376305 0.784680
0.037535 0.472235 0.762485
0.104023 0.474373 0.764623
0.231884 0.478484 0.768734
0.359745 0.482595 0.772845
0.487606 0.486706 0.776956
0.615468 0.490818 0.781068
0.743329 0.494929 0.785179
0.871190 0.499040 0.789290
0.967435 0.502135 0.792385
0.045239 0.598064 0.770189
0.111727 0.600202 0.772327
0.239588 0.604313 0.776438
0.367450 0.608425 0.780550
0.495311 0.612536 0.784661
0.623172 0.616647 0.788772
0.751033 0.620758 0.792883
0.878895 0.624870 0.796995
0.975139 0.627964 0.800089
0.052944 0.723894 0.777894
0.119431 0.726031 0.780031
0.247293 0.730143 0.784143
0.375154 0.734254 0.788254
0.503015 0.738365 0.792365
0.630876 0.742476 0.796476
0.758738 0.746588 0.800588
0.886599 0.750699 0.804699
0.982844 0.753794 0.807794
0.060648 0.849723 0.785598
0.127136 0.851861 0.787736
0.254997 0.855972 0.791847
0.382858 0.860083 0.795958
0.510720 0.864195 0.800070
0.638581 0.868306 0.804181
0.766442 0.872417 0.808292
0.894303 0.876528 0.812403
0.990548 0.879623 0.815498
0.067883 0.967883 0.792833
0.134371 0.970021 0.794971
0.262232 0.974132 0.799082
0.390093 0.978243 0.803193
0.517954 0.982354 0.807304
0.645816 0.986466 0.811416
0.773677 0.990577 0.815527
0.901538 0.994688 0.819638
0.997783 0.997783 0.822733
0.010465 0.010465 0.836665
0.076953 0.012603 0.838803
0.204814 0.016714 0.842914
0.332676 0.020826 0.847026
0.460537 0.024937 0.851137
0.588398 0.029048 0.855248
0.716259 0.033159 0.859359
0.844121 0.037271 0.863471
0.940365 0.040365 0.866565
0.015704 0.096029 0.841904
0.082192 0.098167 0.844042
0.210053 0.102278 0.848153
0.337915 0.106390 0.852265
0.465776 0.110501 0.856376
0.593637 0.114612 0.860487
0.721498 0.118723 0.864598
0.849360 0.122835 0.868710
0.945604 0.125929 0.871804
0.023409 0.221859 0.849609
0.089896 0.223996 0.851746
0.217758 0.228108 0.855858
0.345619 0.232219 0.859969
0.473480 0.236330 0.864080
0.601341 0.240441 0.868191
0.729203 0.244553 0.872303
0.857064 0.248664 0.876414
0.953309 0.251759 0.879509
0.031113 0.347688 0.857313
0.097601 0.349826 0.859451
0.225462 0.353937 0.863562
0.353323 0.358048 0.867673
0.481185 0.362160 0.871785
0.609046 0.366271 0.875896
0.736907 0.370382 0.880007
0.864768 0.374493 0.884118
0.961013 0.377588 0.887213
0.038817 0.473517 0.865017
0.105305 0.475655 0.867155
0.233166 0.479766 0.871266
0.361028 0.483878 0.875378
0.488889 0.487989 0.879489
0.616750 0.492100 0.883600
0.744611 0.496211 0.887711
0.872473 0.500323 0.891823
0.968717 0.503417 0.894917
0.046522 0.599347 0.872722
0.113010 0.601485 0.874860
0.240871 0.605596 0.878971
0.368732 0.609707 0.883082
0.496593 0.613818 0.887193
0.624455 0.617930 0.891305
0.752316 0.622041 0.895416
0.880177 0.626152 0.899527
0.976422 0.629247 0.902622
0.054226 0.725176 0.880426
0.120714 0.727314 0.882564
0.248575 0.731425 0.886675
0.376436 0.735536 0.890786
0.504298 0.739648 0.894898
0.632159 0.743759 0.899009
0.760020 0.747870 0.903120
0.887881 0.751981 0.907231
0.984126 0.755076 0.910326
0.061930 0.851005 0.888130
0.128418 0.853143 0.890268
0.256280 0.857255 0.894380
0.384141 0.861366 0.898491
0.512002 0.865477 0.902602
0.639863 0.869588 0.906713
0.767725 0.873700 0.910825
0.895586 0.877811 0.914936
0.991830 0.880905 0.918030
0.069165 0.969165 0.895365
0.135653 0.971303 0.897503
0.263514 0.975414 0.901614
0.391376 0.979526 0.905726
0.519237 0.983637 0.909837
0.647098 0.987748 0.913948
0.774959 0.991859 0.918059
0.902821 0.995971 0.922171
0.999065 0.999065 0.925265
