app/src/main/assets/luts/film_bw_warm.cube
# ApexStudio filter: film_bw_warm
LUT_3D_SIZE 9
DOMAIN_MIN 0.0 0.0 0.0
DOMAIN_MAX 1.0 1.0 1.0
0.000000 0.000000 0.000000
0.041113 0.037375 0.031769
0.082225 0.074750 0.063537
0.123338 0.112125 0.095306
0.164450 0.149500 0.127075
0.205563 0.186875 0.158844
0.246675 0.224250 0.190612
0.287788 0.261625 0.222381
0.328900 0.299000 0.254150
0.080713 0.073375 0.062369
0.121825 0.110750 0.094137
0.162938 0.148125 0.125906
0.204050 0.185500 0.157675
0.245163 0.222875 0.189444
0.286275 0.260250 0.221212
0.327388 0.297625 0.252981
0.368500 0.335000 0.284750
0.409613 0.372375 0.316519
0.161425 0.146750 0.124737
0.202538 0.184125 0.156506
0.243650 0.221500 0.188275
0.284762 0.258875 0.220044
0.325875 0.296250 0.251812
0.366987 0.333625 0.283581
0.408100 0.371000 0.315350
0.449213 0.408375 0.347119
0.490325 0.445750 0.378887
0.242138 0.220125 0.187106
0.283250 0.257500 0.218875
0.324362 0.294875 0.250644
0.365475 0.332250 0.282413
0.406587 0.369625 0.314181
0.447700 0.407000 0.345950
0.488812 0.444375 0.377719
0.529925 0.481750 0.409488
0.571037 0.519125 0.441256
0.322850 0.293500 0.249475
0.363963 0.330875 0.281244
0.405075 0.368250 0.313012
0.446188 0.405625 0.344781
0.487300 0.443000 0.376550
0.528413 0.480375 0.408319
0.569525 0.517750 0.440087
0.610638 0.555125 0.471856
0.651750 0.592500 0.503625
0.403562 0.366875 0.311844
0.444675 0.404250 0.343612
0.485787 0.441625 0.375381
0.526900 0.479000 0.407150
0.568012 0.516375 0.438919
0.609125 0.553750 0.470687
0.650237 0.591125 0.502456
0.691350 0.628500 0.534225
0.732463 0.665875 0.565994
0.484275 0.440250 0.374212
0.525388 0.477625 0.405981
0.566500 0.515000 0.437750
0.607612 0.552375 0.469519
0.648725 0.589750 0.501287
0.689837 0.627125 0.533056
0.730950 0.664500 0.564825
0.772063 0.701875 0.596594
0.813175 0.739250 0.628362
0.564988 0.513625 0.436581
0.606100 0.551000 0.468350
0.647213 0.588375 0.500119
0.688325 0.625750 0.531887
0.729438 0.663125 0.563656
0.770550 0.700500 0.595425
0.811663 0.737875 0.627194
0.852775 0.775250 0.658963
0.893887 0.812625 0.690731
0.645700 0.587000 0.498950
0.686813 0.624375 0.530719
0.727925 0.661750 0.562487
0.769038 0.699125 0.594256
0.810150 0.736500 0.626025
0.851263 0.773875 0.657794
0.892375 0.811250 0.689562
0.933488 0.848625 0.721331
0.974600 0.886000 0.753100
0.015675 0.014250 0.012113
0.056788 0.051625 0.043881
0.097900 0.089000 0.075650
0.139013 0.126375 0.107419
0.180125 0.163750 0.139187
0.221238 0.201125 0.170956
0.262350 0.238500 0.202725
0.303463 0.275875 0.234494
0.344575 0.313250 0.266262
0.096388 0.087625 0.074481
0.137500 0.125000 0.106250
0.178613 0.162375 0.138019
0.219725 0.199750 0.169788
0.260837 0.237125 0.201556
0.301950 0.274500 0.233325
0.343063 0.311875 0.265094
0.384175 0.349250 0.296862
0.425288 0.386625 0.328631
0.177100 0.161000 0.136850
0.218213 0.198375 0.168619
0.259325 0.235750 0.200387
0.300437 0.273125 0.232156
0.341550 0.310500 0.263925
0.382662 0.347875 0.295694
0.423775 0.385250 0.327462
0.464888 0.422625 0.359231
0.506000 0.460000 0.391000
0.257812 0.234375 0.199219
0.298925 0.271750 0.230987
0.340037 0.309125 0.262756
0.381150 0.346500 0.294525
0.422262 0.383875 0.326294
0.463375 0.421250 0.358062
0.504487 0.458625 0.389831
0.545600 0.496000 0.421600
0.586712 0.533375 0.453369
0.338525 0.307750 0.261587
0.379637 0.345125 0.293356
0.420750 0.382500 0.325125
0.461863 0.419875 0.356894
0.502975 0.457250 0.388662
0.544088 0.494625 0.420431
0.585200 0.532000 0.452200
0.626313 0.569375 0.483969
0.667425 0.606750 0.515737
0.419237 0.381125 0.323956
0.460350 0.418500 0.355725
0.501462 0.455875 0.387494
0.542575 0.493250 0.419262
0.583687 0.530625 0.451031
0.624800 0.568000 0.482800
0.665912 0.605375 0.514569
0.707025 0.642750 0.546337
0.748138 0.680125 0.578106
0.499950 0.454500 0.386325
0.541063 0.491875 0.418094
0.582175 0.529250 0.449862
0.623287 0.566625 0.481631
0.664400 0.604000 0.513400
0.705512 0.641375 0.545169
0.746625 0.678750 0.576937
0.787738 0.716125 0.608706
0.828850 0.753500 0.640475
0.580663 0.527875 0.448694
0.621775 0.565250 0.480463
0.662887 0.602625 0.512231
0.704000 0.640000 0.544000
0.745112 0.677375 0.575769
0.786225 0.714750 0.607537
0.827338 0.752125 0.639306
0.868450 0.789500 0.671075
0.909562 0.826875 0.702844
0.661375 0.601250 0.511062
0.702488 0.638625 0.542831
0.743600 0.676000 0.574600
0.784713 0.713375 0.606369
0.825825 0.750750 0.638137
0.866938 0.788125 0.669906
0.908050 0.825500 0.701675
0.949163 0.862875 0.733444
0.990275 0.900250 0.765212
0.031350 0.028500 0.024225
0.072463 0.065875 0.055994
0.113575 0.103250 0.087762
0.154688 0.140625 0.119531
0.195800 0.178000 0.151300
0.236912 0.215375 0.183069
0.278025 0.252750 0.214838
0.319138 0.290125 0.246606
0.360250 0.327500 0.278375
0.112062 0.101875 0.086594
0.153175 0.139250 0.118362
0.194288 0.176625 0.150131
0.235400 0.214000 0.181900
0.276513 0.251375 0.213669
0.317625 0.288750 0.245438
0.358738 0.326125 0.277206
0.399850 0.363500 0.308975
0.440963 0.400875 0.340744
0.192775 0.175250 0.148962
0.233887 0.212625 0.180731
0.275000 0.250000 0.212500
0.316113 0.287375 0.244269
0.357225 0.324750 0.276038
0.398338 0.362125 0.307806
0.439450 0.399500 0.339575
0.480563 0.436875 0.371344
0.521675 0.474250 0.403112
0.273487 0.248625 0.211331
0.314600 0.286000 0.243100
0.355713 0.323375 0.274869
0.396825 0.360750 0.306638
0.437938 0.398125 0.338406
0.479050 0.435500 0.370175
0.520163 0.472875 0.401944
0.561275 0.510250 0.433712
0.602387 0.547625 0.465481
0.354200 0.322000 0.273700
0.395313 0.359375 0.305469
0.436425 0.396750 0.337237
0.477538 0.434125 0.369006
0.518650 0.471500 0.400775
0.559763 0.508875 0.432544
0.600875 0.546250 0.464312
0.641988 0.583625 0.496081
0.683100 0.621000 0.527850
0.434913 0.395375 0.336069
0.476025 0.432750 0.367837
0.517138 0.470125 0.399606
0.558250 0.507500 0.431375
0.599362 0.544875 0.463144
0.640475 0.582250 0.494912
0.681587 0.619625 0.526681
0.722700 0.657000 0.558450
0.763813 0.694375 0.590219
0.515625 0.468750 0.398438
0.556737 0.506125 0.430206
0.597850 0.543500 0.461975
0.638962 0.580875 0.493744
0.680075 0.618250 0.525512
0.721187 0.655625 0.557281
0.762300 0.693000 0.589050
0.803413 0.730375 0.620819
0.844525 0.767750 0.652587
0.596337 0.542125 0.460806
0.637450 0.579500 0.492575
0.678562 0.616875 0.524344
0.719675 0.654250 0.556113
0.760787 0.691625 0.587881
0.801900 0.729000 0.619650
0.843013 0.766375 0.651419
0.884125 0.803750 0.683187
0.925237 0.841125 0.714956
0.677050 0.615500 0.523175
0.718163 0.652875 0.554944
0.759275 0.690250 0.586712
0.800388 0.727625 0.618481
0.841500 0.765000 0.650250
0.882613 0.802375 0.682019
0.923725 0.839750 0.713788
0.964838 0.877125 0.745556
1.000000 0.914500 0.777325
0.047025 0.042750 0.036338
0.088138 0.080125 0.068106
0.129250 0.117500 0.099875
0.170363 0.154875 0.131644
0.211475 0.192250 0.163412
0.252588 0.229625 0.195181
0.293700 0.267000 0.226950
0.334813 0.304375 0.258719
0.375925 0.341750 0.290488
0.127738 0.116125 0.098706
0.168850 0.153500 0.130475
0.209963 0.190875 0.162244
0.251075 0.228250 0.194013
0.292188 0.265625 0.225781
0.333300 0.303000 0.257550
0.374413 0.340375 0.289319
0.415525 0.377750 0.321087
0.456638 0.415125 0.352856
0.208450 0.189500 0.161075
0.249563 0.226875 0.192844
0.290675 0.264250 0.224612
0.331788 0.301625 0.256381
0.372900 0.339000 0.288150
0.414013 0.376375 0.319919
0.455125 0.413750 0.351687
0.496238 0.451125 0.383456
0.537350 0.488500 0.415225
0.289162 0.262875 0.223444
0.330275 0.300250 0.255213
0.371388 0.337625 0.286981
0.412500 0.375000 0.318750
0.453613 0.412375 0.350519
0.494725 0.449750 0.382288
0.535837 0.487125 0.414056
0.576950 0.524500 0.445825
0.618062 0.561875 0.477594
0.369875 0.336250 0.285812
0.410988 0.373625 0.317581
0.452100 0.411000 0.349350
0.493213 0.448375 0.381119
0.534325 0.485750 0.412887
0.575438 0.523125 0.444656
0.616550 0.560500 0.476425
0.657662 0.597875 0.508194
0.698775 0.635250 0.539963
0.450587 0.409625 0.348181
0.491700 0.447000 0.379950
0.532813 0.484375 0.411719
0.573925 0.521750 0.443487
0.615037 0.559125 0.475256
0.656150 0.596500 0.507025
0.697262 0.633875 0.538794
0.738375 0.671250 0.570562
0.779487 0.708625 0.602331
0.531300 0.483000 0.410550
0.572412 0.520375 0.442319
0.613525 0.557750 0.474087
0.654637 0.595125 0.505856
0.695750 0.632500 0.537625
0.736862 0.669875 0.569394
0.777975 0.707250 0.601162
0.819088 0.744625 0.632931
0.860200 0.782000 0.664700
0.612012 0.556375 0.472919
0.653125 0.593750 0.504687
0.694237 0.631125 0.536456
0.735350 0.668500 0.568225
0.776462 0.705875 0.599994
0.817575 0.743250 0.631763
0.858688 0.780625 0.663531
0.899800 0.818000 0.695300
0.940912 0.855375 0.727069
0.692725 0.629750 0.535287
0.733838 0.667125 0.567056
0.774950 0.704500 0.598825
0.816063 0.741875 0.630594
0.857175 0.779250 0.662362
0.898288 0.816625 0.694131
0.939400 0.854000 0.725900
0.980513 0.891375 0.757669
1.000000 0.928750 0.789437
0.062700 0.057000 0.048450
0.103813 0.094375 0.080219
0.144925 0.131750 0.111988
0.186038 0.169125 0.143756
0.227150 0.206500 0.175525
0.268263 0.243875 0.207294
0.309375 0.281250 0.239062
0.350488 0.318625 0.270831
0.391600 0.356000 0.302600
0.143412 0.130375 0.110819
0.184525 0.167750 0.142587
0.225638 0.205125 0.174356
0.266750 0.242500 0.206125
0.307862 0.279875 0.237894
0.348975 0.317250 0.269662
0.390088 0.354625 0.301431
0.431200 0.392000 0.333200
0.472313 0.429375 0.364969
0.224125 0.203750 0.173187
0.265238 0.241125 0.204956
0.306350 0.278500 0.236725
0.347463 0.315875 0.268494
0.388575 0.353250 0.300262
0.429688 0.390625 0.332031
0.470800 0.428000 0.363800
0.511912 0.465375 0.395569
0.553025 0.502750 0.427338
0.304838 0.277125 0.235556
0.345950 0.314500 0.267325
0.387063 0.351875 0.299094
0.428175 0.389250 0.330863
0.469288 0.426625 0.362631
0.510400 0.464000 0.394400
0.551513 0.501375 0.426169
0.592625 0.538750 0.457938
0.633738 0.576125 0.489706
0.385550 0.350500 0.297925
0.426663 0.387875 0.329694
0.467775 0.425250 0.361462
0.508888 0.462625 0.393231
0.550000 0.500000 0.425000
0.591113 0.537375 0.456769
0.632225 0.574750 0.488537
0.673338 0.612125 0.520306
0.714450 0.649500 0.552075
0.466262 0.423875 0.360294
0.507375 0.461250 0.392062
0.548488 0.498625 0.423831
0.589600 0.536000 0.455600
0.630713 0.573375 0.487369
0.671825 0.610750 0.519138
0.712938 0.648125 0.550906
0.754050 0.685500 0.582675
0.795163 0.722875 0.614444
0.546975 0.497250 0.422662
0.588088 0.534625 0.454431
0.629200 0.572000 0.486200
0.670313 0.609375 0.517969
0.711425 0.646750 0.549737
0.752538 0.684125 0.581506
0.793650 0.721500 0.613275
0.834763 0.758875 0.645044
0.875875 0.796250 0.676813
0.627688 0.570625 0.485031
0.668800 0.608000 0.516800
0.709913 0.645375 0.548569
0.751025 0.682750 0.580338
0.792138 0.720125 0.612106
0.833250 0.757500 0.643875
0.874363 0.794875 0.675644
0.915475 0.832250 0.707412
0.956588 0.869625 0.739181
0.708400 0.644000 0.547400
0.749513 0.681375 0.579169
0.790625 0.718750 0.610938
0.831738 0.756125 0.642706
0.872850 0.793500 0.674475
0.913963 0.830875 0.706244
0.955075 0.868250 0.738013
0.996188 0.905625 0.769781
1.000000 0.943000 0.801550
0.078375 0.071250 0.060563
0.119488 0.108625 0.092331
0.160600 0.146000 0.124100
0.201713 0.183375 0.155869
0.242825 0.220750 0.187637
0.283938 0.258125 0.219406
0.325050 0.295500 0.251175
0.366163 0.332875 0.282944
0.407275 0.370250 0.314712
0.159088 0.144625 0.122931
0.200200 0.182000 0.154700
0.241313 0.219375 0.186469
0.282425 0.256750 0.218238
0.323537 0.294125 0.250006
0.364650 0.331500 0.281775
0.405763 0.368875 0.313544
0.446875 0.406250 0.345312
0.487988 0.443625 0.377081
0.239800 0.218000 0.185300
0.280913 0.255375 0.217069
0.322025 0.292750 0.248837
0.363138 0.330125 0.280606
0.404250 0.367500 0.312375
0.445362 0.404875 0.344144
0.486475 0.442250 0.375913
0.527587 0.479625 0.407681
0.568700 0.517000 0.439450
0.320513 0.291375 0.247669
0.361625 0.328750 0.279438
0.402738 0.366125 0.311206
0.443850 0.403500 0.342975
0.484963 0.440875 0.374744
0.526075 0.478250 0.406512
0.567188 0.515625 0.438281
0.608300 0.553000 0.470050
0.649413 0.590375 0.501819
0.401225 0.364750 0.310038
0.442337 0.402125 0.341806
0.483450 0.439500 0.373575
0.524563 0.476875 0.405344
0.565675 0.514250 0.437112
0.606788 0.551625 0.468881
0.647900 0.589000 0.500650
0.689013 0.626375 0.532419
0.730125 0.663750 0.564188
0.481938 0.438125 0.372406
0.523050 0.475500 0.404175
0.564163 0.512875 0.435944
0.605275 0.550250 0.467712
0.646388 0.587625 0.499481
0.687500 0.625000 0.531250
0.728612 0.662375 0.563019
0.769725 0.699750 0.594788
0.810838 0.737125 0.626556
0.562650 0.511500 0.434775
0.603763 0.548875 0.466544
0.644875 0.586250 0.498313
0.685988 0.623625 0.530081
0.727100 0.661000 0.561850
0.768213 0.698375 0.593619
0.809325 0.735750 0.625387
0.850438 0.773125 0.657156
0.891550 0.810500 0.688925
0.643363 0.584875 0.497144
0.684475 0.622250 0.528913
0.725588 0.659625 0.560681
0.766700 0.697000 0.592450
0.807813 0.734375 0.624219
0.848925 0.771750 0.655988
0.890038 0.809125 0.687756
0.931150 0.846500 0.719525
0.972263 0.883875 0.751294
0.724075 0.658250 0.559512
0.765188 0.695625 0.591281
0.806300 0.733000 0.623050
0.847413 0.770375 0.654819
0.888525 0.807750 0.686587
0.929638 0.845125 0.718356
0.970750 0.882500 0.750125
1.000000 0.919875 0.781894
1.000000 0.957250 0.813662
0.094050 0.085500 0.072675
0.135163 0.122875 0.104444
0.176275 0.160250 0.136212
0.217388 0.197625 0.167981
0.258500 0.235000 0.199750
0.299613 0.272375 0.231519
0.340725 0.309750 0.263288
0.381838 0.347125 0.295056
0.422950 0.384500 0.326825
0.174763 0.158875 0.135044
0.215875 0.196250 0.166812
0.256988 0.233625 0.198581
0.298100 0.271000 0.230350
0.339213 0.308375 0.262119
0.380325 0.345750 0.293887
0.421438 0.383125 0.325656
0.462550 0.420500 0.357425
0.503663 0.457875 0.389194
0.255475 0.232250 0.197413
0.296588 0.269625 0.229181
0.337700 0.307000 0.260950
0.378812 0.344375 0.292719
0.419925 0.381750 0.324488
0.461037 0.419125 0.356256
0.502150 0.456500 0.388025
0.543263 0.493875 0.419794
0.584375 0.531250 0.451562
0.336188 0.305625 0.259781
0.377300 0.343000 0.291550
0.418413 0.380375 0.323319
0.459525 0.417750 0.355088
0.500638 0.455125 0.386856
0.541750 0.492500 0.418625
0.582863 0.529875 0.450394
0.623975 0.567250 0.482162
0.665088 0.604625 0.513931
0.416900 0.379000 0.322150
0.458013 0.416375 0.353919
0.499125 0.453750 0.385687
0.540238 0.491125 0.417456
0.581350 0.528500 0.449225
0.622463 0.565875 0.480994
0.663575 0.603250 0.512762
0.704688 0.640625 0.544531
0.745800 0.678000 0.576300
0.497613 0.452375 0.384519
0.538725 0.489750 0.416287
0.579838 0.527125 0.448056
0.620950 0.564500 0.479825
0.662062 0.601875 0.511594
0.703175 0.639250 0.543362
0.744287 0.676625 0.575131
0.785400 0.714000 0.606900
0.826513 0.751375 0.638669
0.578325 0.525750 0.446887
0.619438 0.563125 0.478656
0.660550 0.600500 0.510425
0.701663 0.637875 0.542194
0.742775 0.675250 0.573963
0.783887 0.712625 0.605731
0.825000 0.750000 0.637500
0.866113 0.787375 0.669269
0.907225 0.824750 0.701037
0.659038 0.599125 0.509256
0.700150 0.636500 0.541025
0.741263 0.673875 0.572794
0.782375 0.711250 0.604563
0.823488 0.748625 0.636331
0.864600 0.786000 0.668100
0.905713 0.823375 0.699869
0.946825 0.860750 0.731637
0.987938 0.898125 0.763406
0.739750 0.672500 0.571625
0.780863 0.709875 0.603394
0.821975 0.747250 0.635162
0.863088 0.784625 0.666931
0.904200 0.822000 0.698700
0.945313 0.859375 0.730469
0.986425 0.896750 0.762238
1.000000 0.934125 0.794006
1.000000 0.971500 0.825775
0.109725 0.099750 0.084788
0.150838 0.137125 0.116556
0.191950 0.174500 0.148325
0.233063 0.211875 0.180094
0.274175 0.249250 0.211862
0.315288 0.286625 0.243631
0.356400 0.324000 0.275400
0.397513 0.361375 0.307169
0.438625 0.398750 0.338938
0.190438 0.173125 0.147156
0.231550 0.210500 0.178925
0.272663 0.247875 0.210694
0.313775 0.285250 0.242462
0.354888 0.322625 0.274231
0.396000 0.360000 0.306000
0.437113 0.397375 0.337769
0.478225 0.434750 0.369537
0.519338 0.472125 0.401306
0.271150 0.246500 0.209525
0.312262 0.283875 0.241294
0.353375 0.321250 0.273062
0.394487 0.358625 0.304831
0.435600 0.396000 0.336600
0.476712 0.433375 0.368369
0.517825 0.470750 0.400137
0.558937 0.508125 0.431906
0.600050 0.545500 0.463675
0.351863 0.319875 0.271894
0.392975 0.357250 0.303663
0.434088 0.394625 0.335431
0.475200 0.432000 0.367200
0.516313 0.469375 0.398969
0.557425 0.506750 0.430737
0.598538 0.544125 0.462506
0.639650 0.581500 0.494275
0.680763 0.618875 0.526044
0.432575 0.393250 0.334262
0.473688 0.430625 0.366031
0.514800 0.468000 0.397800
0.555913 0.505375 0.429569
0.597025 0.542750 0.461337
0.638138 0.580125 0.493106
0.679250 0.617500 0.524875
0.720363 0.654875 0.556644
0.761475 0.692250 0.588413
0.513288 0.466625 0.396631
0.554400 0.504000 0.428400
0.595513 0.541375 0.460169
0.636625 0.578750 0.491937
0.677737 0.616125 0.523706
0.718850 0.653500 0.555475
0.759962 0.690875 0.587244
0.801075 0.728250 0.619012
0.842188 0.765625 0.650781
0.594000 0.540000 0.459000
0.635112 0.577375 0.490769
0.676225 0.614750 0.522537
0.717337 0.652125 0.554306
0.758450 0.689500 0.586075
0.799562 0.726875 0.617844
0.840675 0.764250 0.649612
0.881788 0.801625 0.681381
0.922900 0.839000 0.713150
0.674713 0.613375 0.521369
0.715825 0.650750 0.553138
0.756938 0.688125 0.584906
0.798050 0.725500 0.616675
0.839163 0.762875 0.648444
0.880275 0.800250 0.680212
0.921388 0.837625 0.711981
0.962500 0.875000 0.743750
1.000000 0.912375 0.775519
0.755425 0.686750 0.583737
0.796538 0.724125 0.615506
0.837650 0.761500 0.647275
0.878763 0.798875 0.679044
0.919875 0.836250 0.710812
0.960988 0.873625 0.742581
1.000000 0.911000 0.774350
1.000000 0.948375 0.806119
1.000000 0.985750 0.837887
0.125400 0.114000 0.096900
0.166513 0.151375 0.128669
0.207625 0.188750 0.160437
0.248738 0.226125 0.192206
0.289850 0.263500 0.223975
0.330963 0.300875 0.255744
0.372075 0.338250 0.287513
0.413188 0.375625 0.319281
0.454300 0.413000 0.351050
0.206113 0.187375 0.159269
0.247225 0.224750 0.191037
0.288338 0.262125 0.222806
0.329450 0.299500 0.254575
0.370563 0.336875 0.286344
0.411675 0.374250 0.318112
0.452788 0.411625 0.349881
0.493900 0.449000 0.381650
0.535013 0.486375 0.413419
0.286825 0.260750 0.221637
0.327937 0.298125 0.253406
0.369050 0.335500 0.285175
0.410162 0.372875 0.316944
0.451275 0.410250 0.348712
0.492387 0.447625 0.380481
0.533500 0.485000 0.412250
0.574613 0.522375 0.444019
0.615725 0.559750 0.475787
0.367538 0.334125 0.284006
0.408650 0.371500 0.315775
0.449763 0.408875 0.347544
0.490875 0.446250 0.379312
0.531988 0.483625 0.411081
0.573100 0.521000 0.442850
0.614213 0.558375 0.474619
0.655325 0.595750 0.506387
0.696438 0.633125 0.538156
0.448250 0.407500 0.346375
0.489362 0.444875 0.378144
0.530475 0.482250 0.409912
0.571588 0.519625 0.441681
0.612700 0.557000 0.473450
0.653813 0.594375 0.505219
0.694925 0.631750 0.536987
0.736038 0.669125 0.568756
0.777150 0.706500 0.600525
0.528963 0.480875 0.408744
0.570075 0.518250 0.440512
0.611187 0.555625 0.472281
0.652300 0.593000 0.504050
0.693412 0.630375 0.535819
0.734525 0.667750 0.567587
0.775637 0.705125 0.599356
0.816750 0.742500 0.631125
0.857863 0.779875 0.662894
0.609675 0.554250 0.471112
0.650787 0.591625 0.502881
0.691900 0.629000 0.534650
0.733012 0.666375 0.566419
0.774125 0.703750 0.598187
0.815237 0.741125 0.629956
0.856350 0.778500 0.661725
0.897463 0.815875 0.693494
0.938575 0.853250 0.725262
0.690388 0.627625 0.533481
0.731500 0.665000 0.565250
0.772613 0.702375 0.597019
0.813725 0.739750 0.628788
0.854838 0.777125 0.660556
0.895950 0.814500 0.692325
0.937063 0.851875 0.724094
0.978175 0.889250 0.755862
1.000000 0.926625 0.787631
0.771100 0.701000 0.595850
0.812213 0.738375 0.627619
0.853325 0.775750 0.659387
0.894438 0.813125 0.691156
0.935550 0.850500 0.722925
0.976663 0.887875 0.754694
1.000000 0.925250 0.786462
1.000000 0.962625 0.818231
1.000000 1.000000 0.850000
