app/src/main/assets/luts/film_cool.cube
# ApexStudio filter: film_cool
LUT_3D_SIZE 17
DOMAIN_MIN 0.0 0.0 0.0
DOMAIN_MAX 1.0 1.0 1.0
0.000000 0.000000 0.022500
0.040000 0.000000 0.022500
0.102500 0.000000 0.022500
0.165000 0.000000 0.022500
0.227500 0.000000 0.022500
0.290000 0.000000 0.022500
0.352500 0.000000 0.022500
0.415000 0.000000 0.022500
0.477500 0.000000 0.022500
0.540000 0.000000 0.022500
0.602500 0.000000 0.022500
0.665000 0.000000 0.022500
0.727500 0.000000 0.022500
0.790000 0.000000 0.022500
0.852500 0.000000 0.022500
0.915000 0.000000 0.022500
0.977500 0.000000 0.022500
0.000000 0.055000 0.022500
0.040000 0.055000 0.022500
0.102500 0.055000 0.022500
0.165000 0.055000 0.022500
0.227500 0.055000 0.022500
0.290000 0.055000 0.022500
0.352500 0.055000 0.022500
0.415000 0.055000 0.022500
0.477500 0.055000 0.022500
0.540000 0.055000 0.022500
0.602500 0.055000 0.022500
0.665000 0.055000 0.022500
0.727500 0.055000 0.022500
0.790000 0.055000 0.022500
0.852500 0.055000 0.022500
0.915000 0.055000 0.022500
0.977500 0.055000 0.022500
0.000000 0.117500 0.022500
0.040000 0.117500 0.022500
0.102500 0.117500 0.022500
0.165000 0.117500 0.022500
0.227500 0.117500 0.022500
0.290000 0.117500 0.022500
0.352500 0.117500 0.022500
0.415000 0.117500 0.022500
0.477500 0.117500 0.022500
0.540000 0.117500 0.022500
0.602500 0.117500 0.022500
0.665000 0.117500 0.022500
0.727500 0.117500 0.022500
0.790000 0.117500 0.022500
0.852500 0.117500 0.022500
0.915000 0.117500 0.022500
0.977500 0.117500 0.022500
0.000000 0.180000 0.022500
0.040000 0.180000 0.022500
0.102500 0.180000 0.022500
0.165000 0.180000 0.022500
0.227500 0.180000 0.022500
0.290000 0.180000 0.022500
0.352500 0.180000 0.022500
0.415000 0.180000 0.022500
0.477500 0.180000 0.022500
0.540000 0.180000 0.022500
0.602500 0.180000 0.022500
0.665000 0.180000 0.022500
0.727500 0.180000 0.022500
0.790000 0.180000 0.022500
0.852500 0.180000 0.022500
0.915000 0.180000 0.022500
0.977500 0.180000 0.022500
0.000000 0.242500 0.022500
0.040000 0.242500 0.022500
0.102500 0.242500 0.022500
0.165000 0.242500 0.022500
0.227500 0.242500 0.022500
0.290000 0.242500 0.022500
0.352500 0.242500 0.022500
0.415000 0.242500 0.022500
0.477500 0.242500 0.022500
0.540000 0.242500 0.022500
0.602500 0.242500 0.022500
0.665000 0.242500 0.022500
0.727500 0.242500 0.022500
0.790000 0.242500 0.022500
0.852500 0.242500 0.022500
0.915000 0.242500 0.022500
0.977500 0.242500 0.022500
0.000000 0.305000 0.022500
0.040000 0.305000 0.022500
0.102500 0.305000 0.022500
0.165000 0.305000 0.022500
0.227500 0.305000 0.022500
0.290000 0.305000 0.022500
0.352500 0.305000 0.022500
0.415000 0.305000 0.022500
0.477500 0.305000 0.022500
0.540000 0.305000 0.022500
0.602500 0.305000 0.022500
0.665000 0.305000 0.022500
0.727500 0.305000 0.022500
0.790000 0.305000 0.022500
0.852500 0.305000 0.022500
0.915000 0.305000 0.022500
0.977500 0.305000 0.022500
0.000000 0.367500 0.022500
0.040000 0.367500 0.022500
0.102500 0.367500 0.022500
0.165000 0.367500 0.022500
0.227500 0.367500 0.022500
0.290000 0.367500 0.022500
0.352500 0.367500 0.022500
0.415000 0.367500 0.022500
0.477500 0.367500 0.022500
0.540000 0.367500 0.022500
0.602500 0.367500 0.022500
0.665000 0.367500 0.022500
0.727500 0.367500 0.022500
0.790000 0.367500 0.022500
0.852500 0.367500 0.022500
0.915000 0.367500 0.022500
0.977500 0.367500 0.022500
0.000000 0.430000 0.022500
0.040000 0.430000 0.022500
0.102500 0.430000 0.022500
0.165000 0.430000 0.022500
0.227500 0.430000 0.022500
0.290000 0.430000 0.022500
0.352500 0.430000 0.022500
0.415000 0.430000 0.022500
0.477500 0.430000 0.022500
0.540000 0.430000 0.022500
0.602500 0.430000 0.022500
0.665000 0.430000 0.022500
0.727500 0.430000 0.022500
0.790000 0.430000 0.022500
0.852500 0.430000 0.022500
0.915000 0.430000 0.022500
0.977500 0.430000 0.022500
0.000000 0.492500 0.022500
0.040000 0.492500 0.022500
0.102500 0.492500 0.022500
0.165000 0.492500 0.022500
0.227500 0.492500 0.022500
0.290000 0.492500 0.022500
0.352500 0.492500 0.022500
0.415000 0.492500 0.022500
0.477500 0.492500 0.022500
0.540000 0.492500 0.022500
0.602500 0.492500 0.022500
0.665000 0.492500 0.022500
0.727500 0.492500 0.022500
0.790000 0.492500 0.022500
0.852500 0.492500 0.022500
0.915000 0.492500 0.022500
0.977500 0.492500 0.022500
0.000000 0.555000 0.022500
0.040000 0.555000 0.022500
0.102500 0.555000 0.022500
0.165000 0.555000 0.022500
0.227500 0.555000 0.022500
0.290000 0.555000 0.022500
0.352500 0.555000 0.022500
0.415000 0.555000 0.022500
0.477500 0.555000 0.022500
0.540000 0.555000 0.022500
0.602500 0.555000 0.022500
0.665000 0.555000 0.022500
0.727500 0.555000 0.022500
0.790000 0.555000 0.022500
0.852500 0.555000 0.022500
0.915000 0.555000 0.022500
0.977500 0.555000 0.022500
0.000000 0.617500 0.022500
0.040000 0.617500 0.022500
0.102500 0.617500 0.022500
0.165000 0.617500 0.022500
0.227500 0.617500 0.022500
0.290000 0.617500 0.022500
0.352500 0.617500 0.022500
0.415000 0.617500 0.022500
0.477500 0.617500 0.022500
0.540000 0.617500 0.022500
0.602500 0.617500 0.022500
0.665000 0.617500 0.022500
0.727500 0.617500 0.022500
0.790000 0.617500 0.022500
0.852500 0.617500 0.022500
0.915000 0.617500 0.022500
0.977500 0.617500 0.022500
0.000000 0.680000 0.022500
0.040000 0.680000 0.022500
0.102500 0.680000 0.022500
0.165000 0.680000 0.022500
0.227500 0.680000 0.022500
0.290000 0.680000 0.022500
0.352500 0.680000 0.022500
0.415000 0.680000 0.022500
0.477500 0.680000 0.022500
0.540000 0.680000 0.022500
0.602500 0.680000 0.022500
0.665000 0.680000 0.022500
0.727500 0.680000 0.022500
0.790000 0.680000 0.022500
0.852500 0.680000 0.022500
0.915000 0.680000 0.022500
0.977500 0.680000 0.022500
0.000000 0.742500 0.022500
0.040000 0.742500 0.022500
0.102500 0.742500 0.022500
0.165000 0.742500 0.022500
0.227500 0.742500 0.022500
0.290000 0.742500 0.022500
0.352500 0.742500 0.022500
0.415000 0.742500 0.022500
0.477500 0.742500 0.022500
0.540000 0.742500 0.022500
0.602500 0.742500 0.022500
0.665000 0.742500 0.022500
0.727500 0.742500 0.022500
0.790000 0.742500 0.022500
0.852500 0.742500 0.022500
0.915000 0.742500 0.022500
0.977500 0.742500 0.022500
0.000000 0.805000 0.022500
0.040000 0.805000 0.022500
0.102500 0.805000 0.022500
0.165000 0.805000 0.022500
0.227500 0.805000 0.022500
0.290000 0.805000 0.022500
0.352500 0.805000 0.022500
0.415000 0.805000 0.022500
0.477500 0.805000 0.022500
0.540000 0.805000 0.022500
0.602500 0.805000 0.022500
0.665000 0.805000 0.022500
0.727500 0.805000 0.022500
0.790000 0.805000 0.022500
0.852500 0.805000 0.022500
0.915000 0.805000 0.022500
0.977500 0.805000 0.022500
0.000000 0.867500 0.022500
0.040000 0.867500 0.022500
0.102500 0.867500 0.022500
0.165000 0.867500 0.022500
0.227500 0.867500 0.022500
0.290000 0.867500 0.022500
0.352500 0.867500 0.022500
0.415000 0.867500 0.022500
0.477500 0.867500 0.022500
0.540000 0.867500 0.022500
0.602500 0.867500 0.022500
0.665000 0.867500 0.022500
0.727500 0.867500 0.022500
0.790000 0.867500 0.022500
0.852500 0.867500 0.022500
0.915000 0.867500 0.022500
0.977500 0.867500 0.022500
0.000000 0.930000 0.022500
0.040000 0.930000 0.022500
0.102500 0.930000 0.022500
0.165000 0.930000 0.022500
0.227500 0.930000 0.022500
0.290000 0.930000 0.022500
0.352500 0.930000 0.022500
0.415000 0.930000 0.022500
0.477500 0.930000 0.022500
0.540000 0.930000 0.022500
0.602500 0.930000 0.022500
0.665000 0.930000 0.022500
0.727500 0.930000 0.022500
0.790000 0.930000 0.022500
0.852500 0.930000 0.022500
0.915000 0.930000 0.022500
0.977500 0.930000 0.022500
0.000000 0.992500 0.022500
0.040000 0.992500 0.022500
0.102500 0.992500 0.022500
0.165000 0.992500 0.022500
0.227500 0.992500 0.022500
0.290000 0.992500 0.022500
0.352500 0.992500 0.022500
0.415000 0.992500 0.022500
0.477500 0.992500 0.022500
0.540000 0.992500 0.022500
0.602500 0.992500 0.022500
0.665000 0.992500 0.022500
0.727500 0.992500 0.022500
0.790000 0.992500 0.022500
0.852500 0.992500 0.022500
0.915000 0.992500 0.022500
0.977500 0.992500 0.022500
0.000000 0.000000 0.085000
0.040000 0.000000 0.085000
0.102500 0.000000 0.085000
0.165000 0.000000 0.085000
0.227500 0.000000 0.085000
0.290000 0.000000 0.085000
0.352500 0.000000 0.085000
0.415000 0.000000 0.085000
0.477500 0.000000 0.085000
0.540000 0.000000 0.085000
0.602500 0.000000 0.085000
0.665000 0.000000 0.085000
0.727500 0.000000 0.085000
0.790000 0.000000 0.085000
0.852500 0.000000 0.085000
0.915000 0.000000 0.085000
0.977500 0.000000 0.085000
0.000000 0.055000 0.085000
0.040000 0.055000 0.085000
0.102500 0.055000 0.085000
0.165000 0.055000 0.085000
0.227500 0.055000 0.085000
0.290000 0.055000 0.085000
0.352500 0.055000 0.085000
0.415000 0.055000 0.085000
0.477500 0.055000 0.085000
0.540000 0.055000 0.085000
0.602500 0.055000 0.085000
0.665000 0.055000 0.085000
0.727500 0.055000 0.085000
0.790000 0.055000 0.085000
0.852500 0.055000 0.085000
0.915000 0.055000 0.085000
0.977500 0.055000 0.085000
0.000000 0.117500 0.085000
0.040000 0.117500 0.085000
0.102500 0.117500 0.085000
0.165000 0.117500 0.085000
0.227500 0.117500 0.085000
0.290000 0.117500 0.085000
0.352500 0.117500 0.085000
0.415000 0.117500 0.085000
0.477500 0.117500 0.085000
0.540000 0.117500 0.085000
0.602500 0.117500 0.085000
0.665000 0.117500 0.085000
0.727500 0.117500 0.085000
0.790000 0.117500 0.085000
0.852500 0.117500 0.085000
0.915000 0.117500 0.085000
0.977500 0.117500 0.085000
0.000000 0.180000 0.085000
0.040000 0.180000 0.085000
0.102500 0.180000 0.085000
0.165000 0.180000 0.085000
0.227500 0.180000 0.085000
0.290000 0.180000 0.085000
0.352500 0.180000 0.085000
0.415000 0.180000 0.085000
0.477500 0.180000 0.085000
0.540000 0.180000 0.085000
0.602500 0.180000 0.085000
0.665000 0.180000 0.085000
0.727500 0.180000 0.085000
0.790000 0.180000 0.085000
0.852500 0.180000 0.085000
0.915000 0.180000 0.085000
0.977500 0.180000 0.085000
0.000000 0.242500 0.085000
0.040000 0.242500 0.085000
0.102500 0.242500 0.085000
0.165000 0.242500 0.085000
0.227500 0.242500 0.085000
0.290000 0.242500 0.085000
0.352500 0.242500 0.085000
0.415000 0.242500 0.085000
0.477500 0.242500 0.085000
0.540000 0.242500 0.085000
0.602500 0.242500 0.085000
0.665000 0.242500 0.085000
0.727500 0.242500 0.085000
0.790000 0.242500 0.085000
0.852500 0.242500 0.085000
0.915000 0.242500 0.085000
0.977500 0.242500 0.085000
0.000000 0.305000 0.085000
0.040000 0.305000 0.085000
0.102500 0.305000 0.085000
0.165000 0.305000 0.085000
0.227500 0.305000 0.085000
0.290000 0.305000 0.085000
0.352500 0.305000 0.085000
0.415000 0.305000 0.085000
0.477500 0.305000 0.085000
0.540000 0.305000 0.085000
0.602500 0.305000 0.085000
0.665000 0.305000 0.085000
0.727500 0.305000 0.085000
0.790000 0.305000 0.085000
0.852500 0.305000 0.085000
0.915000 0.305000 0.085000
0.977500 0.305000 0.085000
0.000000 0.367500 0.085000
0.040000 0.367500 0.085000
0.102500 0.367500 0.085000
0.165000 0.367500 0.085000
0.227500 0.367500 0.085000
0.290000 0.367500 0.085000
0.352500 0.367500 0.085000
0.415000 0.367500 0.085000
0.477500 0.367500 0.085000
0.540000 0.367500 0.085000
0.602500 0.367500 0.085000
0.665000 0.367500 0.085000
0.727500 0.367500 0.085000
0.790000 0.367500 0.085000
0.852500 0.367500 0.085000
0.915000 0.367500 0.085000
0.977500 0.367500 0.085000
0.000000 0.430000 0.085000
0.040000 0.430000 0.085000
0.102500 0.430000 0.085000
0.165000 0.430000 0.085000
0.227500 0.430000 0.085000
0.290000 0.430000 0.085000
0.352500 0.430000 0.085000
0.415000 0.430000 0.085000
0.477500 0.430000 0.085000
0.540000 0.430000 0.085000
0.602500 0.430000 0.085000
0.665000 0.430000 0.085000
0.727500 0.430000 0.085000
0.790000 0.430000 0.085000
0.852500 0.430000 0.085000
0.915000 0.430000 0.085000
0.977500 0.430000 0.085000
0.000000 0.492500 0.085000
0.040000 0.492500 0.085000
0.102500 0.492500 0.085000
0.165000 0.492500 0.085000
0.227500 0.492500 0.085000
0.290000 0.492500 0.085000
0.352500 0.492500 0.085000
0.415000 0.492500 0.085000
0.477500 0.492500 0.085000
0.540000 0.492500 0.085000
0.602500 0.492500 0.085000
0.665000 0.492500 0.085000
0.727500 0.492500 0.085000
0.790000 0.492500 0.085000
0.852500 0.492500 0.085000
0.915000 0.492500 0.085000
0.977500 0.492500 0.085000
0.000000 0.555000 0.085000
0.040000 0.555000 0.085000
0.102500 0.555000 0.085000
0.165000 0.555000 0.085000
0.227500 0.555000 0.085000
0.290000 0.555000 0.085000
0.352500 0.555000 0.085000
0.415000 0.555000 0.085000
0.477500 0.555000 0.085000
0.540000 0.555000 0.085000
0.602500 0.555000 0.085000
0.665000 0.555000 0.085000
0.727500 0.555000 0.085000
0.790000 0.555000 0.085000
0.852500 0.555000 0.085000
0.915000 0.555000 0.085000
0.977500 0.555000 0.085000
0.000000 0.617500 0.085000
0.040000 0.617500 0.085000
0.102500 0.617500 0.085000
0.165000 0.617500 0.085000
0.227500 0.617500 0.085000
0.290000 0.617500 0.085000
0.352500 0.617500 0.085000
0.415000 0.617500 0.085000
0.477500 0.617500 0.085000
0.540000 0.617500 0.085000
0.602500 0.617500 0.085000
0.665000 0.617500 0.085000
0.727500 0.617500 0.085000
0.790000 0.617500 0.085000
0.852500 0.617500 0.085000
0.915000 0.617500 0.085000
0.977500 0.617500 0.085000
0.000000 0.680000 0.085000
0.040000 0.680000 0.085000
0.102500 0.680000 0.085000
0.165000 0.680000 0.085000
0.227500 0.680000 0.085000
0.290000 0.680000 0.085000
0.352500 0.680000 0.085000
0.415000 0.680000 0.085000
0.477500 0.680000 0.085000
0.540000 0.680000 0.085000
0.602500 0.680000 0.085000
0.665000 0.680000 0.085000
0.727500 0.680000 0.085000
0.790000 0.680000 0.085000
0.852500 0.680000 0.085000
0.915000 0.680000 0.085000
0.977500 0.680000 0.085000
0.000000 0.742500 0.085000
0.040000 0.742500 0.085000
0.102500 0.742500 0.085000
0.165000 0.742500 0.085000
0.227500 0.742500 0.085000
0.290000 0.742500 0.085000
0.352500 0.742500 0.085000
0.415000 0.742500 0.085000
0.477500 0.742500 0.085000
0.540000 0.742500 0.085000
0.602500 0.742500 0.085000
0.665000 0.742500 0.085000
0.727500 0.742500 0.085000
0.790000 0.742500 0.085000
0.852500 0.742500 0.085000
0.915000 0.742500 0.085000
0.977500 0.742500 0.085000
0.000000 0.805000 0.085000
0.040000 0.805000 0.085000
0.102500 0.805000 0.085000
0.165000 0.805000 0.085000
0.227500 0.805000 0.085000
0.290000 0.805000 0.085000
0.352500 0.805000 0.085000
0.415000 0.805000 0.085000
0.477500 0.805000 0.085000
0.540000 0.805000 0.085000
0.602500 0.805000 0.085000
0.665000 0.805000 0.085000
0.727500 0.805000 0.085000
0.790000 0.805000 0.085000
0.852500 0.805000 0.085000
0.915000 0.805000 0.085000
0.977500 0.805000 0.085000
0.000000 0.867500 0.085000
0.040000 0.867500 0.085000
0.102500 0.867500 0.085000
0.165000 0.867500 0.085000
0.227500 0.867500 0.085000
0.290000 0.867500 0.085000
0.352500 0.867500 0.085000
0.415000 0.867500 0.085000
0.477500 0.867500 0.085000
0.540000 0.867500 0.085000
0.602500 0.867500 0.085000
0.665000 0.867500 0.085000
0.727500 0.867500 0.085000
0.790000 0.867500 0.085000
0.852500 0.867500 0.085000
0.915000 0.867500 0.085000
0.977500 0.867500 0.085000
0.000000 0.930000 0.085000
0.040000 0.930000 0.085000
0.102500 0.930000 0.085000
0.165000 0.930000 0.085000
0.227500 0.930000 0.085000
0.290000 0.930000 0.085000
0.352500 0.930000 0.085000
0.415000 0.930000 0.085000
0.477500 0.930000 0.085000
0.540000 0.930000 0.085000
0.602500 0.930000 0.085000
0.665000 0.930000 0.085000
0.727500 0.930000 0.085000
0.790000 0.930000 0.085000
0.852500 0.930000 0.085000
0.915000 0.930000 0.085000
0.977500 0.930000 0.085000
0.000000 0.992500 0.085000
0.040000 0.992500 0.085000
0.102500 0.992500 0.085000
0.165000 0.992500 0.085000
0.227500 0.992500 0.085000
0.290000 0.992500 0.085000
0.352500 0.992500 0.085000
0.415000 0.992500 0.085000
0.477500 0.992500 0.085000
0.540000 0.992500 0.085000
0.602500 0.992500 0.085000
0.665000 0.992500 0.085000
0.727500 0.992500 0.085000
0.790000 0.992500 0.085000
0.852500 0.992500 0.085000
0.915000 0.992500 0.085000
0.977500 0.992500 0.085000
0.000000 0.000000 0.147500
0.040000 0.000000 0.147500
0.102500 0.000000 0.147500
0.165000 0.000000 0.147500
0.227500 0.000000 0.147500
0.290000 0.000000 0.147500
0.352500 0.000000 0.147500
0.415000 0.000000 0.147500
0.477500 0.000000 0.147500
0.540000 0.000000 0.147500
0.602500 0.000000 0.147500
0.665000 0.000000 0.147500
0.727500 0.000000 0.147500
0.790000 0.000000 0.147500
0.852500 0.000000 0.147500
0.915000 0.000000 0.147500
0.977500 0.000000 0.147500
0.000000 0.055000 0.147500
0.040000 0.055000 0.147500
0.102500 0.055000 0.147500
0.165000 0.055000 0.147500
0.227500 0.055000 0.147500
0.290000 0.055000 0.147500
0.352500 0.055000 0.147500
0.415000 0.055000 0.147500
0.477500 0.055000 0.147500
0.540000 0.055000 0.147500
0.602500 0.055000 0.147500
0.665000 0.055000 0.147500
0.727500 0.055000 0.147500
0.790000 0.055000 0.147500
0.852500 0.055000 0.147500
0.915000 0.055000 0.147500
0.977500 0.055000 0.147500
0.000000 0.117500 0.147500
0.040000 0.117500 0.147500
0.102500 0.117500 0.147500
0.165000 0.117500 0.147500
0.227500 0.117500 0.147500
0.290000 0.117500 0.147500
0.352500 0.117500 0.147500
0.415000 0.117500 0.147500
0.477500 0.117500 0.147500
0.540000 0.117500 0.147500
0.602500 0.117500 0.147500
0.665000 0.117500 0.147500
0.727500 0.117500 0.147500
0.790000 0.117500 0.147500
0.852500 0.117500 0.147500
0.915000 0.117500 0.147500
0.977500 0.117500 0.147500
0.000000 0.180000 0.147500
0.040000 0.180000 0.147500
0.102500 0.180000 0.147500
0.165000 0.180000 0.147500
0.227500 0.180000 0.147500
0.290000 0.180000 0.147500
0.352500 0.180000 0.147500
0.415000 0.180000 0.147500
0.477500 0.180000 0.147500
0.540000 0.180000 0.147500
0.602500 0.180000 0.147500
0.665000 0.180000 0.147500
0.727500 0.180000 0.147500
0.790000 0.180000 0.147500
0.852500 0.180000 0.147500
0.915000 0.180000 0.147500
0.977500 0.180000 0.147500
0.000000 0.242500 0.147500
0.040000 0.242500 0.147500
0.102500 0.242500 0.147500
0.165000 0.242500 0.147500
0.227500 0.242500 0.147500
0.290000 0.242500 0.147500
0.352500 0.242500 0.147500
0.415000 0.242500 0.147500
0.477500 0.242500 0.147500
0.540000 0.242500 0.147500
0.602500 0.242500 0.147500
0.665000 0.242500 0.147500
0.727500 0.242500 0.147500
0.790000 0.242500 0.147500
0.852500 0.242500 0.147500
0.915000 0.242500 0.147500
0.977500 0.242500 0.147500
0.000000 0.305000 0.147500
0.040000 0.305000 0.147500
0.102500 0.305000 0.147500
0.165000 0.305000 0.147500
0.227500 0.305000 0.147500
0.290000 0.305000 0.147500
0.352500 0.305000 0.147500
0.415000 0.305000 0.147500
0.477500 0.305000 0.147500
0.540000 0.305000 0.147500
0.602500 0.305000 0.147500
0.665000 0.305000 0.147500
0.727500 0.305000 0.147500
0.790000 0.305000 0.147500
0.852500 0.305000 0.147500
0.915000 0.305000 0.147500
0.977500 0.305000 0.147500
0.000000 0.367500 0.147500
0.040000 0.367500 0.147500
0.102500 0.367500 0.147500
0.165000 0.367500 0.147500
0.227500 0.367500 0.147500
0.290000 0.367500 0.147500
0.352500 0.367500 0.147500
0.415000 0.367500 0.147500
0.477500 0.367500 0.147500
0.540000 0.367500 0.147500
0.602500 0.367500 0.147500
0.665000 0.367500 0.147500
0.727500 0.367500 0.147500
0.790000 0.367500 0.147500
0.852500 0.367500 0.147500
0.915000 0.367500 0.147500
0.977500 0.367500 0.147500
0.000000 0.430000 0.147500
0.040000 0.430000 0.147500
0.102500 0.430000 0.147500
0.165000 0.430000 0.147500
0.227500 0.430000 0.147500
0.290000 0.430000 0.147500
0.352500 0.430000 0.147500
0.415000 0.430000 0.147500
0.477500 0.430000 0.147500
0.540000 0.430000 0.147500
0.602500 0.430000 0.147500
0.665000 0.430000 0.147500
0.727500 0.430000 0.147500
0.790000 0.430000 0.147500
0.852500 0.430000 0.147500
0.915000 0.430000 0.147500
0.977500 0.430000 0.147500
0.000000 0.492500 0.147500
0.040000 0.492500 0.147500
0.102500 0.492500 0.147500
0.165000 0.492500 0.147500
0.227500 0.492500 0.147500
0.290000 0.492500 0.147500
0.352500 0.492500 0.147500
0.415000 0.492500 0.147500
0.477500 0.492500 0.147500
0.540000 0.492500 0.147500
0.602500 0.492500 0.147500
0.665000 0.492500 0.147500
0.727500 0.492500 0.147500
0.790000 0.492500 0.147500
0.852500 0.492500 0.147500
0.915000 0.492500 0.147500
0.977500 0.492500 0.147500
0.000000 0.555000 0.147500
0.040000 0.555000 0.147500
0.102500 0.555000 0.147500
0.165000 0.555000 0.147500
0.227500 0.555000 0.147500
0.290000 0.555000 0.147500
0.352500 0.555000 0.147500
0.415000 0.555000 0.147500
0.477500 0.555000 0.147500
0.540000 0.555000 0.147500
0.602500 0.555000 0.147500
0.665000 0.555000 0.147500
0.727500 0.555000 0.147500
0.790000 0.555000 0.147500
0.852500 0.555000 0.147500
0.915000 0.555000 0.147500
0.977500 0.555000 0.147500
0.000000 0.617500 0.147500
0.040000 0.617500 0.147500
0.102500 0.617500 0.147500
0.165000 0.617500 0.147500
0.227500 0.617500 0.147500
0.290000 0.617500 0.147500
0.352500 0.617500 0.147500
0.415000 0.617500 0.147500
0.477500 0.617500 0.147500
0.540000 0.617500 0.147500
0.602500 0.617500 0.147500
0.665000 0.617500 0.147500
0.727500 0.617500 0.147500
0.790000 0.617500 0.147500
0.852500 0.617500 0.147500
0.915000 0.617500 0.147500
0.977500 0.617500 0.147500
0.000000 0.680000 0.147500
0.040000 0.680000 0.147500
0.102500 0.680000 0.147500
0.165000 0.680000 0.147500
0.227500 0.680000 0.147500
0.290000 0.680000 0.147500
0.352500 0.680000 0.147500
0.415000 0.680000 0.147500
0.477500 0.680000 0.147500
0.540000 0.680000 0.147500
0.602500 0.680000 0.147500
0.665000 0.680000 0.147500
0.727500 0.680000 0.147500
0.790000 0.680000 0.147500
0.852500 0.680000 0.147500
0.915000 0.680000 0.147500
0.977500 0.680000 0.147500
0.000000 0.742500 0.147500
0.040000 0.742500 0.147500
0.102500 0.742500 0.147500
0.165000 0.742500 0.147500
0.227500 0.742500 0.147500
0.290000 0.742500 0.147500
0.352500 0.742500 0.147500
0.415000 0.742500 0.147500
0.477500 0.742500 0.147500
0.540000 0.742500 0.147500
0.602500 0.742500 0.147500
0.665000 0.742500 0.147500
0.727500 0.742500 0.147500
0.790000 0.742500 0.147500
0.852500 0.742500 0.147500
0.915000 0.742500 0.147500
0.977500 0.742500 0.147500
0.000000 0.805000 0.147500
0.040000 0.805000 0.147500
0.102500 0.805000 0.147500
0.165000 0.805000 0.147500
0.227500 0.805000 0.147500
0.290000 0.805000 0.147500
0.352500 0.805000 0.147500
0.415000 0.805000 0.147500
0.477500 0.805000 0.147500
0.540000 0.805000 0.147500
0.602500 0.805000 0.147500
0.665000 0.805000 0.147500
0.727500 0.805000 0.147500
0.790000 0.805000 0.147500
0.852500 0.805000 0.147500
0.915000 0.805000 0.147500
0.977500 0.805000 0.147500
0.000000 0.867500 0.147500
0.040000 0.867500 0.147500
0.102500 0.867500 0.147500
0.165000 0.867500 0.147500
0.227500 0.867500 0.147500
0.290000 0.867500 0.147500
0.352500 0.867500 0.147500
0.415000 0.867500 0.147500
0.477500 0.867500 0.147500
0.540000 0.867500 0.147500
0.602500 0.867500 0.147500
0.665000 0.867500 0.147500
0.727500 0.867500 0.147500
0.790000 0.867500 0.147500
0.852500 0.867500 0.147500
0.915000 0.867500 0.147500
0.977500 0.867500 0.147500
0.000000 0.930000 0.147500
0.040000 0.930000 0.147500
0.102500 0.930000 0.147500
0.165000 0.930000 0.147500
0.227500 0.930000 0.147500
0.290000 0.930000 0.147500
0.352500 0.930000 0.147500
0.415000 0.930000 0.147500
0.477500 0.930000 0.147500
0.540000 0.930000 0.147500
0.602500 0.930000 0.147500
0.665000 0.930000 0.147500
0.727500 0.930000 0.147500
0.790000 0.930000 0.147500
0.852500 0.930000 0.147500
0.915000 0.930000 0.147500
0.977500 0.930000 0.147500
0.000000 0.992500 0.147500
0.040000 0.992500 0.147500
0.102500 0.992500 0.147500
0.165000 0.992500 0.147500
0.227500 0.992500 0.147500
0.290000 0.992500 0.147500
0.352500 0.992500 0.147500
0.415000 0.992500 0.147500
0.477500 0.992500 0.147500
0.540000 0.992500 0.147500
0.602500 0.992500 0.147500
0.665000 0.992500 0.147500
0.727500 0.992500 0.147500
0.790000 0.992500 0.147500
0.852500 0.992500 0.147500
0.915000 0.992500 0.147500
0.977500 0.992500 0.147500
0.000000 0.000000 0.210000
0.040000 0.000000 0.210000
0.102500 0.000000 0.210000
0.165000 0.000000 0.210000
0.227500 0.000000 0.210000
0.290000 0.000000 0.210000
0.352500 0.000000 0.210000
0.415000 0.000000 0.210000
0.477500 0.000000 0.210000
0.540000 0.000000 0.210000
0.602500 0.000000 0.210000
0.665000 0.000000 0.210000
0.727500 0.000000 0.210000
0.790000 0.000000 0.210000
0.852500 0.000000 0.210000
0.915000 0.000000 0.210000
0.977500 0.000000 0.210000
0.000000 0.055000 0.210000
