app/src/main/assets/luts/film_bw_warm.cube
# ApexStudio filter: film_bw_warm
LUT_3D_SIZE 17
DOMAIN_MIN 0.0 0.0 0.0
DOMAIN_MAX 1.0 1.0 1.0
0.000000 0.000000 0.000000
0.020556 0.018687 0.015884
0.041113 0.037375 0.031769
0.061669 0.056063 0.047653
0.082225 0.074750 0.063537
0.102781 0.093437 0.079422
0.123338 0.112125 0.095306
0.143894 0.130812 0.111191
0.164450 0.149500 0.127075
0.185006 0.168187 0.142959
0.205563 0.186875 0.158844
0.226119 0.205562 0.174728
0.246675 0.224250 0.190612
0.267231 0.242938 0.206497
0.287788 0.261625 0.222381
0.308344 0.280312 0.238266
0.328900 0.299000 0.254150
0.040356 0.036687 0.031184
0.060913 0.055375 0.047069
0.081469 0.074063 0.062953
0.102025 0.092750 0.078837
0.122581 0.111437 0.094722
0.143138 0.130125 0.110606
0.163694 0.148813 0.126491
0.184250 0.167500 0.142375
0.204806 0.186188 0.158259
0.225362 0.204875 0.174144
0.245919 0.223562 0.190028
0.266475 0.242250 0.205912
0.287031 0.260937 0.221797
0.307588 0.279625 0.237681
0.328144 0.298312 0.253566
0.348700 0.317000 0.269450
0.369256 0.335687 0.285334
0.080713 0.073375 0.062369
0.101269 0.092062 0.078253
0.121825 0.110750 0.094137
0.142381 0.129437 0.110022
0.162938 0.148125 0.125906
0.183494 0.166812 0.141791
0.204050 0.185500 0.157675
0.224606 0.204187 0.173559
0.245163 0.222875 0.189444
0.265719 0.241562 0.205328
0.286275 0.260250 0.221212
0.306831 0.278937 0.237097
0.327388 0.297625 0.252981
0.347944 0.316312 0.268866
0.368500 0.335000 0.284750
0.389056 0.353687 0.300634
0.409613 0.372375 0.316519
0.121069 0.110062 0.093553
0.141625 0.128750 0.109437
0.162181 0.147437 0.125322
0.182737 0.166125 0.141206
0.203294 0.184812 0.157091
0.223850 0.203500 0.172975
0.244406 0.222187 0.188859
0.264963 0.240875 0.204744
0.285519 0.259562 0.220628
0.306075 0.278250 0.236512
0.326631 0.296937 0.252397
0.347188 0.315625 0.268281
0.367744 0.334313 0.284166
0.388300 0.353000 0.300050
0.408856 0.371688 0.315934
0.429413 0.390375 0.331819
0.449969 0.409062 0.347703
0.161425 0.146750 0.124737
0.181981 0.165437 0.140622
0.202538 0.184125 0.156506
0.223094 0.202813 0.172391
0.243650 0.221500 0.188275
0.264206 0.240187 0.204159
0.284762 0.258875 0.220044
0.305319 0.277562 0.235928
0.325875 0.296250 0.251812
0.346431 0.314937 0.267697
0.366987 0.333625 0.283581
0.387544 0.352312 0.299466
0.408100 0.371000 0.315350
0.428656 0.389687 0.331234
0.449213 0.408375 0.347119
0.469769 0.427062 0.363003
0.490325 0.445750 0.378887
0.201781 0.183437 0.155922
0.222337 0.202125 0.171806
0.242894 0.220812 0.187691
0.263450 0.239500 0.203575
0.284006 0.258187 0.219459
0.304563 0.276875 0.235344
0.325119 0.295562 0.251228
0.345675 0.314250 0.267112
0.366231 0.332937 0.282997
0.386788 0.351625 0.298881
0.407344 0.370312 0.314766
0.427900 0.389000 0.330650
0.448456 0.407687 0.346534
0.469012 0.426375 0.362419
0.489569 0.445062 0.378303
0.510125 0.463750 0.394187
0.530681 0.482437 0.410072
0.242138 0.220125 0.187106
0.262694 0.238812 0.202991
0.283250 0.257500 0.218875
0.303806 0.276187 0.234759
0.324362 0.294875 0.250644
0.344919 0.313562 0.266528
0.365475 0.332250 0.282413
0.386031 0.350938 0.298297
0.406587 0.369625 0.314181
0.427144 0.388312 0.330066
0.447700 0.407000 0.345950
0.468256 0.425687 0.361834
0.488812 0.444375 0.377719
0.509369 0.463062 0.393603
0.529925 0.481750 0.409488
0.550481 0.500437 0.425372
0.571037 0.519125 0.441256
0.282494 0.256812 0.218291
0.303050 0.275500 0.234175
0.323606 0.294187 0.250059
0.344163 0.312875 0.265944
0.364719 0.331562 0.281828
0.385275 0.350250 0.297712
0.405831 0.368938 0.313597
0.426388 0.387625 0.329481
0.446944 0.406312 0.345366
0.467500 0.425000 0.361250
0.488056 0.443688 0.377134
0.508613 0.462375 0.393019
0.529169 0.481063 0.408903
0.549725 0.499750 0.424788
0.570281 0.518437 0.440672
0.590838 0.537125 0.456556
0.611394 0.555813 0.472441
0.322850 0.293500 0.249475
0.343406 0.312188 0.265359
0.363963 0.330875 0.281244
0.384519 0.349562 0.297128
0.405075 0.368250 0.313012
0.425631 0.386937 0.328897
0.446188 0.405625 0.344781
0.466744 0.424312 0.360666
0.487300 0.443000 0.376550
0.507856 0.461687 0.392434
0.528413 0.480375 0.408319
0.548969 0.499062 0.424203
0.569525 0.517750 0.440087
0.590081 0.536438 0.455972
0.610638 0.555125 0.471856
0.631194 0.573812 0.487741
0.651750 0.592500 0.503625
0.363206 0.330187 0.280659
0.383763 0.348875 0.296544
0.404319 0.367562 0.312428
0.424875 0.386250 0.328312
0.445431 0.404937 0.344197
0.465987 0.423625 0.360081
0.486544 0.442312 0.375966
0.507100 0.461000 0.391850
0.527656 0.479687 0.407734
0.548212 0.498375 0.423619
0.568769 0.517062 0.439503
0.589325 0.535750 0.455387
0.609881 0.554437 0.471272
0.630438 0.573125 0.487156
0.650994 0.591812 0.503041
0.671550 0.610500 0.518925
0.692106 0.629188 0.534809
0.403562 0.366875 0.311844
0.424119 0.385562 0.327728
0.444675 0.404250 0.343612
0.465231 0.422937 0.359497
0.485787 0.441625 0.375381
0.506344 0.460312 0.391266
0.526900 0.479000 0.407150
0.547456 0.497687 0.423034
0.568012 0.516375 0.438919
0.588569 0.535062 0.454803
0.609125 0.553750 0.470687
0.629681 0.572437 0.486572
0.650237 0.591125 0.502456
0.670794 0.609812 0.518341
0.691350 0.628500 0.534225
0.711906 0.647187 0.550109
0.732463 0.665875 0.565994
0.443919 0.403562 0.343028
0.464475 0.422250 0.358913
0.485031 0.440937 0.374797
0.505588 0.459625 0.390681
0.526144 0.478312 0.406566
0.546700 0.497000 0.422450
0.567256 0.515687 0.438334
0.587813 0.534375 0.454219
0.608369 0.553063 0.470103
0.628925 0.571750 0.485987
0.649481 0.590437 0.501872
0.670037 0.609125 0.517756
0.690594 0.627812 0.533641
0.711150 0.646500 0.549525
0.731706 0.665188 0.565409
0.752263 0.683875 0.581294
0.772819 0.702562 0.597178
0.484275 0.440250 0.374212
0.504831 0.458937 0.390097
0.525388 0.477625 0.405981
0.545944 0.496312 0.421866
0.566500 0.515000 0.437750
0.587056 0.533687 0.453634
0.607612 0.552375 0.469519
0.628169 0.571063 0.485403
0.648725 0.589750 0.501287
0.669281 0.608437 0.517172
0.689837 0.627125 0.533056
0.710394 0.645812 0.548941
0.730950 0.664500 0.564825
0.751506 0.683187 0.580709
0.772063 0.701875 0.596594
0.792619 0.720562 0.612478
0.813175 0.739250 0.628362
0.524631 0.476937 0.405397
0.545188 0.495625 0.421281
0.565744 0.514312 0.437166
0.586300 0.533000 0.453050
0.606856 0.551687 0.468934
0.627413 0.570375 0.484819
0.647969 0.589062 0.500703
0.668525 0.607750 0.516587
0.689081 0.626437 0.532472
0.709638 0.645125 0.548356
0.730194 0.663812 0.564241
0.750750 0.682500 0.580125
0.771306 0.701187 0.596009
0.791863 0.719875 0.611894
0.812419 0.738563 0.627778
0.832975 0.757250 0.643662
0.853531 0.775937 0.659547
0.564988 0.513625 0.436581
0.585544 0.532312 0.452466
0.606100 0.551000 0.468350
0.626656 0.569688 0.484234
0.647213 0.588375 0.500119
0.667769 0.607062 0.516003
0.688325 0.625750 0.531887
0.708881 0.644437 0.547772
0.729438 0.663125 0.563656
0.749994 0.681812 0.579541
0.770550 0.700500 0.595425
0.791106 0.719187 0.611309
0.811663 0.737875 0.627194
0.832219 0.756563 0.643078
0.852775 0.775250 0.658963
0.873331 0.793937 0.674847
0.893887 0.812625 0.690731
0.605344 0.550312 0.467766
0.625900 0.569000 0.483650
0.646456 0.587688 0.499534
0.667013 0.606375 0.515419
0.687569 0.625062 0.531303
0.708125 0.643750 0.547187
0.728681 0.662438 0.563072
0.749238 0.681125 0.578956
0.769794 0.699812 0.594841
0.790350 0.718500 0.610725
0.810906 0.737187 0.626609
0.831462 0.755875 0.642494
0.852019 0.774563 0.658378
0.872575 0.793250 0.674262
0.893131 0.811937 0.690147
0.913687 0.830625 0.706031
0.934244 0.849312 0.721916
0.645700 0.587000 0.498950
0.666256 0.605687 0.514834
0.686813 0.624375 0.530719
0.707369 0.643062 0.546603
0.727925 0.661750 0.562487
0.748481 0.680437 0.578372
0.769038 0.699125 0.594256
0.789594 0.717812 0.610141
0.810150 0.736500 0.626025
0.830706 0.755187 0.641909
0.851263 0.773875 0.657794
0.871819 0.792562 0.673678
0.892375 0.811250 0.689562
0.912931 0.829937 0.705447
0.933488 0.848625 0.721331
0.954044 0.867312 0.737216
0.974600 0.886000 0.753100
0.007838 0.007125 0.006056
0.028394 0.025812 0.021941
0.048950 0.044500 0.037825
0.069506 0.063188 0.053709
0.090063 0.081875 0.069594
0.110619 0.100562 0.085478
0.131175 0.119250 0.101363
0.151731 0.137937 0.117247
0.172288 0.156625 0.133131
0.192844 0.175312 0.149016
0.213400 0.194000 0.164900
0.233956 0.212687 0.180784
0.254513 0.231375 0.196669
0.275069 0.250063 0.212553
0.295625 0.268750 0.228437
0.316181 0.287437 0.244322
0.336738 0.306125 0.260206
0.048194 0.043812 0.037241
0.068750 0.062500 0.053125
0.089306 0.081188 0.069009
0.109863 0.099875 0.084894
0.130419 0.118563 0.100778
0.150975 0.137250 0.116662
0.171531 0.155938 0.132547
0.192087 0.174625 0.148431
0.212644 0.193312 0.164316
0.233200 0.212000 0.180200
0.253756 0.230687 0.196084
0.274312 0.249375 0.211969
0.294869 0.268062 0.227853
0.315425 0.286750 0.243737
0.335981 0.305437 0.259622
0.356537 0.324125 0.275506
0.377094 0.342812 0.291391
0.088550 0.080500 0.068425
0.109106 0.099187 0.084309
0.129663 0.117875 0.100194
0.150219 0.136562 0.116078
0.170775 0.155250 0.131962
0.191331 0.173937 0.147847
0.211888 0.192625 0.163731
0.232444 0.211312 0.179616
0.253000 0.230000 0.195500
0.273556 0.248687 0.211384
0.294112 0.267375 0.227269
0.314669 0.286062 0.243153
0.335225 0.304750 0.259038
0.355781 0.323437 0.274922
0.376337 0.342125 0.290806
0.396894 0.360812 0.306691
0.417450 0.379500 0.322575
0.128906 0.117188 0.099609
0.149462 0.135875 0.115494
0.170019 0.154562 0.131378
0.190575 0.173250 0.147262
0.211131 0.191937 0.163147
0.231687 0.210625 0.179031
0.252244 0.229312 0.194916
0.272800 0.248000 0.210800
0.293356 0.266687 0.226684
0.313913 0.285375 0.242569
0.334469 0.304062 0.258453
0.355025 0.322750 0.274337
0.375581 0.341438 0.290222
0.396137 0.360125 0.306106
0.416694 0.378812 0.321991
0.437250 0.397500 0.337875
0.457806 0.416187 0.353759
0.169262 0.153875 0.130794
0.189819 0.172562 0.146678
0.210375 0.191250 0.162562
0.230931 0.209937 0.178447
0.251487 0.228625 0.194331
0.272044 0.247312 0.210216
0.292600 0.266000 0.226100
0.313156 0.284687 0.241984
0.333713 0.303375 0.257869
0.354269 0.322062 0.273753
0.374825 0.340750 0.289637
0.395381 0.359437 0.305522
0.415938 0.378125 0.321406
0.436494 0.396812 0.337291
0.457050 0.415500 0.353175
0.477606 0.434187 0.369059
0.498163 0.452875 0.384944
0.209619 0.190562 0.161978
0.230175 0.209250 0.177862
0.250731 0.227937 0.193747
0.271288 0.246625 0.209631
0.291844 0.265312 0.225516
0.312400 0.284000 0.241400
0.332956 0.302687 0.257284
0.353513 0.321375 0.273169
0.374069 0.340062 0.289053
0.394625 0.358750 0.304937
0.415181 0.377437 0.320822
0.435737 0.396125 0.336706
0.456294 0.414812 0.352591
0.476850 0.433500 0.368475
0.497406 0.452187 0.384359
0.517962 0.470875 0.400244
0.538519 0.489562 0.416128
0.249975 0.227250 0.193162
0.270531 0.245937 0.209047
0.291087 0.264625 0.224931
0.311644 0.283312 0.240816
0.332200 0.302000 0.256700
0.352756 0.320687 0.272584
0.373312 0.339375 0.288469
0.393869 0.358063 0.304353
0.414425 0.376750 0.320237
0.434981 0.395437 0.336122
0.455537 0.414125 0.352006
0.476094 0.432812 0.367891
0.496650 0.451500 0.383775
0.517206 0.470187 0.399659
0.537763 0.488875 0.415544
0.558319 0.507563 0.431428
0.578875 0.526250 0.447313
0.290331 0.263937 0.224347
0.310888 0.282625 0.240231
0.331444 0.301312 0.256116
0.352000 0.320000 0.272000
0.372556 0.338687 0.287884
0.393113 0.357375 0.303769
0.413669 0.376063 0.319653
0.434225 0.394750 0.335537
0.454781 0.413437 0.351422
0.475338 0.432125 0.367306
0.495894 0.450813 0.383191
0.516450 0.469500 0.399075
0.537006 0.488187 0.414959
0.557563 0.506875 0.430844
0.578119 0.525563 0.446728
0.598675 0.544250 0.462612
0.619231 0.562938 0.478497
0.330688 0.300625 0.255531
0.351244 0.319312 0.271416
0.371800 0.338000 0.287300
0.392356 0.356687 0.303184
0.412913 0.375375 0.319069
0.433469 0.394062 0.334953
0.454025 0.412750 0.350837
0.474581 0.431437 0.366722
0.495137 0.450125 0.382606
0.515694 0.468812 0.398491
0.536250 0.487500 0.414375
0.556806 0.506188 0.430259
0.577363 0.524875 0.446144
0.597919 0.543563 0.462028
0.618475 0.562250 0.477913
0.639031 0.580937 0.493797
0.659588 0.599625 0.509681
0.371044 0.337312 0.286716
0.391600 0.356000 0.302600
0.412156 0.374687 0.318484
0.432712 0.393375 0.334369
0.453269 0.412062 0.350253
0.473825 0.430750 0.366137
0.494381 0.449437 0.382022
0.514938 0.468125 0.397906
0.535494 0.486812 0.413791
0.556050 0.505500 0.429675
0.576606 0.524188 0.445559
0.597163 0.542875 0.461444
0.617719 0.561562 0.477328
0.638275 0.580250 0.493212
0.658831 0.598938 0.509097
0.679388 0.617625 0.524981
0.699944 0.636313 0.540866
0.411400 0.374000 0.317900
0.431956 0.392687 0.333784
0.452512 0.411375 0.349669
0.473069 0.430062 0.365553
0.493625 0.448750 0.381437
0.514181 0.467437 0.397322
0.534737 0.486125 0.413206
0.555294 0.504812 0.429091
0.575850 0.523500 0.444975
0.596406 0.542188 0.460859
0.616963 0.560875 0.476744
0.637519 0.579562 0.492628
0.658075 0.598250 0.508512
0.678631 0.616938 0.524397
0.699188 0.635625 0.540281
0.719744 0.654312 0.556166
0.740300 0.673000 0.572050
0.451756 0.410687 0.349084
0.472313 0.429375 0.364969
0.492869 0.448062 0.380853
0.513425 0.466750 0.396737
0.533981 0.485437 0.412622
0.554538 0.504125 0.428506
0.575094 0.522813 0.444391
0.595650 0.541500 0.460275
0.616206 0.560188 0.476159
0.636763 0.578875 0.492044
0.657319 0.597562 0.507928
0.677875 0.616250 0.523812
0.698431 0.634938 0.539697
0.718988 0.653625 0.555581
0.739544 0.672313 0.571466
0.760100 0.691000 0.587350
0.780656 0.709688 0.603234
0.492113 0.447375 0.380269
0.512669 0.466062 0.396153
0.533225 0.484750 0.412037
0.553781 0.503437 0.427922
0.574338 0.522125 0.443806
0.594894 0.540813 0.459691
0.615450 0.559500 0.475575
0.636006 0.578188 0.491459
0.656563 0.596875 0.507344
0.677119 0.615563 0.523228
0.697675 0.634250 0.539112
0.718231 0.652937 0.554997
0.738788 0.671625 0.570881
0.759344 0.690312 0.586766
0.779900 0.709000 0.602650
0.800456 0.727688 0.618534
0.821013 0.746375 0.634419
0.532469 0.484062 0.411453
0.553025 0.502750 0.427338
0.573581 0.521437 0.443222
0.594137 0.540125 0.459106
0.614694 0.558813 0.474991
0.635250 0.577500 0.490875
0.655806 0.596187 0.506759
0.676363 0.614875 0.522644
0.696919 0.633563 0.538528
0.717475 0.652250 0.554412
0.738031 0.670937 0.570297
0.758587 0.689625 0.586181
0.779144 0.708313 0.602066
0.799700 0.727000 0.617950
0.820256 0.745688 0.633834
0.840813 0.764375 0.649719
0.861369 0.783062 0.665603
0.572825 0.520750 0.442638
0.593381 0.539438 0.458522
0.613938 0.558125 0.474406
0.634494 0.576813 0.490291
0.655050 0.595500 0.506175
0.675606 0.614187 0.522059
0.696163 0.632875 0.537944
0.716719 0.651563 0.553828
0.737275 0.670250 0.569712
0.757831 0.688937 0.585597
0.778388 0.707625 0.601481
0.798944 0.726313 0.617366
0.819500 0.745000 0.633250
0.840056 0.763688 0.649134
0.860613 0.782375 0.665019
0.881169 0.801063 0.680903
0.901725 0.819750 0.696788
0.613181 0.557438 0.473822
0.633738 0.576125 0.489706
0.654294 0.594813 0.505591
0.674850 0.613500 0.521475
0.695406 0.632188 0.537359
0.715963 0.650875 0.553244
0.736519 0.669563 0.569128
0.757075 0.688250 0.585013
0.777631 0.706937 0.600897
0.798188 0.725625 0.616781
0.818744 0.744313 0.632666
0.839300 0.763000 0.648550
0.859856 0.781688 0.664434
0.880413 0.800375 0.680319
0.900969 0.819063 0.696203
0.921525 0.837750 0.712087
0.942081 0.856437 0.727972
0.653538 0.594125 0.505006
0.674094 0.612812 0.520891
0.694650 0.631500 0.536775
0.715206 0.650188 0.552659
0.735763 0.668875 0.568544
0.756319 0.687562 0.584428
0.776875 0.706250 0.600313
0.797431 0.724938 0.616197
0.817988 0.743625 0.632081
0.838544 0.762312 0.647966
0.859100 0.781000 0.663850
0.879656 0.799687 0.679734
0.900213 0.818375 0.695619
0.920769 0.837063 0.711503
0.941325 0.855750 0.727387
0.961881 0.874437 0.743272
0.982438 0.893125 0.759156
0.015675 0.014250 0.012113
0.036231 0.032938 0.027997
0.056788 0.051625 0.043881
0.077344 0.070312 0.059766
0.097900 0.089000 0.075650
0.118456 0.107687 0.091534
0.139013 0.126375 0.107419
0.159569 0.145063 0.123303
0.180125 0.163750 0.139187
0.200681 0.182438 0.155072
0.221238 0.201125 0.170956
0.241794 0.219812 0.186841
0.262350 0.238500 0.202725
0.282906 0.257188 0.218609
0.303463 0.275875 0.234494
0.324019 0.294562 0.250378
0.344575 0.313250 0.266262
0.056031 0.050937 0.043297
0.076588 0.069625 0.059181
0.097144 0.088313 0.075066
0.117700 0.107000 0.090950
0.138256 0.125688 0.106834
0.158813 0.144375 0.122719
0.179369 0.163063 0.138603
0.199925 0.181750 0.154487
0.220481 0.200438 0.170372
0.241038 0.219125 0.186256
0.261594 0.237813 0.202141
0.282150 0.256500 0.218025
0.302706 0.275187 0.233909
0.323263 0.293875 0.249794
0.343819 0.312562 0.265678
0.364375 0.331250 0.281562
0.384931 0.349937 0.297447
0.096388 0.087625 0.074481
0.116944 0.106312 0.090366
0.137500 0.125000 0.106250
0.158056 0.143687 0.122134
0.178613 0.162375 0.138019
0.199169 0.181062 0.153903
0.219725 0.199750 0.169788
0.240281 0.218438 0.185672
0.260837 0.237125 0.201556
0.281394 0.255812 0.217441
0.301950 0.274500 0.233325
0.322506 0.293187 0.249209
0.343063 0.311875 0.265094
0.363619 0.330562 0.280978
0.384175 0.349250 0.296862
0.404731 0.367937 0.312747
0.425288 0.386625 0.328631
0.136744 0.124312 0.105666
0.157300 0.143000 0.121550
0.177856 0.161688 0.137434
0.198413 0.180375 0.153319
0.218969 0.199063 0.169203
0.239525 0.217750 0.185087
0.260081 0.236437 0.200972
0.280638 0.255125 0.216856
0.301194 0.273812 0.232741
0.321750 0.292500 0.248625
0.342306 0.311187 0.264509
0.362862 0.329875 0.280394
0.383419 0.348562 0.296278
0.403975 0.367250 0.312162
0.424531 0.385937 0.328047
0.445087 0.404625 0.343931
0.465644 0.423312 0.359816
0.177100 0.161000 0.136850
0.197656 0.179688 0.152734
0.218213 0.198375 0.168619
0.238769 0.217063 0.184503
0.259325 0.235750 0.200387
0.279881 0.254437 0.216272
0.300437 0.273125 0.232156
0.320994 0.291812 0.248041
0.341550 0.310500 0.263925
0.362106 0.329187 0.279809
0.382662 0.347875 0.295694
0.403219 0.366562 0.311578
0.423775 0.385250 0.327462
0.444331 0.403937 0.343347
0.464888 0.422625 0.359231
0.485444 0.441312 0.375116
0.506000 0.460000 0.391000
0.217456 0.197687 0.168034
0.238012 0.216375 0.183919
0.258569 0.235062 0.199803
0.279125 0.253750 0.215687
0.299681 0.272437 0.231572
0.320238 0.291125 0.247456
0.340794 0.309812 0.263341
0.361350 0.328500 0.279225
0.381906 0.347187 0.295109
0.402463 0.365875 0.310994
0.423019 0.384562 0.326878
0.443575 0.403250 0.342762
0.464131 0.421937 0.358647
0.484687 0.440625 0.374531
0.505244 0.459312 0.390416
0.525800 0.478000 0.406300
0.546356 0.496687 0.422184
0.257812 0.234375 0.199219
0.278369 0.253062 0.215103
0.298925 0.271750 0.230987
0.319481 0.290437 0.246872
0.340037 0.309125 0.262756
0.360594 0.327812 0.278641
0.381150 0.346500 0.294525
0.401706 0.365187 0.310409
0.422262 0.383875 0.326294
0.442819 0.402562 0.342178
0.463375 0.421250 0.358062
0.483931 0.439937 0.373947
0.504487 0.458625 0.389831
0.525044 0.477312 0.405716
0.545600 0.496000 0.421600
0.566156 0.514687 0.437484
0.586712 0.533375 0.453369
0.298169 0.271062 0.230403
0.318725 0.289750 0.246287
0.339281 0.308437 0.262172
0.359838 0.327125 0.278056
0.380394 0.345812 0.293941
0.400950 0.364500 0.309825
0.421506 0.383188 0.325709
0.442063 0.401875 0.341594
0.462619 0.420562 0.357478
0.483175 0.439250 0.373362
0.503731 0.457937 0.389247
0.524288 0.476625 0.405131
0.544844 0.495312 0.421016
0.565400 0.514000 0.436900
0.585956 0.532687 0.452784
0.606513 0.551375 0.468669
0.627069 0.570063 0.484553
0.338525 0.307750 0.261587
0.359081 0.326437 0.277472
0.379637 0.345125 0.293356
0.400194 0.363812 0.309241
0.420750 0.382500 0.325125
0.441306 0.401187 0.341009
0.461863 0.419875 0.356894
0.482419 0.438562 0.372778
0.502975 0.457250 0.388662
0.523531 0.475937 0.404547
0.544088 0.494625 0.420431
0.564644 0.513312 0.436316
0.585200 0.532000 0.452200
0.605756 0.550687 0.468084
0.626313 0.569375 0.483969
0.646869 0.588062 0.499853
0.667425 0.606750 0.515737
0.378881 0.344437 0.292772
0.399438 0.363125 0.308656
0.419994 0.381812 0.324541
0.440550 0.400500 0.340425
0.461106 0.419187 0.356309
0.481662 0.437875 0.372194
0.502219 0.456562 0.388078
0.522775 0.475250 0.403962
0.543331 0.493937 0.419847
0.563888 0.512625 0.435731
0.584444 0.531312 0.451616
0.605000 0.550000 0.467500
0.625556 0.568687 0.483384
0.646112 0.587375 0.499269
0.666669 0.606062 0.515153
0.687225 0.624750 0.531037
0.707781 0.643437 0.546922
0.419237 0.381125 0.323956
0.439794 0.399812 0.339841
0.460350 0.418500 0.355725
0.480906 0.437187 0.371609
0.501462 0.455875 0.387494
0.522019 0.474562 0.403378
0.542575 0.493250 0.419262
0.563131 0.511937 0.435147
0.583687 0.530625 0.451031
0.604244 0.549312 0.466916
0.624800 0.568000 0.482800
0.645356 0.586687 0.498684
0.665912 0.605375 0.514569
0.686469 0.624062 0.530453
0.707025 0.642750 0.546337
0.727581 0.661437 0.562222
0.748138 0.680125 0.578106
0.459594 0.417812 0.355141
0.480150 0.436500 0.371025
0.500706 0.455187 0.386909
0.521263 0.473875 0.402794
0.541819 0.492562 0.418678
0.562375 0.511250 0.434562
0.582931 0.529937 0.450447
0.603488 0.548625 0.466331
0.624044 0.567312 0.482216
0.644600 0.586000 0.498100
0.665156 0.604687 0.513984
0.685712 0.623375 0.529869
0.706269 0.642062 0.545753
0.726825 0.660750 0.561637
0.747381 0.679438 0.577522
0.767938 0.698125 0.593406
0.788494 0.716812 0.609291
0.499950 0.454500 0.386325
0.520506 0.473187 0.402209
0.541063 0.491875 0.418094
0.561619 0.510563 0.433978
0.582175 0.529250 0.449862
0.602731 0.547937 0.465747
0.623287 0.566625 0.481631
0.643844 0.585313 0.497516
0.664400 0.604000 0.513400
0.684956 0.622687 0.529284
0.705512 0.641375 0.545169
0.726069 0.660062 0.561053
0.746625 0.678750 0.576937
0.767181 0.697437 0.592822
0.787738 0.716125 0.608706
0.808294 0.734812 0.624591
0.828850 0.753500 0.640475
0.540306 0.491187 0.417509
0.560863 0.509875 0.433394
0.581419 0.528562 0.449278
0.601975 0.547250 0.465162
0.622531 0.565937 0.481047
0.643088 0.584625 0.496931
0.663644 0.603312 0.512816
0.684200 0.622000 0.528700
0.704756 0.640687 0.544584
0.725313 0.659375 0.560469
0.745869 0.678062 0.576353
0.766425 0.696750 0.592237
0.786981 0.715437 0.608122
0.807538 0.734125 0.624006
0.828094 0.752812 0.639891
0.848650 0.771500 0.655775
0.869206 0.790187 0.671659
0.580663 0.527875 0.448694
0.601219 0.546562 0.464578
0.621775 0.565250 0.480463
0.642331 0.583937 0.496347
0.662887 0.602625 0.512231
0.683444 0.621312 0.528116
0.704000 0.640000 0.544000
0.724556 0.658687 0.559884
0.745112 0.677375 0.575769
0.765669 0.696062 0.591653
0.786225 0.714750 0.607537
0.806781 0.733437 0.623422
0.827338 0.752125 0.639306
0.847894 0.770813 0.655191
0.868450 0.789500 0.671075
0.889006 0.808187 0.686959
0.909562 0.826875 0.702844
0.621019 0.564562 0.479878
0.641575 0.583250 0.495762
0.662131 0.601938 0.511647
0.682688 0.620625 0.527531
0.703244 0.639312 0.543416
0.723800 0.658000 0.559300
0.744356 0.676687 0.575184
0.764912 0.695375 0.591069
0.785469 0.714062 0.606953
0.806025 0.732750 0.622837
0.826581 0.751437 0.638722
0.847137 0.770125 0.654606
0.867694 0.788813 0.670491
0.888250 0.807500 0.686375
0.908806 0.826187 0.702259
0.929362 0.844875 0.718144
0.949919 0.863562 0.734028
0.661375 0.601250 0.511062
0.681931 0.619937 0.526947
0.702488 0.638625 0.542831
0.723044 0.657312 0.558716
0.743600 0.676000 0.574600
0.764156 0.694687 0.590484
0.784713 0.713375 0.606369
0.805269 0.732062 0.622253
0.825825 0.750750 0.638137
0.846381 0.769437 0.654022
0.866938 0.788125 0.669906
0.887494 0.806812 0.685791
0.908050 0.825500 0.701675
0.928606 0.844187 0.717559
0.949163 0.862875 0.733444
0.969719 0.881562 0.749328
0.990275 0.900250 0.765212
0.023513 0.021375 0.018169
0.044069 0.040063 0.034053
0.064625 0.058750 0.049937
0.085181 0.077438 0.065822
0.105738 0.096125 0.081706
0.126294 0.114812 0.097591
0.146850 0.133500 0.113475
0.167406 0.152188 0.129359
0.187963 0.170875 0.145244
0.208519 0.189562 0.161128
0.229075 0.208250 0.177012
0.249631 0.226937 0.192897
0.270188 0.245625 0.208781
0.290744 0.264313 0.224666
0.311300 0.283000 0.240550
0.331856 0.301687 0.256434
0.352413 0.320375 0.272319
0.063869 0.058063 0.049353
