app/src/main/assets/luts/film_cool.cube
# ApexStudio filter: film_cool
LUT_3D_SIZE 5
DOMAIN_MIN 0.0 0.0 0.0
DOMAIN_MAX 1.0 1.0 1.0
0.000000 0.000000 0.022500
0.227500 0.000000 0.022500
0.477500 0.000000 0.022500
0.727500 0.000000 0.022500
0.977500 0.000000 0.022500
0.000000 0.242500 0.022500
0.227500 0.242500 0.022500
0.477500 0.242500 0.022500
0.727500 0.242500 0.022500
0.977500 0.242500 0.022500
0.000000 0.492500 0.022500
0.227500 0.492500 0.022500
0.477500 0.492500 0.022500
0.727500 0.492500 0.022500
0.977500 0.492500 0.022500
0.000000 0.742500 0.022500
0.227500 0.742500 0.022500
0.477500 0.742500 0.022500
0.727500 0.742500 0.022500
0.977500 0.742500 0.022500
0.000000 0.992500 0.022500
0.227500 0.992500 0.022500
0.477500 0.992500 0.022500
0.727500 0.992500 0.022500
0.977500 0.992500 0.022500
0.000000 0.000000 0.272500
0.227500 0.000000 0.272500
0.477500 0.000000 0.272500
0.727500 0.000000 0.272500
0.977500 0.000000 0.272500
0.000000 0.242500 0.272500
0.227500 0.242500 0.272500
0.477500 0.242500 0.272500
0.727500 0.242500 0.272500
0.977500 0.242500 0.272500
0.000000 0.492500 0.272500
0.227500 0.492500 0.272500
0.477500 0.492500 0.272500
0.727500 0.492500 0.272500
0.977500 0.492500 0.272500
0.000000 0.742500 0.272500
0.227500 0.742500 0.272500
0.477500 0.742500 0.272500
0.727500 0.742500 0.272500
0.977500 0.742500 0.272500
0.000000 0.992500 0.272500
0.227500 0.992500 0.272500
0.477500 0.992500 0.272500
0.727500 0.992500 0.272500
0.977500 0.992500 0.272500
0.000000 0.000000 0.522500
0.227500 0.000000 0.522500
0.477500 0.000000 0.522500
0.727500 0.000000 0.522500
0.977500 0.000000 0.522500
0.000000 0.242500 0.522500
0.227500 0.242500 0.522500
0.477500 0.242500 0.522500
0.727500 0.242500 0.522500
0.977500 0.242500 0.522500
0.000000 0.492500 0.522500
0.227500 0.492500 0.522500
0.477500 0.492500 0.522500
0.727500 0.492500 0.522500
0.977500 0.492500 0.522500
0.000000 0.742500 0.522500
0.227500 0.742500 0.522500
0.477500 0.742500 0.522500
0.727500 0.742500 0.522500
0.977500 0.742500 0.522500
0.000000 0.992500 0.522500
0.227500 0.992500 0.522500
0.477500 0.992500 0.522500
0.727500 0.992500 0.522500
0.977500 0.992500 0.522500
0.000000 0.000000 0.772500
0.227500 0.000000 0.772500
0.477500 0.000000 0.772500
0.727500 0.000000 0.772500
0.977500 0.000000 0.772500
0.000000 0.242500 0.772500
0.227500 0.242500 0.772500
0.477500 0.242500 0.772500
0.727500 0.242500 0.772500
0.977500 0.242500 0.772500
0.000000 0.492500 0.772500
0.227500 0.492500 0.772500
0.477500 0.492500 0.772500
0.727500 0.492500 0.772500
0.977500 0.492500 0.772500
0.000000 0.742500 0.772500
0.227500 0.742500 0.772500
0.477500 0.742500 0.772500
0.727500 0.742500 0.772500
0.977500 0.742500 0.772500
0.000000 0.992500 0.772500
0.227500 0.992500 0.772500
0.477500 0.992500 0.772500
0.727500 0.992500 0.772500
0.977500 0.992500 0.772500
0.000000 0.000000 1.000000
0.227500 0.000000 1.000000
0.477500 0.000000 1.000000
0.727500 0.000000 1.000000
0.977500 0.000000 1.000000
0.000000 0.242500 1.000000
0.227500 0.242500 1.000000
0.477500 0.242500 1.000000
0.727500 0.242500 1.000000
0.977500 0.242500 1.000000
0.000000 0.492500 1.000000
0.227500 0.492500 1.000000
0.477500 0.492500 1.000000
0.727500 0.492500 1.000000
0.977500 0.492500 1.000000
0.000000 0.742500 1.000000
0.227500 0.742500 1.000000
0.477500 0.742500 1.000000
0.727500 0.742500 1.000000
0.977500 0.742500 1.000000
0.000000 0.992500 1.000000
0.227500 0.992500 1.000000
0.477500 0.992500 1.000000
0.727500 0.992500 1.000000
0.977500 0.992500 1.000000
