app/src/main/assets/luts/film_noir_cinema.cube
# ApexStudio filter: film_noir_cinema
LUT_3D_SIZE 5
DOMAIN_MIN 0.0 0.0 0.0
DOMAIN_MAX 1.0 1.0 1.0
0.000205 0.000205 0.016405
0.194554 0.006454 0.022654
0.450277 0.014677 0.030877
0.705999 0.022899 0.039099
0.930105 0.030105 0.046305
0.013149 0.211599 0.029349
0.207498 0.217848 0.035598
0.463220 0.226070 0.043820
0.718943 0.234293 0.052043
0.943049 0.241499 0.059249
0.028557 0.463257 0.044757
0.222906 0.469506 0.051006
0.478629 0.477729 0.059229
0.734351 0.485951 0.067451
0.958457 0.493157 0.074657
0.043966 0.714916 0.060166
0.238315 0.721165 0.066415
0.494038 0.729388 0.074638
0.749760 0.737610 0.082860
0.973866 0.744816 0.090066
0.058905 0.958905 0.075105
0.253254 0.965154 0.081354
0.508977 0.973377 0.089577
0.764699 0.981599 0.097799
0.988805 0.988805 0.105005
0.002770 0.002770 0.221470
0.197119 0.009019 0.227719
0.452842 0.017242 0.235942
0.708564 0.025464 0.244164
0.932670 0.032670 0.251370
0.015714 0.214164 0.234414
0.210063 0.220413 0.240663
0.465785 0.228635 0.248885
0.721508 0.236858 0.257108
0.945614 0.244064 0.264314
0.031122 0.465822 0.249822
0.225471 0.472071 0.256071
0.481194 0.480294 0.264294
0.736916 0.488516 0.272516
0.961022 0.495722 0.279722
0.046531 0.717481 0.265231
0.240880 0.723730 0.271480
0.496603 0.731953 0.279703
0.752325 0.740175 0.287925
0.976431 0.747381 0.295131
0.061470 0.961470 0.280170
0.255819 0.967719 0.286419
0.511542 0.975942 0.294642
0.767264 0.984164 0.302864
0.991370 0.991370 0.310070
0.005335 0.005335 0.426535
0.199684 0.011584 0.432784
0.455407 0.019807 0.441007
0.711129 0.028029 0.449229
0.935235 0.035235 0.456435
0.018279 0.216729 0.439479
0.212628 0.222978 0.445728
0.468350 0.231200 0.453950
0.724073 0.239423 0.462173
0.948179 0.246629 0.469379
0.033687 0.468387 0.454887
0.228036 0.474636 0.461136
0.483759 0.482859 0.469359
0.739481 0.491081 0.477581
0.963587 0.498287 0.484787
0.049096 0.720046 0.470296
0.243445 0.726295 0.476545
0.499168 0.734518 0.484768
0.754890 0.742740 0.492990
0.978996 0.749946 0.500196
0.064035 0.964035 0.485235
0.258384 0.970284 0.491484
0.514107 0.978507 0.499707
0.769829 0.986729 0.507929
0.993935 0.993935 0.515135
0.007900 0.007900 0.631600
0.202249 0.014149 0.637849
0.457972 0.022372 0.646072
0.713694 0.030594 0.654294
0.937800 0.037800 0.661500
0.020844 0.219294 0.644544
0.215193 0.225543 0.650793
0.470915 0.233765 0.659015
0.726638 0.241988 0.667238
0.950744 0.249194 0.674444
0.036252 0.470952 0.659952
0.230601 0.477201 0.666201
0.486324 0.485424 0.674424
0.742046 0.493646 0.682646
0.966152 0.500852 0.689852
0.051661 0.722611 0.675361
0.246010 0.728860 0.681610
0.501733 0.737083 0.689833
0.757455 0.745305 0.698055
0.981561 0.752511 0.705261
0.066600 0.966600 0.690300
0.260949 0.972849 0.696549
0.516672 0.981072 0.704772
0.772394 0.989294 0.712994
0.996500 0.996500 0.720200
0.010465 0.010465 0.836665
0.204814 0.016714 0.842914
0.460537 0.024937 0.851137
0.716259 0.033159 0.859359
0.940365 0.040365 0.866565
0.023409 0.221859 0.849609
0.217758 0.228108 0.855858
0.473480 0.236330 0.864080
0.729203 0.244553 0.872303
0.953309 0.251759 0.879509
0.038817 0.473517 0.865017
0.233166 0.479766 0.871266
0.488889 0.487989 0.879489
0.744611 0.496211 0.887711
0.968717 0.503417 0.894917
0.054226 0.725176 0.880426
0.248575 0.731425 0.886675
0.504298 0.739648 0.894898
0.760020 0.747870 0.903120
0.984126 0.755076 0.910326
0.069165 0.969165 0.895365
0.263514 0.975414 0.901614
0.519237 0.983637 0.909837
0.774959 0.991859 0.918059
0.999065 0.999065 0.925265
