app/src/main/assets/luts/film_bw_cool.cube
# ApexStudio filter: film_bw_cool
LUT_3D_SIZE 17
DOMAIN_MIN 0.0 0.0 0.0
DOMAIN_MAX 1.0 1.0 1.0
0.000000 0.000000 0.000000
0.015884 0.017753 0.020556
0.031769 0.035506 0.041113
0.047653 0.053259 0.061669
0.063537 0.071012 0.082225
0.079422 0.088766 0.102781
0.095306 0.106519 0.123338
0.111191 0.124272 0.143894
0.127075 0.142025 0.164450
0.142959 0.159778 0.185006
0.158844 0.177531 0.205563
0.174728 0.195284 0.226119
0.190612 0.213037 0.246675
0.206497 0.230791 0.267231
0.222381 0.248544 0.287788
0.238266 0.266297 0.308344
0.254150 0.284050 0.328900
0.031184 0.034853 0.040356
0.047069 0.052606 0.060913
0.062953 0.070359 0.081469
0.078837 0.088112 0.102025
0.094722 0.105866 0.122581
0.110606 0.123619 0.143138
0.126491 0.141372 0.163694
0.142375 0.159125 0.184250
0.158259 0.176878 0.204806
0.174144 0.194631 0.225362
0.190028 0.212384 0.245919
0.205912 0.230137 0.266475
0.221797 0.247891 0.287031
0.237681 0.265644 0.307588
0.253566 0.283397 0.328144
0.269450 0.301150 0.348700
0.285334 0.318903 0.369256
0.062369 0.069706 0.080713
0.078253 0.087459 0.101269
0.094137 0.105212 0.121825
0.110022 0.122966 0.142381
0.125906 0.140719 0.162938
0.141791 0.158472 0.183494
0.157675 0.176225 0.204050
0.173559 0.193978 0.224606
0.189444 0.211731 0.245163
0.205328 0.229484 0.265719
0.221212 0.247237 0.286275
0.237097 0.264991 0.306831
0.252981 0.282744 0.327388
0.268866 0.300497 0.347944
0.284750 0.318250 0.368500
0.300634 0.336003 0.389056
0.316519 0.353756 0.409613
0.093553 0.104559 0.121069
0.109437 0.122312 0.141625
0.125322 0.140066 0.162181
0.141206 0.157819 0.182737
0.157091 0.175572 0.203294
0.172975 0.193325 0.223850
0.188859 0.211078 0.244406
0.204744 0.228831 0.264963
0.220628 0.246584 0.285519
0.236512 0.264338 0.306075
0.252397 0.282091 0.326631
0.268281 0.299844 0.347188
0.284166 0.317597 0.367744
0.300050 0.335350 0.388300
0.315934 0.353103 0.408856
0.331819 0.370856 0.429413
0.347703 0.388609 0.449969
0.124737 0.139412 0.161425
0.140622 0.157166 0.181981
0.156506 0.174919 0.202538
0.172391 0.192672 0.223094
0.188275 0.210425 0.243650
0.204159 0.228178 0.264206
0.220044 0.245931 0.284762
0.235928 0.263684 0.305319
0.251812 0.281438 0.325875
0.267697 0.299191 0.346431
0.283581 0.316944 0.366987
0.299466 0.334697 0.387544
0.315350 0.352450 0.408100
0.331234 0.370203 0.428656
0.347119 0.387956 0.449213
0.363003 0.405709 0.469769
0.378887 0.423462 0.490325
0.155922 0.174266 0.201781
0.171806 0.192019 0.222337
0.187691 0.209772 0.242894
0.203575 0.227525 0.263450
0.219459 0.245278 0.284006
0.235344 0.263031 0.304563
0.251228 0.280784 0.325119
0.267112 0.298537 0.345675
0.282997 0.316291 0.366231
0.298881 0.334044 0.386788
0.314766 0.351797 0.407344
0.330650 0.369550 0.427900
0.346534 0.387303 0.448456
0.362419 0.405056 0.469012
0.378303 0.422809 0.489569
0.394187 0.440562 0.510125
0.410072 0.458316 0.530681
0.187106 0.209119 0.242138
0.202991 0.226872 0.262694
0.218875 0.244625 0.283250
0.234759 0.262378 0.303806
0.250644 0.280131 0.324362
0.266528 0.297884 0.344919
0.282413 0.315637 0.365475
0.298297 0.333391 0.386031
0.314181 0.351144 0.406587
0.330066 0.368897 0.427144
0.345950 0.386650 0.447700
0.361834 0.404403 0.468256
0.377719 0.422156 0.488812
0.393603 0.439909 0.509369
0.409488 0.457662 0.529925
0.425372 0.475416 0.550481
0.441256 0.493169 0.571037
0.218291 0.243972 0.282494
0.234175 0.261725 0.303050
0.250059 0.279478 0.323606
0.265944 0.297231 0.344163
0.281828 0.314984 0.364719
0.297712 0.332737 0.385275
0.313597 0.350491 0.405831
0.329481 0.368244 0.426388
0.345366 0.385997 0.446944
0.361250 0.403750 0.467500
0.377134 0.421503 0.488056
0.393019 0.439256 0.508613
0.408903 0.457009 0.529169
0.424788 0.474763 0.549725
0.440672 0.492516 0.570281
0.456556 0.510269 0.590838
0.472441 0.528022 0.611394
0.249475 0.278825 0.322850
0.265359 0.296578 0.343406
0.281244 0.314331 0.363963
0.297128 0.332084 0.384519
0.313012 0.349837 0.405075
0.328897 0.367591 0.425631
0.344781 0.385344 0.446188
0.360666 0.403097 0.466744
0.376550 0.420850 0.487300
0.392434 0.438603 0.507856
0.408319 0.456356 0.528413
0.424203 0.474109 0.548969
0.440087 0.491862 0.569525
0.455972 0.509616 0.590081
0.471856 0.527369 0.610638
0.487741 0.545122 0.631194
0.503625 0.562875 0.651750
0.280659 0.313678 0.363206
0.296544 0.331431 0.383763
0.312428 0.349184 0.404319
0.328312 0.366937 0.424875
0.344197 0.384691 0.445431
0.360081 0.402444 0.465987
0.375966 0.420197 0.486544
0.391850 0.437950 0.507100
0.407734 0.455703 0.527656
0.423619 0.473456 0.548212
0.439503 0.491209 0.568769
0.455387 0.508962 0.589325
0.471272 0.526716 0.609881
0.487156 0.544469 0.630438
0.503041 0.562222 0.650994
0.518925 0.579975 0.671550
0.534809 0.597728 0.692106
0.311844 0.348531 0.403562
0.327728 0.366284 0.424119
0.343612 0.384037 0.444675
0.359497 0.401791 0.465231
0.375381 0.419544 0.485787
0.391266 0.437297 0.506344
0.407150 0.455050 0.526900
0.423034 0.472803 0.547456
0.438919 0.490556 0.568012
0.454803 0.508309 0.588569
0.470687 0.526062 0.609125
0.486572 0.543816 0.629681
0.502456 0.561569 0.650237
0.518341 0.579322 0.670794
0.534225 0.597075 0.691350
0.550109 0.614828 0.711906
0.565994 0.632581 0.732463
0.343028 0.383384 0.443919
0.358913 0.401137 0.464475
0.374797 0.418891 0.485031
0.390681 0.436644 0.505588
0.406566 0.454397 0.526144
0.422450 0.472150 0.546700
0.438334 0.489903 0.567256
0.454219 0.507656 0.587813
0.470103 0.525409 0.608369
0.485987 0.543162 0.628925
0.501872 0.560916 0.649481
0.517756 0.578669 0.670037
0.533641 0.596422 0.690594
0.549525 0.614175 0.711150
0.565409 0.631928 0.731706
0.581294 0.649681 0.752263
0.597178 0.667434 0.772819
0.374212 0.418237 0.484275
0.390097 0.435991 0.504831
0.405981 0.453744 0.525388
0.421866 0.471497 0.545944
0.437750 0.489250 0.566500
0.453634 0.507003 0.587056
0.469519 0.524756 0.607612
0.485403 0.542509 0.628169
0.501287 0.560262 0.648725
0.517172 0.578016 0.669281
0.533056 0.595769 0.689837
0.548941 0.613522 0.710394
0.564825 0.631275 0.730950
0.580709 0.649028 0.751506
0.596594 0.666781 0.772063
0.612478 0.684534 0.792619
0.628362 0.702287 0.813175
0.405397 0.453091 0.524631
0.421281 0.470844 0.545188
0.437166 0.488597 0.565744
0.453050 0.506350 0.586300
0.468934 0.524103 0.606856
0.484819 0.541856 0.627413
0.500703 0.559609 0.647969
0.516587 0.577363 0.668525
0.532472 0.595116 0.689081
0.548356 0.612869 0.709638
0.564241 0.630622 0.730194
0.580125 0.648375 0.750750
0.596009 0.666128 0.771306
0.611894 0.683881 0.791863
0.627778 0.701634 0.812419
0.643662 0.719387 0.832975
0.659547 0.737141 0.853531
0.436581 0.487944 0.564988
0.452466 0.505697 0.585544
0.468350 0.523450 0.606100
0.484234 0.541203 0.626656
0.500119 0.558956 0.647213
0.516003 0.576709 0.667769
0.531887 0.594463 0.688325
0.547772 0.612216 0.708881
0.563656 0.629969 0.729438
0.579541 0.647722 0.749994
0.595425 0.665475 0.770550
0.611309 0.683228 0.791106
0.627194 0.700981 0.811663
0.643078 0.718734 0.832219
0.658963 0.736487 0.852775
0.674847 0.754241 0.873331
0.690731 0.771994 0.893887
0.467766 0.522797 0.605344
0.483650 0.540550 0.625900
0.499534 0.558303 0.646456
0.515419 0.576056 0.667013
0.531303 0.593809 0.687569
0.547187 0.611562 0.708125
0.563072 0.629316 0.728681
0.578956 0.647069 0.749238
0.594841 0.664822 0.769794
0.610725 0.682575 0.790350
0.626609 0.700328 0.810906
0.642494 0.718081 0.831462
0.658378 0.735834 0.852019
0.674262 0.753587 0.872575
0.690147 0.771341 0.893131
0.706031 0.789094 0.913687
0.721916 0.806847 0.934244
0.498950 0.557650 0.645700
0.514834 0.575403 0.666256
0.530719 0.593156 0.686813
0.546603 0.610909 0.707369
0.562487 0.628662 0.727925
0.578372 0.646416 0.748481
0.594256 0.664169 0.769038
0.610141 0.681922 0.789594
0.626025 0.699675 0.810150
0.641909 0.717428 0.830706
0.657794 0.735181 0.851263
0.673678 0.752934 0.871819
0.689562 0.770687 0.892375
0.705447 0.788441 0.912931
0.721331 0.806194 0.933488
0.737216 0.823947 0.954044
0.753100 0.841700 0.974600
0.006056 0.006769 0.007838
0.021941 0.024522 0.028394
0.037825 0.042275 0.048950
0.053709 0.060028 0.069506
0.069594 0.077781 0.090063
0.085478 0.095534 0.110619
0.101363 0.113287 0.131175
0.117247 0.131041 0.151731
0.133131 0.148794 0.172288
0.149016 0.166547 0.192844
0.164900 0.184300 0.213400
0.180784 0.202053 0.233956
0.196669 0.219806 0.254513
0.212553 0.237559 0.275069
0.228437 0.255312 0.295625
0.244322 0.273066 0.316181
0.260206 0.290819 0.336738
0.037241 0.041622 0.048194
0.053125 0.059375 0.068750
0.069009 0.077128 0.089306
0.084894 0.094881 0.109863
0.100778 0.112634 0.130419
0.116662 0.130387 0.150975
0.132547 0.148141 0.171531
0.148431 0.165894 0.192087
0.164316 0.183647 0.212644
0.180200 0.201400 0.233200
0.196084 0.219153 0.253756
0.211969 0.236906 0.274312
0.227853 0.254659 0.294869
0.243737 0.272413 0.315425
0.259622 0.290166 0.335981
0.275506 0.307919 0.356537
0.291391 0.325672 0.377094
0.068425 0.076475 0.088550
0.084309 0.094228 0.109106
0.100194 0.111981 0.129663
0.116078 0.129734 0.150219
0.131962 0.147487 0.170775
0.147847 0.165241 0.191331
0.163731 0.182994 0.211888
0.179616 0.200747 0.232444
0.195500 0.218500 0.253000
0.211384 0.236253 0.273556
0.227269 0.254006 0.294112
0.243153 0.271759 0.314669
0.259038 0.289513 0.335225
0.274922 0.307266 0.355781
0.290806 0.325019 0.376337
0.306691 0.342772 0.396894
0.322575 0.360525 0.417450
0.099609 0.111328 0.128906
0.115494 0.129081 0.149462
0.131378 0.146834 0.170019
0.147262 0.164587 0.190575
0.163147 0.182341 0.211131
0.179031 0.200094 0.231687
0.194916 0.217847 0.252244
0.210800 0.235600 0.272800
0.226684 0.253353 0.293356
0.242569 0.271106 0.313913
0.258453 0.288859 0.334469
0.274337 0.306612 0.355025
0.290222 0.324366 0.375581
0.306106 0.342119 0.396137
0.321991 0.359872 0.416694
0.337875 0.377625 0.437250
0.353759 0.395378 0.457806
0.130794 0.146181 0.169262
0.146678 0.163934 0.189819
0.162562 0.181687 0.210375
0.178447 0.199441 0.230931
0.194331 0.217194 0.251487
0.210216 0.234947 0.272044
0.226100 0.252700 0.292600
0.241984 0.270453 0.313156
0.257869 0.288206 0.333713
0.273753 0.305959 0.354269
0.289637 0.323712 0.374825
0.305522 0.341466 0.395381
0.321406 0.359219 0.415938
0.337291 0.376972 0.436494
0.353175 0.394725 0.457050
0.369059 0.412478 0.477606
0.384944 0.430231 0.498163
0.161978 0.181034 0.209619
0.177862 0.198787 0.230175
0.193747 0.216541 0.250731
0.209631 0.234294 0.271288
0.225516 0.252047 0.291844
0.241400 0.269800 0.312400
0.257284 0.287553 0.332956
0.273169 0.305306 0.353513
0.289053 0.323059 0.374069
0.304937 0.340812 0.394625
0.320822 0.358566 0.415181
0.336706 0.376319 0.435737
0.352591 0.394072 0.456294
0.368475 0.411825 0.476850
0.384359 0.429578 0.497406
0.400244 0.447331 0.517962
0.416128 0.465084 0.538519
0.193162 0.215887 0.249975
0.209047 0.233641 0.270531
0.224931 0.251394 0.291087
0.240816 0.269147 0.311644
0.256700 0.286900 0.332200
0.272584 0.304653 0.352756
0.288469 0.322406 0.373312
0.304353 0.340159 0.393869
0.320237 0.357912 0.414425
0.336122 0.375666 0.434981
0.352006 0.393419 0.455537
0.367891 0.411172 0.476094
0.383775 0.428925 0.496650
0.399659 0.446678 0.517206
0.415544 0.464431 0.537763
0.431428 0.482184 0.558319
0.447313 0.499937 0.578875
0.224347 0.250741 0.290331
0.240231 0.268494 0.310888
0.256116 0.286247 0.331444
0.272000 0.304000 0.352000
0.287884 0.321753 0.372556
0.303769 0.339506 0.393113
0.319653 0.357259 0.413669
0.335537 0.375012 0.434225
0.351422 0.392766 0.454781
0.367306 0.410519 0.475338
0.383191 0.428272 0.495894
0.399075 0.446025 0.516450
0.414959 0.463778 0.537006
0.430844 0.481531 0.557563
0.446728 0.499284 0.578119
0.462612 0.517038 0.598675
0.478497 0.534791 0.619231
0.255531 0.285594 0.330688
0.271416 0.303347 0.351244
0.287300 0.321100 0.371800
0.303184 0.338853 0.392356
0.319069 0.356606 0.412913
0.334953 0.374359 0.433469
0.350837 0.392112 0.454025
0.366722 0.409866 0.474581
0.382606 0.427619 0.495137
0.398491 0.445372 0.515694
0.414375 0.463125 0.536250
0.430259 0.480878 0.556806
0.446144 0.498631 0.577363
0.462028 0.516384 0.597919
0.477913 0.534138 0.618475
0.493797 0.551891 0.639031
0.509681 0.569644 0.659588
0.286716 0.320447 0.371044
0.302600 0.338200 0.391600
0.318484 0.355953 0.412156
0.334369 0.373706 0.432712
0.350253 0.391459 0.453269
0.366137 0.409212 0.473825
0.382022 0.426966 0.494381
0.397906 0.444719 0.514938
0.413791 0.462472 0.535494
0.429675 0.480225 0.556050
0.445559 0.497978 0.576606
0.461444 0.515731 0.597163
0.477328 0.533484 0.617719
0.493212 0.551238 0.638275
0.509097 0.568991 0.658831
0.524981 0.586744 0.679388
0.540866 0.604497 0.699944
0.317900 0.355300 0.411400
0.333784 0.373053 0.431956
0.349669 0.390806 0.452512
0.365553 0.408559 0.473069
0.381437 0.426312 0.493625
0.397322 0.444066 0.514181
0.413206 0.461819 0.534737
0.429091 0.479572 0.555294
0.444975 0.497325 0.575850
0.460859 0.515078 0.596406
0.476744 0.532831 0.616963
0.492628 0.550584 0.637519
0.508512 0.568337 0.658075
0.524397 0.586091 0.678631
0.540281 0.603844 0.699188
0.556166 0.621597 0.719744
0.572050 0.639350 0.740300
0.349084 0.390153 0.451756
0.364969 0.407906 0.472313
0.380853 0.425659 0.492869
0.396737 0.443412 0.513425
0.412622 0.461166 0.533981
0.428506 0.478919 0.554538
0.444391 0.496672 0.575094
0.460275 0.514425 0.595650
0.476159 0.532178 0.616206
0.492044 0.549931 0.636763
0.507928 0.567684 0.657319
0.523812 0.585437 0.677875
0.539697 0.603191 0.698431
0.555581 0.620944 0.718988
0.571466 0.638697 0.739544
0.587350 0.656450 0.760100
0.603234 0.674203 0.780656
0.380269 0.425006 0.492113
0.396153 0.442759 0.512669
0.412037 0.460512 0.533225
0.427922 0.478266 0.553781
0.443806 0.496019 0.574338
0.459691 0.513772 0.594894
0.475575 0.531525 0.615450
0.491459 0.549278 0.636006
0.507344 0.567031 0.656563
0.523228 0.584784 0.677119
0.539112 0.602537 0.697675
0.554997 0.620291 0.718231
0.570881 0.638044 0.738788
0.586766 0.655797 0.759344
0.602650 0.673550 0.779900
0.618534 0.691303 0.800456
0.634419 0.709056 0.821013
0.411453 0.459859 0.532469
0.427338 0.477612 0.553025
0.443222 0.495366 0.573581
0.459106 0.513119 0.594137
0.474991 0.530872 0.614694
0.490875 0.548625 0.635250
0.506759 0.566378 0.655806
0.522644 0.584131 0.676363
0.538528 0.601884 0.696919
0.554412 0.619637 0.717475
0.570297 0.637391 0.738031
0.586181 0.655144 0.758587
0.602066 0.672897 0.779144
0.617950 0.690650 0.799700
0.633834 0.708403 0.820256
0.649719 0.726156 0.840813
0.665603 0.743909 0.861369
0.442638 0.494712 0.572825
0.458522 0.512466 0.593381
0.474406 0.530219 0.613938
0.490291 0.547972 0.634494
0.506175 0.565725 0.655050
0.522059 0.583478 0.675606
0.537944 0.601231 0.696163
0.553828 0.618984 0.716719
0.569712 0.636737 0.737275
0.585597 0.654491 0.757831
0.601481 0.672244 0.778388
0.617366 0.689997 0.798944
0.633250 0.707750 0.819500
0.649134 0.725503 0.840056
0.665019 0.743256 0.860613
0.680903 0.761009 0.881169
0.696788 0.778762 0.901725
0.473822 0.529566 0.613181
0.489706 0.547319 0.633738
0.505591 0.565072 0.654294
0.521475 0.582825 0.674850
0.537359 0.600578 0.695406
0.553244 0.618331 0.715963
0.569128 0.636084 0.736519
0.585013 0.653837 0.757075
0.600897 0.671591 0.777631
0.616781 0.689344 0.798188
0.632666 0.707097 0.818744
0.648550 0.724850 0.839300
0.664434 0.742603 0.859856
0.680319 0.760356 0.880413
0.696203 0.778109 0.900969
0.712087 0.795862 0.921525
0.727972 0.813616 0.942081
0.505006 0.564419 0.653538
0.520891 0.582172 0.674094
0.536775 0.599925 0.694650
0.552659 0.617678 0.715206
0.568544 0.635431 0.735763
0.584428 0.653184 0.756319
0.600313 0.670937 0.776875
0.616197 0.688691 0.797431
0.632081 0.706444 0.817988
0.647966 0.724197 0.838544
0.663850 0.741950 0.859100
0.679734 0.759703 0.879656
0.695619 0.777456 0.900213
0.711503 0.795209 0.920769
0.727387 0.812962 0.941325
0.743272 0.830716 0.961881
0.759156 0.848469 0.982438
0.012113 0.013537 0.015675
0.027997 0.031291 0.036231
0.043881 0.049044 0.056788
0.059766 0.066797 0.077344
0.075650 0.084550 0.097900
0.091534 0.102303 0.118456
0.107419 0.120056 0.139013
0.123303 0.137809 0.159569
0.139187 0.155562 0.180125
0.155072 0.173316 0.200681
0.170956 0.191069 0.221238
0.186841 0.208822 0.241794
0.202725 0.226575 0.262350
0.218609 0.244328 0.282906
0.234494 0.262081 0.303463
0.250378 0.279834 0.324019
0.266262 0.297587 0.344575
0.043297 0.048391 0.056031
0.059181 0.066144 0.076588
0.075066 0.083897 0.097144
0.090950 0.101650 0.117700
0.106834 0.119403 0.138256
0.122719 0.137156 0.158813
0.138603 0.154909 0.179369
0.154487 0.172662 0.199925
0.170372 0.190416 0.220481
0.186256 0.208169 0.241038
0.202141 0.225922 0.261594
0.218025 0.243675 0.282150
0.233909 0.261428 0.302706
0.249794 0.279181 0.323263
0.265678 0.296934 0.343819
0.281562 0.314687 0.364375
0.297447 0.332441 0.384931
0.074481 0.083244 0.096388
0.090366 0.100997 0.116944
0.106250 0.118750 0.137500
0.122134 0.136503 0.158056
0.138019 0.154256 0.178613
0.153903 0.172009 0.199169
0.169788 0.189763 0.219725
0.185672 0.207516 0.240281
0.201556 0.225269 0.260837
0.217441 0.243022 0.281394
0.233325 0.260775 0.301950
0.249209 0.278528 0.322506
0.265094 0.296281 0.343063
0.280978 0.314034 0.363619
0.296862 0.331787 0.384175
0.312747 0.349541 0.404731
0.328631 0.367294 0.425288
0.105666 0.118097 0.136744
0.121550 0.135850 0.157300
0.137434 0.153603 0.177856
0.153319 0.171356 0.198413
0.169203 0.189109 0.218969
0.185087 0.206862 0.239525
0.200972 0.224616 0.260081
0.216856 0.242369 0.280638
0.232741 0.260122 0.301194
0.248625 0.277875 0.321750
0.264509 0.295628 0.342306
0.280394 0.313381 0.362862
0.296278 0.331134 0.383419
0.312162 0.348887 0.403975
0.328047 0.366641 0.424531
0.343931 0.384394 0.445087
0.359816 0.402147 0.465644
0.136850 0.152950 0.177100
0.152734 0.170703 0.197656
0.168619 0.188456 0.218213
0.184503 0.206209 0.238769
0.200387 0.223962 0.259325
0.216272 0.241716 0.279881
0.232156 0.259469 0.300437
0.248041 0.277222 0.320994
0.263925 0.294975 0.341550
0.279809 0.312728 0.362106
0.295694 0.330481 0.382662
0.311578 0.348234 0.403219
0.327462 0.365987 0.423775
0.343347 0.383741 0.444331
0.359231 0.401494 0.464888
0.375116 0.419247 0.485444
0.391000 0.437000 0.506000
0.168034 0.187803 0.217456
0.183919 0.205556 0.238012
0.199803 0.223309 0.258569
0.215687 0.241062 0.279125
0.231572 0.258816 0.299681
0.247456 0.276569 0.320238
0.263341 0.294322 0.340794
0.279225 0.312075 0.361350
0.295109 0.329828 0.381906
0.310994 0.347581 0.402463
0.326878 0.365334 0.423019
0.342762 0.383087 0.443575
0.358647 0.400841 0.464131
0.374531 0.418594 0.484687
0.390416 0.436347 0.505244
0.406300 0.454100 0.525800
0.422184 0.471853 0.546356
0.199219 0.222656 0.257812
0.215103 0.240409 0.278369
0.230987 0.258162 0.298925
0.246872 0.275916 0.319481
0.262756 0.293669 0.340037
0.278641 0.311422 0.360594
0.294525 0.329175 0.381150
0.310409 0.346928 0.401706
0.326294 0.364681 0.422262
0.342178 0.382434 0.442819
0.358062 0.400187 0.463375
0.373947 0.417941 0.483931
0.389831 0.435694 0.504487
0.405716 0.453447 0.525044
0.421600 0.471200 0.545600
0.437484 0.488953 0.566156
0.453369 0.506706 0.586712
0.230403 0.257509 0.298169
0.246287 0.275263 0.318725
0.262172 0.293016 0.339281
0.278056 0.310769 0.359838
0.293941 0.328522 0.380394
0.309825 0.346275 0.400950
0.325709 0.364028 0.421506
0.341594 0.381781 0.442063
0.357478 0.399534 0.462619
0.373362 0.417287 0.483175
0.389247 0.435041 0.503731
0.405131 0.452794 0.524288
0.421016 0.470547 0.544844
0.436900 0.488300 0.565400
0.452784 0.506053 0.585956
0.468669 0.523806 0.606513
0.484553 0.541559 0.627069
0.261587 0.292362 0.338525
0.277472 0.310116 0.359081
0.293356 0.327869 0.379637
0.309241 0.345622 0.400194
0.325125 0.363375 0.420750
0.341009 0.381128 0.441306
0.356894 0.398881 0.461863
0.372778 0.416634 0.482419
0.388662 0.434387 0.502975
0.404547 0.452141 0.523531
0.420431 0.469894 0.544088
0.436316 0.487647 0.564644
0.452200 0.505400 0.585200
0.468084 0.523153 0.605756
0.483969 0.540906 0.626313
0.499853 0.558659 0.646869
0.515737 0.576412 0.667425
0.292772 0.327216 0.378881
0.308656 0.344969 0.399438
0.324541 0.362722 0.419994
0.340425 0.380475 0.440550
0.356309 0.398228 0.461106
0.372194 0.415981 0.481662
0.388078 0.433734 0.502219
0.403962 0.451487 0.522775
0.419847 0.469241 0.543331
0.435731 0.486994 0.563888
0.451616 0.504747 0.584444
0.467500 0.522500 0.605000
0.483384 0.540253 0.625556
0.499269 0.558006 0.646112
0.515153 0.575759 0.666669
0.531037 0.593512 0.687225
0.546922 0.611266 0.707781
0.323956 0.362069 0.419237
0.339841 0.379822 0.439794
0.355725 0.397575 0.460350
0.371609 0.415328 0.480906
0.387494 0.433081 0.501462
0.403378 0.450834 0.522019
0.419262 0.468587 0.542575
0.435147 0.486341 0.563131
0.451031 0.504094 0.583687
0.466916 0.521847 0.604244
0.482800 0.539600 0.624800
0.498684 0.557353 0.645356
0.514569 0.575106 0.665912
0.530453 0.592859 0.686469
0.546337 0.610612 0.707025
0.562222 0.628366 0.727581
0.578106 0.646119 0.748138
0.355141 0.396922 0.459594
0.371025 0.414675 0.480150
0.386909 0.432428 0.500706
0.402794 0.450181 0.521263
0.418678 0.467934 0.541819
0.434562 0.485687 0.562375
0.450447 0.503441 0.582931
0.466331 0.521194 0.603488
0.482216 0.538947 0.624044
0.498100 0.556700 0.644600
0.513984 0.574453 0.665156
0.529869 0.592206 0.685712
0.545753 0.609959 0.706269
0.561637 0.627712 0.726825
0.577522 0.645466 0.747381
0.593406 0.663219 0.767938
0.609291 0.680972 0.788494
0.386325 0.431775 0.499950
0.402209 0.449528 0.520506
0.418094 0.467281 0.541063
0.433978 0.485034 0.561619
0.449862 0.502787 0.582175
0.465747 0.520541 0.602731
0.481631 0.538294 0.623287
0.497516 0.556047 0.643844
0.513400 0.573800 0.664400
0.529284 0.591553 0.684956
0.545169 0.609306 0.705512
0.561053 0.627059 0.726069
0.576937 0.644812 0.746625
0.592822 0.662566 0.767181
0.608706 0.680319 0.787738
0.624591 0.698072 0.808294
0.640475 0.715825 0.828850
0.417509 0.466628 0.540306
0.433394 0.484381 0.560863
0.449278 0.502134 0.581419
0.465162 0.519887 0.601975
0.481047 0.537641 0.622531
0.496931 0.555394 0.643088
0.512816 0.573147 0.663644
0.528700 0.590900 0.684200
0.544584 0.608653 0.704756
0.560469 0.626406 0.725313
0.576353 0.644159 0.745869
0.592237 0.661912 0.766425
0.608122 0.679666 0.786981
0.624006 0.697419 0.807538
0.639891 0.715172 0.828094
0.655775 0.732925 0.848650
0.671659 0.750678 0.869206
0.448694 0.501481 0.580663
0.464578 0.519234 0.601219
0.480463 0.536987 0.621775
0.496347 0.554741 0.642331
0.512231 0.572494 0.662887
0.528116 0.590247 0.683444
0.544000 0.608000 0.704000
0.559884 0.625753 0.724556
0.575769 0.643506 0.745112
0.591653 0.661259 0.765669
0.607537 0.679013 0.786225
0.623422 0.696766 0.806781
0.639306 0.714519 0.827338
0.655191 0.732272 0.847894
0.671075 0.750025 0.868450
0.686959 0.767778 0.889006
0.702844 0.785531 0.909562
0.479878 0.536334 0.621019
0.495762 0.554087 0.641575
0.511647 0.571841 0.662131
0.527531 0.589594 0.682688
0.543416 0.607347 0.703244
0.559300 0.625100 0.723800
0.575184 0.642853 0.744356
0.591069 0.660606 0.764912
0.606953 0.678359 0.785469
0.622837 0.696112 0.806025
0.638722 0.713866 0.826581
0.654606 0.731619 0.847137
0.670491 0.749372 0.867694
0.686375 0.767125 0.888250
0.702259 0.784878 0.908806
0.718144 0.802631 0.929362
0.734028 0.820384 0.949919
0.511062 0.571187 0.661375
0.526947 0.588941 0.681931
0.542831 0.606694 0.702488
0.558716 0.624447 0.723044
0.574600 0.642200 0.743600
0.590484 0.659953 0.764156
0.606369 0.677706 0.784713
0.622253 0.695459 0.805269
0.638137 0.713212 0.825825
0.654022 0.730966 0.846381
0.669906 0.748719 0.866938
0.685791 0.766472 0.887494
0.701675 0.784225 0.908050
0.717559 0.801978 0.928606
0.733444 0.819731 0.949163
0.749328 0.837484 0.969719
0.765212 0.855237 0.990275
0.018169 0.020306 0.023513
0.034053 0.038059 0.044069
0.049937 0.055812 0.064625
0.065822 0.073566 0.085181
0.081706 0.091319 0.105738
0.097591 0.109072 0.126294
0.113475 0.126825 0.146850
0.129359 0.144578 0.167406
0.145244 0.162331 0.187963
0.161128 0.180084 0.208519
0.177012 0.197837 0.229075
0.192897 0.215591 0.249631
0.208781 0.233344 0.270188
0.224666 0.251097 0.290744
0.240550 0.268850 0.311300
0.256434 0.286603 0.331856
0.272319 0.304356 0.352413
0.049353 0.055159 0.063869
