app/src/main/assets/luts/film_noir_cinema.cube
# ApexStudio filter: film_noir_cinema
LUT_3D_SIZE 17
DOMAIN_MIN 0.0 0.0 0.0
DOMAIN_MAX 1.0 1.0 1.0
0.000205 0.000205 0.016405
0.002762 0.000287 0.016487
0.066693 0.002343 0.018543
0.130624 0.004399 0.020599
0.194554 0.006454 0.022654
0.258485 0.008510 0.024710
0.322416 0.010566 0.026766
0.386346 0.012621 0.028821
0.450277 0.014677 0.030877
0.514207 0.016732 0.032932
0.578138 0.018788 0.034988
0.642069 0.020844 0.037044
0.705999 0.022899 0.039099
0.769930 0.024955 0.041155
0.833861 0.027011 0.043211
0.897791 0.029066 0.045266
0.930105 0.030105 0.046305
0.001592 0.022854 0.017792
0.004149 0.022937 0.017874
0.068080 0.024992 0.019930
0.132010 0.027048 0.021985
0.195941 0.029104 0.024041
0.259872 0.031159 0.026097
0.323802 0.033215 0.028152
0.387733 0.035270 0.030208
0.451664 0.037326 0.032264
0.515594 0.039382 0.034319
0.579525 0.041437 0.036375
0.643455 0.043493 0.038430
0.707386 0.045549 0.040486
0.771317 0.047604 0.042542
0.835247 0.049660 0.044597
0.899178 0.051715 0.046653
0.931492 0.052754 0.047692
0.005444 0.085769 0.021644
0.008001 0.085851 0.021726
0.071932 0.087907 0.023782
0.135863 0.089963 0.025838
0.199793 0.092018 0.027893
0.263724 0.094074 0.029949
0.327655 0.096130 0.032005
0.391585 0.098185 0.034060
0.455516 0.100241 0.036116
0.519446 0.102296 0.038171
0.583377 0.104352 0.040227
0.647308 0.106408 0.042283
0.711238 0.108463 0.044338
0.775169 0.110519 0.046394
0.839100 0.112575 0.048450
0.903030 0.114630 0.050505
0.935344 0.115669 0.051544
0.009296 0.148684 0.025496
0.011854 0.148766 0.025579
0.075784 0.150822 0.027634
0.139715 0.152877 0.029690
0.203645 0.154933 0.031745
0.267576 0.156989 0.033801
0.331507 0.159044 0.035857
0.395437 0.161100 0.037912
0.459368 0.163155 0.039968
0.523299 0.165211 0.042024
0.587229 0.167267 0.044079
0.651160 0.169322 0.046135
0.715090 0.171378 0.048190
0.779021 0.173434 0.050246
0.842952 0.175489 0.052302
0.906882 0.177545 0.054357
0.939196 0.178584 0.055396
0.013149 0.211599 0.029349
0.015706 0.211681 0.029431
0.079636 0.213736 0.031486
0.143567 0.215792 0.033542
0.207498 0.217848 0.035598
0.271428 0.219903 0.037653
0.335359 0.221959 0.039709
0.399290 0.224015 0.041765
0.463220 0.226070 0.043820
0.527151 0.228126 0.045876
0.591081 0.230181 0.047931
0.655012 0.232237 0.049987
0.718943 0.234293 0.052043
0.782873 0.236348 0.054098
0.846804 0.238404 0.056154
0.910735 0.240460 0.058210
0.943049 0.241499 0.059249
0.017001 0.274513 0.033201
0.019558 0.274595 0.033283
0.083489 0.276651 0.035339
0.147419 0.278707 0.037394
0.211350 0.280762 0.039450
0.275280 0.282818 0.041505
0.339211 0.284874 0.043561
0.403142 0.286929 0.045617
0.467072 0.288985 0.047672
0.531003 0.291040 0.049728
0.594934 0.293096 0.051784
0.658864 0.295152 0.053839
0.722795 0.297207 0.055895
0.786725 0.299263 0.057950
0.850656 0.301319 0.060006
0.914587 0.303374 0.062062
0.946901 0.304413 0.063101
0.020853 0.337428 0.037053
0.023410 0.337510 0.037135
0.087341 0.339566 0.039191
0.151271 0.341621 0.041246
0.215202 0.343677 0.043302
0.279133 0.345733 0.045358
0.343063 0.347788 0.047413
0.406994 0.349844 0.049469
0.470925 0.351900 0.051525
0.534855 0.353955 0.053580
0.598786 0.356011 0.055636
0.662716 0.358066 0.057691
0.726647 0.360122 0.059747
0.790578 0.362178 0.061803
0.854508 0.364233 0.063858
0.918439 0.366289 0.065914
0.950753 0.367328 0.066953
0.024705 0.400343 0.040905
0.027262 0.400425 0.040987
0.091193 0.402480 0.043043
0.155124 0.404536 0.045099
0.219054 0.406592 0.047154
0.282985 0.408647 0.049210
0.346915 0.410703 0.051265
0.410846 0.412759 0.053321
0.474777 0.414814 0.055377
0.538707 0.416870 0.057432
0.602638 0.418925 0.059488
0.666569 0.420981 0.061544
0.730499 0.423037 0.063599
0.794430 0.425092 0.065655
0.858360 0.427148 0.067710
0.922291 0.429204 0.069766
0.954605 0.430243 0.070805
0.028557 0.463257 0.044757
0.031115 0.463340 0.044840
0.095045 0.465395 0.046895
0.158976 0.467451 0.048951
0.222906 0.469506 0.051006
0.286837 0.471562 0.053062
0.350768 0.473618 0.055118
0.414698 0.475673 0.057173
0.478629 0.477729 0.059229
0.542560 0.479785 0.061285
0.606490 0.481840 0.063340
0.670421 0.483896 0.065396
0.734351 0.485951 0.067451
0.798282 0.488007 0.069507
0.862213 0.490063 0.071563
0.926143 0.492118 0.073618
0.958457 0.493157 0.074657
0.032409 0.526172 0.048609
0.034967 0.526254 0.048692
0.098897 0.528310 0.050747
0.162828 0.530365 0.052803
0.226759 0.532421 0.054859
0.290689 0.534477 0.056914
0.354620 0.536532 0.058970
0.418550 0.538588 0.061025
0.482481 0.540644 0.063081
0.546412 0.542699 0.065137
0.610342 0.544755 0.067192
0.674273 0.546810 0.069248
0.738204 0.548866 0.071304
0.802134 0.550922 0.073359
0.866065 0.552977 0.075415
0.929995 0.555033 0.077470
0.962309 0.556072 0.078509
0.036262 0.589087 0.052462
0.038819 0.589169 0.052544
0.102750 0.591225 0.054600
0.166680 0.593280 0.056655
0.230611 0.595336 0.058711
0.294541 0.597391 0.060766
0.358472 0.599447 0.062822
0.422403 0.601503 0.064878
0.486333 0.603558 0.066933
0.550264 0.605614 0.068989
0.614195 0.607670 0.071045
0.678125 0.609725 0.073100
0.742056 0.611781 0.075156
0.805986 0.613836 0.077211
0.869917 0.615892 0.079267
0.933848 0.617948 0.081323
0.966162 0.618987 0.082362
0.040114 0.652001 0.056314
0.042671 0.652084 0.056396
0.106602 0.654139 0.058452
0.170532 0.656195 0.060507
0.234463 0.658250 0.062563
0.298394 0.660306 0.064619
0.362324 0.662362 0.066674
0.426255 0.664417 0.068730
0.490185 0.666473 0.070785
0.554116 0.668529 0.072841
0.618047 0.670584 0.074897
0.681977 0.672640 0.076952
0.745908 0.674695 0.079008
0.809839 0.676751 0.081064
0.873769 0.678807 0.083119
0.937700 0.680862 0.085175
0.970014 0.681901 0.086214
0.043966 0.714916 0.060166
0.046523 0.714998 0.060248
0.110454 0.717054 0.062304
0.174385 0.719110 0.064360
0.238315 0.721165 0.066415
0.302246 0.723221 0.068471
0.366176 0.725276 0.070526
0.430107 0.727332 0.072582
0.494038 0.729388 0.074638
0.557968 0.731443 0.076693
0.621899 0.733499 0.078749
0.685830 0.735555 0.080805
0.749760 0.737610 0.082860
0.813691 0.739666 0.084916
0.877621 0.741721 0.086971
0.941552 0.743777 0.089027
0.973866 0.744816 0.090066
0.047818 0.777831 0.064018
0.050375 0.777913 0.064100
0.114306 0.779969 0.066156
0.178237 0.782024 0.068212
0.242167 0.784080 0.070267
0.306098 0.786135 0.072323
0.370029 0.788191 0.074379
0.433959 0.790247 0.076434
0.497890 0.792302 0.078490
0.561820 0.794358 0.080545
0.625751 0.796414 0.082601
0.689682 0.798469 0.084657
0.753612 0.800525 0.086712
0.817543 0.802580 0.088768
0.881474 0.804636 0.090824
0.945404 0.806692 0.092879
0.977718 0.807731 0.093918
0.051670 0.840745 0.067870
0.054228 0.840828 0.067953
0.118158 0.842883 0.070008
0.182089 0.844939 0.072064
0.246020 0.846995 0.074120
0.309950 0.849050 0.076175
0.373881 0.851106 0.078231
0.437811 0.853161 0.080286
0.501742 0.855217 0.082342
0.565673 0.857273 0.084398
0.629603 0.859328 0.086453
0.693534 0.861384 0.088509
0.757465 0.863440 0.090565
0.821395 0.865495 0.092620
0.885326 0.867551 0.094676
0.949256 0.869606 0.096731
0.981570 0.870645 0.097770
0.055523 0.903660 0.071723
0.058080 0.903742 0.071805
0.122010 0.905798 0.073860
0.185941 0.907854 0.075916
0.249872 0.909909 0.077972
0.313802 0.911965 0.080027
0.377733 0.914020 0.082083
0.441664 0.916076 0.084139
0.505594 0.918132 0.086194
0.569525 0.920187 0.088250
0.633455 0.922243 0.090305
0.697386 0.924299 0.092361
0.761317 0.926354 0.094417
0.825247 0.928410 0.096472
0.889178 0.930465 0.098528
0.953109 0.932521 0.100584
0.985423 0.933560 0.101623
0.058905 0.958905 0.075105
0.061462 0.958987 0.075187
0.125393 0.961043 0.077243
0.189324 0.963099 0.079299
0.253254 0.965154 0.081354
0.317185 0.967210 0.083410
0.381116 0.969266 0.085466
0.445046 0.971321 0.087521
0.508977 0.973377 0.089577
0.572907 0.975432 0.091632
0.636838 0.977488 0.093688
0.700769 0.979544 0.095744
0.764699 0.981599 0.097799
0.828630 0.983655 0.099855
0.892561 0.985711 0.101911
0.956491 0.987766 0.103966
0.988805 0.988805 0.105005
0.000846 0.000846 0.067671
0.003404 0.000929 0.067754
0.067334 0.002984 0.069809
0.131265 0.005040 0.071865
0.195196 0.007096 0.073921
0.259126 0.009151 0.075976
0.323057 0.011207 0.078032
0.386987 0.013262 0.080087
0.450918 0.015318 0.082143
0.514849 0.017374 0.084199
0.578779 0.019429 0.086254
0.642710 0.021485 0.088310
0.706641 0.023541 0.090366
0.770571 0.025596 0.092421
0.834502 0.027652 0.094477
0.898432 0.029707 0.096532
0.930746 0.030746 0.097571
0.002233 0.023496 0.069058
0.004790 0.023578 0.069140
0.068721 0.025634 0.071196
0.132652 0.027689 0.073252
0.196582 0.029745 0.075307
0.260513 0.031800 0.077363
0.324444 0.033856 0.079419
0.388374 0.035912 0.081474
0.452305 0.037967 0.083530
0.516235 0.040023 0.085585
0.580166 0.042079 0.087641
0.644097 0.044134 0.089697
0.708027 0.046190 0.091752
0.771958 0.048245 0.093808
0.835889 0.050301 0.095864
0.899819 0.052357 0.097919
0.932133 0.053396 0.098958
0.006085 0.086410 0.072910
0.008643 0.086493 0.072993
0.072573 0.088548 0.075048
0.136504 0.090604 0.077104
0.200435 0.092660 0.079160
0.264365 0.094715 0.081215
0.328296 0.096771 0.083271
0.392226 0.098826 0.085326
0.456157 0.100882 0.087382
0.520088 0.102938 0.089438
0.584018 0.104993 0.091493
0.647949 0.107049 0.093549
0.711880 0.109105 0.095605
0.775810 0.111160 0.097660
0.839741 0.113216 0.099716
0.903671 0.115271 0.101771
0.935985 0.116310 0.102810
0.009938 0.149325 0.076763
0.012495 0.149407 0.076845
0.076425 0.151463 0.078900
0.140356 0.153519 0.080956
0.204287 0.155574 0.083012
0.268217 0.157630 0.085067
0.332148 0.159685 0.087123
0.396079 0.161741 0.089179
0.460009 0.163797 0.091234
0.523940 0.165852 0.093290
0.587870 0.167908 0.095345
0.651801 0.169964 0.097401
0.715732 0.172019 0.099457
0.779662 0.174075 0.101512
0.843593 0.176130 0.103568
0.907524 0.178186 0.105624
0.939838 0.179225 0.106663
0.013790 0.212240 0.080615
0.016347 0.212322 0.080697
0.080278 0.214378 0.082753
0.144208 0.216433 0.084808
0.208139 0.218489 0.086864
0.272070 0.220545 0.088920
0.336000 0.222600 0.090975
0.399931 0.224656 0.093031
0.463861 0.226711 0.095086
0.527792 0.228767 0.097142
0.591723 0.230823 0.099198
0.655653 0.232878 0.101253
0.719584 0.234934 0.103309
0.783515 0.236990 0.105365
0.847445 0.239045 0.107420
0.911376 0.241101 0.109476
0.943690 0.242140 0.110515
0.017642 0.275154 0.084467
0.020199 0.275237 0.084549
0.084130 0.277292 0.086605
0.148060 0.279348 0.088660
0.211991 0.281404 0.090716
0.275922 0.283459 0.092772
0.339852 0.285515 0.094827
0.403783 0.287570 0.096883
0.467714 0.289626 0.098939
0.531644 0.291682 0.100994
0.595575 0.293737 0.103050
0.659505 0.295793 0.105105
0.723436 0.297849 0.107161
0.787367 0.299904 0.109217
0.851297 0.301960 0.111272
0.915228 0.304015 0.113328
0.947542 0.305054 0.114367
0.021494 0.338069 0.088319
0.024051 0.338151 0.088401
0.087982 0.340207 0.090457
0.151913 0.342263 0.092513
0.215843 0.344318 0.094568
0.279774 0.346374 0.096624
0.343705 0.348430 0.098680
0.407635 0.350485 0.100735
0.471566 0.352541 0.102791
0.535496 0.354596 0.104846
0.599427 0.356652 0.106902
0.663358 0.358708 0.108958
0.727288 0.360763 0.111013
0.791219 0.362819 0.113069
0.855150 0.364875 0.115125
0.919080 0.366930 0.117180
0.951394 0.367969 0.118219
0.025346 0.400984 0.092171
0.027904 0.401066 0.092254
0.091834 0.403122 0.094309
0.155765 0.405177 0.096365
0.219695 0.407233 0.098420
0.283626 0.409289 0.100476
0.347557 0.411344 0.102532
0.411487 0.413400 0.104587
0.475418 0.415455 0.106643
0.539349 0.417511 0.108699
0.603279 0.419567 0.110754
0.667210 0.421622 0.112810
0.731140 0.423678 0.114865
0.795071 0.425734 0.116921
0.859002 0.427789 0.118977
0.922932 0.429845 0.121032
0.955246 0.430884 0.122071
0.029199 0.463899 0.096024
0.031756 0.463981 0.096106
0.095686 0.466036 0.098161
0.159617 0.468092 0.100217
0.223548 0.470148 0.102273
0.287478 0.472203 0.104328
0.351409 0.474259 0.106384
0.415340 0.476315 0.108440
0.479270 0.478370 0.110495
0.543201 0.480426 0.112551
0.607131 0.482481 0.114606
0.671062 0.484537 0.116662
0.734993 0.486593 0.118718
0.798923 0.488648 0.120773
0.862854 0.490704 0.122829
0.926785 0.492760 0.124885
0.959099 0.493799 0.125924
0.033051 0.526813 0.099876
0.035608 0.526895 0.099958
0.099539 0.528951 0.102014
0.163469 0.531007 0.104069
0.227400 0.533062 0.106125
0.291330 0.535118 0.108180
0.355261 0.537174 0.110236
0.419192 0.539229 0.112292
0.483122 0.541285 0.114347
0.547053 0.543340 0.116403
0.610984 0.545396 0.118459
0.674914 0.547452 0.120514
0.738845 0.549507 0.122570
0.802775 0.551563 0.124625
0.866706 0.553619 0.126681
0.930637 0.555674 0.128737
0.962951 0.556713 0.129776
0.036903 0.589728 0.103728
0.039460 0.589810 0.103810
0.103391 0.591866 0.105866
0.167321 0.593921 0.107921
0.231252 0.595977 0.109977
0.295183 0.598033 0.112033
0.359113 0.600088 0.114088
0.423044 0.602144 0.116144
0.486975 0.604200 0.118200
0.550905 0.606255 0.120255
0.614836 0.608311 0.122311
0.678766 0.610366 0.124366
0.742697 0.612422 0.126422
0.806628 0.614478 0.128478
0.870558 0.616533 0.130533
0.934489 0.618589 0.132589
0.966803 0.619628 0.133628
0.040755 0.652643 0.107580
0.043312 0.652725 0.107662
0.107243 0.654780 0.109718
0.171174 0.656836 0.111774
0.235104 0.658892 0.113829
0.299035 0.660947 0.115885
0.362965 0.663003 0.117940
0.426896 0.665059 0.119996
0.490827 0.667114 0.122052
0.554757 0.669170 0.124107
0.618688 0.671225 0.126163
0.682619 0.673281 0.128219
0.746549 0.675337 0.130274
0.810480 0.677392 0.132330
0.874410 0.679448 0.134385
0.938341 0.681504 0.136441
0.970655 0.682543 0.137480
0.044607 0.715557 0.111432
0.047165 0.715640 0.111515
0.111095 0.717695 0.113570
0.175026 0.719751 0.115626
0.238956 0.721806 0.117681
0.302887 0.723862 0.119737
0.366818 0.725918 0.121793
0.430748 0.727973 0.123848
0.494679 0.730029 0.125904
0.558610 0.732085 0.127960
0.622540 0.734140 0.130015
0.686471 0.736196 0.132071
0.750401 0.738251 0.134126
0.814332 0.740307 0.136182
0.878263 0.742363 0.138238
0.942193 0.744418 0.140293
0.974507 0.745457 0.141332
0.048459 0.778472 0.115284
0.051017 0.778554 0.115367
0.114947 0.780610 0.117422
0.178878 0.782665 0.119478
0.242809 0.784721 0.121534
0.306739 0.786777 0.123589
0.370670 0.788832 0.125645
0.434600 0.790888 0.127700
0.498531 0.792944 0.129756
0.562462 0.794999 0.131812
0.626392 0.797055 0.133867
0.690323 0.799110 0.135923
0.754254 0.801166 0.137979
0.818184 0.803222 0.140034
0.882115 0.805277 0.142090
0.946045 0.807333 0.144145
0.978359 0.808372 0.145184
0.052312 0.841387 0.119137
0.054869 0.841469 0.119219
0.118800 0.843525 0.121275
0.182730 0.845580 0.123330
0.246661 0.847636 0.125386
0.310591 0.849691 0.127441
0.374522 0.851747 0.129497
0.438453 0.853803 0.131553
0.502383 0.855858 0.133608
0.566314 0.857914 0.135664
0.630245 0.859970 0.137720
0.694175 0.862025 0.139775
0.758106 0.864081 0.141831
0.822036 0.866136 0.143886
0.885967 0.868192 0.145942
0.949898 0.870248 0.147998
0.982212 0.871287 0.149037
0.056164 0.904301 0.122989
0.058721 0.904384 0.123071
0.122652 0.906439 0.125127
0.186582 0.908495 0.127182
0.250513 0.910550 0.129238
0.314444 0.912606 0.131294
0.378374 0.914662 0.133349
0.442305 0.916717 0.135405
0.506235 0.918773 0.137460
0.570166 0.920829 0.139516
0.634097 0.922884 0.141572
0.698027 0.924940 0.143627
0.761958 0.926995 0.145683
0.825889 0.929051 0.147739
0.889819 0.931107 0.149794
0.953750 0.933162 0.151850
0.986064 0.934201 0.152889
0.059546 0.959546 0.126371
0.062104 0.959629 0.126454
0.126034 0.961684 0.128509
0.189965 0.963740 0.130565
0.253896 0.965796 0.132621
0.317826 0.967851 0.134676
0.381757 0.969907 0.136732
0.445687 0.971962 0.138787
0.509618 0.974018 0.140843
0.573549 0.976074 0.142899
0.637479 0.978129 0.144954
0.701410 0.980185 0.147010
0.765341 0.982241 0.149066
0.829271 0.984296 0.151121
0.893202 0.986352 0.153177
0.957132 0.988407 0.155232
0.989446 0.989446 0.156271
0.001488 0.001488 0.118938
0.004045 0.001570 0.119020
0.067976 0.003626 0.121076
0.131906 0.005681 0.123131
0.195837 0.007737 0.125187
0.259767 0.009792 0.127242
0.323698 0.011848 0.129298
0.387629 0.013904 0.131354
0.451559 0.015959 0.133409
0.515490 0.018015 0.135465
0.579421 0.020071 0.137521
0.643351 0.022126 0.139576
0.707282 0.024182 0.141632
0.771212 0.026237 0.143687
0.835143 0.028293 0.145743
0.899074 0.030349 0.147799
0.931388 0.031388 0.148838
0.002874 0.024137 0.120324
0.005432 0.024219 0.120407
0.069362 0.026275 0.122462
0.133293 0.028330 0.124518
0.197224 0.030386 0.126574
0.261154 0.032442 0.128629
0.325085 0.034497 0.130685
0.389015 0.036553 0.132740
0.452946 0.038609 0.134796
0.516877 0.040664 0.136852
0.580807 0.042720 0.138907
0.644738 0.044775 0.140963
0.708669 0.046831 0.143019
0.772599 0.048887 0.145074
0.836530 0.050942 0.147130
0.900460 0.052998 0.149185
0.932774 0.054037 0.150224
0.006727 0.087052 0.124177
0.009284 0.087134 0.124259
0.073215 0.089190 0.126315
0.137145 0.091245 0.128370
0.201076 0.093301 0.130426
0.265006 0.095356 0.132481
0.328937 0.097412 0.134537
0.392868 0.099468 0.136593
0.456798 0.101523 0.138648
0.520729 0.103579 0.140704
0.584660 0.105635 0.142760
0.648590 0.107690 0.144815
0.712521 0.109746 0.146871
0.776451 0.111801 0.148926
0.840382 0.113857 0.150982
0.904313 0.115913 0.153038
0.936627 0.116952 0.154077
0.010579 0.149966 0.128029
0.013136 0.150049 0.128111
0.077067 0.152104 0.130167
0.140997 0.154160 0.132222
0.204928 0.156215 0.134278
0.268859 0.158271 0.136334
0.332789 0.160327 0.138389
0.396720 0.162382 0.140445
0.460650 0.164438 0.142500
0.524581 0.166494 0.144556
0.588512 0.168549 0.146612
0.652442 0.170605 0.148667
0.716373 0.172660 0.150723
0.780304 0.174716 0.152779
0.844234 0.176772 0.154834
0.908165 0.178827 0.156890
0.940479 0.179866 0.157929
0.014431 0.212881 0.131881
0.016988 0.212963 0.131963
0.080919 0.215019 0.134019
0.144850 0.217075 0.136075
0.208780 0.219130 0.138130
0.272711 0.221186 0.140186
0.336641 0.223241 0.142241
0.400572 0.225297 0.144297
0.464503 0.227353 0.146353
0.528433 0.229408 0.148408
0.592364 0.231464 0.150464
0.656295 0.233520 0.152520
0.720225 0.235575 0.154575
0.784156 0.237631 0.156631
0.848086 0.239686 0.158686
0.912017 0.241742 0.160742
0.944331 0.242781 0.161781
0.018283 0.275796 0.135733
0.020840 0.275878 0.135815
0.084771 0.277934 0.137871
0.148702 0.279989 0.139927
0.212632 0.282045 0.141982
0.276563 0.284100 0.144038
0.340494 0.286156 0.146094
0.404424 0.288212 0.148149
0.468355 0.290267 0.150205
0.532285 0.292323 0.152260
0.596216 0.294379 0.154316
0.660147 0.296434 0.156372
0.724077 0.298490 0.158427
0.788008 0.300545 0.160483
0.851939 0.302601 0.162539
0.915869 0.304657 0.164594
0.948183 0.305696 0.165633
0.022135 0.338710 0.139585
0.024693 0.338793 0.139668
0.088623 0.340848 0.141723
0.152554 0.342904 0.143779
0.216485 0.344960 0.145835
0.280415 0.347015 0.147890
0.344346 0.349071 0.149946
0.408276 0.351126 0.152001
0.472207 0.353182 0.154057
0.536138 0.355238 0.156113
0.600068 0.357293 0.158168
0.663999 0.359349 0.160224
0.727930 0.361405 0.162280
0.791860 0.363460 0.164335
0.855791 0.365516 0.166391
0.919721 0.367571 0.168446
0.952035 0.368610 0.169485
0.025988 0.401625 0.143438
0.028545 0.401707 0.143520
0.092475 0.403763 0.145575
0.156406 0.405819 0.147631
0.220337 0.407874 0.149687
0.284267 0.409930 0.151742
0.348198 0.411985 0.153798
0.412129 0.414041 0.155854
0.476059 0.416097 0.157909
0.539990 0.418152 0.159965
0.603920 0.420208 0.162020
0.667851 0.422264 0.164076
0.731782 0.424319 0.166132
0.795712 0.426375 0.168187
0.859643 0.428430 0.170243
0.923574 0.430486 0.172299
0.955888 0.431525 0.173338
0.029840 0.464540 0.147290
0.032397 0.464622 0.147372
0.096328 0.466678 0.149428
0.160258 0.468733 0.151483
0.224189 0.470789 0.153539
0.288120 0.472845 0.155595
0.352050 0.474900 0.157650
0.415981 0.476956 0.159706
0.479911 0.479011 0.161761
0.543842 0.481067 0.163817
0.607773 0.483123 0.165873
0.671703 0.485178 0.167928
0.735634 0.487234 0.169984
0.799565 0.489290 0.172040
0.863495 0.491345 0.174095
0.927426 0.493401 0.176151
0.959740 0.494440 0.177190
0.033692 0.527454 0.151142
0.036249 0.527537 0.151224
0.100180 0.529592 0.153280
0.164110 0.531648 0.155335
0.228041 0.533704 0.157391
0.291972 0.535759 0.159447
0.355902 0.537815 0.161502
0.419833 0.539870 0.163558
0.483764 0.541926 0.165614
0.547694 0.543982 0.167669
0.611625 0.546037 0.169725
0.675555 0.548093 0.171780
0.739486 0.550149 0.173836
0.803417 0.552204 0.175892
0.867347 0.554260 0.177947
0.931278 0.556315 0.180003
0.963592 0.557354 0.181042
0.037544 0.590369 0.154994
0.040101 0.590451 0.155076
0.104032 0.592507 0.157132
0.167963 0.594563 0.159188
0.231893 0.596618 0.161243
0.295824 0.598674 0.163299
0.359755 0.600730 0.165355
0.423685 0.602785 0.167410
0.487616 0.604841 0.169466
0.551546 0.606896 0.171521
0.615477 0.608952 0.173577
0.679408 0.611008 0.175633
0.743338 0.613063 0.177688
0.807269 0.615119 0.179744
0.871200 0.617175 0.181800
0.935130 0.619230 0.183855
0.967444 0.620269 0.184894
0.041396 0.653284 0.158846
0.043954 0.653366 0.158929
0.107884 0.655422 0.160984
0.171815 0.657477 0.163040
0.235745 0.659533 0.165095
0.299676 0.661589 0.167151
0.363607 0.663644 0.169207
0.427537 0.665700 0.171262
0.491468 0.667755 0.173318
0.555399 0.669811 0.175374
0.619329 0.671867 0.177429
0.683260 0.673922 0.179485
0.747190 0.675978 0.181540
0.811121 0.678034 0.183596
0.875052 0.680089 0.185652
0.938982 0.682145 0.187707
0.971296 0.683184 0.188746
0.045249 0.716199 0.162699
0.047806 0.716281 0.162781
0.111736 0.718336 0.164836
0.175667 0.720392 0.166892
0.239598 0.722448 0.168948
0.303528 0.724503 0.171003
0.367459 0.726559 0.173059
0.431390 0.728615 0.175115
0.495320 0.730670 0.177170
0.559251 0.732726 0.179226
0.623181 0.734781 0.181281
0.687112 0.736837 0.183337
0.751043 0.738893 0.185393
0.814973 0.740948 0.187448
0.878904 0.743004 0.189504
0.942835 0.745060 0.191560
0.975149 0.746099 0.192599
0.049101 0.779113 0.166551
0.051658 0.779195 0.166633
0.115589 0.781251 0.168689
0.179519 0.783307 0.170744
0.243450 0.785362 0.172800
0.307380 0.787418 0.174855
0.371311 0.789474 0.176911
0.435242 0.791529 0.178967
0.499172 0.793585 0.181022
0.563103 0.795640 0.183078
0.627034 0.797696 0.185134
0.690964 0.799752 0.187189
0.754895 0.801807 0.189245
0.818825 0.803863 0.191300
0.882756 0.805919 0.193356
0.946687 0.807974 0.195412
0.979001 0.809013 0.196451
0.052953 0.842028 0.170403
0.055510 0.842110 0.170485
0.119441 0.844166 0.172541
0.183371 0.846221 0.174596
0.247302 0.848277 0.176652
0.311233 0.850333 0.178708
0.375163 0.852388 0.180763
0.439094 0.854444 0.182819
0.503025 0.856500 0.184875
0.566955 0.858555 0.186930
0.630886 0.860611 0.188986
0.694816 0.862666 0.191041
0.758747 0.864722 0.193097
0.822678 0.866778 0.195153
0.886608 0.868833 0.197208
0.950539 0.870889 0.199264
0.982853 0.871928 0.200303
0.056805 0.904943 0.174255
0.059362 0.905025 0.174337
0.123293 0.907080 0.176393
0.187224 0.909136 0.178449
0.251154 0.911192 0.180504
0.315085 0.913247 0.182560
0.379015 0.915303 0.184615
0.442946 0.917359 0.186671
0.506877 0.919414 0.188727
0.570807 0.921470 0.190782
0.634738 0.923525 0.192838
0.698669 0.925581 0.194894
0.762599 0.927637 0.196949
0.826530 0.929692 0.199005
0.890460 0.931748 0.201060
0.954391 0.933804 0.203116
0.986705 0.934843 0.204155
0.060188 0.960188 0.177638
0.062745 0.960270 0.177720
0.126676 0.962326 0.179776
0.190606 0.964381 0.181831
0.254537 0.966437 0.183887
0.318467 0.968492 0.185942
0.382398 0.970548 0.187998
0.446329 0.972604 0.190054
0.510259 0.974659 0.192109
0.574190 0.976715 0.194165
0.638121 0.978771 0.196221
0.702051 0.980826 0.198276
0.765982 0.982882 0.200332
0.829912 0.984937 0.202387
0.893843 0.986993 0.204443
0.957774 0.989049 0.206499
0.990088 0.990088 0.207538
0.002129 0.002129 0.170204
0.004686 0.002211 0.170286
0.068617 0.004267 0.172342
0.132547 0.006322 0.174397
0.196478 0.008378 0.176453
0.260409 0.010434 0.178509
0.324339 0.012489 0.180564
0.388270 0.014545 0.182620
0.452201 0.016601 0.184676
0.516131 0.018656 0.186731
0.580062 0.020712 0.188787
0.643992 0.022767 0.190842
0.707923 0.024823 0.192898
0.771854 0.026879 0.194954
0.835784 0.028934 0.197009
0.899715 0.030990 0.199065
0.932029 0.032029 0.200104
0.003516 0.024778 0.171591
