app/src/main/assets/luts/fjord_mist.cube
# ApexStudio filter: fjord_mist
LUT_3D_SIZE 9
DOMAIN_MIN 0.0 0.0 0.0
DOMAIN_MAX 1.0 1.0 1.0
0.000000 0.040000 0.100000
0.056250 0.040000 0.100000
0.162500 0.040000 0.100000
0.268750 0.040000 0.100000
0.375000 0.040000 0.100000
0.481250 0.040000 0.100000
0.587500 0.040000 0.100000
0.693750 0.040000 0.100000
0.800000 0.040000 0.100000
0.000000 0.171250 0.100000
0.056250 0.171250 0.100000
0.162500 0.171250 0.100000
0.268750 0.171250 0.100000
0.375000 0.171250 0.100000
0.481250 0.171250 0.100000
0.587500 0.171250 0.100000
0.693750 0.171250 0.100000
0.800000 0.171250 0.100000
0.000000 0.302500 0.100000
0.056250 0.302500 0.100000
0.162500 0.302500 0.100000
0.268750 0.302500 0.100000
0.375000 0.302500 0.100000
0.481250 0.302500 0.100000
0.587500 0.302500 0.100000
0.693750 0.302500 0.100000
0.800000 0.302500 0.100000
0.000000 0.433750 0.100000
0.056250 0.433750 0.100000
0.162500 0.433750 0.100000
0.268750 0.433750 0.100000
0.375000 0.433750 0.100000
0.481250 0.433750 0.100000
0.587500 0.433750 0.100000
0.693750 0.433750 0.100000
0.800000 0.433750 0.100000
0.000000 0.565000 0.100000
0.056250 0.565000 0.100000
0.162500 0.565000 0.100000
0.268750 0.565000 0.100000
0.375000 0.565000 0.100000
0.481250 0.565000 0.100000
0.587500 0.565000 0.100000
0.693750 0.565000 0.100000
0.800000 0.565000 0.100000
0.000000 0.696250 0.100000
0.056250 0.696250 0.100000
0.162500 0.696250 0.100000
0.268750 0.696250 0.100000
0.375000 0.696250 0.100000
0.481250 0.696250 0.100000
0.587500 0.696250 0.100000
0.693750 0.696250 0.100000
0.800000 0.696250 0.100000
0.000000 0.827500 0.100000
0.056250 0.827500 0.100000
0.162500 0.827500 0.100000
0.268750 0.827500 0.100000
0.375000 0.827500 0.100000
0.481250 0.827500 0.100000
0.587500 0.827500 0.100000
0.693750 0.827500 0.100000
0.800000 0.827500 0.100000
0.000000 0.958750 0.100000
0.056250 0.958750 0.100000
0.162500 0.958750 0.100000
0.268750 0.958750 0.100000
0.375000 0.958750 0.100000
0.481250 0.958750 0.100000
0.587500 0.958750 0.100000
0.693750 0.958750 0.100000
0.800000 0.958750 0.100000
0.000000 1.000000 0.100000
0.056250 1.000000 0.100000
0.162500 1.000000 0.100000
0.268750 1.000000 0.100000
0.375000 1.000000 0.100000
0.481250 1.000000 0.100000
0.587500 1.000000 0.100000
0.693750 1.000000 0.100000
0.800000 1.000000 0.100000
0.000000 0.040000 0.250000
0.056250 0.040000 0.250000
0.162500 0.040000 0.250000
0.268750 0.040000 0.250000
0.375000 0.040000 0.250000
0.481250 0.040000 0.250000
0.587500 0.040000 0.250000
0.693750 0.040000 0.250000
0.800000 0.040000 0.250000
0.000000 0.171250 0.250000
0.056250 0.171250 0.250000
0.162500 0.171250 0.250000
0.268750 0.171250 0.250000
0.375000 0.171250 0.250000
0.481250 0.171250 0.250000
0.587500 0.171250 0.250000
0.693750 0.171250 0.250000
0.800000 0.171250 0.250000
0.000000 0.302500 0.250000
0.056250 0.302500 0.250000
0.162500 0.302500 0.250000
0.268750 0.302500 0.250000
0.375000 0.302500 0.250000
0.481250 0.302500 0.250000
0.587500 0.302500 0.250000
0.693750 0.302500 0.250000
0.800000 0.302500 0.250000
0.000000 0.433750 0.250000
0.056250 0.433750 0.250000
0.162500 0.433750 0.250000
0.268750 0.433750 0.250000
0.375000 0.433750 0.250000
0.481250 0.433750 0.250000
0.587500 0.433750 0.250000
0.693750 0.433750 0.250000
0.800000 0.433750 0.250000
0.000000 0.565000 0.250000
0.056250 0.565000 0.250000
0.162500 0.565000 0.250000
0.268750 0.565000 0.250000
0.375000 0.565000 0.250000
0.481250 0.565000 0.250000
0.587500 0.565000 0.250000
0.693750 0.565000 0.250000
0.800000 0.565000 0.250000
0.000000 0.696250 0.250000
0.056250 0.696250 0.250000
0.162500 0.696250 0.250000
0.268750 0.696250 0.250000
0.375000 0.696250 0.250000
0.481250 0.696250 0.250000
0.587500 0.696250 0.250000
0.693750 0.696250 0.250000
0.800000 0.696250 0.250000
0.000000 0.827500 0.250000
0.056250 0.827500 0.250000
0.162500 0.827500 0.250000
0.268750 0.827500 0.250000
0.375000 0.827500 0.250000
0.481250 0.827500 0.250000
0.587500 0.827500 0.250000
0.693750 0.827500 0.250000
0.800000 0.827500 0.250000
0.000000 0.958750 0.250000
0.056250 0.958750 0.250000
0.162500 0.958750 0.250000
0.268750 0.958750 0.250000
0.375000 0.958750 0.250000
0.481250 0.958750 0.250000
0.587500 0.958750 0.250000
0.693750 0.958750 0.250000
0.800000 0.958750 0.250000
0.000000 1.000000 0.250000
0.056250 1.000000 0.250000
0.162500 1.000000 0.250000
0.268750 1.000000 0.250000
0.375000 1.000000 0.250000
0.481250 1.000000 0.250000
0.587500 1.000000 0.250000
0.693750 1.000000 0.250000
0.800000 1.000000 0.250000
0.000000 0.040000 0.400000
0.056250 0.040000 0.400000
0.162500 0.040000 0.400000
0.268750 0.040000 0.400000
0.375000 0.040000 0.400000
0.481250 0.040000 0.400000
0.587500 0.040000 0.400000
0.693750 0.040000 0.400000
0.800000 0.040000 0.400000
0.000000 0.171250 0.400000
0.056250 0.171250 0.400000
0.162500 0.171250 0.400000
0.268750 0.171250 0.400000
0.375000 0.171250 0.400000
0.481250 0.171250 0.400000
0.587500 0.171250 0.400000
0.693750 0.171250 0.400000
0.800000 0.171250 0.400000
0.000000 0.302500 0.400000
0.056250 0.302500 0.400000
0.162500 0.302500 0.400000
0.268750 0.302500 0.400000
0.375000 0.302500 0.400000
0.481250 0.302500 0.400000
0.587500 0.302500 0.400000
0.693750 0.302500 0.400000
0.800000 0.302500 0.400000
0.000000 0.433750 0.400000
0.056250 0.433750 0.400000
0.162500 0.433750 0.400000
0.268750 0.433750 0.400000
0.375000 0.433750 0.400000
0.481250 0.433750 0.400000
0.587500 0.433750 0.400000
0.693750 0.433750 0.400000
0.800000 0.433750 0.400000
0.000000 0.565000 0.400000
0.056250 0.565000 0.400000
0.162500 0.565000 0.400000
0.268750 0.565000 0.400000
0.375000 0.565000 0.400000
0.481250 0.565000 0.400000
0.587500 0.565000 0.400000
0.693750 0.565000 0.400000
0.800000 0.565000 0.400000
0.000000 0.696250 0.400000
0.056250 0.696250 0.400000
0.162500 0.696250 0.400000
0.268750 0.696250 0.400000
0.375000 0.696250 0.400000
0.481250 0.696250 0.400000
0.587500 0.696250 0.400000
0.693750 0.696250 0.400000
0.800000 0.696250 0.400000
0.000000 0.827500 0.400000
0.056250 0.827500 0.400000
0.162500 0.827500 0.400000
0.268750 0.827500 0.400000
0.375000 0.827500 0.400000
0.481250 0.827500 0.400000
0.587500 0.827500 0.400000
0.693750 0.827500 0.400000
0.800000 0.827500 0.400000
0.000000 0.958750 0.400000
0.056250 0.958750 0.400000
0.162500 0.958750 0.400000
0.268750 0.958750 0.400000
0.375000 0.958750 0.400000
0.481250 0.958750 0.400000
0.587500 0.958750 0.400000
0.693750 0.958750 0.400000
0.800000 0.958750 0.400000
0.000000 1.000000 0.400000
0.056250 1.000000 0.400000
0.162500 1.000000 0.400000
0.268750 1.000000 0.400000
0.375000 1.000000 0.400000
0.481250 1.000000 0.400000
0.587500 1.000000 0.400000
0.693750 1.000000 0.400000
0.800000 1.000000 0.400000
0.000000 0.040000 0.550000
0.056250 0.040000 0.550000
0.162500 0.040000 0.550000
0.268750 0.040000 0.550000
0.375000 0.040000 0.550000
0.481250 0.040000 0.550000
0.587500 0.040000 0.550000
0.693750 0.040000 0.550000
0.800000 0.040000 0.550000
0.000000 0.171250 0.550000
0.056250 0.171250 0.550000
0.162500 0.171250 0.550000
0.268750 0.171250 0.550000
0.375000 0.171250 0.550000
0.481250 0.171250 0.550000
0.587500 0.171250 0.550000
0.693750 0.171250 0.550000
0.800000 0.171250 0.550000
0.000000 0.302500 0.550000
0.056250 0.302500 0.550000
0.162500 0.302500 0.550000
0.268750 0.302500 0.550000
0.375000 0.302500 0.550000
0.481250 0.302500 0.550000
0.587500 0.302500 0.550000
0.693750 0.302500 0.550000
0.800000 0.302500 0.550000
0.000000 0.433750 0.550000
0.056250 0.433750 0.550000
0.162500 0.433750 0.550000
0.268750 0.433750 0.550000
0.375000 0.433750 0.550000
0.481250 0.433750 0.550000
0.587500 0.433750 0.550000
0.693750 0.433750 0.550000
0.800000 0.433750 0.550000
0.000000 0.565000 0.550000
0.056250 0.565000 0.550000
0.162500 0.565000 0.550000
0.268750 0.565000 0.550000
0.375000 0.565000 0.550000
0.481250 0.565000 0.550000
0.587500 0.565000 0.550000
0.693750 0.565000 0.550000
0.800000 0.565000 0.550000
0.000000 0.696250 0.550000
0.056250 0.696250 0.550000
0.162500 0.696250 0.550000
0.268750 0.696250 0.550000
0.375000 0.696250 0.550000
0.481250 0.696250 0.550000
0.587500 0.696250 0.550000
0.693750 0.696250 0.550000
0.800000 0.696250 0.550000
0.000000 0.827500 0.550000
0.056250 0.827500 0.550000
0.162500 0.827500 0.550000
0.268750 0.827500 0.550000
0.375000 0.827500 0.550000
0.481250 0.827500 0.550000
0.587500 0.827500 0.550000
0.693750 0.827500 0.550000
0.800000 0.827500 0.550000
0.000000 0.958750 0.550000
0.056250 0.958750 0.550000
0.162500 0.958750 0.550000
0.268750 0.958750 0.550000
0.375000 0.958750 0.550000
0.481250 0.958750 0.550000
0.587500 0.958750 0.550000
0.693750 0.958750 0.550000
0.800000 0.958750 0.550000
0.000000 1.000000 0.550000
0.056250 1.000000 0.550000
0.162500 1.000000 0.550000
0.268750 1.000000 0.550000
0.375000 1.000000 0.550000
0.481250 1.000000 0.550000
0.587500 1.000000 0.550000
0.693750 1.000000 0.550000
0.800000 1.000000 0.550000
0.000000 0.040000 0.700000
0.056250 0.040000 0.700000
0.162500 0.040000 0.700000
0.268750 0.040000 0.700000
0.375000 0.040000 0.700000
0.481250 0.040000 0.700000
0.587500 0.040000 0.700000
0.693750 0.040000 0.700000
0.800000 0.040000 0.700000
0.000000 0.171250 0.700000
0.056250 0.171250 0.700000
0.162500 0.171250 0.700000
0.268750 0.171250 0.700000
0.375000 0.171250 0.700000
0.481250 0.171250 0.700000
0.587500 0.171250 0.700000
0.693750 0.171250 0.700000
0.800000 0.171250 0.700000
0.000000 0.302500 0.700000
0.056250 0.302500 0.700000
0.162500 0.302500 0.700000
0.268750 0.302500 0.700000
0.375000 0.302500 0.700000
0.481250 0.302500 0.700000
0.587500 0.302500 0.700000
0.693750 0.302500 0.700000
0.800000 0.302500 0.700000
0.000000 0.433750 0.700000
0.056250 0.433750 0.700000
0.162500 0.433750 0.700000
0.268750 0.433750 0.700000
0.375000 0.433750 0.700000
0.481250 0.433750 0.700000
0.587500 0.433750 0.700000
0.693750 0.433750 0.700000
0.800000 0.433750 0.700000
0.000000 0.565000 0.700000
0.056250 0.565000 0.700000
0.162500 0.565000 0.700000
0.268750 0.565000 0.700000
0.375000 0.565000 0.700000
0.481250 0.565000 0.700000
0.587500 0.565000 0.700000
0.693750 0.565000 0.700000
0.800000 0.565000 0.700000
0.000000 0.696250 0.700000
0.056250 0.696250 0.700000
0.162500 0.696250 0.700000
0.268750 0.696250 0.700000
0.375000 0.696250 0.700000
0.481250 0.696250 0.700000
0.587500 0.696250 0.700000
0.693750 0.696250 0.700000
0.800000 0.696250 0.700000
0.000000 0.827500 0.700000
0.056250 0.827500 0.700000
0.162500 0.827500 0.700000
0.268750 0.827500 0.700000
0.375000 0.827500 0.700000
0.481250 0.827500 0.700000
0.587500 0.827500 0.700000
0.693750 0.827500 0.700000
0.800000 0.827500 0.700000
0.000000 0.958750 0.700000
0.056250 0.958750 0.700000
0.162500 0.958750 0.700000
0.268750 0.958750 0.700000
0.375000 0.958750 0.700000
0.481250 0.958750 0.700000
0.587500 0.958750 0.700000
0.693750 0.958750 0.700000
0.800000 0.958750 0.700000
0.000000 1.000000 0.700000
0.056250 1.000000 0.700000
0.162500 1.000000 0.700000
0.268750 1.000000 0.700000
0.375000 1.000000 0.700000
0.481250 1.000000 0.700000
0.587500 1.000000 0.700000
0.693750 1.000000 0.700000
0.800000 1.000000 0.700000
0.000000 0.040000 0.850000
0.056250 0.040000 0.850000
0.162500 0.040000 0.850000
0.268750 0.040000 0.850000
0.375000 0.040000 0.850000
0.481250 0.040000 0.850000
0.587500 0.040000 0.850000
0.693750 0.040000 0.850000
0.800000 0.040000 0.850000
0.000000 0.171250 0.850000
0.056250 0.171250 0.850000
0.162500 0.171250 0.850000
0.268750 0.171250 0.850000
0.375000 0.171250 0.850000
0.481250 0.171250 0.850000
0.587500 0.171250 0.850000
0.693750 0.171250 0.850000
0.800000 0.171250 0.850000
0.000000 0.302500 0.850000
0.056250 0.302500 0.850000
0.162500 0.302500 0.850000
0.268750 0.302500 0.850000
0.375000 0.302500 0.850000
0.481250 0.302500 0.850000
0.587500 0.302500 0.850000
0.693750 0.302500 0.850000
0.800000 0.302500 0.850000
0.000000 0.433750 0.850000
0.056250 0.433750 0.850000
0.162500 0.433750 0.850000
0.268750 0.433750 0.850000
0.375000 0.433750 0.850000
0.481250 0.433750 0.850000
0.587500 0.433750 0.850000
0.693750 0.433750 0.850000
0.800000 0.433750 0.850000
0.000000 0.565000 0.850000
0.056250 0.565000 0.850000
0.162500 0.565000 0.850000
0.268750 0.565000 0.850000
0.375000 0.565000 0.850000
0.481250 0.565000 0.850000
0.587500 0.565000 0.850000
0.693750 0.565000 0.850000
0.800000 0.565000 0.850000
0.000000 0.696250 0.850000
0.056250 0.696250 0.850000
0.162500 0.696250 0.850000
0.268750 0.696250 0.850000
0.375000 0.696250 0.850000
0.481250 0.696250 0.850000
0.587500 0.696250 0.850000
0.693750 0.696250 0.850000
0.800000 0.696250 0.850000
0.000000 0.827500 0.850000
0.056250 0.827500 0.850000
0.162500 0.827500 0.850000
0.268750 0.827500 0.850000
0.375000 0.827500 0.850000
0.481250 0.827500 0.850000
0.587500 0.827500 0.850000
0.693750 0.827500 0.850000
0.800000 0.827500 0.850000
0.000000 0.958750 0.850000
0.056250 0.958750 0.850000
0.162500 0.958750 0.850000
0.268750 0.958750 0.850000
0.375000 0.958750 0.850000
0.481250 0.958750 0.850000
0.587500 0.958750 0.850000
0.693750 0.958750 0.850000
0.800000 0.958750 0.850000
0.000000 1.000000 0.850000
0.056250 1.000000 0.850000
0.162500 1.000000 0.850000
0.268750 1.000000 0.850000
0.375000 1.000000 0.850000
0.481250 1.000000 0.850000
0.587500 1.000000 0.850000
0.693750 1.000000 0.850000
0.800000 1.000000 0.850000
0.000000 0.040000 1.000000
0.056250 0.040000 1.000000
0.162500 0.040000 1.000000
0.268750 0.040000 1.000000
0.375000 0.040000 1.000000
0.481250 0.040000 1.000000
0.587500 0.040000 1.000000
0.693750 0.040000 1.000000
0.800000 0.040000 1.000000
0.000000 0.171250 1.000000
0.056250 0.171250 1.000000
0.162500 0.171250 1.000000
0.268750 0.171250 1.000000
0.375000 0.171250 1.000000
0.481250 0.171250 1.000000
0.587500 0.171250 1.000000
0.693750 0.171250 1.000000
0.800000 0.171250 1.000000
0.000000 0.302500 1.000000
0.056250 0.302500 1.000000
0.162500 0.302500 1.000000
0.268750 0.302500 1.000000
0.375000 0.302500 1.000000
0.481250 0.302500 1.000000
0.587500 0.302500 1.000000
0.693750 0.302500 1.000000
0.800000 0.302500 1.000000
0.000000 0.433750 1.000000
0.056250 0.433750 1.000000
0.162500 0.433750 1.000000
0.268750 0.433750 1.000000
0.375000 0.433750 1.000000
0.481250 0.433750 1.000000
0.587500 0.433750 1.000000
0.693750 0.433750 1.000000
0.800000 0.433750 1.000000
0.000000 0.565000 1.000000
0.056250 0.565000 1.000000
0.162500 0.565000 1.000000
0.268750 0.565000 1.000000
0.375000 0.565000 1.000000
0.481250 0.565000 1.000000
0.587500 0.565000 1.000000
0.693750 0.565000 1.000000
0.800000 0.565000 1.000000
0.000000 0.696250 1.000000
0.056250 0.696250 1.000000
0.162500 0.696250 1.000000
0.268750 0.696250 1.000000
0.375000 0.696250 1.000000
0.481250 0.696250 1.000000
0.587500 0.696250 1.000000
0.693750 0.696250 1.000000
0.800000 0.696250 1.000000
0.000000 0.827500 1.000000
0.056250 0.827500 1.000000
0.162500 0.827500 1.000000
0.268750 0.827500 1.000000
0.375000 0.827500 1.000000
0.481250 0.827500 1.000000
0.587500 0.827500 1.000000
0.693750 0.827500 1.000000
0.800000 0.827500 1.000000
0.000000 0.958750 1.000000
0.056250 0.958750 1.000000
0.162500 0.958750 1.000000
0.268750 0.958750 1.000000
0.375000 0.958750 1.000000
0.481250 0.958750 1.000000
0.587500 0.958750 1.000000
0.693750 0.958750 1.000000
0.800000 0.958750 1.000000
0.000000 1.000000 1.000000
0.056250 1.000000 1.000000
0.162500 1.000000 1.000000
0.268750 1.000000 1.000000
0.375000 1.000000 1.000000
0.481250 1.000000 1.000000
0.587500 1.000000 1.000000
0.693750 1.000000 1.000000
0.800000 1.000000 1.000000
0.000000 0.040000 1.000000
0.056250 0.040000 1.000000
0.162500 0.040000 1.000000
0.268750 0.040000 1.000000
0.375000 0.040000 1.000000
0.481250 0.040000 1.000000
0.587500 0.040000 1.000000
0.693750 0.040000 1.000000
0.800000 0.040000 1.000000
0.000000 0.171250 1.000000
0.056250 0.171250 1.000000
0.162500 0.171250 1.000000
0.268750 0.171250 1.000000
0.375000 0.171250 1.000000
0.481250 0.171250 1.000000
0.587500 0.171250 1.000000
0.693750 0.171250 1.000000
0.800000 0.171250 1.000000
0.000000 0.302500 1.000000
0.056250 0.302500 1.000000
0.162500 0.302500 1.000000
0.268750 0.302500 1.000000
0.375000 0.302500 1.000000
0.481250 0.302500 1.000000
0.587500 0.302500 1.000000
0.693750 0.302500 1.000000
0.800000 0.302500 1.000000
0.000000 0.433750 1.000000
0.056250 0.433750 1.000000
0.162500 0.433750 1.000000
0.268750 0.433750 1.000000
0.375000 0.433750 1.000000
0.481250 0.433750 1.000000
0.587500 0.433750 1.000000
0.693750 0.433750 1.000000
0.800000 0.433750 1.000000
0.000000 0.565000 1.000000
0.056250 0.565000 1.000000
0.162500 0.565000 1.000000
0.268750 0.565000 1.000000
0.375000 0.565000 1.000000
0.481250 0.565000 1.000000
0.587500 0.565000 1.000000
0.693750 0.565000 1.000000
0.800000 0.565000 1.000000
0.000000 0.696250 1.000000
0.056250 0.696250 1.000000
0.162500 0.696250 1.000000
0.268750 0.696250 1.000000
0.375000 0.696250 1.000000
0.481250 0.696250 1.000000
0.587500 0.696250 1.000000
0.693750 0.696250 1.000000
0.800000 0.696250 1.000000
0.000000 0.827500 1.000000
0.056250 0.827500 1.000000
0.162500 0.827500 1.000000
0.268750 0.827500 1.000000
0.375000 0.827500 1.000000
0.481250 0.827500 1.000000
0.587500 0.827500 1.000000
0.693750 0.827500 1.000000
0.800000 0.827500 1.000000
0.000000 0.958750 1.000000
0.056250 0.958750 1.000000
0.162500 0.958750 1.000000
0.268750 0.958750 1.000000
0.375000 0.958750 1.000000
0.481250 0.958750 1.000000
0.587500 0.958750 1.000000
0.693750 0.958750 1.000000
0.800000 0.958750 1.000000
0.000000 1.000000 1.000000
0.056250 1.000000 1.000000
0.162500 1.000000 1.000000
0.268750 1.000000 1.000000
0.375000 1.000000 1.000000
0.481250 1.000000 1.000000
0.587500 1.000000 1.000000
0.693750 1.000000 1.000000
0.800000 1.000000 1.000000
0.000000 0.040000 1.000000
0.056250 0.040000 1.000000
0.162500 0.040000 1.000000
0.268750 0.040000 1.000000
0.375000 0.040000 1.000000
0.481250 0.040000 1.000000
0.587500 0.040000 1.000000
0.693750 0.040000 1.000000
0.800000 0.040000 1.000000
0.000000 0.171250 1.000000
0.056250 0.171250 1.000000
0.162500 0.171250 1.000000
0.268750 0.171250 1.000000
0.375000 0.171250 1.000000
0.481250 0.171250 1.000000
0.587500 0.171250 1.000000
0.693750 0.171250 1.000000
0.800000 0.171250 1.000000
0.000000 0.302500 1.000000
0.056250 0.302500 1.000000
0.162500 0.302500 1.000000
0.268750 0.302500 1.000000
0.375000 0.302500 1.000000
0.481250 0.302500 1.000000
0.587500 0.302500 1.000000
0.693750 0.302500 1.000000
0.800000 0.302500 1.000000
0.000000 0.433750 1.000000
0.056250 0.433750 1.000000
0.162500 0.433750 1.000000
0.268750 0.433750 1.000000
0.375000 0.433750 1.000000
0.481250 0.433750 1.000000
0.587500 0.433750 1.000000
0.693750 0.433750 1.000000
0.800000 0.433750 1.000000
0.000000 0.565000 1.000000
0.056250 0.565000 1.000000
0.162500 0.565000 1.000000
0.268750 0.565000 1.000000
0.375000 0.565000 1.000000
0.481250 0.565000 1.000000
0.587500 0.565000 1.000000
0.693750 0.565000 1.000000
0.800000 0.565000 1.000000
0.000000 0.696250 1.000000
0.056250 0.696250 1.000000
0.162500 0.696250 1.000000
0.268750 0.696250 1.000000
0.375000 0.696250 1.000000
0.481250 0.696250 1.000000
0.587500 0.696250 1.000000
0.693750 0.696250 1.000000
0.800000 0.696250 1.000000
0.000000 0.827500 1.000000
0.056250 0.827500 1.000000
0.162500 0.827500 1.000000
0.268750 0.827500 1.000000
0.375000 0.827500 1.000000
0.481250 0.827500 1.000000
0.587500 0.827500 1.000000
0.693750 0.827500 1.000000
0.800000 0.827500 1.000000
0.000000 0.958750 1.000000
0.056250 0.958750 1.000000
0.162500 0.958750 1.000000
0.268750 0.958750 1.000000
0.375000 0.958750 1.000000
0.481250 0.958750 1.000000
0.587500 0.958750 1.000000
0.693750 0.958750 1.000000
0.800000 0.958750 1.000000
0.000000 1.000000 1.000000
0.056250 1.000000 1.000000
0.162500 1.000000 1.000000
0.268750 1.000000 1.000000
0.375000 1.000000 1.000000
0.481250 1.000000 1.000000
0.587500 1.000000 1.000000
0.693750 1.000000 1.000000
0.800000 1.000000 1.000000
