app/src/main/assets/luts/fjord_mist.cube
# ApexStudio filter: fjord_mist
LUT_3D_SIZE 5
DOMAIN_MIN 0.0 0.0 0.0
DOMAIN_MAX 1.0 1.0 1.0
0.000000 0.040000 0.100000
0.162500 0.040000 0.100000
0.375000 0.040000 0.100000
0.587500 0.040000 0.100000
0.800000 0.040000 0.100000
0.000000 0.302500 0.100000
0.162500 0.302500 0.100000
0.375000 0.302500 0.100000
0.587500 0.302500 0.100000
0.800000 0.302500 0.100000
0.000000 0.565000 0.100000
0.162500 0.565000 0.100000
0.375000 0.565000 0.100000
0.587500 0.565000 0.100000
0.800000 0.565000 0.100000
0.000000 0.827500 0.100000
0.162500 0.827500 0.100000
0.375000 0.827500 0.100000
0.587500 0.827500 0.100000
0.800000 0.827500 0.100000
0.000000 1.000000 0.100000
0.162500 1.000000 0.100000
0.375000 1.000000 0.100000
0.587500 1.000000 0.100000
0.800000 1.000000 0.100000
0.000000 0.040000 0.400000
0.162500 0.040000 0.400000
0.375000 0.040000 0.400000
0.587500 0.040000 0.400000
0.800000 0.040000 0.400000
0.000000 0.302500 0.400000
0.162500 0.302500 0.400000
0.375000 0.302500 0.400000
0.587500 0.302500 0.400000
0.800000 0.302500 0.400000
0.000000 0.565000 0.400000
0.162500 0.565000 0.400000
0.375000 0.565000 0.400000
0.587500 0.565000 0.400000
0.800000 0.565000 0.400000
0.000000 0.827500 0.400000
0.162500 0.827500 0.400000
0.375000 0.827500 0.400000
0.587500 0.827500 0.400000
0.800000 0.827500 0.400000
0.000000 1.000000 0.400000
0.162500 1.000000 0.400000
0.375000 1.000000 0.400000
0.587500 1.000000 0.400000
0.800000 1.000000 0.400000
0.000000 0.040000 0.700000
0.162500 0.040000 0.700000
0.375000 0.040000 0.700000
0.587500 0.040000 0.700000
0.800000 0.040000 0.700000
0.000000 0.302500 0.700000
0.162500 0.302500 0.700000
0.375000 0.302500 0.700000
0.587500 0.302500 0.700000
0.800000 0.302500 0.700000
0.000000 0.565000 0.700000
0.162500 0.565000 0.700000
0.375000 0.565000 0.700000
0.587500 0.565000 0.700000
0.800000 0.565000 0.700000
0.000000 0.827500 0.700000
0.162500 0.827500 0.700000
0.375000 0.827500 0.700000
0.587500 0.827500 0.700000
0.800000 0.827500 0.700000
0.000000 1.000000 0.700000
0.162500 1.000000 0.700000
0.375000 1.000000 0.700000
0.587500 1.000000 0.700000
0.800000 1.000000 0.700000
0.000000 0.040000 1.000000
0.162500 0.040000 1.000000
0.375000 0.040000 1.000000
0.587500 0.040000 1.000000
0.800000 0.040000 1.000000
0.000000 0.302500 1.000000
0.162500 0.302500 1.000000
0.375000 0.302500 1.000000
0.587500 0.302500 1.000000
0.800000 0.302500 1.000000
0.000000 0.565000 1.000000
0.162500 0.565000 1.000000
0.375000 0.565000 1.000000
0.587500 0.565000 1.000000
0.800000 0.565000 1.000000
0.000000 0.827500 1.000000
0.162500 0.827500 1.000000
0.375000 0.827500 1.000000
0.587500 0.827500 1.000000
0.800000 0.827500 1.000000
0.000000 1.000000 1.000000
0.162500 1.000000 1.000000
0.375000 1.000000 1.000000
0.587500 1.000000 1.000000
0.800000 1.000000 1.000000
0.000000 0.040000 1.000000
0.162500 0.040000 1.000000
0.375000 0.040000 1.000000
0.587500 0.040000 1.000000
0.800000 0.040000 1.000000
0.000000 0.302500 1.000000
0.162500 0.302500 1.000000
0.375000 0.302500 1.000000
0.587500 0.302500 1.000000
0.800000 0.302500 1.000000
0.000000 0.565000 1.000000
0.162500 0.565000 1.000000
0.375000 0.565000 1.000000
0.587500 0.565000 1.000000
0.800000 0.565000 1.000000
0.000000 0.827500 1.000000
0.162500 0.827500 1.000000
0.375000 0.827500 1.000000
0.587500 0.827500 1.000000
0.800000 0.827500 1.000000
0.000000 1.000000 1.000000
0.162500 1.000000 1.000000
0.375000 1.000000 1.000000
0.587500 1.000000 1.000000
0.800000 1.000000 1.000000
