app/src/main/assets/luts/fjord_mist.cube
# ApexStudio filter: fjord_mist
LUT_3D_SIZE 17
DOMAIN_MIN 0.0 0.0 0.0
DOMAIN_MAX 1.0 1.0 1.0
0.000000 0.040000 0.100000
0.003125 0.040000 0.100000
0.056250 0.040000 0.100000
0.109375 0.040000 0.100000
0.162500 0.040000 0.100000
0.215625 0.040000 0.100000
0.268750 0.040000 0.100000
0.321875 0.040000 0.100000
0.375000 0.040000 0.100000
0.428125 0.040000 0.100000
0.481250 0.040000 0.100000
0.534375 0.040000 0.100000
0.587500 0.040000 0.100000
0.640625 0.040000 0.100000
0.693750 0.040000 0.100000
0.746875 0.040000 0.100000
0.800000 0.040000 0.100000
0.000000 0.105625 0.100000
0.003125 0.105625 0.100000
0.056250 0.105625 0.100000
0.109375 0.105625 0.100000
0.162500 0.105625 0.100000
0.215625 0.105625 0.100000
0.268750 0.105625 0.100000
0.321875 0.105625 0.100000
0.375000 0.105625 0.100000
0.428125 0.105625 0.100000
0.481250 0.105625 0.100000
0.534375 0.105625 0.100000
0.587500 0.105625 0.100000
0.640625 0.105625 0.100000
0.693750 0.105625 0.100000
0.746875 0.105625 0.100000
0.800000 0.105625 0.100000
0.000000 0.171250 0.100000
0.003125 0.171250 0.100000
0.056250 0.171250 0.100000
0.109375 0.171250 0.100000
0.162500 0.171250 0.100000
0.215625 0.171250 0.100000
0.268750 0.171250 0.100000
0.321875 0.171250 0.100000
0.375000 0.171250 0.100000
0.428125 0.171250 0.100000
0.481250 0.171250 0.100000
0.534375 0.171250 0.100000
0.587500 0.171250 0.100000
0.640625 0.171250 0.100000
0.693750 0.171250 0.100000
0.746875 0.171250 0.100000
0.800000 0.171250 0.100000
0.000000 0.236875 0.100000
0.003125 0.236875 0.100000
0.056250 0.236875 0.100000
0.109375 0.236875 0.100000
0.162500 0.236875 0.100000
0.215625 0.236875 0.100000
0.268750 0.236875 0.100000
0.321875 0.236875 0.100000
0.375000 0.236875 0.100000
0.428125 0.236875 0.100000
0.481250 0.236875 0.100000
0.534375 0.236875 0.100000
0.587500 0.236875 0.100000
0.640625 0.236875 0.100000
0.693750 0.236875 0.100000
0.746875 0.236875 0.100000
0.800000 0.236875 0.100000
0.000000 0.302500 0.100000
0.003125 0.302500 0.100000
0.056250 0.302500 0.100000
0.109375 0.302500 0.100000
0.162500 0.302500 0.100000
0.215625 0.302500 0.100000
0.268750 0.302500 0.100000
0.321875 0.302500 0.100000
0.375000 0.302500 0.100000
0.428125 0.302500 0.100000
0.481250 0.302500 0.100000
0.534375 0.302500 0.100000
0.587500 0.302500 0.100000
0.640625 0.302500 0.100000
0.693750 0.302500 0.100000
0.746875 0.302500 0.100000
0.800000 0.302500 0.100000
0.000000 0.368125 0.100000
0.003125 0.368125 0.100000
0.056250 0.368125 0.100000
0.109375 0.368125 0.100000
0.162500 0.368125 0.100000
0.215625 0.368125 0.100000
0.268750 0.368125 0.100000
0.321875 0.368125 0.100000
0.375000 0.368125 0.100000
0.428125 0.368125 0.100000
0.481250 0.368125 0.100000
0.534375 0.368125 0.100000
0.587500 0.368125 0.100000
0.640625 0.368125 0.100000
0.693750 0.368125 0.100000
0.746875 0.368125 0.100000
0.800000 0.368125 0.100000
0.000000 0.433750 0.100000
0.003125 0.433750 0.100000
0.056250 0.433750 0.100000
0.109375 0.433750 0.100000
0.162500 0.433750 0.100000
0.215625 0.433750 0.100000
0.268750 0.433750 0.100000
0.321875 0.433750 0.100000
0.375000 0.433750 0.100000
0.428125 0.433750 0.100000
0.481250 0.433750 0.100000
0.534375 0.433750 0.100000
0.587500 0.433750 0.100000
0.640625 0.433750 0.100000
0.693750 0.433750 0.100000
0.746875 0.433750 0.100000
0.800000 0.433750 0.100000
0.000000 0.499375 0.100000
0.003125 0.499375 0.100000
0.056250 0.499375 0.100000
0.109375 0.499375 0.100000
0.162500 0.499375 0.100000
0.215625 0.499375 0.100000
0.268750 0.499375 0.100000
0.321875 0.499375 0.100000
0.375000 0.499375 0.100000
0.428125 0.499375 0.100000
0.481250 0.499375 0.100000
0.534375 0.499375 0.100000
0.587500 0.499375 0.100000
0.640625 0.499375 0.100000
0.693750 0.499375 0.100000
0.746875 0.499375 0.100000
0.800000 0.499375 0.100000
0.000000 0.565000 0.100000
0.003125 0.565000 0.100000
0.056250 0.565000 0.100000
0.109375 0.565000 0.100000
0.162500 0.565000 0.100000
0.215625 0.565000 0.100000
0.268750 0.565000 0.100000
0.321875 0.565000 0.100000
0.375000 0.565000 0.100000
0.428125 0.565000 0.100000
0.481250 0.565000 0.100000
0.534375 0.565000 0.100000
0.587500 0.565000 0.100000
0.640625 0.565000 0.100000
0.693750 0.565000 0.100000
0.746875 0.565000 0.100000
0.800000 0.565000 0.100000
0.000000 0.630625 0.100000
0.003125 0.630625 0.100000
0.056250 0.630625 0.100000
0.109375 0.630625 0.100000
0.162500 0.630625 0.100000
0.215625 0.630625 0.100000
0.268750 0.630625 0.100000
0.321875 0.630625 0.100000
0.375000 0.630625 0.100000
0.428125 0.630625 0.100000
0.481250 0.630625 0.100000
0.534375 0.630625 0.100000
0.587500 0.630625 0.100000
0.640625 0.630625 0.100000
0.693750 0.630625 0.100000
0.746875 0.630625 0.100000
0.800000 0.630625 0.100000
0.000000 0.696250 0.100000
0.003125 0.696250 0.100000
0.056250 0.696250 0.100000
0.109375 0.696250 0.100000
0.162500 0.696250 0.100000
0.215625 0.696250 0.100000
0.268750 0.696250 0.100000
0.321875 0.696250 0.100000
0.375000 0.696250 0.100000
0.428125 0.696250 0.100000
0.481250 0.696250 0.100000
0.534375 0.696250 0.100000
0.587500 0.696250 0.100000
0.640625 0.696250 0.100000
0.693750 0.696250 0.100000
0.746875 0.696250 0.100000
0.800000 0.696250 0.100000
0.000000 0.761875 0.100000
0.003125 0.761875 0.100000
0.056250 0.761875 0.100000
0.109375 0.761875 0.100000
0.162500 0.761875 0.100000
0.215625 0.761875 0.100000
0.268750 0.761875 0.100000
0.321875 0.761875 0.100000
0.375000 0.761875 0.100000
0.428125 0.761875 0.100000
0.481250 0.761875 0.100000
0.534375 0.761875 0.100000
0.587500 0.761875 0.100000
0.640625 0.761875 0.100000
0.693750 0.761875 0.100000
0.746875 0.761875 0.100000
0.800000 0.761875 0.100000
0.000000 0.827500 0.100000
0.003125 0.827500 0.100000
0.056250 0.827500 0.100000
0.109375 0.827500 0.100000
0.162500 0.827500 0.100000
0.215625 0.827500 0.100000
0.268750 0.827500 0.100000
0.321875 0.827500 0.100000
0.375000 0.827500 0.100000
0.428125 0.827500 0.100000
0.481250 0.827500 0.100000
0.534375 0.827500 0.100000
0.587500 0.827500 0.100000
0.640625 0.827500 0.100000
0.693750 0.827500 0.100000
0.746875 0.827500 0.100000
0.800000 0.827500 0.100000
0.000000 0.893125 0.100000
0.003125 0.893125 0.100000
0.056250 0.893125 0.100000
0.109375 0.893125 0.100000
0.162500 0.893125 0.100000
0.215625 0.893125 0.100000
0.268750 0.893125 0.100000
0.321875 0.893125 0.100000
0.375000 0.893125 0.100000
0.428125 0.893125 0.100000
0.481250 0.893125 0.100000
0.534375 0.893125 0.100000
0.587500 0.893125 0.100000
0.640625 0.893125 0.100000
0.693750 0.893125 0.100000
0.746875 0.893125 0.100000
0.800000 0.893125 0.100000
0.000000 0.958750 0.100000
0.003125 0.958750 0.100000
0.056250 0.958750 0.100000
0.109375 0.958750 0.100000
0.162500 0.958750 0.100000
0.215625 0.958750 0.100000
0.268750 0.958750 0.100000
0.321875 0.958750 0.100000
0.375000 0.958750 0.100000
0.428125 0.958750 0.100000
0.481250 0.958750 0.100000
0.534375 0.958750 0.100000
0.587500 0.958750 0.100000
0.640625 0.958750 0.100000
0.693750 0.958750 0.100000
0.746875 0.958750 0.100000
0.800000 0.958750 0.100000
0.000000 1.000000 0.100000
0.003125 1.000000 0.100000
0.056250 1.000000 0.100000
0.109375 1.000000 0.100000
0.162500 1.000000 0.100000
0.215625 1.000000 0.100000
0.268750 1.000000 0.100000
0.321875 1.000000 0.100000
0.375000 1.000000 0.100000
0.428125 1.000000 0.100000
0.481250 1.000000 0.100000
0.534375 1.000000 0.100000
0.587500 1.000000 0.100000
0.640625 1.000000 0.100000
0.693750 1.000000 0.100000
0.746875 1.000000 0.100000
0.800000 1.000000 0.100000
0.000000 1.000000 0.100000
0.003125 1.000000 0.100000
0.056250 1.000000 0.100000
0.109375 1.000000 0.100000
0.162500 1.000000 0.100000
0.215625 1.000000 0.100000
0.268750 1.000000 0.100000
0.321875 1.000000 0.100000
0.375000 1.000000 0.100000
0.428125 1.000000 0.100000
0.481250 1.000000 0.100000
0.534375 1.000000 0.100000
0.587500 1.000000 0.100000
0.640625 1.000000 0.100000
0.693750 1.000000 0.100000
0.746875 1.000000 0.100000
0.800000 1.000000 0.100000
0.000000 0.040000 0.175000
0.003125 0.040000 0.175000
0.056250 0.040000 0.175000
0.109375 0.040000 0.175000
0.162500 0.040000 0.175000
0.215625 0.040000 0.175000
0.268750 0.040000 0.175000
0.321875 0.040000 0.175000
0.375000 0.040000 0.175000
0.428125 0.040000 0.175000
0.481250 0.040000 0.175000
0.534375 0.040000 0.175000
0.587500 0.040000 0.175000
0.640625 0.040000 0.175000
0.693750 0.040000 0.175000
0.746875 0.040000 0.175000
0.800000 0.040000 0.175000
0.000000 0.105625 0.175000
0.003125 0.105625 0.175000
0.056250 0.105625 0.175000
0.109375 0.105625 0.175000
0.162500 0.105625 0.175000
0.215625 0.105625 0.175000
0.268750 0.105625 0.175000
0.321875 0.105625 0.175000
0.375000 0.105625 0.175000
0.428125 0.105625 0.175000
0.481250 0.105625 0.175000
0.534375 0.105625 0.175000
0.587500 0.105625 0.175000
0.640625 0.105625 0.175000
0.693750 0.105625 0.175000
0.746875 0.105625 0.175000
0.800000 0.105625 0.175000
0.000000 0.171250 0.175000
0.003125 0.171250 0.175000
0.056250 0.171250 0.175000
0.109375 0.171250 0.175000
0.162500 0.171250 0.175000
0.215625 0.171250 0.175000
0.268750 0.171250 0.175000
0.321875 0.171250 0.175000
0.375000 0.171250 0.175000
0.428125 0.171250 0.175000
0.481250 0.171250 0.175000
0.534375 0.171250 0.175000
0.587500 0.171250 0.175000
0.640625 0.171250 0.175000
0.693750 0.171250 0.175000
0.746875 0.171250 0.175000
0.800000 0.171250 0.175000
0.000000 0.236875 0.175000
0.003125 0.236875 0.175000
0.056250 0.236875 0.175000
0.109375 0.236875 0.175000
0.162500 0.236875 0.175000
0.215625 0.236875 0.175000
0.268750 0.236875 0.175000
0.321875 0.236875 0.175000
0.375000 0.236875 0.175000
0.428125 0.236875 0.175000
0.481250 0.236875 0.175000
0.534375 0.236875 0.175000
0.587500 0.236875 0.175000
0.640625 0.236875 0.175000
0.693750 0.236875 0.175000
0.746875 0.236875 0.175000
0.800000 0.236875 0.175000
0.000000 0.302500 0.175000
0.003125 0.302500 0.175000
0.056250 0.302500 0.175000
0.109375 0.302500 0.175000
0.162500 0.302500 0.175000
0.215625 0.302500 0.175000
0.268750 0.302500 0.175000
0.321875 0.302500 0.175000
0.375000 0.302500 0.175000
0.428125 0.302500 0.175000
0.481250 0.302500 0.175000
0.534375 0.302500 0.175000
0.587500 0.302500 0.175000
0.640625 0.302500 0.175000
0.693750 0.302500 0.175000
0.746875 0.302500 0.175000
0.800000 0.302500 0.175000
0.000000 0.368125 0.175000
0.003125 0.368125 0.175000
0.056250 0.368125 0.175000
0.109375 0.368125 0.175000
0.162500 0.368125 0.175000
0.215625 0.368125 0.175000
0.268750 0.368125 0.175000
0.321875 0.368125 0.175000
0.375000 0.368125 0.175000
0.428125 0.368125 0.175000
0.481250 0.368125 0.175000
0.534375 0.368125 0.175000
0.587500 0.368125 0.175000
0.640625 0.368125 0.175000
0.693750 0.368125 0.175000
0.746875 0.368125 0.175000
0.800000 0.368125 0.175000
0.000000 0.433750 0.175000
0.003125 0.433750 0.175000
0.056250 0.433750 0.175000
0.109375 0.433750 0.175000
0.162500 0.433750 0.175000
0.215625 0.433750 0.175000
0.268750 0.433750 0.175000
0.321875 0.433750 0.175000
0.375000 0.433750 0.175000
0.428125 0.433750 0.175000
0.481250 0.433750 0.175000
0.534375 0.433750 0.175000
0.587500 0.433750 0.175000
0.640625 0.433750 0.175000
0.693750 0.433750 0.175000
0.746875 0.433750 0.175000
0.800000 0.433750 0.175000
0.000000 0.499375 0.175000
0.003125 0.499375 0.175000
0.056250 0.499375 0.175000
0.109375 0.499375 0.175000
0.162500 0.499375 0.175000
0.215625 0.499375 0.175000
0.268750 0.499375 0.175000
0.321875 0.499375 0.175000
0.375000 0.499375 0.175000
0.428125 0.499375 0.175000
0.481250 0.499375 0.175000
0.534375 0.499375 0.175000
0.587500 0.499375 0.175000
0.640625 0.499375 0.175000
0.693750 0.499375 0.175000
0.746875 0.499375 0.175000
0.800000 0.499375 0.175000
0.000000 0.565000 0.175000
0.003125 0.565000 0.175000
0.056250 0.565000 0.175000
0.109375 0.565000 0.175000
0.162500 0.565000 0.175000
0.215625 0.565000 0.175000
0.268750 0.565000 0.175000
0.321875 0.565000 0.175000
0.375000 0.565000 0.175000
0.428125 0.565000 0.175000
0.481250 0.565000 0.175000
0.534375 0.565000 0.175000
0.587500 0.565000 0.175000
0.640625 0.565000 0.175000
0.693750 0.565000 0.175000
0.746875 0.565000 0.175000
0.800000 0.565000 0.175000
0.000000 0.630625 0.175000
0.003125 0.630625 0.175000
0.056250 0.630625 0.175000
0.109375 0.630625 0.175000
0.162500 0.630625 0.175000
0.215625 0.630625 0.175000
0.268750 0.630625 0.175000
0.321875 0.630625 0.175000
0.375000 0.630625 0.175000
0.428125 0.630625 0.175000
0.481250 0.630625 0.175000
0.534375 0.630625 0.175000
0.587500 0.630625 0.175000
0.640625 0.630625 0.175000
0.693750 0.630625 0.175000
0.746875 0.630625 0.175000
0.800000 0.630625 0.175000
0.000000 0.696250 0.175000
0.003125 0.696250 0.175000
0.056250 0.696250 0.175000
0.109375 0.696250 0.175000
0.162500 0.696250 0.175000
0.215625 0.696250 0.175000
0.268750 0.696250 0.175000
0.321875 0.696250 0.175000
0.375000 0.696250 0.175000
0.428125 0.696250 0.175000
0.481250 0.696250 0.175000
0.534375 0.696250 0.175000
0.587500 0.696250 0.175000
0.640625 0.696250 0.175000
0.693750 0.696250 0.175000
0.746875 0.696250 0.175000
0.800000 0.696250 0.175000
0.000000 0.761875 0.175000
0.003125 0.761875 0.175000
0.056250 0.761875 0.175000
0.109375 0.761875 0.175000
0.162500 0.761875 0.175000
0.215625 0.761875 0.175000
0.268750 0.761875 0.175000
0.321875 0.761875 0.175000
0.375000 0.761875 0.175000
0.428125 0.761875 0.175000
0.481250 0.761875 0.175000
0.534375 0.761875 0.175000
0.587500 0.761875 0.175000
0.640625 0.761875 0.175000
0.693750 0.761875 0.175000
0.746875 0.761875 0.175000
0.800000 0.761875 0.175000
0.000000 0.827500 0.175000
0.003125 0.827500 0.175000
0.056250 0.827500 0.175000
0.109375 0.827500 0.175000
0.162500 0.827500 0.175000
0.215625 0.827500 0.175000
0.268750 0.827500 0.175000
0.321875 0.827500 0.175000
0.375000 0.827500 0.175000
0.428125 0.827500 0.175000
0.481250 0.827500 0.175000
0.534375 0.827500 0.175000
0.587500 0.827500 0.175000
0.640625 0.827500 0.175000
0.693750 0.827500 0.175000
0.746875 0.827500 0.175000
0.800000 0.827500 0.175000
0.000000 0.893125 0.175000
0.003125 0.893125 0.175000
0.056250 0.893125 0.175000
0.109375 0.893125 0.175000
0.162500 0.893125 0.175000
0.215625 0.893125 0.175000
0.268750 0.893125 0.175000
0.321875 0.893125 0.175000
0.375000 0.893125 0.175000
0.428125 0.893125 0.175000
0.481250 0.893125 0.175000
0.534375 0.893125 0.175000
0.587500 0.893125 0.175000
0.640625 0.893125 0.175000
0.693750 0.893125 0.175000
0.746875 0.893125 0.175000
0.800000 0.893125 0.175000
0.000000 0.958750 0.175000
0.003125 0.958750 0.175000
0.056250 0.958750 0.175000
0.109375 0.958750 0.175000
0.162500 0.958750 0.175000
0.215625 0.958750 0.175000
0.268750 0.958750 0.175000
0.321875 0.958750 0.175000
0.375000 0.958750 0.175000
0.428125 0.958750 0.175000
0.481250 0.958750 0.175000
0.534375 0.958750 0.175000
0.587500 0.958750 0.175000
0.640625 0.958750 0.175000
0.693750 0.958750 0.175000
0.746875 0.958750 0.175000
0.800000 0.958750 0.175000
0.000000 1.000000 0.175000
0.003125 1.000000 0.175000
0.056250 1.000000 0.175000
0.109375 1.000000 0.175000
0.162500 1.000000 0.175000
0.215625 1.000000 0.175000
0.268750 1.000000 0.175000
0.321875 1.000000 0.175000
0.375000 1.000000 0.175000
0.428125 1.000000 0.175000
0.481250 1.000000 0.175000
0.534375 1.000000 0.175000
0.587500 1.000000 0.175000
0.640625 1.000000 0.175000
0.693750 1.000000 0.175000
0.746875 1.000000 0.175000
0.800000 1.000000 0.175000
0.000000 1.000000 0.175000
0.003125 1.000000 0.175000
0.056250 1.000000 0.175000
0.109375 1.000000 0.175000
0.162500 1.000000 0.175000
0.215625 1.000000 0.175000
0.268750 1.000000 0.175000
0.321875 1.000000 0.175000
0.375000 1.000000 0.175000
0.428125 1.000000 0.175000
0.481250 1.000000 0.175000
0.534375 1.000000 0.175000
0.587500 1.000000 0.175000
0.640625 1.000000 0.175000
0.693750 1.000000 0.175000
0.746875 1.000000 0.175000
0.800000 1.000000 0.175000
0.000000 0.040000 0.250000
0.003125 0.040000 0.250000
0.056250 0.040000 0.250000
0.109375 0.040000 0.250000
0.162500 0.040000 0.250000
0.215625 0.040000 0.250000
0.268750 0.040000 0.250000
0.321875 0.040000 0.250000
0.375000 0.040000 0.250000
0.428125 0.040000 0.250000
0.481250 0.040000 0.250000
0.534375 0.040000 0.250000
0.587500 0.040000 0.250000
0.640625 0.040000 0.250000
0.693750 0.040000 0.250000
0.746875 0.040000 0.250000
0.800000 0.040000 0.250000
0.000000 0.105625 0.250000
0.003125 0.105625 0.250000
0.056250 0.105625 0.250000
0.109375 0.105625 0.250000
0.162500 0.105625 0.250000
0.215625 0.105625 0.250000
0.268750 0.105625 0.250000
0.321875 0.105625 0.250000
0.375000 0.105625 0.250000
0.428125 0.105625 0.250000
0.481250 0.105625 0.250000
0.534375 0.105625 0.250000
0.587500 0.105625 0.250000
0.640625 0.105625 0.250000
0.693750 0.105625 0.250000
0.746875 0.105625 0.250000
0.800000 0.105625 0.250000
0.000000 0.171250 0.250000
0.003125 0.171250 0.250000
0.056250 0.171250 0.250000
0.109375 0.171250 0.250000
0.162500 0.171250 0.250000
0.215625 0.171250 0.250000
0.268750 0.171250 0.250000
0.321875 0.171250 0.250000
0.375000 0.171250 0.250000
0.428125 0.171250 0.250000
0.481250 0.171250 0.250000
0.534375 0.171250 0.250000
0.587500 0.171250 0.250000
0.640625 0.171250 0.250000
0.693750 0.171250 0.250000
0.746875 0.171250 0.250000
0.800000 0.171250 0.250000
0.000000 0.236875 0.250000
0.003125 0.236875 0.250000
0.056250 0.236875 0.250000
0.109375 0.236875 0.250000
0.162500 0.236875 0.250000
0.215625 0.236875 0.250000
0.268750 0.236875 0.250000
0.321875 0.236875 0.250000
0.375000 0.236875 0.250000
0.428125 0.236875 0.250000
0.481250 0.236875 0.250000
0.534375 0.236875 0.250000
0.587500 0.236875 0.250000
0.640625 0.236875 0.250000
0.693750 0.236875 0.250000
0.746875 0.236875 0.250000
0.800000 0.236875 0.250000
0.000000 0.302500 0.250000
0.003125 0.302500 0.250000
0.056250 0.302500 0.250000
0.109375 0.302500 0.250000
0.162500 0.302500 0.250000
0.215625 0.302500 0.250000
0.268750 0.302500 0.250000
0.321875 0.302500 0.250000
0.375000 0.302500 0.250000
0.428125 0.302500 0.250000
0.481250 0.302500 0.250000
0.534375 0.302500 0.250000
0.587500 0.302500 0.250000
0.640625 0.302500 0.250000
0.693750 0.302500 0.250000
0.746875 0.302500 0.250000
0.800000 0.302500 0.250000
0.000000 0.368125 0.250000
0.003125 0.368125 0.250000
0.056250 0.368125 0.250000
0.109375 0.368125 0.250000
0.162500 0.368125 0.250000
0.215625 0.368125 0.250000
0.268750 0.368125 0.250000
0.321875 0.368125 0.250000
0.375000 0.368125 0.250000
0.428125 0.368125 0.250000
0.481250 0.368125 0.250000
0.534375 0.368125 0.250000
0.587500 0.368125 0.250000
0.640625 0.368125 0.250000
0.693750 0.368125 0.250000
0.746875 0.368125 0.250000
0.800000 0.368125 0.250000
0.000000 0.433750 0.250000
0.003125 0.433750 0.250000
0.056250 0.433750 0.250000
0.109375 0.433750 0.250000
0.162500 0.433750 0.250000
0.215625 0.433750 0.250000
0.268750 0.433750 0.250000
0.321875 0.433750 0.250000
0.375000 0.433750 0.250000
0.428125 0.433750 0.250000
0.481250 0.433750 0.250000
0.534375 0.433750 0.250000
0.587500 0.433750 0.250000
0.640625 0.433750 0.250000
0.693750 0.433750 0.250000
0.746875 0.433750 0.250000
0.800000 0.433750 0.250000
0.000000 0.499375 0.250000
0.003125 0.499375 0.250000
0.056250 0.499375 0.250000
0.109375 0.499375 0.250000
0.162500 0.499375 0.250000
0.215625 0.499375 0.250000
0.268750 0.499375 0.250000
0.321875 0.499375 0.250000
0.375000 0.499375 0.250000
0.428125 0.499375 0.250000
0.481250 0.499375 0.250000
0.534375 0.499375 0.250000
0.587500 0.499375 0.250000
0.640625 0.499375 0.250000
0.693750 0.499375 0.250000
0.746875 0.499375 0.250000
0.800000 0.499375 0.250000
0.000000 0.565000 0.250000
0.003125 0.565000 0.250000
0.056250 0.565000 0.250000
0.109375 0.565000 0.250000
0.162500 0.565000 0.250000
0.215625 0.565000 0.250000
0.268750 0.565000 0.250000
0.321875 0.565000 0.250000
0.375000 0.565000 0.250000
0.428125 0.565000 0.250000
0.481250 0.565000 0.250000
0.534375 0.565000 0.250000
0.587500 0.565000 0.250000
0.640625 0.565000 0.250000
0.693750 0.565000 0.250000
0.746875 0.565000 0.250000
0.800000 0.565000 0.250000
0.000000 0.630625 0.250000
0.003125 0.630625 0.250000
0.056250 0.630625 0.250000
0.109375 0.630625 0.250000
0.162500 0.630625 0.250000
0.215625 0.630625 0.250000
0.268750 0.630625 0.250000
0.321875 0.630625 0.250000
0.375000 0.630625 0.250000
0.428125 0.630625 0.250000
0.481250 0.630625 0.250000
0.534375 0.630625 0.250000
0.587500 0.630625 0.250000
0.640625 0.630625 0.250000
0.693750 0.630625 0.250000
0.746875 0.630625 0.250000
0.800000 0.630625 0.250000
0.000000 0.696250 0.250000
0.003125 0.696250 0.250000
0.056250 0.696250 0.250000
0.109375 0.696250 0.250000
0.162500 0.696250 0.250000
0.215625 0.696250 0.250000
0.268750 0.696250 0.250000
0.321875 0.696250 0.250000
0.375000 0.696250 0.250000
0.428125 0.696250 0.250000
0.481250 0.696250 0.250000
0.534375 0.696250 0.250000
0.587500 0.696250 0.250000
0.640625 0.696250 0.250000
0.693750 0.696250 0.250000
0.746875 0.696250 0.250000
0.800000 0.696250 0.250000
0.000000 0.761875 0.250000
0.003125 0.761875 0.250000
0.056250 0.761875 0.250000
0.109375 0.761875 0.250000
0.162500 0.761875 0.250000
0.215625 0.761875 0.250000
0.268750 0.761875 0.250000
0.321875 0.761875 0.250000
0.375000 0.761875 0.250000
0.428125 0.761875 0.250000
0.481250 0.761875 0.250000
0.534375 0.761875 0.250000
0.587500 0.761875 0.250000
0.640625 0.761875 0.250000
0.693750 0.761875 0.250000
0.746875 0.761875 0.250000
0.800000 0.761875 0.250000
0.000000 0.827500 0.250000
0.003125 0.827500 0.250000
0.056250 0.827500 0.250000
0.109375 0.827500 0.250000
0.162500 0.827500 0.250000
0.215625 0.827500 0.250000
0.268750 0.827500 0.250000
0.321875 0.827500 0.250000
0.375000 0.827500 0.250000
0.428125 0.827500 0.250000
0.481250 0.827500 0.250000
0.534375 0.827500 0.250000
0.587500 0.827500 0.250000
0.640625 0.827500 0.250000
0.693750 0.827500 0.250000
0.746875 0.827500 0.250000
0.800000 0.827500 0.250000
0.000000 0.893125 0.250000
0.003125 0.893125 0.250000
0.056250 0.893125 0.250000
0.109375 0.893125 0.250000
0.162500 0.893125 0.250000
0.215625 0.893125 0.250000
0.268750 0.893125 0.250000
0.321875 0.893125 0.250000
0.375000 0.893125 0.250000
0.428125 0.893125 0.250000
0.481250 0.893125 0.250000
0.534375 0.893125 0.250000
0.587500 0.893125 0.250000
0.640625 0.893125 0.250000
0.693750 0.893125 0.250000
0.746875 0.893125 0.250000
0.800000 0.893125 0.250000
0.000000 0.958750 0.250000
0.003125 0.958750 0.250000
0.056250 0.958750 0.250000
0.109375 0.958750 0.250000
0.162500 0.958750 0.250000
0.215625 0.958750 0.250000
0.268750 0.958750 0.250000
0.321875 0.958750 0.250000
0.375000 0.958750 0.250000
0.428125 0.958750 0.250000
0.481250 0.958750 0.250000
0.534375 0.958750 0.250000
0.587500 0.958750 0.250000
0.640625 0.958750 0.250000
0.693750 0.958750 0.250000
0.746875 0.958750 0.250000
0.800000 0.958750 0.250000
0.000000 1.000000 0.250000
0.003125 1.000000 0.250000
0.056250 1.000000 0.250000
0.109375 1.000000 0.250000
0.162500 1.000000 0.250000
0.215625 1.000000 0.250000
0.268750 1.000000 0.250000
0.321875 1.000000 0.250000
0.375000 1.000000 0.250000
0.428125 1.000000 0.250000
0.481250 1.000000 0.250000
0.534375 1.000000 0.250000
0.587500 1.000000 0.250000
0.640625 1.000000 0.250000
0.693750 1.000000 0.250000
0.746875 1.000000 0.250000
0.800000 1.000000 0.250000
0.000000 1.000000 0.250000
0.003125 1.000000 0.250000
0.056250 1.000000 0.250000
0.109375 1.000000 0.250000
0.162500 1.000000 0.250000
0.215625 1.000000 0.250000
0.268750 1.000000 0.250000
0.321875 1.000000 0.250000
0.375000 1.000000 0.250000
0.428125 1.000000 0.250000
0.481250 1.000000 0.250000
0.534375 1.000000 0.250000
0.587500 1.000000 0.250000
0.640625 1.000000 0.250000
0.693750 1.000000 0.250000
0.746875 1.000000 0.250000
0.800000 1.000000 0.250000
0.000000 0.040000 0.325000
0.003125 0.040000 0.325000
0.056250 0.040000 0.325000
0.109375 0.040000 0.325000
0.162500 0.040000 0.325000
0.215625 0.040000 0.325000
0.268750 0.040000 0.325000
0.321875 0.040000 0.325000
0.375000 0.040000 0.325000
0.428125 0.040000 0.325000
0.481250 0.040000 0.325000
0.534375 0.040000 0.325000
0.587500 0.040000 0.325000
0.640625 0.040000 0.325000
0.693750 0.040000 0.325000
0.746875 0.040000 0.325000
0.800000 0.040000 0.325000
0.000000 0.105625 0.325000
