app/src/main/assets/luts/fresh_face.cube
# ApexStudio filter: fresh_face
LUT_3D_SIZE 17
DOMAIN_MIN 0.0 0.0 0.0
DOMAIN_MAX 1.0 1.0 1.0
0.000000 0.000000 0.000000
0.064691 0.000000 0.000000
0.129381 0.000000 0.000000
0.194072 0.000000 0.000000
0.258763 0.000000 0.000000
0.323453 0.000000 0.000000
0.388144 0.000000 0.000000
0.452834 0.000000 0.000000
0.517525 0.000000 0.000000
0.582216 0.000000 0.000000
0.646906 0.000000 0.000000
0.711597 0.000000 0.000000
0.776288 0.000000 0.000000
0.840978 0.000000 0.000000
0.905669 0.000000 0.000000
0.970359 0.000000 0.000000
1.000000 0.000000 0.000000
0.000000 0.063791 0.000000
0.062856 0.062856 0.000000
0.127547 0.061922 0.000000
0.192238 0.060988 0.000000
0.256928 0.060053 0.000000
0.321619 0.059119 0.000000
0.386309 0.058184 0.000000
0.451000 0.057250 0.000000
0.515691 0.056316 0.000000
0.580381 0.055381 0.000000
0.645072 0.054447 0.000000
0.709763 0.053512 0.000000
0.774453 0.052578 0.000000
0.839144 0.051644 0.000000
0.903834 0.050709 0.000000
0.968525 0.049775 0.000000
1.000000 0.048841 0.000000
0.000000 0.127581 0.000000
0.061022 0.126647 0.000000
0.125713 0.125713 0.000000
0.190403 0.124778 0.000000
0.255094 0.123844 0.000000
0.319784 0.122909 0.000000
0.384475 0.121975 0.000000
0.449166 0.121041 0.000000
0.513856 0.120106 0.000000
0.578547 0.119172 0.000000
0.643238 0.118237 0.000000
0.707928 0.117303 0.000000
0.772619 0.116369 0.000000
0.837309 0.115434 0.000000
0.902000 0.114500 0.000000
0.966691 0.113566 0.000000
1.000000 0.112631 0.000000
0.000000 0.191372 0.000000
0.059187 0.190438 0.000000
0.123878 0.189503 0.000000
0.188569 0.188569 0.000000
0.253259 0.187634 0.000000
0.317950 0.186700 0.000000
0.382641 0.185766 0.000000
0.447331 0.184831 0.000000
0.512022 0.183897 0.000000
0.576712 0.182963 0.000000
0.641403 0.182028 0.000000
0.706094 0.181094 0.000000
0.770784 0.180159 0.000000
0.835475 0.179225 0.000000
0.900166 0.178291 0.000000
0.964856 0.177356 0.000000
1.000000 0.176422 0.000000
0.000000 0.255163 0.000000
0.057353 0.254228 0.000000
0.122044 0.253294 0.000000
0.186734 0.252359 0.000000
0.251425 0.251425 0.000000
0.316116 0.250491 0.000000
0.380806 0.249556 0.000000
0.445497 0.248622 0.000000
0.510188 0.247688 0.000000
0.574878 0.246753 0.000000
0.639569 0.245819 0.000000
0.704259 0.244884 0.000000
0.768950 0.243950 0.000000
0.833641 0.243016 0.000000
0.898331 0.242081 0.000000
0.963022 0.241147 0.000000
1.000000 0.240212 0.000000
0.000000 0.318953 0.000000
0.055519 0.318019 0.000000
0.120209 0.317084 0.000000
0.184900 0.316150 0.000000
0.249591 0.315216 0.000000
0.314281 0.314281 0.000000
0.378972 0.313347 0.000000
0.443663 0.312412 0.000000
0.508353 0.311478 0.000000
0.573044 0.310544 0.000000
0.637734 0.309609 0.000000
0.702425 0.308675 0.000000
0.767116 0.307741 0.000000
0.831806 0.306806 0.000000
0.896497 0.305872 0.000000
0.961188 0.304937 0.000000
1.000000 0.304003 0.000000
0.000000 0.382744 0.000000
0.053684 0.381809 0.000000
0.118375 0.380875 0.000000
0.183066 0.379941 0.000000
0.247756 0.379006 0.000000
0.312447 0.378072 0.000000
0.377138 0.377138 0.000000
0.441828 0.376203 0.000000
0.506519 0.375269 0.000000
0.571209 0.374334 0.000000
0.635900 0.373400 0.000000
0.700591 0.372466 0.000000
0.765281 0.371531 0.000000
0.829972 0.370597 0.000000
0.894663 0.369663 0.000000
0.959353 0.368728 0.000000
1.000000 0.367794 0.000000
0.000000 0.446534 0.000000
0.051850 0.445600 0.000000
0.116541 0.444666 0.000000
0.181231 0.443731 0.000000
0.245922 0.442797 0.000000
0.310613 0.441862 0.000000
0.375303 0.440928 0.000000
0.439994 0.439994 0.000000
0.504684 0.439059 0.000000
0.569375 0.438125 0.000000
0.634066 0.437191 0.000000
0.698756 0.436256 0.000000
0.763447 0.435322 0.000000
0.828137 0.434387 0.000000
0.892828 0.433453 0.000000
0.957519 0.432519 0.000000
1.000000 0.431584 0.000000
0.000000 0.510325 0.000000
0.050016 0.509391 0.000000
0.114706 0.508456 0.000000
0.179397 0.507522 0.000000
0.244088 0.506587 0.000000
0.308778 0.505653 0.000000
0.373469 0.504719 0.000000
0.438159 0.503784 0.000000
0.502850 0.502850 0.000000
0.567541 0.501916 0.000000
0.632231 0.500981 0.000000
0.696922 0.500047 0.000000
0.761613 0.499113 0.000000
0.826303 0.498178 0.000000
0.890994 0.497244 0.000000
0.955684 0.496309 0.000000
1.000000 0.495375 0.000000
0.000000 0.574116 0.000000
0.048181 0.573181 0.000000
0.112872 0.572247 0.000000
0.177562 0.571313 0.000000
0.242253 0.570378 0.000000
0.306944 0.569444 0.000000
0.371634 0.568509 0.000000
0.436325 0.567575 0.000000
0.501016 0.566641 0.000000
0.565706 0.565706 0.000000
0.630397 0.564772 0.000000
0.695087 0.563837 0.000000
0.759778 0.562903 0.000000
0.824469 0.561969 0.000000
0.889159 0.561034 0.000000
0.953850 0.560100 0.000000
1.000000 0.559166 0.000000
0.000000 0.637906 0.000000
0.046347 0.636972 0.000000
0.111038 0.636038 0.000000
0.175728 0.635103 0.000000
0.240419 0.634169 0.000000
0.305109 0.633234 0.000000
0.369800 0.632300 0.000000
0.434491 0.631366 0.000000
0.499181 0.630431 0.000000
0.563872 0.629497 0.000000
0.628563 0.628563 0.000000
0.693253 0.627628 0.000000
0.757944 0.626694 0.000000
0.822634 0.625759 0.000000
0.887325 0.624825 0.000000
0.952016 0.623891 0.000000
1.000000 0.622956 0.000000
0.000000 0.701697 0.000000
0.044513 0.700762 0.000000
0.109203 0.699828 0.000000
0.173894 0.698894 0.000000
0.238584 0.697959 0.000000
0.303275 0.697025 0.000000
0.367966 0.696091 0.000000
0.432656 0.695156 0.000000
0.497347 0.694222 0.000000
0.562037 0.693288 0.000000
0.626728 0.692353 0.000000
0.691419 0.691419 0.000000
0.756109 0.690484 0.000000
0.820800 0.689550 0.000000
0.885491 0.688616 0.000000
0.950181 0.687681 0.000000
1.000000 0.686747 0.000000
0.000000 0.765487 0.000000
0.042678 0.764553 0.000000
0.107369 0.763619 0.000000
0.172059 0.762684 0.000000
0.236750 0.761750 0.000000
0.301441 0.760816 0.000000
0.366131 0.759881 0.000000
0.430822 0.758947 0.000000
0.495513 0.758012 0.000000
0.560203 0.757078 0.000000
0.624894 0.756144 0.000000
0.689584 0.755209 0.000000
0.754275 0.754275 0.000000
0.818966 0.753341 0.000000
0.883656 0.752406 0.000000
0.948347 0.751472 0.000000
1.000000 0.750537 0.000000
0.000000 0.829278 0.000000
0.040844 0.828344 0.000000
0.105534 0.827409 0.000000
0.170225 0.826475 0.000000
0.234916 0.825541 0.000000
0.299606 0.824606 0.000000
0.364297 0.823672 0.000000
0.428987 0.822738 0.000000
0.493678 0.821803 0.000000
0.558369 0.820869 0.000000
0.623059 0.819934 0.000000
0.687750 0.819000 0.000000
0.752441 0.818066 0.000000
0.817131 0.817131 0.000000
0.881822 0.816197 0.000000
0.946512 0.815263 0.000000
1.000000 0.814328 0.000000
0.000000 0.893069 0.000000
0.039009 0.892134 0.000000
0.103700 0.891200 0.000000
0.168391 0.890266 0.000000
0.233081 0.889331 0.000000
0.297772 0.888397 0.000000
0.362462 0.887463 0.000000
0.427153 0.886528 0.000000
0.491844 0.885594 0.000000
0.556534 0.884659 0.000000
0.621225 0.883725 0.000000
0.685916 0.882791 0.000000
0.750606 0.881856 0.000000
0.815297 0.880922 0.000000
0.879988 0.879988 0.000000
0.944678 0.879053 0.000000
1.000000 0.878119 0.000000
0.000000 0.956859 0.000000
0.037175 0.955925 0.000000
0.101866 0.954991 0.000000
0.166556 0.954056 0.000000
0.231247 0.953122 0.000000
0.295937 0.952187 0.000000
0.360628 0.951253 0.000000
0.425319 0.950319 0.000000
0.490009 0.949384 0.000000
0.554700 0.948450 0.000000
0.619391 0.947516 0.000000
0.684081 0.946581 0.000000
0.748772 0.945647 0.000000
0.813462 0.944713 0.000000
0.878153 0.943778 0.000000
0.942844 0.942844 0.000000
1.000000 0.941909 0.000000
0.000000 1.000000 0.000000
0.035341 1.000000 0.000000
0.100031 1.000000 0.000000
0.164722 1.000000 0.000000
0.229412 1.000000 0.000000
0.294103 1.000000 0.000000
0.358794 1.000000 0.000000
0.423484 1.000000 0.000000
0.488175 1.000000 0.000000
0.552866 1.000000 0.000000
0.617556 1.000000 0.000000
0.682247 1.000000 0.000000
0.746938 1.000000 0.000000
0.811628 1.000000 0.000000
0.876319 1.000000 0.000000
0.941009 1.000000 0.000000
1.000000 1.000000 0.000000
0.000000 0.000000 0.065269
0.064334 0.000000 0.064334
0.129025 0.000000 0.063400
0.193716 0.000000 0.062466
0.258406 0.000000 0.061531
0.323097 0.000000 0.060597
0.387788 0.000000 0.059663
0.452478 0.000000 0.058728
0.517169 0.000000 0.057794
0.581859 0.000000 0.056859
0.646550 0.000000 0.055925
0.711241 0.000000 0.054991
0.775931 0.000000 0.054056
0.840622 0.000000 0.053122
0.905312 0.000000 0.052187
0.970003 0.000000 0.051253
1.000000 0.000000 0.050319
0.000000 0.063434 0.063434
0.062500 0.062500 0.062500
0.127191 0.061566 0.061566
0.191881 0.060631 0.060631
0.256572 0.059697 0.059697
0.321263 0.058762 0.058762
0.385953 0.057828 0.057828
0.450644 0.056894 0.056894
0.515334 0.055959 0.055959
0.580025 0.055025 0.055025
0.644716 0.054091 0.054091
0.709406 0.053156 0.053156
0.774097 0.052222 0.052222
0.838788 0.051287 0.051287
0.903478 0.050353 0.050353
0.968169 0.049419 0.049419
1.000000 0.048484 0.048484
0.000000 0.127225 0.061600
0.060666 0.126291 0.060666
0.125356 0.125356 0.059731
0.190047 0.124422 0.058797
0.254738 0.123488 0.057862
0.319428 0.122553 0.056928
0.384119 0.121619 0.055994
0.448809 0.120684 0.055059
0.513500 0.119750 0.054125
0.578191 0.118816 0.053191
0.642881 0.117881 0.052256
0.707572 0.116947 0.051322
0.772263 0.116012 0.050387
0.836953 0.115078 0.049453
0.901644 0.114144 0.048519
0.966334 0.113209 0.047584
1.000000 0.112275 0.046650
0.000000 0.191016 0.059766
0.058831 0.190081 0.058831
0.123522 0.189147 0.057897
0.188213 0.188213 0.056962
0.252903 0.187278 0.056028
0.317594 0.186344 0.055094
0.382284 0.185409 0.054159
0.446975 0.184475 0.053225
0.511666 0.183541 0.052291
0.576356 0.182606 0.051356
0.641047 0.181672 0.050422
0.705738 0.180737 0.049487
0.770428 0.179803 0.048553
0.835119 0.178869 0.047619
0.899809 0.177934 0.046684
0.964500 0.177000 0.045750
1.000000 0.176066 0.044816
0.000000 0.254806 0.057931
0.056997 0.253872 0.056997
0.121688 0.252937 0.056062
0.186378 0.252003 0.055128
0.251069 0.251069 0.054194
0.315759 0.250134 0.053259
0.380450 0.249200 0.052325
0.445141 0.248266 0.051391
0.509831 0.247331 0.050456
0.574522 0.246397 0.049522
0.639212 0.245463 0.048588
0.703903 0.244528 0.047653
0.768594 0.243594 0.046719
0.833284 0.242659 0.045784
0.897975 0.241725 0.044850
0.962666 0.240791 0.043916
1.000000 0.239856 0.042981
0.000000 0.318597 0.056097
0.055163 0.317663 0.055163
0.119853 0.316728 0.054228
0.184544 0.315794 0.053294
0.249234 0.314859 0.052359
0.313925 0.313925 0.051425
0.378616 0.312991 0.050491
0.443306 0.312056 0.049556
0.507997 0.311122 0.048622
0.572688 0.310188 0.047687
0.637378 0.309253 0.046753
0.702069 0.308319 0.045819
0.766759 0.307384 0.044884
0.831450 0.306450 0.043950
0.896141 0.305516 0.043016
0.960831 0.304581 0.042081
1.000000 0.303647 0.041147
0.000000 0.382387 0.054262
0.053328 0.381453 0.053328
0.118019 0.380519 0.052394
0.182709 0.379584 0.051459
0.247400 0.378650 0.050525
0.312091 0.377716 0.049591
0.376781 0.376781 0.048656
0.441472 0.375847 0.047722
0.506163 0.374912 0.046787
0.570853 0.373978 0.045853
0.635544 0.373044 0.044919
0.700234 0.372109 0.043984
0.764925 0.371175 0.043050
0.829616 0.370241 0.042116
0.894306 0.369306 0.041181
0.958997 0.368372 0.040247
1.000000 0.367437 0.039312
0.000000 0.446178 0.052428
0.051494 0.445244 0.051494
0.116184 0.444309 0.050559
0.180875 0.443375 0.049625
0.245566 0.442441 0.048691
0.310256 0.441506 0.047756
0.374947 0.440572 0.046822
0.439638 0.439638 0.045887
0.504328 0.438703 0.044953
0.569019 0.437769 0.044019
0.633709 0.436834 0.043084
0.698400 0.435900 0.042150
0.763091 0.434966 0.041216
0.827781 0.434031 0.040281
0.892472 0.433097 0.039347
0.957163 0.432163 0.038412
1.000000 0.431228 0.037478
0.000000 0.509969 0.050594
0.049659 0.509034 0.049659
0.114350 0.508100 0.048725
0.179041 0.507166 0.047791
0.243731 0.506231 0.046856
0.308422 0.505297 0.045922
0.373113 0.504363 0.044987
0.437803 0.503428 0.044053
0.502494 0.502494 0.043119
0.567184 0.501559 0.042184
0.631875 0.500625 0.041250
0.696566 0.499691 0.040316
0.761256 0.498756 0.039381
0.825947 0.497822 0.038447
0.890637 0.496887 0.037512
0.955328 0.495953 0.036578
1.000000 0.495019 0.035644
0.000000 0.573759 0.048759
0.047825 0.572825 0.047825
0.112516 0.571891 0.046891
0.177206 0.570956 0.045956
0.241897 0.570022 0.045022
0.306588 0.569087 0.044088
0.371278 0.568153 0.043153
0.435969 0.567219 0.042219
0.500659 0.566284 0.041284
0.565350 0.565350 0.040350
0.630041 0.564416 0.039416
0.694731 0.563481 0.038481
0.759422 0.562547 0.037547
0.824113 0.561612 0.036612
0.888803 0.560678 0.035678
0.953494 0.559744 0.034744
1.000000 0.558809 0.033809
0.000000 0.637550 0.046925
0.045991 0.636616 0.045991
0.110681 0.635681 0.045056
0.175372 0.634747 0.044122
0.240062 0.633813 0.043187
0.304753 0.632878 0.042253
0.369444 0.631944 0.041319
0.434134 0.631009 0.040384
0.498825 0.630075 0.039450
0.563516 0.629141 0.038516
0.628206 0.628206 0.037581
0.692897 0.627272 0.036647
0.757587 0.626337 0.035712
0.822278 0.625403 0.034778
0.886969 0.624469 0.033844
0.951659 0.623534 0.032909
1.000000 0.622600 0.031975
0.000000 0.701341 0.045091
0.044156 0.700406 0.044156
0.108847 0.699472 0.043222
0.173538 0.698538 0.042287
0.238228 0.697603 0.041353
0.302919 0.696669 0.040419
0.367609 0.695734 0.039484
0.432300 0.694800 0.038550
0.496991 0.693866 0.037616
0.561681 0.692931 0.036681
0.626372 0.691997 0.035747
0.691063 0.691063 0.034813
0.755753 0.690128 0.033878
0.820444 0.689194 0.032944
0.885134 0.688259 0.032009
0.949825 0.687325 0.031075
1.000000 0.686391 0.030141
0.000000 0.765131 0.043256
0.042322 0.764197 0.042322
0.107013 0.763262 0.041387
0.171703 0.762328 0.040453
0.236394 0.761394 0.039519
0.301084 0.760459 0.038584
0.365775 0.759525 0.037650
0.430466 0.758591 0.036716
0.495156 0.757656 0.035781
0.559847 0.756722 0.034847
0.624537 0.755788 0.033913
0.689228 0.754853 0.032978
0.753919 0.753919 0.032044
0.818609 0.752984 0.031109
0.883300 0.752050 0.030175
0.947991 0.751116 0.029241
1.000000 0.750181 0.028306
0.000000 0.828922 0.041422
0.040487 0.827987 0.040487
0.105178 0.827053 0.039553
0.169869 0.826119 0.038619
0.234559 0.825184 0.037684
0.299250 0.824250 0.036750
0.363941 0.823316 0.035816
0.428631 0.822381 0.034881
0.493322 0.821447 0.033947
0.558013 0.820512 0.033013
0.622703 0.819578 0.032078
0.687394 0.818644 0.031144
0.752084 0.817709 0.030209
0.816775 0.816775 0.029275
0.881466 0.815841 0.028341
0.946156 0.814906 0.027406
1.000000 0.813972 0.026472
0.000000 0.892713 0.039587
0.038653 0.891778 0.038653
0.103344 0.890844 0.037719
0.168034 0.889909 0.036784
0.232725 0.888975 0.035850
0.297416 0.888041 0.034916
0.362106 0.887106 0.033981
0.426797 0.886172 0.033047
0.491487 0.885238 0.032112
0.556178 0.884303 0.031178
0.620869 0.883369 0.030244
0.685559 0.882434 0.029309
0.750250 0.881500 0.028375
0.814941 0.880566 0.027441
0.879631 0.879631 0.026506
0.944322 0.878697 0.025572
1.000000 0.877763 0.024637
0.000000 0.956503 0.037753
0.036819 0.955569 0.036819
0.101509 0.954634 0.035884
0.166200 0.953700 0.034950
0.230891 0.952766 0.034016
0.295581 0.951831 0.033081
0.360272 0.950897 0.032147
0.424962 0.949963 0.031212
0.489653 0.949028 0.030278
0.554344 0.948094 0.029344
0.619034 0.947159 0.028409
0.683725 0.946225 0.027475
0.748416 0.945291 0.026541
0.813106 0.944356 0.025606
0.877797 0.943422 0.024672
0.942488 0.942488 0.023737
1.000000 0.941553 0.022803
0.000000 1.000000 0.035919
0.034984 1.000000 0.034984
0.099675 1.000000 0.034050
0.164366 1.000000 0.033116
0.229056 1.000000 0.032181
0.293747 1.000000 0.031247
0.358437 1.000000 0.030312
0.423128 1.000000 0.029378
0.487819 1.000000 0.028444
0.552509 1.000000 0.027509
0.617200 1.000000 0.026575
0.681891 1.000000 0.025641
0.746581 1.000000 0.024706
0.811272 1.000000 0.023772
0.875962 1.000000 0.022837
0.940653 1.000000 0.021903
1.000000 1.000000 0.020969
0.000000 0.000000 0.130538
0.063978 0.000000 0.129603
0.128669 0.000000 0.128669
0.193359 0.000000 0.127734
0.258050 0.000000 0.126800
0.322741 0.000000 0.125866
0.387431 0.000000 0.124931
0.452122 0.000000 0.123997
0.516813 0.000000 0.123062
0.581503 0.000000 0.122128
0.646194 0.000000 0.121194
0.710884 0.000000 0.120259
0.775575 0.000000 0.119325
0.840266 0.000000 0.118391
0.904956 0.000000 0.117456
0.969647 0.000000 0.116522
1.000000 0.000000 0.115587
0.000000 0.063078 0.128703
0.062144 0.062144 0.127769
0.126834 0.061209 0.126834
0.191525 0.060275 0.125900
0.256216 0.059341 0.124966
0.320906 0.058406 0.124031
0.385597 0.057472 0.123097
0.450288 0.056537 0.122163
0.514978 0.055603 0.121228
0.579669 0.054669 0.120294
0.644359 0.053734 0.119359
0.709050 0.052800 0.118425
0.773741 0.051866 0.117491
0.838431 0.050931 0.116556
0.903122 0.049997 0.115622
0.967813 0.049063 0.114687
1.000000 0.048128 0.113753
0.000000 0.126869 0.126869
0.060309 0.125934 0.125934
0.125000 0.125000 0.125000
0.189691 0.124066 0.124066
0.254381 0.123131 0.123131
0.319072 0.122197 0.122197
0.383763 0.121262 0.121262
0.448453 0.120328 0.120328
0.513144 0.119394 0.119394
0.577834 0.118459 0.118459
0.642525 0.117525 0.117525
0.707216 0.116591 0.116591
0.771906 0.115656 0.115656
0.836597 0.114722 0.114722
0.901288 0.113787 0.113787
0.965978 0.112853 0.112853
1.000000 0.111919 0.111919
0.000000 0.190659 0.125034
0.058475 0.189725 0.124100
0.123166 0.188791 0.123166
0.187856 0.187856 0.122231
0.252547 0.186922 0.121297
0.317238 0.185988 0.120362
0.381928 0.185053 0.119428
0.446619 0.184119 0.118494
0.511309 0.183184 0.117559
0.576000 0.182250 0.116625
0.640691 0.181316 0.115691
0.705381 0.180381 0.114756
0.770072 0.179447 0.113822
0.834763 0.178512 0.112887
0.899453 0.177578 0.111953
0.964144 0.176644 0.111019
1.000000 0.175709 0.110084
0.000000 0.254450 0.123200
0.056641 0.253516 0.122266
0.121331 0.252581 0.121331
0.186022 0.251647 0.120397
0.250713 0.250713 0.119462
0.315403 0.249778 0.118528
0.380094 0.248844 0.117594
0.444784 0.247909 0.116659
0.509475 0.246975 0.115725
0.574166 0.246041 0.114791
0.638856 0.245106 0.113856
0.703547 0.244172 0.112922
0.768238 0.243237 0.111987
0.832928 0.242303 0.111053
0.897619 0.241369 0.110119
0.962309 0.240434 0.109184
1.000000 0.239500 0.108250
0.000000 0.318241 0.121366
0.054806 0.317306 0.120431
0.119497 0.316372 0.119497
0.184188 0.315437 0.118562
0.248878 0.314503 0.117628
0.313569 0.313569 0.116694
0.378259 0.312634 0.115759
0.442950 0.311700 0.114825
0.507641 0.310766 0.113891
0.572331 0.309831 0.112956
0.637022 0.308897 0.112022
0.701712 0.307963 0.111088
0.766403 0.307028 0.110153
0.831094 0.306094 0.109219
0.895784 0.305159 0.108284
0.960475 0.304225 0.107350
1.000000 0.303291 0.106416
0.000000 0.382031 0.119531
0.052972 0.381097 0.118597
0.117663 0.380163 0.117663
0.182353 0.379228 0.116728
0.247044 0.378294 0.115794
0.311734 0.377359 0.114859
0.376425 0.376425 0.113925
0.441116 0.375491 0.112991
0.505806 0.374556 0.112056
0.570497 0.373622 0.111122
0.635188 0.372688 0.110187
0.699878 0.371753 0.109253
0.764569 0.370819 0.108319
0.829259 0.369884 0.107384
0.893950 0.368950 0.106450
0.958641 0.368016 0.105516
1.000000 0.367081 0.104581
0.000000 0.445822 0.117697
0.051138 0.444887 0.116762
0.115828 0.443953 0.115828
0.180519 0.443019 0.114894
0.245209 0.442084 0.113959
0.309900 0.441150 0.113025
0.374591 0.440216 0.112091
0.439281 0.439281 0.111156
0.503972 0.438347 0.110222
0.568663 0.437412 0.109287
0.633353 0.436478 0.108353
0.698044 0.435544 0.107419
0.762734 0.434609 0.106484
0.827425 0.433675 0.105550
0.892116 0.432741 0.104616
0.956806 0.431806 0.103681
1.000000 0.430872 0.102747
0.000000 0.509613 0.115863
0.049303 0.508678 0.114928
0.113994 0.507744 0.113994
0.178684 0.506809 0.113059
0.243375 0.505875 0.112125
0.308066 0.504941 0.111191
0.372756 0.504006 0.110256
0.437447 0.503072 0.109322
0.502138 0.502138 0.108387
0.566828 0.501203 0.107453
0.631519 0.500269 0.106519
0.696209 0.499334 0.105584
0.760900 0.498400 0.104650
0.825591 0.497466 0.103716
0.890281 0.496531 0.102781
0.954972 0.495597 0.101847
1.000000 0.494663 0.100912
0.000000 0.573403 0.114028
0.047469 0.572469 0.113094
0.112159 0.571534 0.112159
0.176850 0.570600 0.111225
0.241541 0.569666 0.110291
0.306231 0.568731 0.109356
0.370922 0.567797 0.108422
0.435613 0.566863 0.107488
0.500303 0.565928 0.106553
0.564994 0.564994 0.105619
0.629684 0.564059 0.104684
0.694375 0.563125 0.103750
0.759066 0.562191 0.102816
0.823756 0.561256 0.101881
0.888447 0.560322 0.100947
0.953137 0.559388 0.100012
1.000000 0.558453 0.099078
0.000000 0.637194 0.112194
0.045634 0.636259 0.111259
0.110325 0.635325 0.110325
0.175016 0.634391 0.109391
0.239706 0.633456 0.108456
0.304397 0.632522 0.107522
0.369088 0.631587 0.106588
0.433778 0.630653 0.105653
0.498469 0.629719 0.104719
0.563159 0.628784 0.103784
0.627850 0.627850 0.102850
0.692541 0.626916 0.101916
0.757231 0.625981 0.100981
0.821922 0.625047 0.100047
0.886613 0.624112 0.099112
0.951303 0.623178 0.098178
1.000000 0.622244 0.097244
0.000000 0.700984 0.110359
0.043800 0.700050 0.109425
0.108491 0.699116 0.108491
0.173181 0.698181 0.107556
0.237872 0.697247 0.106622
0.302562 0.696313 0.105687
0.367253 0.695378 0.104753
0.431944 0.694444 0.103819
0.496634 0.693509 0.102884
0.561325 0.692575 0.101950
0.626016 0.691641 0.101016
0.690706 0.690706 0.100081
0.755397 0.689772 0.099147
0.820087 0.688837 0.098212
0.884778 0.687903 0.097278
0.949469 0.686969 0.096344
1.000000 0.686034 0.095409
0.000000 0.764775 0.108525
0.041966 0.763841 0.107591
0.106656 0.762906 0.106656
0.171347 0.761972 0.105722
0.236038 0.761038 0.104787
0.300728 0.760103 0.103853
0.365419 0.759169 0.102919
0.430109 0.758234 0.101984
0.494800 0.757300 0.101050
0.559491 0.756366 0.100116
0.624181 0.755431 0.099181
0.688872 0.754497 0.098247
0.753563 0.753563 0.097313
0.818253 0.752628 0.096378
0.882944 0.751694 0.095444
0.947634 0.750759 0.094509
1.000000 0.749825 0.093575
0.000000 0.828566 0.106691
0.040131 0.827631 0.105756
0.104822 0.826697 0.104822
0.169513 0.825762 0.103887
0.234203 0.824828 0.102953
0.298894 0.823894 0.102019
0.363584 0.822959 0.101084
0.428275 0.822025 0.100150
0.492966 0.821091 0.099216
0.557656 0.820156 0.098281
0.622347 0.819222 0.097347
0.687037 0.818288 0.096413
0.751728 0.817353 0.095478
0.816419 0.816419 0.094544
0.881109 0.815484 0.093609
0.945800 0.814550 0.092675
1.000000 0.813616 0.091741
0.000000 0.892356 0.104856
0.038297 0.891422 0.103922
0.102987 0.890487 0.102987
0.167678 0.889553 0.102053
0.232369 0.888619 0.101119
0.297059 0.887684 0.100184
0.361750 0.886750 0.099250
0.426441 0.885816 0.098316
0.491131 0.884881 0.097381
0.555822 0.883947 0.096447
0.620513 0.883012 0.095513
0.685203 0.882078 0.094578
0.749894 0.881144 0.093644
0.814584 0.880209 0.092709
0.879275 0.879275 0.091775
0.943966 0.878341 0.090841
1.000000 0.877406 0.089906
0.000000 0.956147 0.103022
0.036462 0.955213 0.102087
0.101153 0.954278 0.101153
0.165844 0.953344 0.100219
0.230534 0.952409 0.099284
0.295225 0.951475 0.098350
0.359916 0.950541 0.097416
0.424606 0.949606 0.096481
0.489297 0.948672 0.095547
0.553987 0.947738 0.094612
0.618678 0.946803 0.093678
0.683369 0.945869 0.092744
0.748059 0.944934 0.091809
0.812750 0.944000 0.090875
0.877441 0.943066 0.089941
0.942131 0.942131 0.089006
1.000000 0.941197 0.088072
0.000000 1.000000 0.101187
0.034628 1.000000 0.100253
0.099319 1.000000 0.099319
0.164009 1.000000 0.098384
0.228700 1.000000 0.097450
0.293391 1.000000 0.096516
0.358081 1.000000 0.095581
0.422772 1.000000 0.094647
0.487462 1.000000 0.093712
0.552153 1.000000 0.092778
0.616844 1.000000 0.091844
0.681534 1.000000 0.090909
0.746225 1.000000 0.089975
0.810916 1.000000 0.089041
0.875606 1.000000 0.088106
0.940297 1.000000 0.087172
1.000000 1.000000 0.086237
0.000000 0.000000 0.195806
0.063622 0.000000 0.194872
0.128312 0.000000 0.193938
0.193003 0.000000 0.193003
0.257694 0.000000 0.192069
0.322384 0.000000 0.191134
0.387075 0.000000 0.190200
0.451766 0.000000 0.189266
0.516456 0.000000 0.188331
0.581147 0.000000 0.187397
0.645838 0.000000 0.186463
0.710528 0.000000 0.185528
0.775219 0.000000 0.184594
0.839909 0.000000 0.183659
0.904600 0.000000 0.182725
0.969291 0.000000 0.181791
1.000000 0.000000 0.180856
0.000000 0.062722 0.193972
