app/src/main/assets/luts/fresh_garden.cube
# ApexStudio filter: fresh_garden
LUT_3D_SIZE 5
DOMAIN_MIN 0.0 0.0 0.0
DOMAIN_MAX 1.0 1.0 1.0
0.000000 0.000000 0.000000
0.237500 0.000000 0.000000
0.475000 0.000000 0.000000
0.712500 0.000000 0.000000
0.950000 0.000000 0.000000
0.000000 0.300000 0.000000
0.237500 0.300000 0.000000
0.475000 0.300000 0.000000
0.712500 0.300000 0.000000
0.950000 0.300000 0.000000
0.000000 0.600000 0.000000
0.237500 0.600000 0.000000
0.475000 0.600000 0.000000
0.712500 0.600000 0.000000
0.950000 0.600000 0.000000
0.000000 0.900000 0.000000
0.237500 0.900000 0.000000
0.475000 0.900000 0.000000
0.712500 0.900000 0.000000
0.950000 0.900000 0.000000
0.000000 1.000000 0.000000
0.237500 1.000000 0.000000
0.475000 1.000000 0.000000
0.712500 1.000000 0.000000
0.950000 1.000000 0.000000
0.000000 0.000000 0.212500
0.237500 0.000000 0.212500
0.475000 0.000000 0.212500
0.712500 0.000000 0.212500
0.950000 0.000000 0.212500
0.000000 0.300000 0.212500
0.237500 0.300000 0.212500
0.475000 0.300000 0.212500
0.712500 0.300000 0.212500
0.950000 0.300000 0.212500
0.000000 0.600000 0.212500
0.237500 0.600000 0.212500
0.475000 0.600000 0.212500
0.712500 0.600000 0.212500
0.950000 0.600000 0.212500
0.000000 0.900000 0.212500
0.237500 0.900000 0.212500
0.475000 0.900000 0.212500
0.712500 0.900000 0.212500
0.950000 0.900000 0.212500
0.000000 1.000000 0.212500
0.237500 1.000000 0.212500
0.475000 1.000000 0.212500
0.712500 1.000000 0.212500
0.950000 1.000000 0.212500
0.000000 0.000000 0.425000
0.237500 0.000000 0.425000
0.475000 0.000000 0.425000
0.712500 0.000000 0.425000
0.950000 0.000000 0.425000
0.000000 0.300000 0.425000
0.237500 0.300000 0.425000
0.475000 0.300000 0.425000
0.712500 0.300000 0.425000
0.950000 0.300000 0.425000
0.000000 0.600000 0.425000
0.237500 0.600000 0.425000
0.475000 0.600000 0.425000
0.712500 0.600000 0.425000
0.950000 0.600000 0.425000
0.000000 0.900000 0.425000
0.237500 0.900000 0.425000
0.475000 0.900000 0.425000
0.712500 0.900000 0.425000
0.950000 0.900000 0.425000
0.000000 1.000000 0.425000
0.237500 1.000000 0.425000
0.475000 1.000000 0.425000
0.712500 1.000000 0.425000
0.950000 1.000000 0.425000
0.000000 0.000000 0.637500
0.237500 0.000000 0.637500
0.475000 0.000000 0.637500
0.712500 0.000000 0.637500
0.950000 0.000000 0.637500
0.000000 0.300000 0.637500
0.237500 0.300000 0.637500
0.475000 0.300000 0.637500
0.712500 0.300000 0.637500
0.950000 0.300000 0.637500
0.000000 0.600000 0.637500
0.237500 0.600000 0.637500
0.475000 0.600000 0.637500
0.712500 0.600000 0.637500
0.950000 0.600000 0.637500
0.000000 0.900000 0.637500
0.237500 0.900000 0.637500
0.475000 0.900000 0.637500
0.712500 0.900000 0.637500
0.950000 0.900000 0.637500
0.000000 1.000000 0.637500
0.237500 1.000000 0.637500
0.475000 1.000000 0.637500
0.712500 1.000000 0.637500
0.950000 1.000000 0.637500
0.000000 0.000000 0.850000
0.237500 0.000000 0.850000
0.475000 0.000000 0.850000
0.712500 0.000000 0.850000
0.950000 0.000000 0.850000
0.000000 0.300000 0.850000
0.237500 0.300000 0.850000
0.475000 0.300000 0.850000
0.712500 0.300000 0.850000
0.950000 0.300000 0.850000
0.000000 0.600000 0.850000
0.237500 0.600000 0.850000
0.475000 0.600000 0.850000
0.712500 0.600000 0.850000
0.950000 0.600000 0.850000
0.000000 0.900000 0.850000
0.237500 0.900000 0.850000
0.475000 0.900000 0.850000
0.712500 0.900000 0.850000
0.950000 0.900000 0.850000
0.000000 1.000000 0.850000
0.237500 1.000000 0.850000
0.475000 1.000000 0.850000
0.712500 1.000000 0.850000
0.950000 1.000000 0.850000
