app/src/main/assets/luts/fresh_face.cube
# ApexStudio filter: fresh_face
LUT_3D_SIZE 5
DOMAIN_MIN 0.0 0.0 0.0
DOMAIN_MAX 1.0 1.0 1.0
0.000000 0.000000 0.000000
0.258763 0.000000 0.000000
0.517525 0.000000 0.000000
0.776288 0.000000 0.000000
1.000000 0.000000 0.000000
0.000000 0.255163 0.000000
0.251425 0.251425 0.000000
0.510188 0.247688 0.000000
0.768950 0.243950 0.000000
1.000000 0.240212 0.000000
0.000000 0.510325 0.000000
0.244088 0.506587 0.000000
0.502850 0.502850 0.000000
0.761613 0.499113 0.000000
1.000000 0.495375 0.000000
0.000000 0.765487 0.000000
0.236750 0.761750 0.000000
0.495513 0.758012 0.000000
0.754275 0.754275 0.000000
1.000000 0.750537 0.000000
0.000000 1.000000 0.000000
0.229412 1.000000 0.000000
0.488175 1.000000 0.000000
0.746938 1.000000 0.000000
1.000000 1.000000 0.000000
0.000000 0.000000 0.261075
0.257337 0.000000 0.257337
0.516100 0.000000 0.253600
0.774863 0.000000 0.249862
1.000000 0.000000 0.246125
0.000000 0.253738 0.253738
0.250000 0.250000 0.250000
0.508763 0.246262 0.246262
0.767525 0.242525 0.242525
1.000000 0.238787 0.238787
0.000000 0.508900 0.246400
0.242663 0.505162 0.242663
0.501425 0.501425 0.238925
0.760188 0.497688 0.235187
1.000000 0.493950 0.231450
0.000000 0.764063 0.239062
0.235325 0.760325 0.235325
0.494088 0.756587 0.231588
0.752850 0.752850 0.227850
1.000000 0.749112 0.224112
0.000000 1.000000 0.231725
0.227988 1.000000 0.227988
0.486750 1.000000 0.224250
0.745513 1.000000 0.220513
1.000000 1.000000 0.216775
0.000000 0.000000 0.522150
0.255912 0.000000 0.518412
0.514675 0.000000 0.514675
0.773438 0.000000 0.510938
1.000000 0.000000 0.507200
0.000000 0.252312 0.514813
0.248575 0.248575 0.511075
0.507337 0.244837 0.507337
0.766100 0.241100 0.503600
1.000000 0.237362 0.499862
0.000000 0.507475 0.507475
0.241237 0.503737 0.503737
0.500000 0.500000 0.500000
0.758763 0.496262 0.496262
1.000000 0.492525 0.492525
0.000000 0.762638 0.500138
0.233900 0.758900 0.496400
0.492663 0.755162 0.492663
0.751425 0.751425 0.488925
1.000000 0.747687 0.485187
0.000000 1.000000 0.492800
0.226562 1.000000 0.489062
0.485325 1.000000 0.485325
0.744088 1.000000 0.481588
1.000000 1.000000 0.477850
0.000000 0.000000 0.783225
0.254487 0.000000 0.779487
0.513250 0.000000 0.775750
0.772012 0.000000 0.772012
1.000000 0.000000 0.768275
0.000000 0.250887 0.775888
0.247150 0.247150 0.772150
0.505912 0.243413 0.768412
0.764675 0.239675 0.764675
1.000000 0.235937 0.760938
0.000000 0.506050 0.768550
0.239812 0.502313 0.764813
0.498575 0.498575 0.761075
0.757337 0.494837 0.757337
1.000000 0.491100 0.753600
0.000000 0.761213 0.761213
0.232475 0.757475 0.757475
0.491237 0.753737 0.753737
0.750000 0.750000 0.750000
1.000000 0.746263 0.746263
0.000000 1.000000 0.753875
0.225137 1.000000 0.750138
0.483900 1.000000 0.746400
0.742663 1.000000 0.742663
1.000000 1.000000 0.738925
0.000000 0.000000 1.000000
0.253062 0.000000 1.000000
0.511825 0.000000 1.000000
0.770587 0.000000 1.000000
1.000000 0.000000 1.000000
0.000000 0.249463 1.000000
0.245725 0.245725 1.000000
0.504487 0.241987 1.000000
0.763250 0.238250 1.000000
1.000000 0.234513 1.000000
0.000000 0.504625 1.000000
0.238388 0.500888 1.000000
0.497150 0.497150 1.000000
0.755912 0.493413 1.000000
1.000000 0.489675 1.000000
0.000000 0.759788 1.000000
0.231050 0.756050 1.000000
0.489812 0.752313 1.000000
0.748575 0.748575 1.000000
1.000000 0.744838 1.000000
0.000000 1.000000 1.000000
0.223712 1.000000 1.000000
0.482475 1.000000 1.000000
0.741237 1.000000 1.000000
1.000000 1.000000 1.000000
