app/src/main/assets/luts/fresh_garden.cube
# ApexStudio filter: fresh_garden
LUT_3D_SIZE 17
DOMAIN_MIN 0.0 0.0 0.0
DOMAIN_MAX 1.0 1.0 1.0
0.000000 0.000000 0.000000
0.059375 0.000000 0.000000
0.118750 0.000000 0.000000
0.178125 0.000000 0.000000
0.237500 0.000000 0.000000
0.296875 0.000000 0.000000
0.356250 0.000000 0.000000
0.415625 0.000000 0.000000
0.475000 0.000000 0.000000
0.534375 0.000000 0.000000
0.593750 0.000000 0.000000
0.653125 0.000000 0.000000
0.712500 0.000000 0.000000
0.771875 0.000000 0.000000
0.831250 0.000000 0.000000
0.890625 0.000000 0.000000
0.950000 0.000000 0.000000
0.000000 0.075000 0.000000
0.059375 0.075000 0.000000
0.118750 0.075000 0.000000
0.178125 0.075000 0.000000
0.237500 0.075000 0.000000
0.296875 0.075000 0.000000
0.356250 0.075000 0.000000
0.415625 0.075000 0.000000
0.475000 0.075000 0.000000
0.534375 0.075000 0.000000
0.593750 0.075000 0.000000
0.653125 0.075000 0.000000
0.712500 0.075000 0.000000
0.771875 0.075000 0.000000
0.831250 0.075000 0.000000
0.890625 0.075000 0.000000
0.950000 0.075000 0.000000
0.000000 0.150000 0.000000
0.059375 0.150000 0.000000
0.118750 0.150000 0.000000
0.178125 0.150000 0.000000
0.237500 0.150000 0.000000
0.296875 0.150000 0.000000
0.356250 0.150000 0.000000
0.415625 0.150000 0.000000
0.475000 0.150000 0.000000
0.534375 0.150000 0.000000
0.593750 0.150000 0.000000
0.653125 0.150000 0.000000
0.712500 0.150000 0.000000
0.771875 0.150000 0.000000
0.831250 0.150000 0.000000
0.890625 0.150000 0.000000
0.950000 0.150000 0.000000
0.000000 0.225000 0.000000
0.059375 0.225000 0.000000
0.118750 0.225000 0.000000
0.178125 0.225000 0.000000
0.237500 0.225000 0.000000
0.296875 0.225000 0.000000
0.356250 0.225000 0.000000
0.415625 0.225000 0.000000
0.475000 0.225000 0.000000
0.534375 0.225000 0.000000
0.593750 0.225000 0.000000
0.653125 0.225000 0.000000
0.712500 0.225000 0.000000
0.771875 0.225000 0.000000
0.831250 0.225000 0.000000
0.890625 0.225000 0.000000
0.950000 0.225000 0.000000
0.000000 0.300000 0.000000
0.059375 0.300000 0.000000
0.118750 0.300000 0.000000
0.178125 0.300000 0.000000
0.237500 0.300000 0.000000
0.296875 0.300000 0.000000
0.356250 0.300000 0.000000
0.415625 0.300000 0.000000
0.475000 0.300000 0.000000
0.534375 0.300000 0.000000
0.593750 0.300000 0.000000
0.653125 0.300000 0.000000
0.712500 0.300000 0.000000
0.771875 0.300000 0.000000
0.831250 0.300000 0.000000
0.890625 0.300000 0.000000
0.950000 0.300000 0.000000
0.000000 0.375000 0.000000
0.059375 0.375000 0.000000
0.118750 0.375000 0.000000
0.178125 0.375000 0.000000
0.237500 0.375000 0.000000
0.296875 0.375000 0.000000
0.356250 0.375000 0.000000
0.415625 0.375000 0.000000
0.475000 0.375000 0.000000
0.534375 0.375000 0.000000
0.593750 0.375000 0.000000
0.653125 0.375000 0.000000
0.712500 0.375000 0.000000
0.771875 0.375000 0.000000
0.831250 0.375000 0.000000
0.890625 0.375000 0.000000
0.950000 0.375000 0.000000
0.000000 0.450000 0.000000
0.059375 0.450000 0.000000
0.118750 0.450000 0.000000
0.178125 0.450000 0.000000
0.237500 0.450000 0.000000
0.296875 0.450000 0.000000
0.356250 0.450000 0.000000
0.415625 0.450000 0.000000
0.475000 0.450000 0.000000
0.534375 0.450000 0.000000
0.593750 0.450000 0.000000
0.653125 0.450000 0.000000
0.712500 0.450000 0.000000
0.771875 0.450000 0.000000
0.831250 0.450000 0.000000
0.890625 0.450000 0.000000
0.950000 0.450000 0.000000
0.000000 0.525000 0.000000
0.059375 0.525000 0.000000
0.118750 0.525000 0.000000
0.178125 0.525000 0.000000
0.237500 0.525000 0.000000
0.296875 0.525000 0.000000
0.356250 0.525000 0.000000
0.415625 0.525000 0.000000
0.475000 0.525000 0.000000
0.534375 0.525000 0.000000
0.593750 0.525000 0.000000
0.653125 0.525000 0.000000
0.712500 0.525000 0.000000
0.771875 0.525000 0.000000
0.831250 0.525000 0.000000
0.890625 0.525000 0.000000
0.950000 0.525000 0.000000
0.000000 0.600000 0.000000
0.059375 0.600000 0.000000
0.118750 0.600000 0.000000
0.178125 0.600000 0.000000
0.237500 0.600000 0.000000
0.296875 0.600000 0.000000
0.356250 0.600000 0.000000
0.415625 0.600000 0.000000
0.475000 0.600000 0.000000
0.534375 0.600000 0.000000
0.593750 0.600000 0.000000
0.653125 0.600000 0.000000
0.712500 0.600000 0.000000
0.771875 0.600000 0.000000
0.831250 0.600000 0.000000
0.890625 0.600000 0.000000
0.950000 0.600000 0.000000
0.000000 0.675000 0.000000
0.059375 0.675000 0.000000
0.118750 0.675000 0.000000
0.178125 0.675000 0.000000
0.237500 0.675000 0.000000
0.296875 0.675000 0.000000
0.356250 0.675000 0.000000
0.415625 0.675000 0.000000
0.475000 0.675000 0.000000
0.534375 0.675000 0.000000
0.593750 0.675000 0.000000
0.653125 0.675000 0.000000
0.712500 0.675000 0.000000
0.771875 0.675000 0.000000
0.831250 0.675000 0.000000
0.890625 0.675000 0.000000
0.950000 0.675000 0.000000
0.000000 0.750000 0.000000
0.059375 0.750000 0.000000
0.118750 0.750000 0.000000
0.178125 0.750000 0.000000
0.237500 0.750000 0.000000
0.296875 0.750000 0.000000
0.356250 0.750000 0.000000
0.415625 0.750000 0.000000
0.475000 0.750000 0.000000
0.534375 0.750000 0.000000
0.593750 0.750000 0.000000
0.653125 0.750000 0.000000
0.712500 0.750000 0.000000
0.771875 0.750000 0.000000
0.831250 0.750000 0.000000
0.890625 0.750000 0.000000
0.950000 0.750000 0.000000
0.000000 0.825000 0.000000
0.059375 0.825000 0.000000
0.118750 0.825000 0.000000
0.178125 0.825000 0.000000
0.237500 0.825000 0.000000
0.296875 0.825000 0.000000
0.356250 0.825000 0.000000
0.415625 0.825000 0.000000
0.475000 0.825000 0.000000
0.534375 0.825000 0.000000
0.593750 0.825000 0.000000
0.653125 0.825000 0.000000
0.712500 0.825000 0.000000
0.771875 0.825000 0.000000
0.831250 0.825000 0.000000
0.890625 0.825000 0.000000
0.950000 0.825000 0.000000
0.000000 0.900000 0.000000
0.059375 0.900000 0.000000
0.118750 0.900000 0.000000
0.178125 0.900000 0.000000
0.237500 0.900000 0.000000
0.296875 0.900000 0.000000
0.356250 0.900000 0.000000
0.415625 0.900000 0.000000
0.475000 0.900000 0.000000
0.534375 0.900000 0.000000
0.593750 0.900000 0.000000
0.653125 0.900000 0.000000
0.712500 0.900000 0.000000
0.771875 0.900000 0.000000
0.831250 0.900000 0.000000
0.890625 0.900000 0.000000
0.950000 0.900000 0.000000
0.000000 0.975000 0.000000
0.059375 0.975000 0.000000
0.118750 0.975000 0.000000
0.178125 0.975000 0.000000
0.237500 0.975000 0.000000
0.296875 0.975000 0.000000
0.356250 0.975000 0.000000
0.415625 0.975000 0.000000
0.475000 0.975000 0.000000
0.534375 0.975000 0.000000
0.593750 0.975000 0.000000
0.653125 0.975000 0.000000
0.712500 0.975000 0.000000
0.771875 0.975000 0.000000
0.831250 0.975000 0.000000
0.890625 0.975000 0.000000
0.950000 0.975000 0.000000
0.000000 1.000000 0.000000
0.059375 1.000000 0.000000
0.118750 1.000000 0.000000
0.178125 1.000000 0.000000
0.237500 1.000000 0.000000
0.296875 1.000000 0.000000
0.356250 1.000000 0.000000
0.415625 1.000000 0.000000
0.475000 1.000000 0.000000
0.534375 1.000000 0.000000
0.593750 1.000000 0.000000
0.653125 1.000000 0.000000
0.712500 1.000000 0.000000
0.771875 1.000000 0.000000
0.831250 1.000000 0.000000
0.890625 1.000000 0.000000
0.950000 1.000000 0.000000
0.000000 1.000000 0.000000
0.059375 1.000000 0.000000
0.118750 1.000000 0.000000
0.178125 1.000000 0.000000
0.237500 1.000000 0.000000
0.296875 1.000000 0.000000
0.356250 1.000000 0.000000
0.415625 1.000000 0.000000
0.475000 1.000000 0.000000
0.534375 1.000000 0.000000
0.593750 1.000000 0.000000
0.653125 1.000000 0.000000
0.712500 1.000000 0.000000
0.771875 1.000000 0.000000
0.831250 1.000000 0.000000
0.890625 1.000000 0.000000
0.950000 1.000000 0.000000
0.000000 1.000000 0.000000
0.059375 1.000000 0.000000
0.118750 1.000000 0.000000
0.178125 1.000000 0.000000
0.237500 1.000000 0.000000
0.296875 1.000000 0.000000
0.356250 1.000000 0.000000
0.415625 1.000000 0.000000
0.475000 1.000000 0.000000
0.534375 1.000000 0.000000
0.593750 1.000000 0.000000
0.653125 1.000000 0.000000
0.712500 1.000000 0.000000
0.771875 1.000000 0.000000
0.831250 1.000000 0.000000
0.890625 1.000000 0.000000
0.950000 1.000000 0.000000
0.000000 0.000000 0.053125
0.059375 0.000000 0.053125
0.118750 0.000000 0.053125
0.178125 0.000000 0.053125
0.237500 0.000000 0.053125
0.296875 0.000000 0.053125
0.356250 0.000000 0.053125
0.415625 0.000000 0.053125
0.475000 0.000000 0.053125
0.534375 0.000000 0.053125
0.593750 0.000000 0.053125
0.653125 0.000000 0.053125
0.712500 0.000000 0.053125
0.771875 0.000000 0.053125
0.831250 0.000000 0.053125
0.890625 0.000000 0.053125
0.950000 0.000000 0.053125
0.000000 0.075000 0.053125
0.059375 0.075000 0.053125
0.118750 0.075000 0.053125
0.178125 0.075000 0.053125
0.237500 0.075000 0.053125
0.296875 0.075000 0.053125
0.356250 0.075000 0.053125
0.415625 0.075000 0.053125
0.475000 0.075000 0.053125
0.534375 0.075000 0.053125
0.593750 0.075000 0.053125
0.653125 0.075000 0.053125
0.712500 0.075000 0.053125
0.771875 0.075000 0.053125
0.831250 0.075000 0.053125
0.890625 0.075000 0.053125
0.950000 0.075000 0.053125
0.000000 0.150000 0.053125
0.059375 0.150000 0.053125
0.118750 0.150000 0.053125
0.178125 0.150000 0.053125
0.237500 0.150000 0.053125
0.296875 0.150000 0.053125
0.356250 0.150000 0.053125
0.415625 0.150000 0.053125
0.475000 0.150000 0.053125
0.534375 0.150000 0.053125
0.593750 0.150000 0.053125
0.653125 0.150000 0.053125
0.712500 0.150000 0.053125
0.771875 0.150000 0.053125
0.831250 0.150000 0.053125
0.890625 0.150000 0.053125
0.950000 0.150000 0.053125
0.000000 0.225000 0.053125
0.059375 0.225000 0.053125
0.118750 0.225000 0.053125
0.178125 0.225000 0.053125
0.237500 0.225000 0.053125
0.296875 0.225000 0.053125
0.356250 0.225000 0.053125
0.415625 0.225000 0.053125
0.475000 0.225000 0.053125
0.534375 0.225000 0.053125
0.593750 0.225000 0.053125
0.653125 0.225000 0.053125
0.712500 0.225000 0.053125
0.771875 0.225000 0.053125
0.831250 0.225000 0.053125
0.890625 0.225000 0.053125
0.950000 0.225000 0.053125
0.000000 0.300000 0.053125
0.059375 0.300000 0.053125
0.118750 0.300000 0.053125
0.178125 0.300000 0.053125
0.237500 0.300000 0.053125
0.296875 0.300000 0.053125
0.356250 0.300000 0.053125
0.415625 0.300000 0.053125
0.475000 0.300000 0.053125
0.534375 0.300000 0.053125
0.593750 0.300000 0.053125
0.653125 0.300000 0.053125
0.712500 0.300000 0.053125
0.771875 0.300000 0.053125
0.831250 0.300000 0.053125
0.890625 0.300000 0.053125
0.950000 0.300000 0.053125
0.000000 0.375000 0.053125
0.059375 0.375000 0.053125
0.118750 0.375000 0.053125
0.178125 0.375000 0.053125
0.237500 0.375000 0.053125
0.296875 0.375000 0.053125
0.356250 0.375000 0.053125
0.415625 0.375000 0.053125
0.475000 0.375000 0.053125
0.534375 0.375000 0.053125
0.593750 0.375000 0.053125
0.653125 0.375000 0.053125
0.712500 0.375000 0.053125
0.771875 0.375000 0.053125
0.831250 0.375000 0.053125
0.890625 0.375000 0.053125
0.950000 0.375000 0.053125
0.000000 0.450000 0.053125
0.059375 0.450000 0.053125
0.118750 0.450000 0.053125
0.178125 0.450000 0.053125
0.237500 0.450000 0.053125
0.296875 0.450000 0.053125
0.356250 0.450000 0.053125
0.415625 0.450000 0.053125
0.475000 0.450000 0.053125
0.534375 0.450000 0.053125
0.593750 0.450000 0.053125
0.653125 0.450000 0.053125
0.712500 0.450000 0.053125
0.771875 0.450000 0.053125
0.831250 0.450000 0.053125
0.890625 0.450000 0.053125
0.950000 0.450000 0.053125
0.000000 0.525000 0.053125
0.059375 0.525000 0.053125
0.118750 0.525000 0.053125
0.178125 0.525000 0.053125
0.237500 0.525000 0.053125
0.296875 0.525000 0.053125
0.356250 0.525000 0.053125
0.415625 0.525000 0.053125
0.475000 0.525000 0.053125
0.534375 0.525000 0.053125
0.593750 0.525000 0.053125
0.653125 0.525000 0.053125
0.712500 0.525000 0.053125
0.771875 0.525000 0.053125
0.831250 0.525000 0.053125
0.890625 0.525000 0.053125
0.950000 0.525000 0.053125
0.000000 0.600000 0.053125
0.059375 0.600000 0.053125
0.118750 0.600000 0.053125
0.178125 0.600000 0.053125
0.237500 0.600000 0.053125
0.296875 0.600000 0.053125
0.356250 0.600000 0.053125
0.415625 0.600000 0.053125
0.475000 0.600000 0.053125
0.534375 0.600000 0.053125
0.593750 0.600000 0.053125
0.653125 0.600000 0.053125
0.712500 0.600000 0.053125
0.771875 0.600000 0.053125
0.831250 0.600000 0.053125
0.890625 0.600000 0.053125
0.950000 0.600000 0.053125
0.000000 0.675000 0.053125
0.059375 0.675000 0.053125
0.118750 0.675000 0.053125
0.178125 0.675000 0.053125
0.237500 0.675000 0.053125
0.296875 0.675000 0.053125
0.356250 0.675000 0.053125
0.415625 0.675000 0.053125
0.475000 0.675000 0.053125
0.534375 0.675000 0.053125
0.593750 0.675000 0.053125
0.653125 0.675000 0.053125
0.712500 0.675000 0.053125
0.771875 0.675000 0.053125
0.831250 0.675000 0.053125
0.890625 0.675000 0.053125
0.950000 0.675000 0.053125
0.000000 0.750000 0.053125
0.059375 0.750000 0.053125
0.118750 0.750000 0.053125
0.178125 0.750000 0.053125
0.237500 0.750000 0.053125
0.296875 0.750000 0.053125
0.356250 0.750000 0.053125
0.415625 0.750000 0.053125
0.475000 0.750000 0.053125
0.534375 0.750000 0.053125
0.593750 0.750000 0.053125
0.653125 0.750000 0.053125
0.712500 0.750000 0.053125
0.771875 0.750000 0.053125
0.831250 0.750000 0.053125
0.890625 0.750000 0.053125
0.950000 0.750000 0.053125
0.000000 0.825000 0.053125
0.059375 0.825000 0.053125
0.118750 0.825000 0.053125
0.178125 0.825000 0.053125
0.237500 0.825000 0.053125
0.296875 0.825000 0.053125
0.356250 0.825000 0.053125
0.415625 0.825000 0.053125
0.475000 0.825000 0.053125
0.534375 0.825000 0.053125
0.593750 0.825000 0.053125
0.653125 0.825000 0.053125
0.712500 0.825000 0.053125
0.771875 0.825000 0.053125
0.831250 0.825000 0.053125
0.890625 0.825000 0.053125
0.950000 0.825000 0.053125
0.000000 0.900000 0.053125
0.059375 0.900000 0.053125
0.118750 0.900000 0.053125
0.178125 0.900000 0.053125
0.237500 0.900000 0.053125
0.296875 0.900000 0.053125
0.356250 0.900000 0.053125
0.415625 0.900000 0.053125
0.475000 0.900000 0.053125
0.534375 0.900000 0.053125
0.593750 0.900000 0.053125
0.653125 0.900000 0.053125
0.712500 0.900000 0.053125
0.771875 0.900000 0.053125
0.831250 0.900000 0.053125
0.890625 0.900000 0.053125
0.950000 0.900000 0.053125
0.000000 0.975000 0.053125
0.059375 0.975000 0.053125
0.118750 0.975000 0.053125
0.178125 0.975000 0.053125
0.237500 0.975000 0.053125
0.296875 0.975000 0.053125
0.356250 0.975000 0.053125
0.415625 0.975000 0.053125
0.475000 0.975000 0.053125
0.534375 0.975000 0.053125
0.593750 0.975000 0.053125
0.653125 0.975000 0.053125
0.712500 0.975000 0.053125
0.771875 0.975000 0.053125
0.831250 0.975000 0.053125
0.890625 0.975000 0.053125
0.950000 0.975000 0.053125
0.000000 1.000000 0.053125
0.059375 1.000000 0.053125
0.118750 1.000000 0.053125
0.178125 1.000000 0.053125
0.237500 1.000000 0.053125
0.296875 1.000000 0.053125
0.356250 1.000000 0.053125
0.415625 1.000000 0.053125
0.475000 1.000000 0.053125
0.534375 1.000000 0.053125
0.593750 1.000000 0.053125
0.653125 1.000000 0.053125
0.712500 1.000000 0.053125
0.771875 1.000000 0.053125
0.831250 1.000000 0.053125
0.890625 1.000000 0.053125
0.950000 1.000000 0.053125
0.000000 1.000000 0.053125
0.059375 1.000000 0.053125
0.118750 1.000000 0.053125
0.178125 1.000000 0.053125
0.237500 1.000000 0.053125
0.296875 1.000000 0.053125
0.356250 1.000000 0.053125
0.415625 1.000000 0.053125
0.475000 1.000000 0.053125
0.534375 1.000000 0.053125
0.593750 1.000000 0.053125
0.653125 1.000000 0.053125
0.712500 1.000000 0.053125
0.771875 1.000000 0.053125
0.831250 1.000000 0.053125
0.890625 1.000000 0.053125
0.950000 1.000000 0.053125
0.000000 1.000000 0.053125
0.059375 1.000000 0.053125
0.118750 1.000000 0.053125
0.178125 1.000000 0.053125
0.237500 1.000000 0.053125
0.296875 1.000000 0.053125
0.356250 1.000000 0.053125
0.415625 1.000000 0.053125
0.475000 1.000000 0.053125
0.534375 1.000000 0.053125
0.593750 1.000000 0.053125
0.653125 1.000000 0.053125
0.712500 1.000000 0.053125
0.771875 1.000000 0.053125
0.831250 1.000000 0.053125
0.890625 1.000000 0.053125
0.950000 1.000000 0.053125
0.000000 0.000000 0.106250
0.059375 0.000000 0.106250
0.118750 0.000000 0.106250
0.178125 0.000000 0.106250
0.237500 0.000000 0.106250
0.296875 0.000000 0.106250
0.356250 0.000000 0.106250
0.415625 0.000000 0.106250
0.475000 0.000000 0.106250
0.534375 0.000000 0.106250
0.593750 0.000000 0.106250
0.653125 0.000000 0.106250
0.712500 0.000000 0.106250
0.771875 0.000000 0.106250
0.831250 0.000000 0.106250
0.890625 0.000000 0.106250
0.950000 0.000000 0.106250
0.000000 0.075000 0.106250
0.059375 0.075000 0.106250
0.118750 0.075000 0.106250
0.178125 0.075000 0.106250
0.237500 0.075000 0.106250
0.296875 0.075000 0.106250
0.356250 0.075000 0.106250
0.415625 0.075000 0.106250
0.475000 0.075000 0.106250
0.534375 0.075000 0.106250
0.593750 0.075000 0.106250
0.653125 0.075000 0.106250
0.712500 0.075000 0.106250
0.771875 0.075000 0.106250
0.831250 0.075000 0.106250
0.890625 0.075000 0.106250
0.950000 0.075000 0.106250
0.000000 0.150000 0.106250
0.059375 0.150000 0.106250
0.118750 0.150000 0.106250
0.178125 0.150000 0.106250
0.237500 0.150000 0.106250
0.296875 0.150000 0.106250
0.356250 0.150000 0.106250
0.415625 0.150000 0.106250
0.475000 0.150000 0.106250
0.534375 0.150000 0.106250
0.593750 0.150000 0.106250
0.653125 0.150000 0.106250
0.712500 0.150000 0.106250
0.771875 0.150000 0.106250
0.831250 0.150000 0.106250
0.890625 0.150000 0.106250
0.950000 0.150000 0.106250
0.000000 0.225000 0.106250
0.059375 0.225000 0.106250
0.118750 0.225000 0.106250
0.178125 0.225000 0.106250
0.237500 0.225000 0.106250
0.296875 0.225000 0.106250
0.356250 0.225000 0.106250
0.415625 0.225000 0.106250
0.475000 0.225000 0.106250
0.534375 0.225000 0.106250
0.593750 0.225000 0.106250
0.653125 0.225000 0.106250
0.712500 0.225000 0.106250
0.771875 0.225000 0.106250
0.831250 0.225000 0.106250
0.890625 0.225000 0.106250
0.950000 0.225000 0.106250
0.000000 0.300000 0.106250
0.059375 0.300000 0.106250
0.118750 0.300000 0.106250
0.178125 0.300000 0.106250
0.237500 0.300000 0.106250
0.296875 0.300000 0.106250
0.356250 0.300000 0.106250
0.415625 0.300000 0.106250
0.475000 0.300000 0.106250
0.534375 0.300000 0.106250
0.593750 0.300000 0.106250
0.653125 0.300000 0.106250
0.712500 0.300000 0.106250
0.771875 0.300000 0.106250
0.831250 0.300000 0.106250
0.890625 0.300000 0.106250
0.950000 0.300000 0.106250
0.000000 0.375000 0.106250
0.059375 0.375000 0.106250
0.118750 0.375000 0.106250
0.178125 0.375000 0.106250
0.237500 0.375000 0.106250
0.296875 0.375000 0.106250
0.356250 0.375000 0.106250
0.415625 0.375000 0.106250
0.475000 0.375000 0.106250
0.534375 0.375000 0.106250
0.593750 0.375000 0.106250
0.653125 0.375000 0.106250
0.712500 0.375000 0.106250
0.771875 0.375000 0.106250
0.831250 0.375000 0.106250
0.890625 0.375000 0.106250
0.950000 0.375000 0.106250
0.000000 0.450000 0.106250
0.059375 0.450000 0.106250
0.118750 0.450000 0.106250
0.178125 0.450000 0.106250
0.237500 0.450000 0.106250
0.296875 0.450000 0.106250
0.356250 0.450000 0.106250
0.415625 0.450000 0.106250
0.475000 0.450000 0.106250
0.534375 0.450000 0.106250
0.593750 0.450000 0.106250
0.653125 0.450000 0.106250
0.712500 0.450000 0.106250
0.771875 0.450000 0.106250
0.831250 0.450000 0.106250
0.890625 0.450000 0.106250
0.950000 0.450000 0.106250
0.000000 0.525000 0.106250
0.059375 0.525000 0.106250
0.118750 0.525000 0.106250
0.178125 0.525000 0.106250
0.237500 0.525000 0.106250
0.296875 0.525000 0.106250
0.356250 0.525000 0.106250
0.415625 0.525000 0.106250
0.475000 0.525000 0.106250
0.534375 0.525000 0.106250
0.593750 0.525000 0.106250
0.653125 0.525000 0.106250
0.712500 0.525000 0.106250
0.771875 0.525000 0.106250
0.831250 0.525000 0.106250
0.890625 0.525000 0.106250
0.950000 0.525000 0.106250
0.000000 0.600000 0.106250
0.059375 0.600000 0.106250
0.118750 0.600000 0.106250
0.178125 0.600000 0.106250
0.237500 0.600000 0.106250
0.296875 0.600000 0.106250
0.356250 0.600000 0.106250
0.415625 0.600000 0.106250
0.475000 0.600000 0.106250
0.534375 0.600000 0.106250
0.593750 0.600000 0.106250
0.653125 0.600000 0.106250
0.712500 0.600000 0.106250
0.771875 0.600000 0.106250
0.831250 0.600000 0.106250
0.890625 0.600000 0.106250
0.950000 0.600000 0.106250
0.000000 0.675000 0.106250
0.059375 0.675000 0.106250
0.118750 0.675000 0.106250
0.178125 0.675000 0.106250
0.237500 0.675000 0.106250
0.296875 0.675000 0.106250
0.356250 0.675000 0.106250
0.415625 0.675000 0.106250
0.475000 0.675000 0.106250
0.534375 0.675000 0.106250
0.593750 0.675000 0.106250
0.653125 0.675000 0.106250
0.712500 0.675000 0.106250
0.771875 0.675000 0.106250
0.831250 0.675000 0.106250
0.890625 0.675000 0.106250
0.950000 0.675000 0.106250
0.000000 0.750000 0.106250
0.059375 0.750000 0.106250
0.118750 0.750000 0.106250
0.178125 0.750000 0.106250
0.237500 0.750000 0.106250
0.296875 0.750000 0.106250
0.356250 0.750000 0.106250
0.415625 0.750000 0.106250
0.475000 0.750000 0.106250
0.534375 0.750000 0.106250
0.593750 0.750000 0.106250
0.653125 0.750000 0.106250
0.712500 0.750000 0.106250
0.771875 0.750000 0.106250
0.831250 0.750000 0.106250
0.890625 0.750000 0.106250
0.950000 0.750000 0.106250
0.000000 0.825000 0.106250
0.059375 0.825000 0.106250
0.118750 0.825000 0.106250
0.178125 0.825000 0.106250
0.237500 0.825000 0.106250
0.296875 0.825000 0.106250
0.356250 0.825000 0.106250
0.415625 0.825000 0.106250
0.475000 0.825000 0.106250
0.534375 0.825000 0.106250
0.593750 0.825000 0.106250
0.653125 0.825000 0.106250
0.712500 0.825000 0.106250
0.771875 0.825000 0.106250
0.831250 0.825000 0.106250
0.890625 0.825000 0.106250
0.950000 0.825000 0.106250
0.000000 0.900000 0.106250
0.059375 0.900000 0.106250
0.118750 0.900000 0.106250
0.178125 0.900000 0.106250
0.237500 0.900000 0.106250
0.296875 0.900000 0.106250
0.356250 0.900000 0.106250
0.415625 0.900000 0.106250
0.475000 0.900000 0.106250
0.534375 0.900000 0.106250
0.593750 0.900000 0.106250
0.653125 0.900000 0.106250
0.712500 0.900000 0.106250
0.771875 0.900000 0.106250
0.831250 0.900000 0.106250
0.890625 0.900000 0.106250
0.950000 0.900000 0.106250
0.000000 0.975000 0.106250
0.059375 0.975000 0.106250
0.118750 0.975000 0.106250
0.178125 0.975000 0.106250
0.237500 0.975000 0.106250
0.296875 0.975000 0.106250
0.356250 0.975000 0.106250
0.415625 0.975000 0.106250
0.475000 0.975000 0.106250
0.534375 0.975000 0.106250
0.593750 0.975000 0.106250
0.653125 0.975000 0.106250
0.712500 0.975000 0.106250
0.771875 0.975000 0.106250
0.831250 0.975000 0.106250
0.890625 0.975000 0.106250
0.950000 0.975000 0.106250
0.000000 1.000000 0.106250
0.059375 1.000000 0.106250
0.118750 1.000000 0.106250
0.178125 1.000000 0.106250
0.237500 1.000000 0.106250
0.296875 1.000000 0.106250
0.356250 1.000000 0.106250
0.415625 1.000000 0.106250
0.475000 1.000000 0.106250
0.534375 1.000000 0.106250
0.593750 1.000000 0.106250
0.653125 1.000000 0.106250
0.712500 1.000000 0.106250
0.771875 1.000000 0.106250
0.831250 1.000000 0.106250
0.890625 1.000000 0.106250
0.950000 1.000000 0.106250
0.000000 1.000000 0.106250
0.059375 1.000000 0.106250
0.118750 1.000000 0.106250
0.178125 1.000000 0.106250
0.237500 1.000000 0.106250
0.296875 1.000000 0.106250
0.356250 1.000000 0.106250
0.415625 1.000000 0.106250
0.475000 1.000000 0.106250
0.534375 1.000000 0.106250
0.593750 1.000000 0.106250
0.653125 1.000000 0.106250
0.712500 1.000000 0.106250
0.771875 1.000000 0.106250
0.831250 1.000000 0.106250
0.890625 1.000000 0.106250
0.950000 1.000000 0.106250
0.000000 1.000000 0.106250
0.059375 1.000000 0.106250
0.118750 1.000000 0.106250
0.178125 1.000000 0.106250
0.237500 1.000000 0.106250
0.296875 1.000000 0.106250
0.356250 1.000000 0.106250
0.415625 1.000000 0.106250
0.475000 1.000000 0.106250
0.534375 1.000000 0.106250
0.593750 1.000000 0.106250
0.653125 1.000000 0.106250
0.712500 1.000000 0.106250
0.771875 1.000000 0.106250
0.831250 1.000000 0.106250
0.890625 1.000000 0.106250
0.950000 1.000000 0.106250
0.000000 0.000000 0.159375
0.059375 0.000000 0.159375
0.118750 0.000000 0.159375
0.178125 0.000000 0.159375
0.237500 0.000000 0.159375
0.296875 0.000000 0.159375
0.356250 0.000000 0.159375
0.415625 0.000000 0.159375
0.475000 0.000000 0.159375
0.534375 0.000000 0.159375
0.593750 0.000000 0.159375
0.653125 0.000000 0.159375
0.712500 0.000000 0.159375
0.771875 0.000000 0.159375
0.831250 0.000000 0.159375
0.890625 0.000000 0.159375
0.950000 0.000000 0.159375
0.000000 0.075000 0.159375
