app/src/main/assets/luts/fresh_garden.cube
# ApexStudio filter: fresh_garden
LUT_3D_SIZE 9
DOMAIN_MIN 0.0 0.0 0.0
DOMAIN_MAX 1.0 1.0 1.0
0.000000 0.000000 0.000000
0.118750 0.000000 0.000000
0.237500 0.000000 0.000000
0.356250 0.000000 0.000000
0.475000 0.000000 0.000000
0.593750 0.000000 0.000000
0.712500 0.000000 0.000000
0.831250 0.000000 0.000000
0.950000 0.000000 0.000000
0.000000 0.150000 0.000000
0.118750 0.150000 0.000000
0.237500 0.150000 0.000000
0.356250 0.150000 0.000000
0.475000 0.150000 0.000000
0.593750 0.150000 0.000000
0.712500 0.150000 0.000000
0.831250 0.150000 0.000000
0.950000 0.150000 0.000000
0.000000 0.300000 0.000000
0.118750 0.300000 0.000000
0.237500 0.300000 0.000000
0.356250 0.300000 0.000000
0.475000 0.300000 0.000000
0.593750 0.300000 0.000000
0.712500 0.300000 0.000000
0.831250 0.300000 0.000000
0.950000 0.300000 0.000000
0.000000 0.450000 0.000000
0.118750 0.450000 0.000000
0.237500 0.450000 0.000000
0.356250 0.450000 0.000000
0.475000 0.450000 0.000000
0.593750 0.450000 0.000000
0.712500 0.450000 0.000000
0.831250 0.450000 0.000000
0.950000 0.450000 0.000000
0.000000 0.600000 0.000000
0.118750 0.600000 0.000000
0.237500 0.600000 0.000000
0.356250 0.600000 0.000000
0.475000 0.600000 0.000000
0.593750 0.600000 0.000000
0.712500 0.600000 0.000000
0.831250 0.600000 0.000000
0.950000 0.600000 0.000000
0.000000 0.750000 0.000000
0.118750 0.750000 0.000000
0.237500 0.750000 0.000000
0.356250 0.750000 0.000000
0.475000 0.750000 0.000000
0.593750 0.750000 0.000000
0.712500 0.750000 0.000000
0.831250 0.750000 0.000000
0.950000 0.750000 0.000000
0.000000 0.900000 0.000000
0.118750 0.900000 0.000000
0.237500 0.900000 0.000000
0.356250 0.900000 0.000000
0.475000 0.900000 0.000000
0.593750 0.900000 0.000000
0.712500 0.900000 0.000000
0.831250 0.900000 0.000000
0.950000 0.900000 0.000000
0.000000 1.000000 0.000000
0.118750 1.000000 0.000000
0.237500 1.000000 0.000000
0.356250 1.000000 0.000000
0.475000 1.000000 0.000000
0.593750 1.000000 0.000000
0.712500 1.000000 0.000000
0.831250 1.000000 0.000000
0.950000 1.000000 0.000000
0.000000 1.000000 0.000000
0.118750 1.000000 0.000000
0.237500 1.000000 0.000000
0.356250 1.000000 0.000000
0.475000 1.000000 0.000000
0.593750 1.000000 0.000000
0.712500 1.000000 0.000000
0.831250 1.000000 0.000000
0.950000 1.000000 0.000000
0.000000 0.000000 0.106250
0.118750 0.000000 0.106250
0.237500 0.000000 0.106250
0.356250 0.000000 0.106250
0.475000 0.000000 0.106250
0.593750 0.000000 0.106250
0.712500 0.000000 0.106250
0.831250 0.000000 0.106250
0.950000 0.000000 0.106250
0.000000 0.150000 0.106250
0.118750 0.150000 0.106250
0.237500 0.150000 0.106250
0.356250 0.150000 0.106250
0.475000 0.150000 0.106250
0.593750 0.150000 0.106250
0.712500 0.150000 0.106250
0.831250 0.150000 0.106250
0.950000 0.150000 0.106250
0.000000 0.300000 0.106250
0.118750 0.300000 0.106250
0.237500 0.300000 0.106250
0.356250 0.300000 0.106250
0.475000 0.300000 0.106250
0.593750 0.300000 0.106250
0.712500 0.300000 0.106250
0.831250 0.300000 0.106250
0.950000 0.300000 0.106250
0.000000 0.450000 0.106250
0.118750 0.450000 0.106250
0.237500 0.450000 0.106250
0.356250 0.450000 0.106250
0.475000 0.450000 0.106250
0.593750 0.450000 0.106250
0.712500 0.450000 0.106250
0.831250 0.450000 0.106250
0.950000 0.450000 0.106250
0.000000 0.600000 0.106250
0.118750 0.600000 0.106250
0.237500 0.600000 0.106250
0.356250 0.600000 0.106250
0.475000 0.600000 0.106250
0.593750 0.600000 0.106250
0.712500 0.600000 0.106250
0.831250 0.600000 0.106250
0.950000 0.600000 0.106250
0.000000 0.750000 0.106250
0.118750 0.750000 0.106250
0.237500 0.750000 0.106250
0.356250 0.750000 0.106250
0.475000 0.750000 0.106250
0.593750 0.750000 0.106250
0.712500 0.750000 0.106250
0.831250 0.750000 0.106250
0.950000 0.750000 0.106250
0.000000 0.900000 0.106250
0.118750 0.900000 0.106250
0.237500 0.900000 0.106250
0.356250 0.900000 0.106250
0.475000 0.900000 0.106250
0.593750 0.900000 0.106250
0.712500 0.900000 0.106250
0.831250 0.900000 0.106250
0.950000 0.900000 0.106250
0.000000 1.000000 0.106250
0.118750 1.000000 0.106250
0.237500 1.000000 0.106250
0.356250 1.000000 0.106250
0.475000 1.000000 0.106250
0.593750 1.000000 0.106250
0.712500 1.000000 0.106250
0.831250 1.000000 0.106250
0.950000 1.000000 0.106250
0.000000 1.000000 0.106250
0.118750 1.000000 0.106250
0.237500 1.000000 0.106250
0.356250 1.000000 0.106250
0.475000 1.000000 0.106250
0.593750 1.000000 0.106250
0.712500 1.000000 0.106250
0.831250 1.000000 0.106250
0.950000 1.000000 0.106250
0.000000 0.000000 0.212500
0.118750 0.000000 0.212500
0.237500 0.000000 0.212500
0.356250 0.000000 0.212500
0.475000 0.000000 0.212500
0.593750 0.000000 0.212500
0.712500 0.000000 0.212500
0.831250 0.000000 0.212500
0.950000 0.000000 0.212500
0.000000 0.150000 0.212500
0.118750 0.150000 0.212500
0.237500 0.150000 0.212500
0.356250 0.150000 0.212500
0.475000 0.150000 0.212500
0.593750 0.150000 0.212500
0.712500 0.150000 0.212500
0.831250 0.150000 0.212500
0.950000 0.150000 0.212500
0.000000 0.300000 0.212500
0.118750 0.300000 0.212500
0.237500 0.300000 0.212500
0.356250 0.300000 0.212500
0.475000 0.300000 0.212500
0.593750 0.300000 0.212500
0.712500 0.300000 0.212500
0.831250 0.300000 0.212500
0.950000 0.300000 0.212500
0.000000 0.450000 0.212500
0.118750 0.450000 0.212500
0.237500 0.450000 0.212500
0.356250 0.450000 0.212500
0.475000 0.450000 0.212500
0.593750 0.450000 0.212500
0.712500 0.450000 0.212500
0.831250 0.450000 0.212500
0.950000 0.450000 0.212500
0.000000 0.600000 0.212500
0.118750 0.600000 0.212500
0.237500 0.600000 0.212500
0.356250 0.600000 0.212500
0.475000 0.600000 0.212500
0.593750 0.600000 0.212500
0.712500 0.600000 0.212500
0.831250 0.600000 0.212500
0.950000 0.600000 0.212500
0.000000 0.750000 0.212500
0.118750 0.750000 0.212500
0.237500 0.750000 0.212500
0.356250 0.750000 0.212500
0.475000 0.750000 0.212500
0.593750 0.750000 0.212500
0.712500 0.750000 0.212500
0.831250 0.750000 0.212500
0.950000 0.750000 0.212500
0.000000 0.900000 0.212500
0.118750 0.900000 0.212500
0.237500 0.900000 0.212500
0.356250 0.900000 0.212500
0.475000 0.900000 0.212500
0.593750 0.900000 0.212500
0.712500 0.900000 0.212500
0.831250 0.900000 0.212500
0.950000 0.900000 0.212500
0.000000 1.000000 0.212500
0.118750 1.000000 0.212500
0.237500 1.000000 0.212500
0.356250 1.000000 0.212500
0.475000 1.000000 0.212500
0.593750 1.000000 0.212500
0.712500 1.000000 0.212500
0.831250 1.000000 0.212500
0.950000 1.000000 0.212500
0.000000 1.000000 0.212500
0.118750 1.000000 0.212500
0.237500 1.000000 0.212500
0.356250 1.000000 0.212500
0.475000 1.000000 0.212500
0.593750 1.000000 0.212500
0.712500 1.000000 0.212500
0.831250 1.000000 0.212500
0.950000 1.000000 0.212500
0.000000 0.000000 0.318750
0.118750 0.000000 0.318750
0.237500 0.000000 0.318750
0.356250 0.000000 0.318750
0.475000 0.000000 0.318750
0.593750 0.000000 0.318750
0.712500 0.000000 0.318750
0.831250 0.000000 0.318750
0.950000 0.000000 0.318750
0.000000 0.150000 0.318750
0.118750 0.150000 0.318750
0.237500 0.150000 0.318750
0.356250 0.150000 0.318750
0.475000 0.150000 0.318750
0.593750 0.150000 0.318750
0.712500 0.150000 0.318750
0.831250 0.150000 0.318750
0.950000 0.150000 0.318750
0.000000 0.300000 0.318750
0.118750 0.300000 0.318750
0.237500 0.300000 0.318750
0.356250 0.300000 0.318750
0.475000 0.300000 0.318750
0.593750 0.300000 0.318750
0.712500 0.300000 0.318750
0.831250 0.300000 0.318750
0.950000 0.300000 0.318750
0.000000 0.450000 0.318750
0.118750 0.450000 0.318750
0.237500 0.450000 0.318750
0.356250 0.450000 0.318750
0.475000 0.450000 0.318750
0.593750 0.450000 0.318750
0.712500 0.450000 0.318750
0.831250 0.450000 0.318750
0.950000 0.450000 0.318750
0.000000 0.600000 0.318750
0.118750 0.600000 0.318750
0.237500 0.600000 0.318750
0.356250 0.600000 0.318750
0.475000 0.600000 0.318750
0.593750 0.600000 0.318750
0.712500 0.600000 0.318750
0.831250 0.600000 0.318750
0.950000 0.600000 0.318750
0.000000 0.750000 0.318750
0.118750 0.750000 0.318750
0.237500 0.750000 0.318750
0.356250 0.750000 0.318750
0.475000 0.750000 0.318750
0.593750 0.750000 0.318750
0.712500 0.750000 0.318750
0.831250 0.750000 0.318750
0.950000 0.750000 0.318750
0.000000 0.900000 0.318750
0.118750 0.900000 0.318750
0.237500 0.900000 0.318750
0.356250 0.900000 0.318750
0.475000 0.900000 0.318750
0.593750 0.900000 0.318750
0.712500 0.900000 0.318750
0.831250 0.900000 0.318750
0.950000 0.900000 0.318750
0.000000 1.000000 0.318750
0.118750 1.000000 0.318750
0.237500 1.000000 0.318750
0.356250 1.000000 0.318750
0.475000 1.000000 0.318750
0.593750 1.000000 0.318750
0.712500 1.000000 0.318750
0.831250 1.000000 0.318750
0.950000 1.000000 0.318750
0.000000 1.000000 0.318750
0.118750 1.000000 0.318750
0.237500 1.000000 0.318750
0.356250 1.000000 0.318750
0.475000 1.000000 0.318750
0.593750 1.000000 0.318750
0.712500 1.000000 0.318750
0.831250 1.000000 0.318750
0.950000 1.000000 0.318750
0.000000 0.000000 0.425000
0.118750 0.000000 0.425000
0.237500 0.000000 0.425000
0.356250 0.000000 0.425000
0.475000 0.000000 0.425000
0.593750 0.000000 0.425000
0.712500 0.000000 0.425000
0.831250 0.000000 0.425000
0.950000 0.000000 0.425000
0.000000 0.150000 0.425000
0.118750 0.150000 0.425000
0.237500 0.150000 0.425000
0.356250 0.150000 0.425000
0.475000 0.150000 0.425000
0.593750 0.150000 0.425000
0.712500 0.150000 0.425000
0.831250 0.150000 0.425000
0.950000 0.150000 0.425000
0.000000 0.300000 0.425000
0.118750 0.300000 0.425000
0.237500 0.300000 0.425000
0.356250 0.300000 0.425000
0.475000 0.300000 0.425000
0.593750 0.300000 0.425000
0.712500 0.300000 0.425000
0.831250 0.300000 0.425000
0.950000 0.300000 0.425000
0.000000 0.450000 0.425000
0.118750 0.450000 0.425000
0.237500 0.450000 0.425000
0.356250 0.450000 0.425000
0.475000 0.450000 0.425000
0.593750 0.450000 0.425000
0.712500 0.450000 0.425000
0.831250 0.450000 0.425000
0.950000 0.450000 0.425000
0.000000 0.600000 0.425000
0.118750 0.600000 0.425000
0.237500 0.600000 0.425000
0.356250 0.600000 0.425000
0.475000 0.600000 0.425000
0.593750 0.600000 0.425000
0.712500 0.600000 0.425000
0.831250 0.600000 0.425000
0.950000 0.600000 0.425000
0.000000 0.750000 0.425000
0.118750 0.750000 0.425000
0.237500 0.750000 0.425000
0.356250 0.750000 0.425000
0.475000 0.750000 0.425000
0.593750 0.750000 0.425000
0.712500 0.750000 0.425000
0.831250 0.750000 0.425000
0.950000 0.750000 0.425000
0.000000 0.900000 0.425000
0.118750 0.900000 0.425000
0.237500 0.900000 0.425000
0.356250 0.900000 0.425000
0.475000 0.900000 0.425000
0.593750 0.900000 0.425000
0.712500 0.900000 0.425000
0.831250 0.900000 0.425000
0.950000 0.900000 0.425000
0.000000 1.000000 0.425000
0.118750 1.000000 0.425000
0.237500 1.000000 0.425000
0.356250 1.000000 0.425000
0.475000 1.000000 0.425000
0.593750 1.000000 0.425000
0.712500 1.000000 0.425000
0.831250 1.000000 0.425000
0.950000 1.000000 0.425000
0.000000 1.000000 0.425000
0.118750 1.000000 0.425000
0.237500 1.000000 0.425000
0.356250 1.000000 0.425000
0.475000 1.000000 0.425000
0.593750 1.000000 0.425000
0.712500 1.000000 0.425000
0.831250 1.000000 0.425000
0.950000 1.000000 0.425000
0.000000 0.000000 0.531250
0.118750 0.000000 0.531250
0.237500 0.000000 0.531250
0.356250 0.000000 0.531250
0.475000 0.000000 0.531250
0.593750 0.000000 0.531250
0.712500 0.000000 0.531250
0.831250 0.000000 0.531250
0.950000 0.000000 0.531250
0.000000 0.150000 0.531250
0.118750 0.150000 0.531250
0.237500 0.150000 0.531250
0.356250 0.150000 0.531250
0.475000 0.150000 0.531250
0.593750 0.150000 0.531250
0.712500 0.150000 0.531250
0.831250 0.150000 0.531250
0.950000 0.150000 0.531250
0.000000 0.300000 0.531250
0.118750 0.300000 0.531250
0.237500 0.300000 0.531250
0.356250 0.300000 0.531250
0.475000 0.300000 0.531250
0.593750 0.300000 0.531250
0.712500 0.300000 0.531250
0.831250 0.300000 0.531250
0.950000 0.300000 0.531250
0.000000 0.450000 0.531250
0.118750 0.450000 0.531250
0.237500 0.450000 0.531250
0.356250 0.450000 0.531250
0.475000 0.450000 0.531250
0.593750 0.450000 0.531250
0.712500 0.450000 0.531250
0.831250 0.450000 0.531250
0.950000 0.450000 0.531250
0.000000 0.600000 0.531250
0.118750 0.600000 0.531250
0.237500 0.600000 0.531250
0.356250 0.600000 0.531250
0.475000 0.600000 0.531250
0.593750 0.600000 0.531250
0.712500 0.600000 0.531250
0.831250 0.600000 0.531250
0.950000 0.600000 0.531250
0.000000 0.750000 0.531250
0.118750 0.750000 0.531250
0.237500 0.750000 0.531250
0.356250 0.750000 0.531250
0.475000 0.750000 0.531250
0.593750 0.750000 0.531250
0.712500 0.750000 0.531250
0.831250 0.750000 0.531250
0.950000 0.750000 0.531250
0.000000 0.900000 0.531250
0.118750 0.900000 0.531250
0.237500 0.900000 0.531250
0.356250 0.900000 0.531250
0.475000 0.900000 0.531250
0.593750 0.900000 0.531250
0.712500 0.900000 0.531250
0.831250 0.900000 0.531250
0.950000 0.900000 0.531250
0.000000 1.000000 0.531250
0.118750 1.000000 0.531250
0.237500 1.000000 0.531250
0.356250 1.000000 0.531250
0.475000 1.000000 0.531250
0.593750 1.000000 0.531250
0.712500 1.000000 0.531250
0.831250 1.000000 0.531250
0.950000 1.000000 0.531250
0.000000 1.000000 0.531250
0.118750 1.000000 0.531250
0.237500 1.000000 0.531250
0.356250 1.000000 0.531250
0.475000 1.000000 0.531250
0.593750 1.000000 0.531250
0.712500 1.000000 0.531250
0.831250 1.000000 0.531250
0.950000 1.000000 0.531250
0.000000 0.000000 0.637500
0.118750 0.000000 0.637500
0.237500 0.000000 0.637500
0.356250 0.000000 0.637500
0.475000 0.000000 0.637500
0.593750 0.000000 0.637500
0.712500 0.000000 0.637500
0.831250 0.000000 0.637500
0.950000 0.000000 0.637500
0.000000 0.150000 0.637500
0.118750 0.150000 0.637500
0.237500 0.150000 0.637500
0.356250 0.150000 0.637500
0.475000 0.150000 0.637500
0.593750 0.150000 0.637500
0.712500 0.150000 0.637500
0.831250 0.150000 0.637500
0.950000 0.150000 0.637500
0.000000 0.300000 0.637500
0.118750 0.300000 0.637500
0.237500 0.300000 0.637500
0.356250 0.300000 0.637500
0.475000 0.300000 0.637500
0.593750 0.300000 0.637500
0.712500 0.300000 0.637500
0.831250 0.300000 0.637500
0.950000 0.300000 0.637500
0.000000 0.450000 0.637500
0.118750 0.450000 0.637500
0.237500 0.450000 0.637500
0.356250 0.450000 0.637500
0.475000 0.450000 0.637500
0.593750 0.450000 0.637500
0.712500 0.450000 0.637500
0.831250 0.450000 0.637500
0.950000 0.450000 0.637500
0.000000 0.600000 0.637500
0.118750 0.600000 0.637500
0.237500 0.600000 0.637500
0.356250 0.600000 0.637500
0.475000 0.600000 0.637500
0.593750 0.600000 0.637500
0.712500 0.600000 0.637500
0.831250 0.600000 0.637500
0.950000 0.600000 0.637500
0.000000 0.750000 0.637500
0.118750 0.750000 0.637500
0.237500 0.750000 0.637500
0.356250 0.750000 0.637500
0.475000 0.750000 0.637500
0.593750 0.750000 0.637500
0.712500 0.750000 0.637500
0.831250 0.750000 0.637500
0.950000 0.750000 0.637500
0.000000 0.900000 0.637500
0.118750 0.900000 0.637500
0.237500 0.900000 0.637500
0.356250 0.900000 0.637500
0.475000 0.900000 0.637500
0.593750 0.900000 0.637500
0.712500 0.900000 0.637500
0.831250 0.900000 0.637500
0.950000 0.900000 0.637500
0.000000 1.000000 0.637500
0.118750 1.000000 0.637500
0.237500 1.000000 0.637500
0.356250 1.000000 0.637500
0.475000 1.000000 0.637500
0.593750 1.000000 0.637500
0.712500 1.000000 0.637500
0.831250 1.000000 0.637500
0.950000 1.000000 0.637500
0.000000 1.000000 0.637500
0.118750 1.000000 0.637500
0.237500 1.000000 0.637500
0.356250 1.000000 0.637500
0.475000 1.000000 0.637500
0.593750 1.000000 0.637500
0.712500 1.000000 0.637500
0.831250 1.000000 0.637500
0.950000 1.000000 0.637500
0.000000 0.000000 0.743750
0.118750 0.000000 0.743750
0.237500 0.000000 0.743750
0.356250 0.000000 0.743750
0.475000 0.000000 0.743750
0.593750 0.000000 0.743750
0.712500 0.000000 0.743750
0.831250 0.000000 0.743750
0.950000 0.000000 0.743750
0.000000 0.150000 0.743750
0.118750 0.150000 0.743750
0.237500 0.150000 0.743750
0.356250 0.150000 0.743750
0.475000 0.150000 0.743750
0.593750 0.150000 0.743750
0.712500 0.150000 0.743750
0.831250 0.150000 0.743750
0.950000 0.150000 0.743750
0.000000 0.300000 0.743750
0.118750 0.300000 0.743750
0.237500 0.300000 0.743750
0.356250 0.300000 0.743750
0.475000 0.300000 0.743750
0.593750 0.300000 0.743750
0.712500 0.300000 0.743750
0.831250 0.300000 0.743750
0.950000 0.300000 0.743750
0.000000 0.450000 0.743750
0.118750 0.450000 0.743750
0.237500 0.450000 0.743750
0.356250 0.450000 0.743750
0.475000 0.450000 0.743750
0.593750 0.450000 0.743750
0.712500 0.450000 0.743750
0.831250 0.450000 0.743750
0.950000 0.450000 0.743750
0.000000 0.600000 0.743750
0.118750 0.600000 0.743750
0.237500 0.600000 0.743750
0.356250 0.600000 0.743750
0.475000 0.600000 0.743750
0.593750 0.600000 0.743750
0.712500 0.600000 0.743750
0.831250 0.600000 0.743750
0.950000 0.600000 0.743750
0.000000 0.750000 0.743750
0.118750 0.750000 0.743750
0.237500 0.750000 0.743750
0.356250 0.750000 0.743750
0.475000 0.750000 0.743750
0.593750 0.750000 0.743750
0.712500 0.750000 0.743750
0.831250 0.750000 0.743750
0.950000 0.750000 0.743750
0.000000 0.900000 0.743750
0.118750 0.900000 0.743750
0.237500 0.900000 0.743750
0.356250 0.900000 0.743750
0.475000 0.900000 0.743750
0.593750 0.900000 0.743750
0.712500 0.900000 0.743750
0.831250 0.900000 0.743750
0.950000 0.900000 0.743750
0.000000 1.000000 0.743750
0.118750 1.000000 0.743750
0.237500 1.000000 0.743750
0.356250 1.000000 0.743750
0.475000 1.000000 0.743750
0.593750 1.000000 0.743750
0.712500 1.000000 0.743750
0.831250 1.000000 0.743750
0.950000 1.000000 0.743750
0.000000 1.000000 0.743750
0.118750 1.000000 0.743750
0.237500 1.000000 0.743750
0.356250 1.000000 0.743750
0.475000 1.000000 0.743750
0.593750 1.000000 0.743750
0.712500 1.000000 0.743750
0.831250 1.000000 0.743750
0.950000 1.000000 0.743750
0.000000 0.000000 0.850000
0.118750 0.000000 0.850000
0.237500 0.000000 0.850000
0.356250 0.000000 0.850000
0.475000 0.000000 0.850000
0.593750 0.000000 0.850000
0.712500 0.000000 0.850000
0.831250 0.000000 0.850000
0.950000 0.000000 0.850000
0.000000 0.150000 0.850000
0.118750 0.150000 0.850000
0.237500 0.150000 0.850000
0.356250 0.150000 0.850000
0.475000 0.150000 0.850000
0.593750 0.150000 0.850000
0.712500 0.150000 0.850000
0.831250 0.150000 0.850000
0.950000 0.150000 0.850000
0.000000 0.300000 0.850000
0.118750 0.300000 0.850000
0.237500 0.300000 0.850000
0.356250 0.300000 0.850000
0.475000 0.300000 0.850000
0.593750 0.300000 0.850000
0.712500 0.300000 0.850000
0.831250 0.300000 0.850000
0.950000 0.300000 0.850000
0.000000 0.450000 0.850000
0.118750 0.450000 0.850000
0.237500 0.450000 0.850000
0.356250 0.450000 0.850000
0.475000 0.450000 0.850000
0.593750 0.450000 0.850000
0.712500 0.450000 0.850000
0.831250 0.450000 0.850000
0.950000 0.450000 0.850000
0.000000 0.600000 0.850000
0.118750 0.600000 0.850000
0.237500 0.600000 0.850000
0.356250 0.600000 0.850000
0.475000 0.600000 0.850000
0.593750 0.600000 0.850000
0.712500 0.600000 0.850000
0.831250 0.600000 0.850000
0.950000 0.600000 0.850000
0.000000 0.750000 0.850000
0.118750 0.750000 0.850000
0.237500 0.750000 0.850000
0.356250 0.750000 0.850000
0.475000 0.750000 0.850000
0.593750 0.750000 0.850000
0.712500 0.750000 0.850000
0.831250 0.750000 0.850000
0.950000 0.750000 0.850000
0.000000 0.900000 0.850000
0.118750 0.900000 0.850000
0.237500 0.900000 0.850000
0.356250 0.900000 0.850000
0.475000 0.900000 0.850000
0.593750 0.900000 0.850000
0.712500 0.900000 0.850000
0.831250 0.900000 0.850000
0.950000 0.900000 0.850000
0.000000 1.000000 0.850000
0.118750 1.000000 0.850000
0.237500 1.000000 0.850000
0.356250 1.000000 0.850000
0.475000 1.000000 0.850000
0.593750 1.000000 0.850000
0.712500 1.000000 0.850000
0.831250 1.000000 0.850000
0.950000 1.000000 0.850000
0.000000 1.000000 0.850000
0.118750 1.000000 0.850000
0.237500 1.000000 0.850000
0.356250 1.000000 0.850000
0.475000 1.000000 0.850000
0.593750 1.000000 0.850000
0.712500 1.000000 0.850000
0.831250 1.000000 0.850000
0.950000 1.000000 0.850000
