app/src/main/assets/luts/fresh_face.cube
# ApexStudio filter: fresh_face
LUT_3D_SIZE 9
DOMAIN_MIN 0.0 0.0 0.0
DOMAIN_MAX 1.0 1.0 1.0
0.000000 0.000000 0.000000
0.129381 0.000000 0.000000
0.258763 0.000000 0.000000
0.388144 0.000000 0.000000
0.517525 0.000000 0.000000
0.646906 0.000000 0.000000
0.776288 0.000000 0.000000
0.905669 0.000000 0.000000
1.000000 0.000000 0.000000
0.000000 0.127581 0.000000
0.125713 0.125713 0.000000
0.255094 0.123844 0.000000
0.384475 0.121975 0.000000
0.513856 0.120106 0.000000
0.643238 0.118237 0.000000
0.772619 0.116369 0.000000
0.902000 0.114500 0.000000
1.000000 0.112631 0.000000
0.000000 0.255163 0.000000
0.122044 0.253294 0.000000
0.251425 0.251425 0.000000
0.380806 0.249556 0.000000
0.510188 0.247688 0.000000
0.639569 0.245819 0.000000
0.768950 0.243950 0.000000
0.898331 0.242081 0.000000
1.000000 0.240212 0.000000
0.000000 0.382744 0.000000
0.118375 0.380875 0.000000
0.247756 0.379006 0.000000
0.377138 0.377138 0.000000
0.506519 0.375269 0.000000
0.635900 0.373400 0.000000
0.765281 0.371531 0.000000
0.894663 0.369663 0.000000
1.000000 0.367794 0.000000
0.000000 0.510325 0.000000
0.114706 0.508456 0.000000
0.244088 0.506587 0.000000
0.373469 0.504719 0.000000
0.502850 0.502850 0.000000
0.632231 0.500981 0.000000
0.761613 0.499113 0.000000
0.890994 0.497244 0.000000
1.000000 0.495375 0.000000
0.000000 0.637906 0.000000
0.111038 0.636038 0.000000
0.240419 0.634169 0.000000
0.369800 0.632300 0.000000
0.499181 0.630431 0.000000
0.628563 0.628563 0.000000
0.757944 0.626694 0.000000
0.887325 0.624825 0.000000
1.000000 0.622956 0.000000
0.000000 0.765487 0.000000
0.107369 0.763619 0.000000
0.236750 0.761750 0.000000
0.366131 0.759881 0.000000
0.495513 0.758012 0.000000
0.624894 0.756144 0.000000
0.754275 0.754275 0.000000
0.883656 0.752406 0.000000
1.000000 0.750537 0.000000
0.000000 0.893069 0.000000
0.103700 0.891200 0.000000
0.233081 0.889331 0.000000
0.362462 0.887463 0.000000
0.491844 0.885594 0.000000
0.621225 0.883725 0.000000
0.750606 0.881856 0.000000
0.879988 0.879988 0.000000
1.000000 0.878119 0.000000
0.000000 1.000000 0.000000
0.100031 1.000000 0.000000
0.229412 1.000000 0.000000
0.358794 1.000000 0.000000
0.488175 1.000000 0.000000
0.617556 1.000000 0.000000
0.746938 1.000000 0.000000
0.876319 1.000000 0.000000
1.000000 1.000000 0.000000
0.000000 0.000000 0.130538
0.128669 0.000000 0.128669
0.258050 0.000000 0.126800
0.387431 0.000000 0.124931
0.516813 0.000000 0.123062
0.646194 0.000000 0.121194
0.775575 0.000000 0.119325
0.904956 0.000000 0.117456
1.000000 0.000000 0.115587
0.000000 0.126869 0.126869
0.125000 0.125000 0.125000
0.254381 0.123131 0.123131
0.383763 0.121262 0.121262
0.513144 0.119394 0.119394
0.642525 0.117525 0.117525
0.771906 0.115656 0.115656
0.901288 0.113787 0.113787
1.000000 0.111919 0.111919
0.000000 0.254450 0.123200
0.121331 0.252581 0.121331
0.250713 0.250713 0.119462
0.380094 0.248844 0.117594
0.509475 0.246975 0.115725
0.638856 0.245106 0.113856
0.768238 0.243237 0.111987
0.897619 0.241369 0.110119
1.000000 0.239500 0.108250
0.000000 0.382031 0.119531
0.117663 0.380163 0.117663
0.247044 0.378294 0.115794
0.376425 0.376425 0.113925
0.505806 0.374556 0.112056
0.635188 0.372688 0.110187
0.764569 0.370819 0.108319
0.893950 0.368950 0.106450
1.000000 0.367081 0.104581
0.000000 0.509613 0.115863
0.113994 0.507744 0.113994
0.243375 0.505875 0.112125
0.372756 0.504006 0.110256
0.502138 0.502138 0.108387
0.631519 0.500269 0.106519
0.760900 0.498400 0.104650
0.890281 0.496531 0.102781
1.000000 0.494663 0.100912
0.000000 0.637194 0.112194
0.110325 0.635325 0.110325
0.239706 0.633456 0.108456
0.369088 0.631587 0.106588
0.498469 0.629719 0.104719
0.627850 0.627850 0.102850
0.757231 0.625981 0.100981
0.886613 0.624112 0.099112
1.000000 0.622244 0.097244
0.000000 0.764775 0.108525
0.106656 0.762906 0.106656
0.236038 0.761038 0.104787
0.365419 0.759169 0.102919
0.494800 0.757300 0.101050
0.624181 0.755431 0.099181
0.753563 0.753563 0.097313
0.882944 0.751694 0.095444
1.000000 0.749825 0.093575
0.000000 0.892356 0.104856
0.102987 0.890487 0.102987
0.232369 0.888619 0.101119
0.361750 0.886750 0.099250
0.491131 0.884881 0.097381
0.620513 0.883012 0.095513
0.749894 0.881144 0.093644
0.879275 0.879275 0.091775
1.000000 0.877406 0.089906
0.000000 1.000000 0.101187
0.099319 1.000000 0.099319
0.228700 1.000000 0.097450
0.358081 1.000000 0.095581
0.487462 1.000000 0.093712
0.616844 1.000000 0.091844
0.746225 1.000000 0.089975
0.875606 1.000000 0.088106
1.000000 1.000000 0.086237
0.000000 0.000000 0.261075
0.127956 0.000000 0.259206
0.257337 0.000000 0.257337
0.386719 0.000000 0.255469
0.516100 0.000000 0.253600
0.645481 0.000000 0.251731
0.774863 0.000000 0.249862
0.904244 0.000000 0.247994
1.000000 0.000000 0.246125
0.000000 0.126156 0.257406
0.124287 0.124287 0.255537
0.253669 0.122419 0.253669
0.383050 0.120550 0.251800
0.512431 0.118681 0.249931
0.641813 0.116812 0.248062
0.771194 0.114944 0.246194
0.900575 0.113075 0.244325
1.000000 0.111206 0.242456
0.000000 0.253738 0.253738
0.120619 0.251869 0.251869
0.250000 0.250000 0.250000
0.379381 0.248131 0.248131
0.508763 0.246262 0.246262
0.638144 0.244394 0.244394
0.767525 0.242525 0.242525
0.896906 0.240656 0.240656
1.000000 0.238787 0.238787
0.000000 0.381319 0.250069
0.116950 0.379450 0.248200
0.246331 0.377581 0.246331
0.375713 0.375713 0.244462
0.505094 0.373844 0.242594
0.634475 0.371975 0.240725
0.763856 0.370106 0.238856
0.893238 0.368237 0.236987
1.000000 0.366369 0.235119
0.000000 0.508900 0.246400
0.113281 0.507031 0.244531
0.242663 0.505162 0.242663
0.372044 0.503294 0.240794
0.501425 0.501425 0.238925
0.630806 0.499556 0.237056
0.760188 0.497688 0.235187
0.889569 0.495819 0.233319
1.000000 0.493950 0.231450
0.000000 0.636481 0.242731
0.109613 0.634613 0.240863
0.238994 0.632744 0.238994
0.368375 0.630875 0.237125
0.497756 0.629006 0.235256
0.627138 0.627138 0.233387
0.756519 0.625269 0.231519
0.885900 0.623400 0.229650
1.000000 0.621531 0.227781
0.000000 0.764063 0.239062
0.105944 0.762194 0.237194
0.235325 0.760325 0.235325
0.364706 0.758456 0.233456
0.494088 0.756587 0.231588
0.623469 0.754719 0.229719
0.752850 0.752850 0.227850
0.882231 0.750981 0.225981
1.000000 0.749112 0.224112
0.000000 0.891644 0.235394
0.102275 0.889775 0.233525
0.231656 0.887906 0.231656
0.361038 0.886038 0.229787
0.490419 0.884169 0.227919
0.619800 0.882300 0.226050
0.749181 0.880431 0.224181
0.878563 0.878563 0.222313
1.000000 0.876694 0.220444
0.000000 1.000000 0.231725
0.098606 1.000000 0.229856
0.227988 1.000000 0.227988
0.357369 1.000000 0.226119
0.486750 1.000000 0.224250
0.616131 1.000000 0.222381
0.745513 1.000000 0.220513
0.874894 1.000000 0.218644
1.000000 1.000000 0.216775
0.000000 0.000000 0.391613
0.127244 0.000000 0.389744
0.256625 0.000000 0.387875
0.386006 0.000000 0.386006
0.515387 0.000000 0.384138
0.644769 0.000000 0.382269
0.774150 0.000000 0.380400
0.903531 0.000000 0.378531
1.000000 0.000000 0.376663
0.000000 0.125444 0.387944
0.123575 0.123575 0.386075
0.252956 0.121706 0.384206
0.382337 0.119837 0.382337
0.511719 0.117969 0.380469
0.641100 0.116100 0.378600
0.770481 0.114231 0.376731
0.899863 0.112362 0.374862
1.000000 0.110494 0.372994
0.000000 0.253025 0.384275
0.119906 0.251156 0.382406
0.249287 0.249287 0.380537
0.378669 0.247419 0.378669
0.508050 0.245550 0.376800
0.637431 0.243681 0.374931
0.766813 0.241812 0.373063
0.896194 0.239944 0.371194
1.000000 0.238075 0.369325
0.000000 0.380606 0.380606
0.116237 0.378738 0.378738
0.245619 0.376869 0.376869
0.375000 0.375000 0.375000
0.504381 0.373131 0.373131
0.633763 0.371262 0.371262
0.763144 0.369394 0.369394
0.892525 0.367525 0.367525
1.000000 0.365656 0.365656
0.000000 0.508188 0.376937
0.112569 0.506319 0.375069
0.241950 0.504450 0.373200
0.371331 0.502581 0.371331
0.500713 0.500713 0.369463
0.630094 0.498844 0.367594
0.759475 0.496975 0.365725
0.888856 0.495106 0.363856
1.000000 0.493237 0.361987
0.000000 0.635769 0.373269
0.108900 0.633900 0.371400
0.238281 0.632031 0.369531
0.367663 0.630162 0.367663
0.497044 0.628294 0.365794
0.626425 0.626425 0.363925
0.755806 0.624556 0.362056
0.885188 0.622688 0.360187
1.000000 0.620819 0.358319
0.000000 0.763350 0.369600
0.105231 0.761481 0.367731
0.234613 0.759613 0.365862
0.363994 0.757744 0.363994
0.493375 0.755875 0.362125
0.622756 0.754006 0.360256
0.752138 0.752138 0.358387
0.881519 0.750269 0.356519
1.000000 0.748400 0.354650
0.000000 0.890931 0.365931
0.101562 0.889063 0.364062
0.230944 0.887194 0.362194
0.360325 0.885325 0.360325
0.489706 0.883456 0.358456
0.619088 0.881587 0.356588
0.748469 0.879719 0.354719
0.877850 0.877850 0.352850
1.000000 0.875981 0.350981
0.000000 1.000000 0.362262
0.097894 1.000000 0.360394
0.227275 1.000000 0.358525
0.356656 1.000000 0.356656
0.486038 1.000000 0.354787
0.615419 1.000000 0.352919
0.744800 1.000000 0.351050
0.874181 1.000000 0.349181
1.000000 1.000000 0.347313
0.000000 0.000000 0.522150
0.126531 0.000000 0.520281
0.255912 0.000000 0.518412
0.385294 0.000000 0.516544
0.514675 0.000000 0.514675
0.644056 0.000000 0.512806
0.773438 0.000000 0.510938
0.902819 0.000000 0.509069
1.000000 0.000000 0.507200
0.000000 0.124731 0.518481
0.122862 0.122862 0.516613
0.252244 0.120994 0.514744
0.381625 0.119125 0.512875
0.511006 0.117256 0.511006
0.640387 0.115388 0.509138
0.769769 0.113519 0.507269
0.899150 0.111650 0.505400
1.000000 0.109781 0.503531
0.000000 0.252312 0.514813
0.119194 0.250444 0.512944
0.248575 0.248575 0.511075
0.377956 0.246706 0.509206
0.507337 0.244837 0.507337
0.636719 0.242969 0.505469
0.766100 0.241100 0.503600
0.895481 0.239231 0.501731
1.000000 0.237362 0.499862
0.000000 0.379894 0.511144
0.115525 0.378025 0.509275
0.244906 0.376156 0.507406
0.374287 0.374287 0.505537
0.503669 0.372419 0.503669
0.633050 0.370550 0.501800
0.762431 0.368681 0.499931
0.891813 0.366812 0.498063
1.000000 0.364944 0.496194
0.000000 0.507475 0.507475
0.111856 0.505606 0.505606
0.241237 0.503737 0.503737
0.370619 0.501869 0.501869
0.500000 0.500000 0.500000
0.629381 0.498131 0.498131
0.758763 0.496262 0.496262
0.888144 0.494394 0.494394
1.000000 0.492525 0.492525
0.000000 0.635056 0.503806
0.108187 0.633188 0.501938
0.237569 0.631319 0.500069
0.366950 0.629450 0.498200
0.496331 0.627581 0.496331
0.625713 0.625713 0.494463
0.755094 0.623844 0.492594
0.884475 0.621975 0.490725
1.000000 0.620106 0.488856
0.000000 0.762638 0.500138
0.104519 0.760769 0.498269
0.233900 0.758900 0.496400
0.363281 0.757031 0.494531
0.492663 0.755162 0.492663
0.622044 0.753294 0.490794
0.751425 0.751425 0.488925
0.880806 0.749556 0.487056
1.000000 0.747687 0.485187
0.000000 0.890219 0.496469
0.100850 0.888350 0.494600
0.230231 0.886481 0.492731
0.359613 0.884613 0.490862
0.488994 0.882744 0.488994
0.618375 0.880875 0.487125
0.747756 0.879006 0.485256
0.877138 0.877138 0.483387
1.000000 0.875269 0.481519
0.000000 1.000000 0.492800
0.097181 1.000000 0.490931
0.226562 1.000000 0.489062
0.355944 1.000000 0.487194
0.485325 1.000000 0.485325
0.614706 1.000000 0.483456
0.744088 1.000000 0.481588
0.873469 1.000000 0.479719
1.000000 1.000000 0.477850
0.000000 0.000000 0.652687
0.125819 0.000000 0.650819
0.255200 0.000000 0.648950
0.384581 0.000000 0.647081
0.513962 0.000000 0.645212
0.643344 0.000000 0.643344
0.772725 0.000000 0.641475
0.902106 0.000000 0.639606
1.000000 0.000000 0.637738
0.000000 0.124019 0.649019
0.122150 0.122150 0.647150
0.251531 0.120281 0.645281
0.380912 0.118413 0.643412
0.510294 0.116544 0.641544
0.639675 0.114675 0.639675
0.769056 0.112806 0.637806
0.898438 0.110937 0.635938
1.000000 0.109069 0.634069
0.000000 0.251600 0.645350
0.118481 0.249731 0.643481
0.247862 0.247862 0.641613
0.377244 0.245994 0.639744
0.506625 0.244125 0.637875
0.636006 0.242256 0.636006
0.765387 0.240387 0.634138
0.894769 0.238519 0.632269
1.000000 0.236650 0.630400
0.000000 0.379181 0.641681
0.114812 0.377312 0.639813
0.244194 0.375444 0.637944
0.373575 0.373575 0.636075
0.502956 0.371706 0.634206
0.632337 0.369837 0.632337
0.761719 0.367969 0.630469
0.891100 0.366100 0.628600
1.000000 0.364231 0.626731
0.000000 0.506763 0.638013
0.111144 0.504894 0.636144
0.240525 0.503025 0.634275
0.369906 0.501156 0.632406
0.499287 0.499287 0.630537
0.628669 0.497419 0.628669
0.758050 0.495550 0.626800
0.887431 0.493681 0.624931
1.000000 0.491812 0.623062
0.000000 0.634344 0.634344
0.107475 0.632475 0.632475
0.236856 0.630606 0.630606
0.366237 0.628737 0.628737
0.495619 0.626869 0.626869
0.625000 0.625000 0.625000
0.754381 0.623131 0.623131
0.883763 0.621263 0.621263
1.000000 0.619394 0.619394
0.000000 0.761925 0.630675
0.103806 0.760056 0.628806
0.233187 0.758188 0.626938
0.362569 0.756319 0.625069
0.491950 0.754450 0.623200
0.621331 0.752581 0.621331
0.750713 0.750713 0.619463
0.880094 0.748844 0.617594
1.000000 0.746975 0.615725
0.000000 0.889506 0.627006
0.100137 0.887638 0.625138
0.229519 0.885769 0.623269
0.358900 0.883900 0.621400
0.488281 0.882031 0.619531
0.617663 0.880162 0.617663
0.747044 0.878294 0.615794
0.876425 0.876425 0.613925
1.000000 0.874556 0.612056
0.000000 1.000000 0.623337
0.096469 1.000000 0.621469
0.225850 1.000000 0.619600
0.355231 1.000000 0.617731
0.484613 1.000000 0.615862
0.613994 1.000000 0.613994
0.743375 1.000000 0.612125
0.872756 1.000000 0.610256
1.000000 1.000000 0.608387
0.000000 0.000000 0.783225
0.125106 0.000000 0.781356
0.254487 0.000000 0.779487
0.383869 0.000000 0.777619
0.513250 0.000000 0.775750
0.642631 0.000000 0.773881
0.772012 0.000000 0.772012
0.901394 0.000000 0.770144
1.000000 0.000000 0.768275
0.000000 0.123306 0.779556
0.121438 0.121438 0.777687
0.250819 0.119569 0.775819
0.380200 0.117700 0.773950
0.509581 0.115831 0.772081
0.638962 0.113962 0.770212
0.768344 0.112094 0.768344
0.897725 0.110225 0.766475
1.000000 0.108356 0.764606
0.000000 0.250887 0.775888
0.117769 0.249019 0.774019
0.247150 0.247150 0.772150
0.376531 0.245281 0.770281
0.505912 0.243413 0.768412
0.635294 0.241544 0.766544
0.764675 0.239675 0.764675
0.894056 0.237806 0.762806
1.000000 0.235937 0.760938
0.000000 0.378469 0.772219
0.114100 0.376600 0.770350
0.243481 0.374731 0.768481
0.372862 0.372862 0.766613
0.502244 0.370994 0.764744
0.631625 0.369125 0.762875
0.761006 0.367256 0.761006
0.890387 0.365387 0.759138
1.000000 0.363519 0.757269
0.000000 0.506050 0.768550
0.110431 0.504181 0.766681
0.239812 0.502313 0.764813
0.369194 0.500444 0.762944
0.498575 0.498575 0.761075
0.627956 0.496706 0.759206
0.757337 0.494837 0.757337
0.886719 0.492969 0.755469
1.000000 0.491100 0.753600
0.000000 0.633631 0.764881
0.106762 0.631763 0.763013
0.236144 0.629894 0.761144
0.365525 0.628025 0.759275
0.494906 0.626156 0.757406
0.624287 0.624287 0.755537
0.753669 0.622419 0.753669
0.883050 0.620550 0.751800
1.000000 0.618681 0.749931
0.000000 0.761213 0.761213
0.103094 0.759344 0.759344
0.232475 0.757475 0.757475
0.361856 0.755606 0.755606
0.491237 0.753737 0.753737
0.620619 0.751869 0.751869
0.750000 0.750000 0.750000
0.879381 0.748131 0.748131
1.000000 0.746263 0.746263
0.000000 0.888794 0.757544
0.099425 0.886925 0.755675
0.228806 0.885056 0.753806
0.358187 0.883188 0.751938
0.487569 0.881319 0.750069
0.616950 0.879450 0.748200
0.746331 0.877581 0.746331
0.875713 0.875713 0.744463
1.000000 0.873844 0.742594
0.000000 1.000000 0.753875
0.095756 1.000000 0.752006
0.225137 1.000000 0.750138
0.354519 1.000000 0.748269
0.483900 1.000000 0.746400
0.613281 1.000000 0.744531
0.742663 1.000000 0.742663
0.872044 1.000000 0.740794
1.000000 1.000000 0.738925
0.000000 0.000000 0.913763
0.124394 0.000000 0.911894
0.253775 0.000000 0.910025
0.383156 0.000000 0.908156
0.512538 0.000000 0.906288
0.641919 0.000000 0.904419
0.771300 0.000000 0.902550
0.900681 0.000000 0.900681
1.000000 0.000000 0.898813
0.000000 0.122594 0.910094
0.120725 0.120725 0.908225
0.250106 0.118856 0.906356
0.379487 0.116987 0.904487
0.508869 0.115119 0.902619
0.638250 0.113250 0.900750
0.767631 0.111381 0.898881
0.897012 0.109513 0.897012
1.000000 0.107644 0.895144
0.000000 0.250175 0.906425
0.117056 0.248306 0.904556
0.246438 0.246438 0.902687
0.375819 0.244569 0.900819
0.505200 0.242700 0.898950
0.634581 0.240831 0.897081
0.763962 0.238962 0.895212
0.893344 0.237094 0.893344
1.000000 0.235225 0.891475
0.000000 0.377756 0.902756
0.113388 0.375887 0.900888
0.242769 0.374019 0.899019
0.372150 0.372150 0.897150
0.501531 0.370281 0.895281
0.630912 0.368413 0.893412
0.760294 0.366544 0.891544
0.889675 0.364675 0.889675
1.000000 0.362806 0.887806
0.000000 0.505337 0.899088
0.109719 0.503469 0.897219
0.239100 0.501600 0.895350
0.368481 0.499731 0.893481
0.497862 0.497862 0.891613
0.627244 0.495994 0.889744
0.756625 0.494125 0.887875
0.886006 0.492256 0.886006
1.000000 0.490387 0.884138
0.000000 0.632919 0.895419
0.106050 0.631050 0.893550
0.235431 0.629181 0.891681
0.364812 0.627313 0.889813
0.494194 0.625444 0.887944
0.623575 0.623575 0.886075
0.752956 0.621706 0.884206
0.882337 0.619838 0.882337
1.000000 0.617969 0.880469
0.000000 0.760500 0.891750
0.102381 0.758631 0.889881
0.231762 0.756763 0.888013
0.361144 0.754894 0.886144
0.490525 0.753025 0.884275
0.619906 0.751156 0.882406
0.749287 0.749287 0.880537
0.878669 0.747419 0.878669
1.000000 0.745550 0.876800
0.000000 0.888081 0.888081
0.098712 0.886213 0.886213
0.228094 0.884344 0.884344
0.357475 0.882475 0.882475
0.486856 0.880606 0.880606
0.616237 0.878737 0.878737
0.745619 0.876869 0.876869
0.875000 0.875000 0.875000
1.000000 0.873131 0.873131
0.000000 1.000000 0.884413
0.095044 1.000000 0.882544
0.224425 1.000000 0.880675
0.353806 1.000000 0.878806
0.483187 1.000000 0.876938
0.612569 1.000000 0.875069
0.741950 1.000000 0.873200
0.871331 1.000000 0.871331
1.000000 1.000000 0.869463
0.000000 0.000000 1.000000
0.123681 0.000000 1.000000
0.253062 0.000000 1.000000
0.382444 0.000000 1.000000
0.511825 0.000000 1.000000
0.641206 0.000000 1.000000
0.770587 0.000000 1.000000
0.899969 0.000000 1.000000
1.000000 0.000000 1.000000
0.000000 0.121881 1.000000
0.120012 0.120012 1.000000
0.249394 0.118144 1.000000
0.378775 0.116275 1.000000
0.508156 0.114406 1.000000
0.637538 0.112538 1.000000
0.766919 0.110669 1.000000
0.896300 0.108800 1.000000
1.000000 0.106931 1.000000
0.000000 0.249463 1.000000
0.116344 0.247594 1.000000
0.245725 0.245725 1.000000
0.375106 0.243856 1.000000
0.504487 0.241987 1.000000
0.633869 0.240119 1.000000
0.763250 0.238250 1.000000
0.892631 0.236381 1.000000
1.000000 0.234513 1.000000
0.000000 0.377044 1.000000
0.112675 0.375175 1.000000
0.242056 0.373306 1.000000
0.371437 0.371437 1.000000
0.500819 0.369569 1.000000
0.630200 0.367700 1.000000
0.759581 0.365831 1.000000
0.888962 0.363962 1.000000
1.000000 0.362094 1.000000
0.000000 0.504625 1.000000
0.109006 0.502756 1.000000
0.238388 0.500888 1.000000
0.367769 0.499019 1.000000
0.497150 0.497150 1.000000
0.626531 0.495281 1.000000
0.755912 0.493413 1.000000
0.885294 0.491544 1.000000
1.000000 0.489675 1.000000
0.000000 0.632206 1.000000
0.105337 0.630337 1.000000
0.234719 0.628469 1.000000
0.364100 0.626600 1.000000
0.493481 0.624731 1.000000
0.622862 0.622862 1.000000
0.752244 0.620994 1.000000
0.881625 0.619125 1.000000
1.000000 0.617256 1.000000
0.000000 0.759788 1.000000
0.101669 0.757919 1.000000
0.231050 0.756050 1.000000
0.360431 0.754181 1.000000
0.489812 0.752313 1.000000
0.619194 0.750444 1.000000
0.748575 0.748575 1.000000
0.877956 0.746706 1.000000
1.000000 0.744838 1.000000
0.000000 0.887369 1.000000
0.098000 0.885500 1.000000
0.227381 0.883631 1.000000
0.356762 0.881763 1.000000
0.486144 0.879894 1.000000
0.615525 0.878025 1.000000
0.744906 0.876156 1.000000
0.874287 0.874287 1.000000
1.000000 0.872419 1.000000
0.000000 1.000000 1.000000
0.094331 1.000000 1.000000
0.223712 1.000000 1.000000
0.353094 1.000000 1.000000
0.482475 1.000000 1.000000
0.611856 1.000000 1.000000
0.741237 1.000000 1.000000
0.870619 1.000000 1.000000
1.000000 1.000000 1.000000
