app/src/main/assets/luts/fuji_chrome.cube
# ApexStudio filter: fuji_chrome
LUT_3D_SIZE 9
DOMAIN_MIN 0.0 0.0 0.0
DOMAIN_MAX 1.0 1.0 1.0
0.000345 0.000345 0.057867
0.085832 0.001670 0.059192
0.195493 0.003369 0.060891
0.308511 0.005120 0.062642
0.423689 0.006904 0.064426
0.540474 0.008713 0.066236
0.658545 0.010543 0.068065
0.777690 0.012389 0.069911
0.897759 0.014249 0.071771
0.004014 0.122764 0.061536
0.089501 0.124088 0.062861
0.199161 0.125787 0.064560
0.312180 0.127538 0.066311
0.427357 0.129323 0.068095
0.544143 0.131132 0.069904
0.662214 0.132961 0.071734
0.781359 0.134807 0.073580
0.901428 0.136668 0.075440
0.007683 0.245183 0.065205
0.093170 0.246507 0.066529
0.202830 0.248206 0.068228
0.315849 0.249957 0.069979
0.431026 0.251742 0.071764
0.547811 0.253551 0.073573
0.665882 0.255380 0.075403
0.785028 0.257226 0.077248
0.905096 0.259086 0.079109
0.011351 0.367601 0.068874
0.096839 0.368926 0.070198
0.206499 0.370625 0.071897
0.319517 0.372376 0.073648
0.434695 0.374160 0.075433
0.551480 0.375970 0.077242
0.669551 0.377799 0.079071
0.788696 0.379645 0.080917
0.908765 0.381505 0.082777
0.015020 0.490020 0.072542
0.100507 0.491345 0.073867
0.210168 0.493044 0.075566
0.323186 0.494795 0.077317
0.438364 0.496579 0.079101
0.555149 0.498388 0.080911
0.673220 0.500218 0.082740
0.792365 0.502064 0.084586
0.912434 0.503924 0.086446
0.018689 0.612439 0.076211
0.104176 0.613763 0.077536
0.213836 0.615462 0.079235
0.326855 0.617213 0.080986
0.442032 0.618998 0.082770
0.558818 0.620807 0.084579
0.676889 0.622636 0.086409
0.796034 0.624482 0.088255
0.916103 0.626343 0.090115
0.022358 0.734858 0.079880
0.107845 0.736182 0.081204
0.217505 0.737881 0.082903
0.330524 0.739632 0.084654
0.445701 0.741417 0.086439
0.562486 0.743226 0.088248
0.680557 0.745055 0.090078
0.799703 0.746901 0.091923
0.919771 0.748761 0.093784
0.026026 0.857276 0.083549
0.111514 0.858601 0.084873
0.221174 0.860300 0.086572
0.334192 0.862051 0.088323
0.449370 0.863835 0.090108
0.566155 0.865645 0.091917
0.684226 0.867474 0.093746
0.803371 0.869320 0.095592
0.923440 0.871180 0.097452
0.029695 0.979695 0.087217
0.115182 0.981020 0.088542
0.224843 0.982719 0.090241
0.337861 0.984470 0.091992
0.453039 0.986254 0.093776
0.569824 0.988063 0.095586
0.687895 0.989893 0.097415
0.807040 0.991739 0.099261
0.927109 0.993599 0.101121
0.001138 0.001138 0.190807
0.086625 0.002462 0.192132
0.196286 0.004161 0.193831
0.309304 0.005912 0.195582
0.424481 0.007697 0.197366
0.541267 0.009506 0.199175
0.659338 0.011336 0.201005
0.778483 0.013181 0.202851
0.898552 0.015042 0.204711
0.004807 0.123557 0.194476
0.090294 0.124881 0.195800
0.199954 0.126580 0.197499
0.312973 0.128331 0.199250
0.428150 0.130116 0.201035
0.544935 0.131925 0.202844
0.663007 0.133754 0.204673
0.782152 0.135600 0.206519
0.902220 0.137460 0.208380
0.008476 0.245976 0.198145
0.093963 0.247300 0.199469
0.203623 0.248999 0.201168
0.316641 0.250750 0.202919
0.431819 0.252534 0.204704
0.548604 0.254344 0.206513
0.666675 0.256173 0.208342
0.785820 0.258019 0.210188
0.905889 0.259879 0.212048
0.012144 0.368394 0.201813
0.097632 0.369719 0.203138
0.207292 0.371418 0.204837
0.320310 0.373169 0.206588
0.435488 0.374953 0.208372
0.552273 0.376762 0.210182
0.670344 0.378592 0.212011
0.789489 0.380438 0.213857
0.909558 0.382298 0.215717
0.015813 0.490813 0.205482
0.101300 0.492137 0.206807
0.210961 0.493836 0.208506
0.323979 0.495587 0.210257
0.439156 0.497372 0.212041
0.555942 0.499181 0.213850
0.674013 0.501011 0.215680
0.793158 0.502856 0.217526
0.913227 0.504717 0.219386
0.019482 0.613232 0.209151
0.104969 0.614556 0.210475
0.214629 0.616255 0.212174
0.327648 0.618006 0.213925
0.442825 0.619791 0.215710
0.559610 0.621600 0.217519
0.677682 0.623429 0.219348
0.796827 0.625275 0.221194
0.916895 0.627135 0.223055
0.023151 0.735651 0.212820
0.108638 0.736975 0.214144
0.218298 0.738674 0.215843
0.331316 0.740425 0.217594
0.446494 0.742209 0.219379
0.563279 0.744019 0.221188
0.681350 0.745848 0.223017
0.800495 0.747694 0.224863
0.920564 0.749554 0.226723
0.026819 0.858069 0.216488
0.112307 0.859394 0.217813
0.221967 0.861093 0.219512
0.334985 0.862844 0.221263
0.450163 0.864628 0.223047
0.566948 0.866437 0.224857
0.685019 0.868267 0.226686
0.804164 0.870113 0.228532
0.924233 0.871973 0.230392
0.030488 0.980488 0.220157
0.115975 0.981812 0.221482
0.225636 0.983511 0.223181
0.338654 0.985262 0.224932
0.453831 0.987047 0.226716
0.570617 0.988856 0.228525
0.688688 0.990686 0.230355
0.807833 0.992531 0.232201
0.927902 0.994392 0.234061
0.001901 0.001901 0.318809
0.087389 0.003226 0.320134
0.197049 0.004925 0.321833
0.310067 0.006676 0.323584
0.425245 0.008460 0.325368
0.542030 0.010270 0.327178
0.660101 0.012099 0.329007
0.779246 0.013945 0.330853
0.899315 0.015805 0.332713
0.005570 0.124320 0.322478
0.091057 0.125645 0.323803
0.200718 0.127344 0.325502
0.313736 0.129095 0.327253
0.428914 0.130879 0.329037
0.545699 0.132688 0.330846
0.663770 0.134518 0.332676
0.782915 0.136364 0.334522
0.902984 0.138224 0.336382
0.009239 0.246739 0.326147
0.094726 0.248063 0.327471
0.204386 0.249762 0.329170
0.317405 0.251513 0.330921
0.432582 0.253298 0.332706
0.549368 0.255107 0.334515
0.667439 0.256936 0.336344
0.786584 0.258782 0.338190
0.906653 0.260643 0.340051
0.012908 0.369158 0.329816
0.098395 0.370482 0.331140
0.208055 0.372181 0.332839
0.321074 0.373932 0.334590
0.436251 0.375717 0.336375
0.553036 0.377526 0.338184
0.671107 0.379355 0.340013
0.790253 0.381201 0.341859
0.910321 0.383061 0.343719
0.016576 0.491576 0.333484
0.102064 0.492901 0.334809
0.211724 0.494600 0.336508
0.324742 0.496351 0.338259
0.439920 0.498135 0.340043
0.556705 0.499945 0.341853
0.674776 0.501774 0.343682
0.793921 0.503620 0.345528
0.913990 0.505480 0.347388
0.020245 0.613995 0.337153
0.105732 0.615320 0.338478
0.215393 0.617019 0.340177
0.328411 0.618770 0.341928
0.443589 0.620554 0.343712
0.560374 0.622363 0.345521
0.678445 0.624193 0.347351
0.797590 0.626039 0.349197
0.917659 0.627899 0.351057
0.023914 0.736414 0.340822
0.109401 0.737738 0.342146
0.219061 0.739437 0.343845
0.332080 0.741188 0.345596
0.447257 0.742973 0.347381
0.564043 0.744782 0.349190
0.682114 0.746611 0.351019
0.801259 0.748457 0.352865
0.921328 0.750318 0.354726
0.027583 0.858833 0.344491
0.113070 0.860157 0.345815
0.222730 0.861856 0.347514
0.335749 0.863607 0.349265
0.450926 0.865392 0.351050
0.567711 0.867201 0.352859
0.685782 0.869030 0.354688
0.804928 0.870876 0.356534
0.924996 0.872736 0.358394
0.031251 0.981251 0.348159
0.116739 0.982576 0.349484
0.226399 0.984275 0.351183
0.339417 0.986026 0.352934
0.454595 0.987810 0.354718
0.571380 0.989620 0.356528
0.689451 0.991449 0.358357
0.808596 0.993295 0.360203
0.928665 0.995155 0.362063
0.002649 0.002649 0.444217
0.088137 0.003974 0.445542
0.197797 0.005673 0.447241
0.310815 0.007424 0.448992
0.425993 0.009208 0.450776
0.542778 0.011018 0.452586
0.660849 0.012847 0.454415
0.779994 0.014693 0.456261
0.900063 0.016553 0.458121
0.006318 0.125068 0.447886
0.091805 0.126393 0.449211
0.201466 0.128092 0.450910
0.314484 0.129843 0.452661
0.429662 0.131627 0.454445
0.546447 0.133436 0.456254
0.664518 0.135266 0.458084
0.783663 0.137112 0.459930
0.903732 0.138972 0.461790
0.009987 0.247487 0.451555
0.095474 0.248811 0.452879
0.205134 0.250510 0.454578
0.318153 0.252261 0.456329
0.433330 0.254046 0.458114
0.550116 0.255855 0.459923
0.668187 0.257684 0.461752
0.787332 0.259530 0.463598
0.907401 0.261391 0.465459
0.013656 0.369906 0.455224
0.099143 0.371230 0.456548
0.208803 0.372929 0.458247
0.321822 0.374680 0.459998
0.436999 0.376465 0.461783
0.553784 0.378274 0.463592
0.671855 0.380103 0.465421
0.791001 0.381949 0.467267
0.911069 0.383809 0.469127
0.017324 0.492324 0.458892
0.102812 0.493649 0.460217
0.212472 0.495348 0.461916
0.325490 0.497099 0.463667
0.440668 0.498883 0.465451
0.557453 0.500693 0.467261
0.675524 0.502522 0.469090
0.794669 0.504368 0.470936
0.914738 0.506228 0.472796
0.020993 0.614743 0.462561
0.106480 0.616068 0.463886
0.216141 0.617767 0.465585
0.329159 0.619518 0.467336
0.444337 0.621302 0.469120
0.561122 0.623111 0.470929
0.679193 0.624941 0.472759
0.798338 0.626787 0.474605
0.918407 0.628647 0.476465
0.024662 0.737162 0.466230
0.110149 0.738486 0.467554
0.219809 0.740185 0.469253
0.332828 0.741936 0.471004
0.448005 0.743721 0.472789
0.564791 0.745530 0.474598
0.682862 0.747359 0.476427
0.802007 0.749205 0.478273
0.922076 0.751066 0.480134
0.028331 0.859581 0.469899
0.113818 0.860905 0.471223
0.223478 0.862604 0.472922
0.336497 0.864355 0.474673
0.451674 0.866140 0.476458
0.568459 0.867949 0.478267
0.686530 0.869778 0.480096
0.805676 0.871624 0.481942
0.925744 0.873484 0.483802
0.031999 0.981999 0.473567
0.117487 0.983324 0.474892
0.227147 0.985023 0.476591
0.340165 0.986774 0.478342
0.455343 0.988558 0.480126
0.572128 0.990368 0.481936
0.690199 0.992197 0.483765
0.809344 0.994043 0.485611
0.929413 0.995903 0.487471
0.003387 0.003387 0.567855
0.088874 0.004711 0.569179
0.198534 0.006410 0.570878
0.311553 0.008161 0.572629
0.426730 0.009946 0.574414
0.543515 0.011755 0.576223
0.661587 0.013584 0.578052
0.780732 0.015430 0.579898
0.900801 0.017290 0.581758
0.007056 0.125806 0.571523
0.092543 0.127130 0.572848
0.202203 0.128829 0.574547
0.315221 0.130580 0.576298
0.430399 0.132364 0.578082
0.547184 0.134174 0.579892
0.665255 0.136003 0.581721
0.784401 0.137849 0.583567
0.904469 0.139709 0.585427
0.010724 0.248224 0.575192
0.096212 0.249549 0.576517
0.205872 0.251248 0.578216
0.318890 0.252999 0.579967
0.434068 0.254783 0.581751
0.550853 0.256593 0.583560
0.668924 0.258422 0.585390
0.788069 0.260268 0.587236
0.908138 0.262128 0.589096
0.014393 0.370643 0.578861
0.099880 0.371968 0.580185
0.209541 0.373666 0.581884
0.322559 0.375417 0.583635
0.437737 0.377202 0.585420
0.554522 0.379011 0.587229
0.672593 0.380841 0.589059
0.791738 0.382686 0.590904
0.911807 0.384547 0.592765
0.018062 0.493062 0.582530
0.103549 0.494386 0.583854
0.213209 0.496085 0.585553
0.326228 0.497836 0.587304
0.441405 0.499621 0.589089
0.558190 0.501430 0.590898
0.676262 0.503259 0.592727
0.795407 0.505105 0.594573
0.915476 0.506965 0.596433
0.021731 0.615481 0.586198
0.107218 0.616805 0.587523
0.216878 0.618504 0.589222
0.329896 0.620255 0.590973
0.445074 0.622039 0.592757
0.561859 0.623849 0.594567
0.679930 0.625678 0.596396
0.799076 0.627524 0.598242
0.919144 0.629384 0.600102
0.025399 0.737899 0.589867
0.110887 0.739224 0.591192
0.220547 0.740923 0.592891
0.333565 0.742674 0.594642
0.448743 0.744458 0.596426
0.565528 0.746268 0.598235
0.683599 0.748097 0.600065
0.802744 0.749943 0.601911
0.922813 0.751803 0.603771
0.029068 0.860318 0.593536
0.114555 0.861643 0.594860
0.224216 0.863341 0.596559
0.337234 0.865092 0.598310
0.452412 0.866877 0.600095
0.569197 0.868686 0.601904
0.687268 0.870516 0.603734
0.806413 0.872361 0.605579
0.926482 0.874222 0.607440
0.032737 0.982737 0.597205
0.118224 0.984061 0.598529
0.227884 0.985760 0.600228
0.340903 0.987511 0.601979
0.456080 0.989296 0.603764
0.572865 0.991105 0.605573
0.690937 0.992934 0.607402
0.810082 0.994780 0.609248
0.930151 0.996640 0.611108
0.004116 0.004116 0.690149
0.089603 0.005441 0.691474
0.199264 0.007140 0.693173
0.312282 0.008891 0.694924
0.427460 0.010675 0.696708
0.544245 0.012484 0.698518
0.662316 0.014314 0.700347
0.781461 0.016160 0.702193
0.901530 0.018020 0.704053
0.007785 0.126535 0.693818
0.093272 0.127859 0.695143
0.202932 0.129558 0.696841
0.315951 0.131309 0.698592
0.431128 0.133094 0.700377
0.547914 0.134903 0.702186
0.665985 0.136732 0.704016
0.785130 0.138578 0.705861
0.905199 0.140439 0.707722
0.011454 0.248954 0.697487
0.096941 0.250278 0.698811
0.206601 0.251977 0.700510
0.319620 0.253728 0.702261
0.434797 0.255513 0.704046
0.551582 0.257322 0.705855
0.669653 0.259151 0.707684
0.788799 0.260997 0.709530
0.908867 0.262857 0.711390
0.015122 0.371372 0.701156
0.100610 0.372697 0.702480
0.210270 0.374396 0.704179
0.323288 0.376147 0.705930
0.438466 0.377931 0.707714
0.555251 0.379741 0.709524
0.673322 0.381570 0.711353
0.792467 0.383416 0.713199
0.912536 0.385276 0.715059
0.018791 0.493791 0.704824
0.104278 0.495116 0.706149
0.213939 0.496815 0.707848
0.326957 0.498566 0.709599
0.442135 0.500350 0.711383
0.558920 0.502159 0.713193
0.676991 0.503989 0.715022
0.796136 0.505835 0.716868
0.916205 0.507695 0.718728
0.022460 0.616210 0.708493
0.107947 0.617534 0.709818
0.217607 0.619233 0.711516
0.330626 0.620984 0.713267
0.445803 0.622769 0.715052
0.562589 0.624578 0.716861
0.680660 0.626407 0.718691
0.799805 0.628253 0.720536
0.919874 0.630114 0.722397
0.026129 0.738629 0.712162
0.111616 0.739953 0.713486
0.221276 0.741652 0.715185
0.334295 0.743403 0.716936
0.449472 0.745188 0.718721
0.566257 0.746997 0.720530
0.684328 0.748826 0.722359
0.803474 0.750672 0.724205
0.923542 0.752532 0.726065
0.029797 0.861047 0.715831
0.115285 0.862372 0.717155
0.224945 0.864071 0.718854
0.337963 0.865822 0.720605
0.453141 0.867606 0.722389
0.569926 0.869416 0.724199
0.687997 0.871245 0.726028
0.807142 0.873091 0.727874
0.927211 0.874951 0.729734
0.033466 0.983466 0.719499
0.118953 0.984791 0.720824
0.228614 0.986490 0.722523
0.341632 0.988241 0.724274
0.456810 0.990025 0.726058
0.573595 0.991834 0.727868
0.691666 0.993664 0.729697
0.810811 0.995510 0.731543
0.930880 0.997370 0.733403
0.004839 0.004839 0.811364
0.090326 0.006164 0.812688
0.199987 0.007863 0.814387
0.313005 0.009614 0.816138
0.428183 0.011398 0.817923
0.544968 0.013207 0.819732
0.663039 0.015037 0.821561
0.782184 0.016883 0.823407
0.902253 0.018743 0.825267
0.008508 0.127258 0.815033
0.093995 0.128582 0.816357
0.203655 0.130281 0.818056
0.316674 0.132032 0.819807
0.431851 0.133817 0.821591
0.548637 0.135626 0.823401
0.666708 0.137455 0.825230
0.785853 0.139301 0.827076
0.905922 0.141162 0.828936
0.012177 0.249677 0.818701
0.097664 0.251001 0.820026
0.207324 0.252700 0.821725
0.320343 0.254451 0.823476
0.435520 0.256236 0.825260
0.552305 0.258045 0.827070
0.670376 0.259874 0.828899
0.789522 0.261720 0.830745
0.909590 0.263580 0.832605
0.015845 0.372095 0.822370
0.101333 0.373420 0.823695
0.210993 0.375119 0.825393
0.324011 0.376870 0.827144
0.439189 0.378654 0.828929
0.555974 0.380464 0.830738
0.674045 0.382293 0.832568
0.793190 0.384139 0.834413
0.913259 0.385999 0.836274
0.019514 0.494514 0.826039
0.105001 0.495839 0.827363
0.214662 0.497538 0.829062
0.327680 0.499289 0.830813
0.442858 0.501073 0.832598
0.559643 0.502882 0.834407
0.677714 0.504712 0.836236
0.796859 0.506558 0.838082
0.916928 0.508418 0.839942
0.023183 0.616933 0.829708
0.108670 0.618257 0.831032
0.218330 0.619956 0.832731
0.331349 0.621707 0.834482
0.446526 0.623492 0.836266
0.563312 0.625301 0.838076
0.681383 0.627130 0.839905
0.800528 0.628976 0.841751
0.920597 0.630837 0.843611
0.026852 0.739352 0.833376
0.112339 0.740676 0.834701
0.221999 0.742375 0.836400
0.335018 0.744126 0.838151
0.450195 0.745911 0.839935
0.566980 0.747720 0.841745
0.685051 0.749549 0.843574
0.804197 0.751395 0.845420
0.924265 0.753255 0.847280
0.030520 0.861770 0.837045
0.116008 0.863095 0.838370
0.225668 0.864794 0.840068
0.338686 0.866545 0.841819
0.453864 0.868329 0.843604
0.570649 0.870139 0.845413
0.688720 0.871968 0.847243
0.807865 0.873814 0.849088
0.927934 0.875674 0.850949
0.034189 0.984189 0.840714
0.119676 0.985514 0.842038
0.229337 0.987213 0.843737
0.342355 0.988964 0.845488
0.457533 0.990748 0.847273
0.574318 0.992557 0.849082
0.692389 0.994387 0.850911
0.811534 0.996233 0.852757
0.931603 0.998093 0.854617
0.005557 0.005557 0.931676
0.091044 0.006881 0.933000
0.200704 0.008580 0.934699
0.313723 0.010331 0.936450
0.428900 0.012116 0.938235
0.545685 0.013925 0.940044
0.663757 0.015754 0.941874
0.782902 0.017600 0.943719
0.902970 0.019460 0.945580
0.009225 0.127975 0.935345
0.094713 0.129300 0.936669
0.204373 0.130999 0.938368
0.317391 0.132750 0.940119
0.432569 0.134534 0.941904
0.549354 0.136344 0.943713
0.667425 0.138173 0.945542
0.786570 0.140019 0.947388
0.906639 0.141879 0.949248
0.012894 0.250394 0.939014
0.098381 0.251719 0.940338
0.208042 0.253418 0.942037
0.321060 0.255169 0.943788
0.436238 0.256953 0.945572
0.553023 0.258762 0.947382
0.671094 0.260592 0.949211
0.790239 0.262438 0.951057
0.910308 0.264298 0.952917
0.016563 0.372813 0.942682
0.102050 0.374137 0.944007
0.211710 0.375836 0.945706
0.324729 0.377587 0.947457
0.439906 0.379372 0.949241
0.556692 0.381181 0.951050
0.674763 0.383010 0.952880
0.793908 0.384856 0.954726
0.913977 0.386717 0.956586
0.020232 0.495232 0.946351
0.105719 0.496556 0.947675
0.215379 0.498255 0.949374
0.328398 0.500006 0.951125
0.443575 0.501791 0.952910
0.560360 0.503600 0.954719
0.678432 0.505429 0.956549
0.797577 0.507275 0.958394
0.917645 0.509135 0.960255
0.023900 0.617650 0.950020
0.109388 0.618975 0.951344
0.219048 0.620674 0.953043
0.332066 0.622425 0.954794
0.447244 0.624209 0.956579
0.564029 0.626019 0.958388
0.682100 0.627848 0.960217
0.801245 0.629694 0.962063
0.921314 0.631554 0.963923
0.027569 0.740069 0.953689
0.113056 0.741394 0.955013
0.222717 0.743093 0.956712
0.335735 0.744844 0.958463
0.450913 0.746628 0.960247
0.567698 0.748437 0.962057
0.685769 0.750267 0.963886
0.804914 0.752113 0.965732
0.924983 0.753973 0.967592
0.031238 0.862488 0.957357
0.116725 0.863812 0.958682
0.226385 0.865511 0.960381
0.339404 0.867262 0.962132
0.454581 0.869047 0.963916
0.571367 0.870856 0.965725
0.689438 0.872685 0.967555
0.808583 0.874531 0.969401
0.928652 0.876392 0.971261
0.034907 0.984907 0.961026
0.120394 0.986231 0.962350
0.230054 0.987930 0.964049
0.343073 0.989681 0.965800
0.458250 0.991466 0.967585
0.575035 0.993275 0.969394
0.693107 0.995104 0.971224
0.812252 0.996950 0.973069
0.932320 0.998810 0.974930
0.005700 0.005700 0.955700
0.091187 0.007024 0.957024
0.200847 0.008723 0.958723
0.313866 0.010474 0.960474
0.429043 0.012259 0.962259
0.545829 0.014068 0.964068
0.663900 0.015898 0.965898
0.783045 0.017743 0.967743
0.903114 0.019604 0.969604
0.009369 0.128119 0.959369
0.094856 0.129443 0.960693
0.204516 0.131142 0.962392
0.317535 0.132893 0.964143
0.432712 0.134678 0.965928
0.549497 0.136487 0.967737
0.667569 0.138316 0.969566
0.786714 0.140162 0.971412
0.906782 0.142022 0.973272
0.013038 0.250538 0.963037
0.098525 0.251862 0.964362
0.208185 0.253561 0.966061
0.321203 0.255312 0.967812
0.436381 0.257096 0.969596
0.553166 0.258906 0.971406
0.671237 0.260735 0.973235
0.790382 0.262581 0.975081
0.910451 0.264441 0.976941
0.016706 0.372956 0.966706
0.102194 0.374281 0.968031
0.211854 0.375980 0.969730
0.324872 0.377731 0.971481
0.440050 0.379515 0.973265
0.556835 0.381324 0.975074
0.674906 0.383154 0.976904
0.794051 0.385000 0.978750
0.914120 0.386860 0.980610
0.020375 0.495375 0.970375
0.105862 0.496699 0.971699
0.215522 0.498398 0.973398
0.328541 0.500149 0.975149
0.443718 0.501934 0.976934
0.560504 0.503743 0.978743
0.678575 0.505573 0.980573
0.797720 0.507418 0.982418
0.917789 0.509279 0.984279
0.024044 0.617794 0.974044
0.109531 0.619118 0.975368
0.219191 0.620817 0.977067
0.332210 0.622568 0.978818
0.447387 0.624353 0.980603
0.564172 0.626162 0.982412
0.682244 0.627991 0.984241
0.801389 0.629837 0.986087
0.921457 0.631697 0.987947
0.027713 0.740212 0.977712
0.113200 0.741537 0.979037
0.222860 0.743236 0.980736
0.335878 0.744987 0.982487
0.451056 0.746771 0.984271
0.567841 0.748581 0.986081
0.685912 0.750410 0.987910
0.805057 0.752256 0.989756
0.925126 0.754116 0.991616
0.031381 0.862631 0.981381
0.116869 0.863956 0.982706
0.226529 0.865655 0.984405
0.339547 0.867406 0.986156
0.454725 0.869190 0.987940
0.571510 0.870999 0.989749
0.689581 0.872829 0.991579
0.808726 0.874675 0.993425
0.928795 0.876535 0.995285
0.035050 0.985050 0.985050
0.120537 0.986374 0.986374
0.230197 0.988073 0.988073
0.343216 0.989824 0.989824
0.458393 0.991609 0.991609
0.575179 0.993418 0.993418
0.693250 0.995248 0.995248
0.812395 0.997093 0.997093
0.932464 0.998954 0.998954
