app/src/main/assets/luts/fuji_velvia_50.cube
# ApexStudio filter: fuji_velvia_50
LUT_3D_SIZE 9
DOMAIN_MIN 0.0 0.0 0.0
DOMAIN_MAX 1.0 1.0 1.0
0.020000 0.050000 0.000000
0.170000 0.050000 0.000000
0.320000 0.050000 0.000000
0.470000 0.050000 0.000000
0.620000 0.050000 0.000000
0.770000 0.050000 0.000000
0.920000 0.050000 0.000000
1.000000 0.050000 0.000000
1.000000 0.050000 0.000000
0.020000 0.206250 0.000000
0.170000 0.206250 0.000000
0.320000 0.206250 0.000000
0.470000 0.206250 0.000000
0.620000 0.206250 0.000000
0.770000 0.206250 0.000000
0.920000 0.206250 0.000000
1.000000 0.206250 0.000000
1.000000 0.206250 0.000000
0.020000 0.362500 0.000000
0.170000 0.362500 0.000000
0.320000 0.362500 0.000000
0.470000 0.362500 0.000000
0.620000 0.362500 0.000000
0.770000 0.362500 0.000000
0.920000 0.362500 0.000000
1.000000 0.362500 0.000000
1.000000 0.362500 0.000000
0.020000 0.518750 0.000000
0.170000 0.518750 0.000000
0.320000 0.518750 0.000000
0.470000 0.518750 0.000000
0.620000 0.518750 0.000000
0.770000 0.518750 0.000000
0.920000 0.518750 0.000000
1.000000 0.518750 0.000000
1.000000 0.518750 0.000000
0.020000 0.675000 0.000000
0.170000 0.675000 0.000000
0.320000 0.675000 0.000000
0.470000 0.675000 0.000000
0.620000 0.675000 0.000000
0.770000 0.675000 0.000000
0.920000 0.675000 0.000000
1.000000 0.675000 0.000000
1.000000 0.675000 0.000000
0.020000 0.831250 0.000000
0.170000 0.831250 0.000000
0.320000 0.831250 0.000000
0.470000 0.831250 0.000000
0.620000 0.831250 0.000000
0.770000 0.831250 0.000000
0.920000 0.831250 0.000000
1.000000 0.831250 0.000000
1.000000 0.831250 0.000000
0.020000 0.987500 0.000000
0.170000 0.987500 0.000000
0.320000 0.987500 0.000000
0.470000 0.987500 0.000000
0.620000 0.987500 0.000000
0.770000 0.987500 0.000000
0.920000 0.987500 0.000000
1.000000 0.987500 0.000000
1.000000 0.987500 0.000000
0.020000 1.000000 0.000000
0.170000 1.000000 0.000000
0.320000 1.000000 0.000000
0.470000 1.000000 0.000000
0.620000 1.000000 0.000000
0.770000 1.000000 0.000000
0.920000 1.000000 0.000000
1.000000 1.000000 0.000000
1.000000 1.000000 0.000000
0.020000 1.000000 0.000000
0.170000 1.000000 0.000000
0.320000 1.000000 0.000000
0.470000 1.000000 0.000000
0.620000 1.000000 0.000000
0.770000 1.000000 0.000000
0.920000 1.000000 0.000000
1.000000 1.000000 0.000000
1.000000 1.000000 0.000000
0.020000 0.050000 0.117500
0.170000 0.050000 0.117500
0.320000 0.050000 0.117500
0.470000 0.050000 0.117500
0.620000 0.050000 0.117500
0.770000 0.050000 0.117500
0.920000 0.050000 0.117500
1.000000 0.050000 0.117500
1.000000 0.050000 0.117500
0.020000 0.206250 0.117500
0.170000 0.206250 0.117500
0.320000 0.206250 0.117500
0.470000 0.206250 0.117500
0.620000 0.206250 0.117500
0.770000 0.206250 0.117500
0.920000 0.206250 0.117500
1.000000 0.206250 0.117500
1.000000 0.206250 0.117500
0.020000 0.362500 0.117500
0.170000 0.362500 0.117500
0.320000 0.362500 0.117500
0.470000 0.362500 0.117500
0.620000 0.362500 0.117500
0.770000 0.362500 0.117500
0.920000 0.362500 0.117500
1.000000 0.362500 0.117500
1.000000 0.362500 0.117500
0.020000 0.518750 0.117500
0.170000 0.518750 0.117500
0.320000 0.518750 0.117500
0.470000 0.518750 0.117500
0.620000 0.518750 0.117500
0.770000 0.518750 0.117500
0.920000 0.518750 0.117500
1.000000 0.518750 0.117500
1.000000 0.518750 0.117500
0.020000 0.675000 0.117500
0.170000 0.675000 0.117500
0.320000 0.675000 0.117500
0.470000 0.675000 0.117500
0.620000 0.675000 0.117500
0.770000 0.675000 0.117500
0.920000 0.675000 0.117500
1.000000 0.675000 0.117500
1.000000 0.675000 0.117500
0.020000 0.831250 0.117500
0.170000 0.831250 0.117500
0.320000 0.831250 0.117500
0.470000 0.831250 0.117500
0.620000 0.831250 0.117500
0.770000 0.831250 0.117500
0.920000 0.831250 0.117500
1.000000 0.831250 0.117500
1.000000 0.831250 0.117500
0.020000 0.987500 0.117500
0.170000 0.987500 0.117500
0.320000 0.987500 0.117500
0.470000 0.987500 0.117500
0.620000 0.987500 0.117500
0.770000 0.987500 0.117500
0.920000 0.987500 0.117500
1.000000 0.987500 0.117500
1.000000 0.987500 0.117500
0.020000 1.000000 0.117500
0.170000 1.000000 0.117500
0.320000 1.000000 0.117500
0.470000 1.000000 0.117500
0.620000 1.000000 0.117500
0.770000 1.000000 0.117500
0.920000 1.000000 0.117500
1.000000 1.000000 0.117500
1.000000 1.000000 0.117500
0.020000 1.000000 0.117500
0.170000 1.000000 0.117500
0.320000 1.000000 0.117500
0.470000 1.000000 0.117500
0.620000 1.000000 0.117500
0.770000 1.000000 0.117500
0.920000 1.000000 0.117500
1.000000 1.000000 0.117500
1.000000 1.000000 0.117500
0.020000 0.050000 0.255000
0.170000 0.050000 0.255000
0.320000 0.050000 0.255000
0.470000 0.050000 0.255000
0.620000 0.050000 0.255000
0.770000 0.050000 0.255000
0.920000 0.050000 0.255000
1.000000 0.050000 0.255000
1.000000 0.050000 0.255000
0.020000 0.206250 0.255000
0.170000 0.206250 0.255000
0.320000 0.206250 0.255000
0.470000 0.206250 0.255000
0.620000 0.206250 0.255000
0.770000 0.206250 0.255000
0.920000 0.206250 0.255000
1.000000 0.206250 0.255000
1.000000 0.206250 0.255000
0.020000 0.362500 0.255000
0.170000 0.362500 0.255000
0.320000 0.362500 0.255000
0.470000 0.362500 0.255000
0.620000 0.362500 0.255000
0.770000 0.362500 0.255000
0.920000 0.362500 0.255000
1.000000 0.362500 0.255000
1.000000 0.362500 0.255000
0.020000 0.518750 0.255000
0.170000 0.518750 0.255000
0.320000 0.518750 0.255000
0.470000 0.518750 0.255000
0.620000 0.518750 0.255000
0.770000 0.518750 0.255000
0.920000 0.518750 0.255000
1.000000 0.518750 0.255000
1.000000 0.518750 0.255000
0.020000 0.675000 0.255000
0.170000 0.675000 0.255000
0.320000 0.675000 0.255000
0.470000 0.675000 0.255000
0.620000 0.675000 0.255000
0.770000 0.675000 0.255000
0.920000 0.675000 0.255000
1.000000 0.675000 0.255000
1.000000 0.675000 0.255000
0.020000 0.831250 0.255000
0.170000 0.831250 0.255000
0.320000 0.831250 0.255000
0.470000 0.831250 0.255000
0.620000 0.831250 0.255000
0.770000 0.831250 0.255000
0.920000 0.831250 0.255000
1.000000 0.831250 0.255000
1.000000 0.831250 0.255000
0.020000 0.987500 0.255000
0.170000 0.987500 0.255000
0.320000 0.987500 0.255000
0.470000 0.987500 0.255000
0.620000 0.987500 0.255000
0.770000 0.987500 0.255000
0.920000 0.987500 0.255000
1.000000 0.987500 0.255000
1.000000 0.987500 0.255000
0.020000 1.000000 0.255000
0.170000 1.000000 0.255000
0.320000 1.000000 0.255000
0.470000 1.000000 0.255000
0.620000 1.000000 0.255000
0.770000 1.000000 0.255000
0.920000 1.000000 0.255000
1.000000 1.000000 0.255000
1.000000 1.000000 0.255000
0.020000 1.000000 0.255000
0.170000 1.000000 0.255000
0.320000 1.000000 0.255000
0.470000 1.000000 0.255000
0.620000 1.000000 0.255000
0.770000 1.000000 0.255000
0.920000 1.000000 0.255000
1.000000 1.000000 0.255000
1.000000 1.000000 0.255000
0.020000 0.050000 0.392500
0.170000 0.050000 0.392500
0.320000 0.050000 0.392500
0.470000 0.050000 0.392500
0.620000 0.050000 0.392500
0.770000 0.050000 0.392500
0.920000 0.050000 0.392500
1.000000 0.050000 0.392500
1.000000 0.050000 0.392500
0.020000 0.206250 0.392500
0.170000 0.206250 0.392500
0.320000 0.206250 0.392500
0.470000 0.206250 0.392500
0.620000 0.206250 0.392500
0.770000 0.206250 0.392500
0.920000 0.206250 0.392500
1.000000 0.206250 0.392500
1.000000 0.206250 0.392500
0.020000 0.362500 0.392500
0.170000 0.362500 0.392500
0.320000 0.362500 0.392500
0.470000 0.362500 0.392500
0.620000 0.362500 0.392500
0.770000 0.362500 0.392500
0.920000 0.362500 0.392500
1.000000 0.362500 0.392500
1.000000 0.362500 0.392500
0.020000 0.518750 0.392500
0.170000 0.518750 0.392500
0.320000 0.518750 0.392500
0.470000 0.518750 0.392500
0.620000 0.518750 0.392500
0.770000 0.518750 0.392500
0.920000 0.518750 0.392500
1.000000 0.518750 0.392500
1.000000 0.518750 0.392500
0.020000 0.675000 0.392500
0.170000 0.675000 0.392500
0.320000 0.675000 0.392500
0.470000 0.675000 0.392500
0.620000 0.675000 0.392500
0.770000 0.675000 0.392500
0.920000 0.675000 0.392500
1.000000 0.675000 0.392500
1.000000 0.675000 0.392500
0.020000 0.831250 0.392500
0.170000 0.831250 0.392500
0.320000 0.831250 0.392500
0.470000 0.831250 0.392500
0.620000 0.831250 0.392500
0.770000 0.831250 0.392500
0.920000 0.831250 0.392500
1.000000 0.831250 0.392500
1.000000 0.831250 0.392500
0.020000 0.987500 0.392500
0.170000 0.987500 0.392500
0.320000 0.987500 0.392500
0.470000 0.987500 0.392500
0.620000 0.987500 0.392500
0.770000 0.987500 0.392500
0.920000 0.987500 0.392500
1.000000 0.987500 0.392500
1.000000 0.987500 0.392500
0.020000 1.000000 0.392500
0.170000 1.000000 0.392500
0.320000 1.000000 0.392500
0.470000 1.000000 0.392500
0.620000 1.000000 0.392500
0.770000 1.000000 0.392500
0.920000 1.000000 0.392500
1.000000 1.000000 0.392500
1.000000 1.000000 0.392500
0.020000 1.000000 0.392500
0.170000 1.000000 0.392500
0.320000 1.000000 0.392500
0.470000 1.000000 0.392500
0.620000 1.000000 0.392500
0.770000 1.000000 0.392500
0.920000 1.000000 0.392500
1.000000 1.000000 0.392500
1.000000 1.000000 0.392500
0.020000 0.050000 0.530000
0.170000 0.050000 0.530000
0.320000 0.050000 0.530000
0.470000 0.050000 0.530000
0.620000 0.050000 0.530000
0.770000 0.050000 0.530000
0.920000 0.050000 0.530000
1.000000 0.050000 0.530000
1.000000 0.050000 0.530000
0.020000 0.206250 0.530000
0.170000 0.206250 0.530000
0.320000 0.206250 0.530000
0.470000 0.206250 0.530000
0.620000 0.206250 0.530000
0.770000 0.206250 0.530000
0.920000 0.206250 0.530000
1.000000 0.206250 0.530000
1.000000 0.206250 0.530000
0.020000 0.362500 0.530000
0.170000 0.362500 0.530000
0.320000 0.362500 0.530000
0.470000 0.362500 0.530000
0.620000 0.362500 0.530000
0.770000 0.362500 0.530000
0.920000 0.362500 0.530000
1.000000 0.362500 0.530000
1.000000 0.362500 0.530000
0.020000 0.518750 0.530000
0.170000 0.518750 0.530000
0.320000 0.518750 0.530000
0.470000 0.518750 0.530000
0.620000 0.518750 0.530000
0.770000 0.518750 0.530000
0.920000 0.518750 0.530000
1.000000 0.518750 0.530000
1.000000 0.518750 0.530000
0.020000 0.675000 0.530000
0.170000 0.675000 0.530000
0.320000 0.675000 0.530000
0.470000 0.675000 0.530000
0.620000 0.675000 0.530000
0.770000 0.675000 0.530000
0.920000 0.675000 0.530000
1.000000 0.675000 0.530000
1.000000 0.675000 0.530000
0.020000 0.831250 0.530000
0.170000 0.831250 0.530000
0.320000 0.831250 0.530000
0.470000 0.831250 0.530000
0.620000 0.831250 0.530000
0.770000 0.831250 0.530000
0.920000 0.831250 0.530000
1.000000 0.831250 0.530000
1.000000 0.831250 0.530000
0.020000 0.987500 0.530000
0.170000 0.987500 0.530000
0.320000 0.987500 0.530000
0.470000 0.987500 0.530000
0.620000 0.987500 0.530000
0.770000 0.987500 0.530000
0.920000 0.987500 0.530000
1.000000 0.987500 0.530000
1.000000 0.987500 0.530000
0.020000 1.000000 0.530000
0.170000 1.000000 0.530000
0.320000 1.000000 0.530000
0.470000 1.000000 0.530000
0.620000 1.000000 0.530000
0.770000 1.000000 0.530000
0.920000 1.000000 0.530000
1.000000 1.000000 0.530000
1.000000 1.000000 0.530000
0.020000 1.000000 0.530000
0.170000 1.000000 0.530000
0.320000 1.000000 0.530000
0.470000 1.000000 0.530000
0.620000 1.000000 0.530000
0.770000 1.000000 0.530000
0.920000 1.000000 0.530000
1.000000 1.000000 0.530000
1.000000 1.000000 0.530000
0.020000 0.050000 0.667500
0.170000 0.050000 0.667500
0.320000 0.050000 0.667500
0.470000 0.050000 0.667500
0.620000 0.050000 0.667500
0.770000 0.050000 0.667500
0.920000 0.050000 0.667500
1.000000 0.050000 0.667500
1.000000 0.050000 0.667500
0.020000 0.206250 0.667500
0.170000 0.206250 0.667500
0.320000 0.206250 0.667500
0.470000 0.206250 0.667500
0.620000 0.206250 0.667500
0.770000 0.206250 0.667500
0.920000 0.206250 0.667500
1.000000 0.206250 0.667500
1.000000 0.206250 0.667500
0.020000 0.362500 0.667500
0.170000 0.362500 0.667500
0.320000 0.362500 0.667500
0.470000 0.362500 0.667500
0.620000 0.362500 0.667500
0.770000 0.362500 0.667500
0.920000 0.362500 0.667500
1.000000 0.362500 0.667500
1.000000 0.362500 0.667500
0.020000 0.518750 0.667500
0.170000 0.518750 0.667500
0.320000 0.518750 0.667500
0.470000 0.518750 0.667500
0.620000 0.518750 0.667500
0.770000 0.518750 0.667500
0.920000 0.518750 0.667500
1.000000 0.518750 0.667500
1.000000 0.518750 0.667500
0.020000 0.675000 0.667500
0.170000 0.675000 0.667500
0.320000 0.675000 0.667500
0.470000 0.675000 0.667500
0.620000 0.675000 0.667500
0.770000 0.675000 0.667500
0.920000 0.675000 0.667500
1.000000 0.675000 0.667500
1.000000 0.675000 0.667500
0.020000 0.831250 0.667500
0.170000 0.831250 0.667500
0.320000 0.831250 0.667500
0.470000 0.831250 0.667500
0.620000 0.831250 0.667500
0.770000 0.831250 0.667500
0.920000 0.831250 0.667500
1.000000 0.831250 0.667500
1.000000 0.831250 0.667500
0.020000 0.987500 0.667500
0.170000 0.987500 0.667500
0.320000 0.987500 0.667500
0.470000 0.987500 0.667500
0.620000 0.987500 0.667500
0.770000 0.987500 0.667500
0.920000 0.987500 0.667500
1.000000 0.987500 0.667500
1.000000 0.987500 0.667500
0.020000 1.000000 0.667500
0.170000 1.000000 0.667500
0.320000 1.000000 0.667500
0.470000 1.000000 0.667500
0.620000 1.000000 0.667500
0.770000 1.000000 0.667500
0.920000 1.000000 0.667500
1.000000 1.000000 0.667500
1.000000 1.000000 0.667500
0.020000 1.000000 0.667500
0.170000 1.000000 0.667500
0.320000 1.000000 0.667500
0.470000 1.000000 0.667500
0.620000 1.000000 0.667500
0.770000 1.000000 0.667500
0.920000 1.000000 0.667500
1.000000 1.000000 0.667500
1.000000 1.000000 0.667500
0.020000 0.050000 0.805000
0.170000 0.050000 0.805000
0.320000 0.050000 0.805000
0.470000 0.050000 0.805000
0.620000 0.050000 0.805000
0.770000 0.050000 0.805000
0.920000 0.050000 0.805000
1.000000 0.050000 0.805000
1.000000 0.050000 0.805000
0.020000 0.206250 0.805000
0.170000 0.206250 0.805000
0.320000 0.206250 0.805000
0.470000 0.206250 0.805000
0.620000 0.206250 0.805000
0.770000 0.206250 0.805000
0.920000 0.206250 0.805000
1.000000 0.206250 0.805000
1.000000 0.206250 0.805000
0.020000 0.362500 0.805000
0.170000 0.362500 0.805000
0.320000 0.362500 0.805000
0.470000 0.362500 0.805000
0.620000 0.362500 0.805000
0.770000 0.362500 0.805000
0.920000 0.362500 0.805000
1.000000 0.362500 0.805000
1.000000 0.362500 0.805000
0.020000 0.518750 0.805000
0.170000 0.518750 0.805000
0.320000 0.518750 0.805000
0.470000 0.518750 0.805000
0.620000 0.518750 0.805000
0.770000 0.518750 0.805000
0.920000 0.518750 0.805000
1.000000 0.518750 0.805000
1.000000 0.518750 0.805000
0.020000 0.675000 0.805000
0.170000 0.675000 0.805000
0.320000 0.675000 0.805000
0.470000 0.675000 0.805000
0.620000 0.675000 0.805000
0.770000 0.675000 0.805000
0.920000 0.675000 0.805000
1.000000 0.675000 0.805000
1.000000 0.675000 0.805000
0.020000 0.831250 0.805000
0.170000 0.831250 0.805000
0.320000 0.831250 0.805000
0.470000 0.831250 0.805000
0.620000 0.831250 0.805000
0.770000 0.831250 0.805000
0.920000 0.831250 0.805000
1.000000 0.831250 0.805000
1.000000 0.831250 0.805000
0.020000 0.987500 0.805000
0.170000 0.987500 0.805000
0.320000 0.987500 0.805000
0.470000 0.987500 0.805000
0.620000 0.987500 0.805000
0.770000 0.987500 0.805000
0.920000 0.987500 0.805000
1.000000 0.987500 0.805000
1.000000 0.987500 0.805000
0.020000 1.000000 0.805000
0.170000 1.000000 0.805000
0.320000 1.000000 0.805000
0.470000 1.000000 0.805000
0.620000 1.000000 0.805000
0.770000 1.000000 0.805000
0.920000 1.000000 0.805000
1.000000 1.000000 0.805000
1.000000 1.000000 0.805000
0.020000 1.000000 0.805000
0.170000 1.000000 0.805000
0.320000 1.000000 0.805000
0.470000 1.000000 0.805000
0.620000 1.000000 0.805000
0.770000 1.000000 0.805000
0.920000 1.000000 0.805000
1.000000 1.000000 0.805000
1.000000 1.000000 0.805000
0.020000 0.050000 0.942500
0.170000 0.050000 0.942500
0.320000 0.050000 0.942500
0.470000 0.050000 0.942500
0.620000 0.050000 0.942500
0.770000 0.050000 0.942500
0.920000 0.050000 0.942500
1.000000 0.050000 0.942500
1.000000 0.050000 0.942500
0.020000 0.206250 0.942500
0.170000 0.206250 0.942500
0.320000 0.206250 0.942500
0.470000 0.206250 0.942500
0.620000 0.206250 0.942500
0.770000 0.206250 0.942500
0.920000 0.206250 0.942500
1.000000 0.206250 0.942500
1.000000 0.206250 0.942500
0.020000 0.362500 0.942500
0.170000 0.362500 0.942500
0.320000 0.362500 0.942500
0.470000 0.362500 0.942500
0.620000 0.362500 0.942500
0.770000 0.362500 0.942500
0.920000 0.362500 0.942500
1.000000 0.362500 0.942500
1.000000 0.362500 0.942500
0.020000 0.518750 0.942500
0.170000 0.518750 0.942500
0.320000 0.518750 0.942500
0.470000 0.518750 0.942500
0.620000 0.518750 0.942500
0.770000 0.518750 0.942500
0.920000 0.518750 0.942500
1.000000 0.518750 0.942500
1.000000 0.518750 0.942500
0.020000 0.675000 0.942500
0.170000 0.675000 0.942500
0.320000 0.675000 0.942500
0.470000 0.675000 0.942500
0.620000 0.675000 0.942500
0.770000 0.675000 0.942500
0.920000 0.675000 0.942500
1.000000 0.675000 0.942500
1.000000 0.675000 0.942500
0.020000 0.831250 0.942500
0.170000 0.831250 0.942500
0.320000 0.831250 0.942500
0.470000 0.831250 0.942500
0.620000 0.831250 0.942500
0.770000 0.831250 0.942500
0.920000 0.831250 0.942500
1.000000 0.831250 0.942500
1.000000 0.831250 0.942500
0.020000 0.987500 0.942500
0.170000 0.987500 0.942500
0.320000 0.987500 0.942500
0.470000 0.987500 0.942500
0.620000 0.987500 0.942500
0.770000 0.987500 0.942500
0.920000 0.987500 0.942500
1.000000 0.987500 0.942500
1.000000 0.987500 0.942500
0.020000 1.000000 0.942500
0.170000 1.000000 0.942500
0.320000 1.000000 0.942500
0.470000 1.000000 0.942500
0.620000 1.000000 0.942500
0.770000 1.000000 0.942500
0.920000 1.000000 0.942500
1.000000 1.000000 0.942500
1.000000 1.000000 0.942500
0.020000 1.000000 0.942500
0.170000 1.000000 0.942500
0.320000 1.000000 0.942500
0.470000 1.000000 0.942500
0.620000 1.000000 0.942500
0.770000 1.000000 0.942500
0.920000 1.000000 0.942500
1.000000 1.000000 0.942500
1.000000 1.000000 0.942500
0.020000 0.050000 1.000000
0.170000 0.050000 1.000000
0.320000 0.050000 1.000000
0.470000 0.050000 1.000000
0.620000 0.050000 1.000000
0.770000 0.050000 1.000000
0.920000 0.050000 1.000000
1.000000 0.050000 1.000000
1.000000 0.050000 1.000000
0.020000 0.206250 1.000000
0.170000 0.206250 1.000000
0.320000 0.206250 1.000000
0.470000 0.206250 1.000000
0.620000 0.206250 1.000000
0.770000 0.206250 1.000000
0.920000 0.206250 1.000000
1.000000 0.206250 1.000000
1.000000 0.206250 1.000000
0.020000 0.362500 1.000000
0.170000 0.362500 1.000000
0.320000 0.362500 1.000000
0.470000 0.362500 1.000000
0.620000 0.362500 1.000000
0.770000 0.362500 1.000000
0.920000 0.362500 1.000000
1.000000 0.362500 1.000000
1.000000 0.362500 1.000000
0.020000 0.518750 1.000000
0.170000 0.518750 1.000000
0.320000 0.518750 1.000000
0.470000 0.518750 1.000000
0.620000 0.518750 1.000000
0.770000 0.518750 1.000000
0.920000 0.518750 1.000000
1.000000 0.518750 1.000000
1.000000 0.518750 1.000000
0.020000 0.675000 1.000000
0.170000 0.675000 1.000000
0.320000 0.675000 1.000000
0.470000 0.675000 1.000000
0.620000 0.675000 1.000000
0.770000 0.675000 1.000000
0.920000 0.675000 1.000000
1.000000 0.675000 1.000000
1.000000 0.675000 1.000000
0.020000 0.831250 1.000000
0.170000 0.831250 1.000000
0.320000 0.831250 1.000000
0.470000 0.831250 1.000000
0.620000 0.831250 1.000000
0.770000 0.831250 1.000000
0.920000 0.831250 1.000000
1.000000 0.831250 1.000000
1.000000 0.831250 1.000000
0.020000 0.987500 1.000000
0.170000 0.987500 1.000000
0.320000 0.987500 1.000000
0.470000 0.987500 1.000000
0.620000 0.987500 1.000000
0.770000 0.987500 1.000000
0.920000 0.987500 1.000000
1.000000 0.987500 1.000000
1.000000 0.987500 1.000000
0.020000 1.000000 1.000000
0.170000 1.000000 1.000000
0.320000 1.000000 1.000000
0.470000 1.000000 1.000000
0.620000 1.000000 1.000000
0.770000 1.000000 1.000000
0.920000 1.000000 1.000000
1.000000 1.000000 1.000000
1.000000 1.000000 1.000000
0.020000 1.000000 1.000000
0.170000 1.000000 1.000000
0.320000 1.000000 1.000000
0.470000 1.000000 1.000000
0.620000 1.000000 1.000000
0.770000 1.000000 1.000000
0.920000 1.000000 1.000000
1.000000 1.000000 1.000000
1.000000 1.000000 1.000000
