app/src/main/assets/luts/fuji_chrome.cube
# ApexStudio filter: fuji_chrome
LUT_3D_SIZE 17
DOMAIN_MIN 0.0 0.0 0.0
DOMAIN_MAX 1.0 1.0 1.0
0.000345 0.000345 0.057867
0.033339 0.000856 0.058379
0.085832 0.001670 0.059192
0.140111 0.002511 0.060033
0.195493 0.003369 0.060891
0.251682 0.004239 0.061761
0.308511 0.005120 0.062642
0.365872 0.006008 0.063531
0.423689 0.006904 0.064426
0.481904 0.007806 0.065328
0.540474 0.008713 0.066236
0.599364 0.009626 0.067148
0.658545 0.010543 0.068065
0.717994 0.011464 0.068986
0.777690 0.012389 0.069911
0.837617 0.013317 0.070839
0.897759 0.014249 0.071771
0.002180 0.061555 0.059702
0.035173 0.062066 0.060213
0.087667 0.062879 0.061026
0.141946 0.063720 0.061867
0.197327 0.064578 0.062725
0.253516 0.065448 0.063596
0.310345 0.066329 0.064476
0.367706 0.067218 0.065365
0.425523 0.068113 0.066261
0.483738 0.069015 0.067163
0.542308 0.069923 0.068070
0.601198 0.070835 0.068982
0.660379 0.071752 0.069899
0.719828 0.072673 0.070820
0.779524 0.073598 0.071745
0.839451 0.074526 0.072674
0.899593 0.075458 0.073606
0.004014 0.122764 0.061536
0.037007 0.123275 0.062047
0.089501 0.124088 0.062861
0.143780 0.124929 0.063702
0.199161 0.125787 0.064560
0.255350 0.126658 0.065430
0.312180 0.127538 0.066311
0.369541 0.128427 0.067199
0.427357 0.129323 0.068095
0.485573 0.130225 0.068997
0.544143 0.131132 0.069904
0.603032 0.132044 0.070817
0.662214 0.132961 0.071734
0.721663 0.133882 0.072655
0.781359 0.134807 0.073580
0.841286 0.135736 0.074508
0.901428 0.136668 0.075440
0.005848 0.183973 0.063371
0.038842 0.184484 0.063882
0.091336 0.185298 0.064695
0.145614 0.186139 0.065536
0.200996 0.186997 0.066394
0.257185 0.187867 0.067265
0.314014 0.188748 0.068145
0.371375 0.189636 0.069034
0.429192 0.190532 0.069929
0.487407 0.191434 0.070831
0.545977 0.192341 0.071739
0.604867 0.193254 0.072651
0.664048 0.194171 0.073568
0.723497 0.195092 0.074489
0.783193 0.196017 0.075414
0.843120 0.196945 0.076342
0.903262 0.197877 0.077274
0.007683 0.245183 0.065205
0.040676 0.245694 0.065716
0.093170 0.246507 0.066529
0.147449 0.247348 0.067370
0.202830 0.248206 0.068228
0.259019 0.249077 0.069099
0.315849 0.249957 0.069979
0.373210 0.250846 0.070868
0.431026 0.251742 0.071764
0.489241 0.252643 0.072666
0.547811 0.253551 0.073573
0.606701 0.254463 0.074486
0.665882 0.255380 0.075403
0.725331 0.256301 0.076324
0.785028 0.257226 0.077248
0.844954 0.258155 0.078177
0.905096 0.259086 0.079109
0.009517 0.306392 0.067039
0.042510 0.306903 0.067551
0.095004 0.307716 0.068364
0.149283 0.308557 0.069205
0.204665 0.309415 0.070063
0.260854 0.310286 0.070933
0.317683 0.311166 0.071814
0.375044 0.312055 0.072702
0.432860 0.312951 0.073598
0.491076 0.313853 0.074500
0.549646 0.314760 0.075408
0.608536 0.315673 0.076320
0.667717 0.316590 0.077237
0.727166 0.317511 0.078158
0.786862 0.318435 0.079083
0.846789 0.319364 0.080011
0.906931 0.320296 0.080943
0.011351 0.367601 0.068874
0.044345 0.368113 0.069385
0.096839 0.368926 0.070198
0.151118 0.369767 0.071039
0.206499 0.370625 0.071897
0.262688 0.371495 0.072768
0.319517 0.372376 0.073648
0.376878 0.373265 0.074537
0.434695 0.374160 0.075433
0.492910 0.375062 0.076335
0.551480 0.375970 0.077242
0.610370 0.376882 0.078154
0.669551 0.377799 0.079071
0.729000 0.378720 0.079992
0.788696 0.379645 0.080917
0.848623 0.380573 0.081846
0.908765 0.381505 0.082777
0.013186 0.428811 0.070708
0.046179 0.429322 0.071219
0.098673 0.430135 0.072033
0.152952 0.430976 0.072874
0.208333 0.431834 0.073732
0.264522 0.432705 0.074602
0.321352 0.433585 0.075483
0.378713 0.434474 0.076371
0.436529 0.435370 0.077267
0.494744 0.436272 0.078169
0.553314 0.437179 0.079076
0.612204 0.438091 0.079989
0.671386 0.439008 0.080906
0.730834 0.439929 0.081827
0.790531 0.440854 0.082752
0.850457 0.441783 0.083680
0.910599 0.442714 0.084612
0.015020 0.490020 0.072542
0.048014 0.490531 0.073054
0.100507 0.491345 0.073867
0.154786 0.492186 0.074708
0.210168 0.493044 0.075566
0.266357 0.493914 0.076436
0.323186 0.494795 0.077317
0.380547 0.495683 0.078206
0.438364 0.496579 0.079101
0.496579 0.497481 0.080003
0.555149 0.498388 0.080911
0.614039 0.499301 0.081823
0.673220 0.500218 0.082740
0.732669 0.501139 0.083661
0.792365 0.502064 0.084586
0.852292 0.502992 0.085514
0.912434 0.503924 0.086446
0.016855 0.551230 0.074377
0.049848 0.551741 0.074888
0.102342 0.552554 0.075701
0.156621 0.553395 0.076542
0.212002 0.554253 0.077400
0.268191 0.555123 0.078271
0.325020 0.556004 0.079151
0.382381 0.556893 0.080040
0.440198 0.557788 0.080936
0.498413 0.558690 0.081838
0.556983 0.559598 0.082745
0.615873 0.560510 0.083657
0.675054 0.561427 0.084574
0.734503 0.562348 0.085495
0.794199 0.563273 0.086420
0.854126 0.564201 0.087349
0.914268 0.565133 0.088281
0.018689 0.612439 0.076211
0.051682 0.612950 0.076722
0.104176 0.613763 0.077536
0.158455 0.614604 0.078377
0.213836 0.615462 0.079235
0.270025 0.616333 0.080105
0.326855 0.617213 0.080986
0.384216 0.618102 0.081874
0.442032 0.618998 0.082770
0.500248 0.619900 0.083672
0.558818 0.620807 0.084579
0.617707 0.621719 0.085492
0.676889 0.622636 0.086409
0.736338 0.623557 0.087330
0.796034 0.624482 0.088255
0.855961 0.625411 0.089183
0.916103 0.626343 0.090115
0.020523 0.673648 0.078046
0.053517 0.674159 0.078557
0.106011 0.674973 0.079370
0.160289 0.675814 0.080211
0.215671 0.676672 0.081069
0.271860 0.677542 0.081940
0.328689 0.678423 0.082820
0.386050 0.679311 0.083709
0.443867 0.680207 0.084604
0.502082 0.681109 0.085506
0.560652 0.682016 0.086414
0.619542 0.682929 0.087326
0.678723 0.683846 0.088243
0.738172 0.684767 0.089164
0.797868 0.685692 0.090089
0.857795 0.686620 0.091017
0.917937 0.687552 0.091949
0.022358 0.734858 0.079880
0.055351 0.735369 0.080391
0.107845 0.736182 0.081204
0.162124 0.737023 0.082045
0.217505 0.737881 0.082903
0.273694 0.738752 0.083774
0.330524 0.739632 0.084654
0.387885 0.740521 0.085543
0.445701 0.741417 0.086439
0.503916 0.742318 0.087341
0.562486 0.743226 0.088248
0.621376 0.744138 0.089161
0.680557 0.745055 0.090078
0.740006 0.745976 0.090999
0.799703 0.746901 0.091923
0.859629 0.747830 0.092852
0.919771 0.748761 0.093784
0.024192 0.796067 0.081714
0.057185 0.796578 0.082226
0.109679 0.797391 0.083039
0.163958 0.798232 0.083880
0.219340 0.799090 0.084738
0.275529 0.799961 0.085608
0.332358 0.800841 0.086489
0.389719 0.801730 0.087377
0.447535 0.802626 0.088273
0.505751 0.803528 0.089175
0.564321 0.804435 0.090083
0.623211 0.805348 0.090995
0.682392 0.806265 0.091912
0.741841 0.807186 0.092833
0.801537 0.808110 0.093758
0.861464 0.809039 0.094686
0.921606 0.809971 0.095618
0.026026 0.857276 0.083549
0.059020 0.857788 0.084060
0.111514 0.858601 0.084873
0.165793 0.859442 0.085714
0.221174 0.860300 0.086572
0.277363 0.861170 0.087443
0.334192 0.862051 0.088323
0.391553 0.862940 0.089212
0.449370 0.863835 0.090108
0.507585 0.864737 0.091010
0.566155 0.865645 0.091917
0.625045 0.866557 0.092829
0.684226 0.867474 0.093746
0.743675 0.868395 0.094667
0.803371 0.869320 0.095592
0.863298 0.870248 0.096521
0.923440 0.871180 0.097452
0.027861 0.918486 0.085383
0.060854 0.918997 0.085894
0.113348 0.919810 0.086708
0.167627 0.920651 0.087549
0.223008 0.921509 0.088407
0.279197 0.922380 0.089277
0.336027 0.923260 0.090158
0.393388 0.924149 0.091046
0.451204 0.925045 0.091942
0.509419 0.925947 0.092844
0.567989 0.926854 0.093751
0.626879 0.927766 0.094664
0.686061 0.928683 0.095581
0.745509 0.929604 0.096502
0.805206 0.930529 0.097427
0.865132 0.931458 0.098355
0.925274 0.932389 0.099287
0.029695 0.979695 0.087217
0.062689 0.980206 0.087729
0.115182 0.981020 0.088542
0.169461 0.981861 0.089383
0.224843 0.982719 0.090241
0.281032 0.983589 0.091111
0.337861 0.984470 0.091992
0.395222 0.985358 0.092881
0.453039 0.986254 0.093776
0.511254 0.987156 0.094678
0.569824 0.988063 0.095586
0.628714 0.988976 0.096498
0.687895 0.989893 0.097415
0.747344 0.990814 0.098336
0.807040 0.991739 0.099261
0.866967 0.992667 0.100189
0.927109 0.993599 0.101121
0.000747 0.000747 0.125270
0.033741 0.001258 0.125781
0.086234 0.002072 0.126594
0.140513 0.002913 0.127435
0.195895 0.003771 0.128293
0.252084 0.004641 0.129164
0.308913 0.005522 0.130044
0.366274 0.006410 0.130933
0.424091 0.007306 0.131829
0.482306 0.008208 0.132731
0.540876 0.009115 0.133638
0.599766 0.010028 0.134550
0.658947 0.010945 0.135467
0.718396 0.011866 0.136388
0.778092 0.012791 0.137313
0.838019 0.013719 0.138242
0.898161 0.014651 0.139174
0.002582 0.061957 0.127104
0.035575 0.062468 0.127615
0.088069 0.063281 0.128429
0.142348 0.064122 0.129270
0.197729 0.064980 0.130128
0.253918 0.065850 0.130998
0.310747 0.066731 0.131879
0.368108 0.067620 0.132767
0.425925 0.068515 0.133663
0.484140 0.069417 0.134565
0.542710 0.070325 0.135472
0.601600 0.071237 0.136385
0.660781 0.072154 0.137302
0.720230 0.073075 0.138223
0.779926 0.074000 0.139148
0.839853 0.074928 0.140076
0.899995 0.075860 0.141008
0.004416 0.123166 0.128939
0.037409 0.123677 0.129450
0.089903 0.124490 0.130263
0.144182 0.125331 0.131104
0.199563 0.126189 0.131962
0.255752 0.127060 0.132833
0.312582 0.127940 0.133713
0.369943 0.128829 0.134602
0.427759 0.129725 0.135497
0.485975 0.130627 0.136399
0.544545 0.131534 0.137307
0.603434 0.132446 0.138219
0.662616 0.133363 0.139136
0.722065 0.134284 0.140057
0.781761 0.135209 0.140982
0.841688 0.136138 0.141910
0.901830 0.137070 0.142842
0.006250 0.184375 0.130773
0.039244 0.184886 0.131284
0.091738 0.185700 0.132097
0.146016 0.186541 0.132938
0.201398 0.187399 0.133796
0.257587 0.188269 0.134667
0.314416 0.189150 0.135547
0.371777 0.190038 0.136436
0.429594 0.190934 0.137332
0.487809 0.191836 0.138234
0.546379 0.192743 0.139141
0.605269 0.193656 0.140054
0.664450 0.194573 0.140971
0.723899 0.195494 0.141892
0.783595 0.196419 0.142816
0.843522 0.197347 0.143745
0.903664 0.198279 0.144677
0.008085 0.245585 0.132607
0.041078 0.246096 0.133119
0.093572 0.246909 0.133932
0.147851 0.247750 0.134773
0.203232 0.248608 0.135631
0.259421 0.249479 0.136501
0.316251 0.250359 0.137382
0.373612 0.251248 0.138270
0.431428 0.252144 0.139166
0.489643 0.253045 0.140068
0.548213 0.253953 0.140976
0.607103 0.254865 0.141888
0.666284 0.255782 0.142805
0.725733 0.256703 0.143726
0.785430 0.257628 0.144651
0.845356 0.258557 0.145579
0.905498 0.259488 0.146511
0.009919 0.306794 0.134442
0.042912 0.307305 0.134953
0.095406 0.308118 0.135766
0.149685 0.308959 0.136607
0.205067 0.309817 0.137465
0.261256 0.310688 0.138336
0.318085 0.311568 0.139216
0.375446 0.312457 0.140105
0.433262 0.313353 0.141001
0.491478 0.314255 0.141903
0.550048 0.315162 0.142810
0.608938 0.316075 0.143722
0.668119 0.316992 0.144639
0.727568 0.317913 0.145560
0.787264 0.318837 0.146485
0.847191 0.319766 0.147414
0.907333 0.320698 0.148345
0.011753 0.368003 0.136276
0.044747 0.368515 0.136787
0.097241 0.369328 0.137601
0.151520 0.370169 0.138442
0.206901 0.371027 0.139300
0.263090 0.371897 0.140170
0.319919 0.372778 0.141051
0.377280 0.373667 0.141939
0.435097 0.374562 0.142835
0.493312 0.375464 0.143737
0.551882 0.376372 0.144644
0.610772 0.377284 0.145557
0.669953 0.378201 0.146474
0.729402 0.379122 0.147395
0.789098 0.380047 0.148320
0.849025 0.380975 0.149248
0.909167 0.381907 0.150180
0.013588 0.429213 0.138110
0.046581 0.429724 0.138622
0.099075 0.430537 0.139435
0.153354 0.431378 0.140276
0.208735 0.432236 0.141134
0.264924 0.433107 0.142004
0.321754 0.433987 0.142885
0.379115 0.434876 0.143774
0.436931 0.435772 0.144669
0.495146 0.436674 0.145571
0.553716 0.437581 0.146479
0.612606 0.438493 0.147391
0.671788 0.439410 0.148308
0.731236 0.440331 0.149229
0.790933 0.441256 0.150154
0.850859 0.442185 0.151082
0.911001 0.443116 0.152014
0.015422 0.490422 0.139945
0.048416 0.490933 0.140456
0.100909 0.491747 0.141269
0.155188 0.492588 0.142110
0.210570 0.493446 0.142968
0.266759 0.494316 0.143839
0.323588 0.495197 0.144719
0.380949 0.496085 0.145608
0.438766 0.496981 0.146504
0.496981 0.497883 0.147406
0.555551 0.498790 0.148313
0.614441 0.499703 0.149225
0.673622 0.500620 0.150142
0.733071 0.501541 0.151063
0.792767 0.502466 0.151988
0.852694 0.503394 0.152917
0.912836 0.504326 0.153849
0.017257 0.551632 0.141779
0.050250 0.552143 0.142290
0.102744 0.552956 0.143104
0.157023 0.553797 0.143945
0.212404 0.554655 0.144803
0.268593 0.555525 0.145673
0.325422 0.556406 0.146554
0.382783 0.557295 0.147442
0.440600 0.558190 0.148338
0.498815 0.559092 0.149240
0.557385 0.560000 0.150147
0.616275 0.560912 0.151060
0.675456 0.561829 0.151977
0.734905 0.562750 0.152898
0.794601 0.563675 0.153823
0.854528 0.564603 0.154751
0.914670 0.565535 0.155683
0.019091 0.612841 0.143614
0.052084 0.613352 0.144125
0.104578 0.614165 0.144938
0.158857 0.615006 0.145779
0.214238 0.615864 0.146637
0.270427 0.616735 0.147508
0.327257 0.617615 0.148388
0.384618 0.618504 0.149277
0.442434 0.619400 0.150172
0.500650 0.620302 0.151074
0.559220 0.621209 0.151982
0.618109 0.622121 0.152894
0.677291 0.623038 0.153811
0.736740 0.623959 0.154732
0.796436 0.624884 0.155657
0.856363 0.625813 0.156585
0.916505 0.626745 0.157517
0.020925 0.674050 0.145448
0.053919 0.674561 0.145959
0.106413 0.675375 0.146772
0.160691 0.676216 0.147613
0.216073 0.677074 0.148471
0.272262 0.677944 0.149342
0.329091 0.678825 0.150222
0.386452 0.679713 0.151111
0.444269 0.680609 0.152007
0.502484 0.681511 0.152909
0.561054 0.682418 0.153816
0.619944 0.683331 0.154729
0.679125 0.684248 0.155646
0.738574 0.685169 0.156567
0.798270 0.686094 0.157491
0.858197 0.687022 0.158420
0.918339 0.687954 0.159352
0.022760 0.735260 0.147282
0.055753 0.735771 0.147794
0.108247 0.736584 0.148607
0.162526 0.737425 0.149448
0.217907 0.738283 0.150306
0.274096 0.739154 0.151176
0.330926 0.740034 0.152057
0.388287 0.740923 0.152945
0.446103 0.741819 0.153841
0.504318 0.742720 0.154743
0.562888 0.743628 0.155651
0.621778 0.744540 0.156563
0.680959 0.745457 0.157480
0.740408 0.746378 0.158401
0.800105 0.747303 0.159326
0.860031 0.748232 0.160254
0.920173 0.749163 0.161186
0.024594 0.796469 0.149117
0.057587 0.796980 0.149628
0.110081 0.797793 0.150441
0.164360 0.798634 0.151282
0.219742 0.799492 0.152140
0.275931 0.800363 0.153011
0.332760 0.801243 0.153891
0.390121 0.802132 0.154780
0.447937 0.803028 0.155676
0.506153 0.803930 0.156578
0.564723 0.804837 0.157485
0.623613 0.805750 0.158397
0.682794 0.806667 0.159314
0.742243 0.807588 0.160235
0.801939 0.808512 0.161160
0.861866 0.809441 0.162089
0.922008 0.810373 0.163020
0.026428 0.857678 0.150951
0.059422 0.858190 0.151462
0.111916 0.859003 0.152276
0.166195 0.859844 0.153117
0.221576 0.860702 0.153975
0.277765 0.861572 0.154845
0.334594 0.862453 0.155726
0.391955 0.863342 0.156614
0.449772 0.864237 0.157510
0.507987 0.865139 0.158412
0.566557 0.866047 0.159319
0.625447 0.866959 0.160232
0.684628 0.867876 0.161149
0.744077 0.868797 0.162070
0.803773 0.869722 0.162995
0.863700 0.870650 0.163923
0.923842 0.871582 0.164855
0.028263 0.918888 0.152785
0.061256 0.919399 0.153297
0.113750 0.920212 0.154110
0.168029 0.921053 0.154951
0.223410 0.921911 0.155809
0.279599 0.922782 0.156679
0.336429 0.923662 0.157560
0.393790 0.924551 0.158449
0.451606 0.925447 0.159344
0.509821 0.926349 0.160246
0.568391 0.927256 0.161154
0.627281 0.928168 0.162066
0.686463 0.929085 0.162983
0.745911 0.930006 0.163904
0.805608 0.930931 0.164829
0.865534 0.931860 0.165757
0.925676 0.932791 0.166689
0.030097 0.980097 0.154620
0.063091 0.980608 0.155131
0.115584 0.981422 0.155944
0.169863 0.982263 0.156785
0.225245 0.983121 0.157643
0.281434 0.983991 0.158514
0.338263 0.984872 0.159394
0.395624 0.985760 0.160283
0.453441 0.986656 0.161179
0.511656 0.987558 0.162081
0.570226 0.988465 0.162988
0.629116 0.989378 0.163900
0.688297 0.990295 0.164817
0.747746 0.991216 0.165738
0.807442 0.992141 0.166663
0.867369 0.993069 0.167592
0.927511 0.994001 0.168524
0.001138 0.001138 0.190807
0.034131 0.001649 0.191318
0.086625 0.002462 0.192132
0.140904 0.003303 0.192973
0.196286 0.004161 0.193831
0.252475 0.005032 0.194701
0.309304 0.005912 0.195582
0.366665 0.006801 0.196470
0.424481 0.007697 0.197366
0.482697 0.008599 0.198268
0.541267 0.009506 0.199175
0.600157 0.010419 0.200088
0.659338 0.011336 0.201005
0.718787 0.012257 0.201926
0.778483 0.013181 0.202851
0.838410 0.014110 0.203779
0.898552 0.015042 0.204711
0.002972 0.062347 0.192642
0.035966 0.062859 0.193153
0.088460 0.063672 0.193966
0.142739 0.064513 0.194807
0.198120 0.065371 0.195665
0.254309 0.066241 0.196536
0.311138 0.067122 0.197416
0.368499 0.068011 0.198305
0.426316 0.068906 0.199200
0.484531 0.069808 0.200102
0.543101 0.070716 0.201010
0.601991 0.071628 0.201922
0.661172 0.072545 0.202839
0.720621 0.073466 0.203760
0.780317 0.074391 0.204685
0.840244 0.075319 0.205613
0.900386 0.076251 0.206545
0.004807 0.123557 0.194476
0.037800 0.124068 0.194987
0.090294 0.124881 0.195800
0.144573 0.125722 0.196641
0.199954 0.126580 0.197499
0.256143 0.127451 0.198370
0.312973 0.128331 0.199250
0.370334 0.129220 0.200139
0.428150 0.130116 0.201035
0.486365 0.131018 0.201937
0.544935 0.131925 0.202844
0.603825 0.132837 0.203757
0.663007 0.133754 0.204673
0.722455 0.134675 0.205594
0.782152 0.135600 0.206519
0.842078 0.136529 0.207448
0.902220 0.137460 0.208380
0.006641 0.184766 0.196310
0.039635 0.185277 0.196821
0.092128 0.186091 0.197635
0.146407 0.186932 0.198476
0.201789 0.187790 0.199334
0.257978 0.188660 0.200204
0.314807 0.189541 0.201085
0.372168 0.190429 0.201973
0.429985 0.191325 0.202869
0.488200 0.192227 0.203771
0.546770 0.193134 0.204679
0.605660 0.194047 0.205591
0.664841 0.194964 0.206508
0.724290 0.195885 0.207429
0.783986 0.196810 0.208354
0.843913 0.197738 0.209282
0.904055 0.198670 0.210214
0.008476 0.245976 0.198145
0.041469 0.246487 0.198656
0.093963 0.247300 0.199469
0.148242 0.248141 0.200310
0.203623 0.248999 0.201168
0.259812 0.249869 0.202039
0.316641 0.250750 0.202919
0.374003 0.251639 0.203808
0.431819 0.252534 0.204704
0.490034 0.253436 0.205605
0.548604 0.254344 0.206513
0.607494 0.255256 0.207425
0.666675 0.256173 0.208342
0.726124 0.257094 0.209263
0.785820 0.258019 0.210188
0.845747 0.258947 0.211117
0.905889 0.259879 0.212048
0.010310 0.307185 0.199979
0.043303 0.307696 0.200490
0.095797 0.308509 0.201304
0.150076 0.309350 0.202144
0.205457 0.310208 0.203002
0.261646 0.311079 0.203873
0.318476 0.311959 0.204753
0.375837 0.312848 0.205642
0.433653 0.313744 0.206538
0.491869 0.314646 0.207440
0.550439 0.315553 0.208347
0.609328 0.316466 0.209260
0.668510 0.317382 0.210177
0.727959 0.318303 0.211098
0.787655 0.319228 0.212022
0.847582 0.320157 0.212951
0.907724 0.321089 0.213883
0.012144 0.368394 0.201813
0.045138 0.368905 0.202325
0.097632 0.369719 0.203138
0.151910 0.370560 0.203979
0.207292 0.371418 0.204837
0.263481 0.372288 0.205707
0.320310 0.373169 0.206588
0.377671 0.374057 0.207477
0.435488 0.374953 0.208372
0.493703 0.375855 0.209274
0.552273 0.376762 0.210182
0.611163 0.377675 0.211094
0.670344 0.378592 0.212011
0.729793 0.379513 0.212932
0.789489 0.380438 0.213857
0.849416 0.381366 0.214785
0.909558 0.382298 0.215717
0.013979 0.429604 0.203648
0.046972 0.430115 0.204159
0.099466 0.430928 0.204972
0.153745 0.431769 0.205813
0.209126 0.432627 0.206671
0.265315 0.433498 0.207542
0.322145 0.434378 0.208422
0.379506 0.435267 0.209311
0.437322 0.436163 0.210207
0.495537 0.437064 0.211109
0.554107 0.437972 0.212016
0.612997 0.438884 0.212928
0.672178 0.439801 0.213845
0.731627 0.440722 0.214766
0.791324 0.441647 0.215691
0.851250 0.442576 0.216620
0.911392 0.443507 0.217551
0.015813 0.490813 0.205482
0.048806 0.491324 0.205993
0.101300 0.492137 0.206807
0.155579 0.492978 0.207648
0.210961 0.493836 0.208506
0.267150 0.494707 0.209376
0.323979 0.495587 0.210257
0.381340 0.496476 0.211145
0.439156 0.497372 0.212041
0.497372 0.498274 0.212943
0.555942 0.499181 0.213850
0.614832 0.500094 0.214763
0.674013 0.501011 0.215680
0.733462 0.501932 0.216601
0.793158 0.502856 0.217526
0.853085 0.503785 0.218454
0.913227 0.504717 0.219386
0.017647 0.552022 0.207317
0.050641 0.552534 0.207828
0.103135 0.553347 0.208641
0.157414 0.554188 0.209482
0.212795 0.555046 0.210340
0.268984 0.555916 0.211211
0.325813 0.556797 0.212091
0.383174 0.557686 0.212980
0.440991 0.558581 0.213875
0.499206 0.559483 0.214777
0.557776 0.560391 0.215685
0.616666 0.561303 0.216597
0.675847 0.562220 0.217514
0.735296 0.563141 0.218435
0.794992 0.564066 0.219360
0.854919 0.564994 0.220288
0.915061 0.565926 0.221220
0.019482 0.613232 0.209151
0.052475 0.613743 0.209662
0.104969 0.614556 0.210475
0.159248 0.615397 0.211316
0.214629 0.616255 0.212174
0.270818 0.617126 0.213045
0.327648 0.618006 0.213925
0.385009 0.618895 0.214814
0.442825 0.619791 0.215710
0.501040 0.620693 0.216612
0.559610 0.621600 0.217519
0.618500 0.622512 0.218432
0.677682 0.623429 0.219348
0.737130 0.624350 0.220269
0.796827 0.625275 0.221194
0.856753 0.626204 0.222123
0.916895 0.627135 0.223055
0.021316 0.674441 0.210985
0.054310 0.674952 0.211496
0.106803 0.675766 0.212310
0.161082 0.676607 0.213151
0.216464 0.677465 0.214009
0.272653 0.678335 0.214879
0.329482 0.679216 0.215760
0.386843 0.680104 0.216648
0.444660 0.681000 0.217544
0.502875 0.681902 0.218446
0.561445 0.682809 0.219354
0.620335 0.683722 0.220266
0.679516 0.684639 0.221183
0.738965 0.685560 0.222104
0.798661 0.686485 0.223029
0.858588 0.687413 0.223957
0.918730 0.688345 0.224889
0.023151 0.735651 0.212820
0.056144 0.736162 0.213331
0.108638 0.736975 0.214144
0.162917 0.737816 0.214985
0.218298 0.738674 0.215843
0.274487 0.739544 0.216714
0.331316 0.740425 0.217594
0.388678 0.741314 0.218483
0.446494 0.742209 0.219379
0.504709 0.743111 0.220280
0.563279 0.744019 0.221188
0.622169 0.744931 0.222100
0.681350 0.745848 0.223017
0.740799 0.746769 0.223938
0.800495 0.747694 0.224863
0.860422 0.748622 0.225792
0.920564 0.749554 0.226723
0.024985 0.796860 0.214654
0.057978 0.797371 0.215165
0.110472 0.798184 0.215979
0.164751 0.799025 0.216819
0.220132 0.799883 0.217677
0.276321 0.800754 0.218548
0.333151 0.801634 0.219428
0.390512 0.802523 0.220317
0.448328 0.803419 0.221213
0.506544 0.804321 0.222115
0.565114 0.805228 0.223022
0.624003 0.806141 0.223935
0.683185 0.807057 0.224852
0.742634 0.807978 0.225773
0.802330 0.808903 0.226697
0.862257 0.809832 0.227626
0.922399 0.810764 0.228558
0.026819 0.858069 0.216488
0.059813 0.858580 0.217000
0.112307 0.859394 0.217813
0.166585 0.860235 0.218654
0.221967 0.861093 0.219512
0.278156 0.861963 0.220382
0.334985 0.862844 0.221263
0.392346 0.863732 0.222152
0.450163 0.864628 0.223047
0.508378 0.865530 0.223949
0.566948 0.866437 0.224857
0.625838 0.867350 0.225769
0.685019 0.868267 0.226686
0.744468 0.869188 0.227607
0.804164 0.870113 0.228532
0.864091 0.871041 0.229460
0.924233 0.871973 0.230392
0.028654 0.919279 0.218323
0.061647 0.919790 0.218834
0.114141 0.920603 0.219647
0.168420 0.921444 0.220488
0.223801 0.922302 0.221346
0.279990 0.923173 0.222217
0.336820 0.924053 0.223097
0.394181 0.924942 0.223986
0.451997 0.925838 0.224882
0.510212 0.926739 0.225784
0.568782 0.927647 0.226691
0.627672 0.928559 0.227603
0.686853 0.929476 0.228520
0.746302 0.930397 0.229441
0.805999 0.931322 0.230366
0.865925 0.932251 0.231295
0.926067 0.933182 0.232226
0.030488 0.980488 0.220157
0.063481 0.980999 0.220668
0.115975 0.981812 0.221482
0.170254 0.982653 0.222323
0.225636 0.983511 0.223181
0.281825 0.984382 0.224051
0.338654 0.985262 0.224932
0.396015 0.986151 0.225820
0.453831 0.987047 0.226716
0.512047 0.987949 0.227618
0.570617 0.988856 0.228525
0.629507 0.989769 0.229438
0.688688 0.990686 0.230355
0.748137 0.991607 0.231276
0.807833 0.992531 0.232201
0.867760 0.993460 0.233129
0.927902 0.994392 0.234061
0.001522 0.001522 0.255214
0.034516 0.002033 0.255725
0.087009 0.002847 0.256539
0.141288 0.003688 0.257380
0.196670 0.004546 0.258238
0.252859 0.005416 0.259108
0.309688 0.006297 0.259989
0.367049 0.007185 0.260877
0.424866 0.008081 0.261773
0.483081 0.008983 0.262675
0.541651 0.009890 0.263582
0.600541 0.010803 0.264495
0.659722 0.011720 0.265412
0.719171 0.012641 0.266333
0.778867 0.013566 0.267258
0.838794 0.014494 0.268186
0.898936 0.015426 0.269118
0.003357 0.062732 0.257049
