app/src/main/assets/luts/fuji_velvia_50.cube
# ApexStudio filter: fuji_velvia_50
LUT_3D_SIZE 17
DOMAIN_MIN 0.0 0.0 0.0
DOMAIN_MAX 1.0 1.0 1.0
0.020000 0.050000 0.000000
0.095000 0.050000 0.000000
0.170000 0.050000 0.000000
0.245000 0.050000 0.000000
0.320000 0.050000 0.000000
0.395000 0.050000 0.000000
0.470000 0.050000 0.000000
0.545000 0.050000 0.000000
0.620000 0.050000 0.000000
0.695000 0.050000 0.000000
0.770000 0.050000 0.000000
0.845000 0.050000 0.000000
0.920000 0.050000 0.000000
0.995000 0.050000 0.000000
1.000000 0.050000 0.000000
1.000000 0.050000 0.000000
1.000000 0.050000 0.000000
0.020000 0.128125 0.000000
0.095000 0.128125 0.000000
0.170000 0.128125 0.000000
0.245000 0.128125 0.000000
0.320000 0.128125 0.000000
0.395000 0.128125 0.000000
0.470000 0.128125 0.000000
0.545000 0.128125 0.000000
0.620000 0.128125 0.000000
0.695000 0.128125 0.000000
0.770000 0.128125 0.000000
0.845000 0.128125 0.000000
0.920000 0.128125 0.000000
0.995000 0.128125 0.000000
1.000000 0.128125 0.000000
1.000000 0.128125 0.000000
1.000000 0.128125 0.000000
0.020000 0.206250 0.000000
0.095000 0.206250 0.000000
0.170000 0.206250 0.000000
0.245000 0.206250 0.000000
0.320000 0.206250 0.000000
0.395000 0.206250 0.000000
0.470000 0.206250 0.000000
0.545000 0.206250 0.000000
0.620000 0.206250 0.000000
0.695000 0.206250 0.000000
0.770000 0.206250 0.000000
0.845000 0.206250 0.000000
0.920000 0.206250 0.000000
0.995000 0.206250 0.000000
1.000000 0.206250 0.000000
1.000000 0.206250 0.000000
1.000000 0.206250 0.000000
0.020000 0.284375 0.000000
0.095000 0.284375 0.000000
0.170000 0.284375 0.000000
0.245000 0.284375 0.000000
0.320000 0.284375 0.000000
0.395000 0.284375 0.000000
0.470000 0.284375 0.000000
0.545000 0.284375 0.000000
0.620000 0.284375 0.000000
0.695000 0.284375 0.000000
0.770000 0.284375 0.000000
0.845000 0.284375 0.000000
0.920000 0.284375 0.000000
0.995000 0.284375 0.000000
1.000000 0.284375 0.000000
1.000000 0.284375 0.000000
1.000000 0.284375 0.000000
0.020000 0.362500 0.000000
0.095000 0.362500 0.000000
0.170000 0.362500 0.000000
0.245000 0.362500 0.000000
0.320000 0.362500 0.000000
0.395000 0.362500 0.000000
0.470000 0.362500 0.000000
0.545000 0.362500 0.000000
0.620000 0.362500 0.000000
0.695000 0.362500 0.000000
0.770000 0.362500 0.000000
0.845000 0.362500 0.000000
0.920000 0.362500 0.000000
0.995000 0.362500 0.000000
1.000000 0.362500 0.000000
1.000000 0.362500 0.000000
1.000000 0.362500 0.000000
0.020000 0.440625 0.000000
0.095000 0.440625 0.000000
0.170000 0.440625 0.000000
0.245000 0.440625 0.000000
0.320000 0.440625 0.000000
0.395000 0.440625 0.000000
0.470000 0.440625 0.000000
0.545000 0.440625 0.000000
0.620000 0.440625 0.000000
0.695000 0.440625 0.000000
0.770000 0.440625 0.000000
0.845000 0.440625 0.000000
0.920000 0.440625 0.000000
0.995000 0.440625 0.000000
1.000000 0.440625 0.000000
1.000000 0.440625 0.000000
1.000000 0.440625 0.000000
0.020000 0.518750 0.000000
0.095000 0.518750 0.000000
0.170000 0.518750 0.000000
0.245000 0.518750 0.000000
0.320000 0.518750 0.000000
0.395000 0.518750 0.000000
0.470000 0.518750 0.000000
0.545000 0.518750 0.000000
0.620000 0.518750 0.000000
0.695000 0.518750 0.000000
0.770000 0.518750 0.000000
0.845000 0.518750 0.000000
0.920000 0.518750 0.000000
0.995000 0.518750 0.000000
1.000000 0.518750 0.000000
1.000000 0.518750 0.000000
1.000000 0.518750 0.000000
0.020000 0.596875 0.000000
0.095000 0.596875 0.000000
0.170000 0.596875 0.000000
0.245000 0.596875 0.000000
0.320000 0.596875 0.000000
0.395000 0.596875 0.000000
0.470000 0.596875 0.000000
0.545000 0.596875 0.000000
0.620000 0.596875 0.000000
0.695000 0.596875 0.000000
0.770000 0.596875 0.000000
0.845000 0.596875 0.000000
0.920000 0.596875 0.000000
0.995000 0.596875 0.000000
1.000000 0.596875 0.000000
1.000000 0.596875 0.000000
1.000000 0.596875 0.000000
0.020000 0.675000 0.000000
0.095000 0.675000 0.000000
0.170000 0.675000 0.000000
0.245000 0.675000 0.000000
0.320000 0.675000 0.000000
0.395000 0.675000 0.000000
0.470000 0.675000 0.000000
0.545000 0.675000 0.000000
0.620000 0.675000 0.000000
0.695000 0.675000 0.000000
0.770000 0.675000 0.000000
0.845000 0.675000 0.000000
0.920000 0.675000 0.000000
0.995000 0.675000 0.000000
1.000000 0.675000 0.000000
1.000000 0.675000 0.000000
1.000000 0.675000 0.000000
0.020000 0.753125 0.000000
0.095000 0.753125 0.000000
0.170000 0.753125 0.000000
0.245000 0.753125 0.000000
0.320000 0.753125 0.000000
0.395000 0.753125 0.000000
0.470000 0.753125 0.000000
0.545000 0.753125 0.000000
0.620000 0.753125 0.000000
0.695000 0.753125 0.000000
0.770000 0.753125 0.000000
0.845000 0.753125 0.000000
0.920000 0.753125 0.000000
0.995000 0.753125 0.000000
1.000000 0.753125 0.000000
1.000000 0.753125 0.000000
1.000000 0.753125 0.000000
0.020000 0.831250 0.000000
0.095000 0.831250 0.000000
0.170000 0.831250 0.000000
0.245000 0.831250 0.000000
0.320000 0.831250 0.000000
0.395000 0.831250 0.000000
0.470000 0.831250 0.000000
0.545000 0.831250 0.000000
0.620000 0.831250 0.000000
0.695000 0.831250 0.000000
0.770000 0.831250 0.000000
0.845000 0.831250 0.000000
0.920000 0.831250 0.000000
0.995000 0.831250 0.000000
1.000000 0.831250 0.000000
1.000000 0.831250 0.000000
1.000000 0.831250 0.000000
0.020000 0.909375 0.000000
0.095000 0.909375 0.000000
0.170000 0.909375 0.000000
0.245000 0.909375 0.000000
0.320000 0.909375 0.000000
0.395000 0.909375 0.000000
0.470000 0.909375 0.000000
0.545000 0.909375 0.000000
0.620000 0.909375 0.000000
0.695000 0.909375 0.000000
0.770000 0.909375 0.000000
0.845000 0.909375 0.000000
0.920000 0.909375 0.000000
0.995000 0.909375 0.000000
1.000000 0.909375 0.000000
1.000000 0.909375 0.000000
1.000000 0.909375 0.000000
0.020000 0.987500 0.000000
0.095000 0.987500 0.000000
0.170000 0.987500 0.000000
0.245000 0.987500 0.000000
0.320000 0.987500 0.000000
0.395000 0.987500 0.000000
0.470000 0.987500 0.000000
0.545000 0.987500 0.000000
0.620000 0.987500 0.000000
0.695000 0.987500 0.000000
0.770000 0.987500 0.000000
0.845000 0.987500 0.000000
0.920000 0.987500 0.000000
0.995000 0.987500 0.000000
1.000000 0.987500 0.000000
1.000000 0.987500 0.000000
1.000000 0.987500 0.000000
0.020000 1.000000 0.000000
0.095000 1.000000 0.000000
0.170000 1.000000 0.000000
0.245000 1.000000 0.000000
0.320000 1.000000 0.000000
0.395000 1.000000 0.000000
0.470000 1.000000 0.000000
0.545000 1.000000 0.000000
0.620000 1.000000 0.000000
0.695000 1.000000 0.000000
0.770000 1.000000 0.000000
0.845000 1.000000 0.000000
0.920000 1.000000 0.000000
0.995000 1.000000 0.000000
1.000000 1.000000 0.000000
1.000000 1.000000 0.000000
1.000000 1.000000 0.000000
0.020000 1.000000 0.000000
0.095000 1.000000 0.000000
0.170000 1.000000 0.000000
0.245000 1.000000 0.000000
0.320000 1.000000 0.000000
0.395000 1.000000 0.000000
0.470000 1.000000 0.000000
0.545000 1.000000 0.000000
0.620000 1.000000 0.000000
0.695000 1.000000 0.000000
0.770000 1.000000 0.000000
0.845000 1.000000 0.000000
0.920000 1.000000 0.000000
0.995000 1.000000 0.000000
1.000000 1.000000 0.000000
1.000000 1.000000 0.000000
1.000000 1.000000 0.000000
0.020000 1.000000 0.000000
0.095000 1.000000 0.000000
0.170000 1.000000 0.000000
0.245000 1.000000 0.000000
0.320000 1.000000 0.000000
0.395000 1.000000 0.000000
0.470000 1.000000 0.000000
0.545000 1.000000 0.000000
0.620000 1.000000 0.000000
0.695000 1.000000 0.000000
0.770000 1.000000 0.000000
0.845000 1.000000 0.000000
0.920000 1.000000 0.000000
0.995000 1.000000 0.000000
1.000000 1.000000 0.000000
1.000000 1.000000 0.000000
1.000000 1.000000 0.000000
0.020000 1.000000 0.000000
0.095000 1.000000 0.000000
0.170000 1.000000 0.000000
0.245000 1.000000 0.000000
0.320000 1.000000 0.000000
0.395000 1.000000 0.000000
0.470000 1.000000 0.000000
0.545000 1.000000 0.000000
0.620000 1.000000 0.000000
0.695000 1.000000 0.000000
0.770000 1.000000 0.000000
0.845000 1.000000 0.000000
0.920000 1.000000 0.000000
0.995000 1.000000 0.000000
1.000000 1.000000 0.000000
1.000000 1.000000 0.000000
1.000000 1.000000 0.000000
0.020000 0.050000 0.048750
0.095000 0.050000 0.048750
0.170000 0.050000 0.048750
0.245000 0.050000 0.048750
0.320000 0.050000 0.048750
0.395000 0.050000 0.048750
0.470000 0.050000 0.048750
0.545000 0.050000 0.048750
0.620000 0.050000 0.048750
0.695000 0.050000 0.048750
0.770000 0.050000 0.048750
0.845000 0.050000 0.048750
0.920000 0.050000 0.048750
0.995000 0.050000 0.048750
1.000000 0.050000 0.048750
1.000000 0.050000 0.048750
1.000000 0.050000 0.048750
0.020000 0.128125 0.048750
0.095000 0.128125 0.048750
0.170000 0.128125 0.048750
0.245000 0.128125 0.048750
0.320000 0.128125 0.048750
0.395000 0.128125 0.048750
0.470000 0.128125 0.048750
0.545000 0.128125 0.048750
0.620000 0.128125 0.048750
0.695000 0.128125 0.048750
0.770000 0.128125 0.048750
0.845000 0.128125 0.048750
0.920000 0.128125 0.048750
0.995000 0.128125 0.048750
1.000000 0.128125 0.048750
1.000000 0.128125 0.048750
1.000000 0.128125 0.048750
0.020000 0.206250 0.048750
0.095000 0.206250 0.048750
0.170000 0.206250 0.048750
0.245000 0.206250 0.048750
0.320000 0.206250 0.048750
0.395000 0.206250 0.048750
0.470000 0.206250 0.048750
0.545000 0.206250 0.048750
0.620000 0.206250 0.048750
0.695000 0.206250 0.048750
0.770000 0.206250 0.048750
0.845000 0.206250 0.048750
0.920000 0.206250 0.048750
0.995000 0.206250 0.048750
1.000000 0.206250 0.048750
1.000000 0.206250 0.048750
1.000000 0.206250 0.048750
0.020000 0.284375 0.048750
0.095000 0.284375 0.048750
0.170000 0.284375 0.048750
0.245000 0.284375 0.048750
0.320000 0.284375 0.048750
0.395000 0.284375 0.048750
0.470000 0.284375 0.048750
0.545000 0.284375 0.048750
0.620000 0.284375 0.048750
0.695000 0.284375 0.048750
0.770000 0.284375 0.048750
0.845000 0.284375 0.048750
0.920000 0.284375 0.048750
0.995000 0.284375 0.048750
1.000000 0.284375 0.048750
1.000000 0.284375 0.048750
1.000000 0.284375 0.048750
0.020000 0.362500 0.048750
0.095000 0.362500 0.048750
0.170000 0.362500 0.048750
0.245000 0.362500 0.048750
0.320000 0.362500 0.048750
0.395000 0.362500 0.048750
0.470000 0.362500 0.048750
0.545000 0.362500 0.048750
0.620000 0.362500 0.048750
0.695000 0.362500 0.048750
0.770000 0.362500 0.048750
0.845000 0.362500 0.048750
0.920000 0.362500 0.048750
0.995000 0.362500 0.048750
1.000000 0.362500 0.048750
1.000000 0.362500 0.048750
1.000000 0.362500 0.048750
0.020000 0.440625 0.048750
0.095000 0.440625 0.048750
0.170000 0.440625 0.048750
0.245000 0.440625 0.048750
0.320000 0.440625 0.048750
0.395000 0.440625 0.048750
0.470000 0.440625 0.048750
0.545000 0.440625 0.048750
0.620000 0.440625 0.048750
0.695000 0.440625 0.048750
0.770000 0.440625 0.048750
0.845000 0.440625 0.048750
0.920000 0.440625 0.048750
0.995000 0.440625 0.048750
1.000000 0.440625 0.048750
1.000000 0.440625 0.048750
1.000000 0.440625 0.048750
0.020000 0.518750 0.048750
0.095000 0.518750 0.048750
0.170000 0.518750 0.048750
0.245000 0.518750 0.048750
0.320000 0.518750 0.048750
0.395000 0.518750 0.048750
0.470000 0.518750 0.048750
0.545000 0.518750 0.048750
0.620000 0.518750 0.048750
0.695000 0.518750 0.048750
0.770000 0.518750 0.048750
0.845000 0.518750 0.048750
0.920000 0.518750 0.048750
0.995000 0.518750 0.048750
1.000000 0.518750 0.048750
1.000000 0.518750 0.048750
1.000000 0.518750 0.048750
0.020000 0.596875 0.048750
0.095000 0.596875 0.048750
0.170000 0.596875 0.048750
0.245000 0.596875 0.048750
0.320000 0.596875 0.048750
0.395000 0.596875 0.048750
0.470000 0.596875 0.048750
0.545000 0.596875 0.048750
0.620000 0.596875 0.048750
0.695000 0.596875 0.048750
0.770000 0.596875 0.048750
0.845000 0.596875 0.048750
0.920000 0.596875 0.048750
0.995000 0.596875 0.048750
1.000000 0.596875 0.048750
1.000000 0.596875 0.048750
1.000000 0.596875 0.048750
0.020000 0.675000 0.048750
0.095000 0.675000 0.048750
0.170000 0.675000 0.048750
0.245000 0.675000 0.048750
0.320000 0.675000 0.048750
0.395000 0.675000 0.048750
0.470000 0.675000 0.048750
0.545000 0.675000 0.048750
0.620000 0.675000 0.048750
0.695000 0.675000 0.048750
0.770000 0.675000 0.048750
0.845000 0.675000 0.048750
0.920000 0.675000 0.048750
0.995000 0.675000 0.048750
1.000000 0.675000 0.048750
1.000000 0.675000 0.048750
1.000000 0.675000 0.048750
0.020000 0.753125 0.048750
0.095000 0.753125 0.048750
0.170000 0.753125 0.048750
0.245000 0.753125 0.048750
0.320000 0.753125 0.048750
0.395000 0.753125 0.048750
0.470000 0.753125 0.048750
0.545000 0.753125 0.048750
0.620000 0.753125 0.048750
0.695000 0.753125 0.048750
0.770000 0.753125 0.048750
0.845000 0.753125 0.048750
0.920000 0.753125 0.048750
0.995000 0.753125 0.048750
1.000000 0.753125 0.048750
1.000000 0.753125 0.048750
1.000000 0.753125 0.048750
0.020000 0.831250 0.048750
0.095000 0.831250 0.048750
0.170000 0.831250 0.048750
0.245000 0.831250 0.048750
0.320000 0.831250 0.048750
0.395000 0.831250 0.048750
0.470000 0.831250 0.048750
0.545000 0.831250 0.048750
0.620000 0.831250 0.048750
0.695000 0.831250 0.048750
0.770000 0.831250 0.048750
0.845000 0.831250 0.048750
0.920000 0.831250 0.048750
0.995000 0.831250 0.048750
1.000000 0.831250 0.048750
1.000000 0.831250 0.048750
1.000000 0.831250 0.048750
0.020000 0.909375 0.048750
0.095000 0.909375 0.048750
0.170000 0.909375 0.048750
0.245000 0.909375 0.048750
0.320000 0.909375 0.048750
0.395000 0.909375 0.048750
0.470000 0.909375 0.048750
0.545000 0.909375 0.048750
0.620000 0.909375 0.048750
0.695000 0.909375 0.048750
0.770000 0.909375 0.048750
0.845000 0.909375 0.048750
0.920000 0.909375 0.048750
0.995000 0.909375 0.048750
1.000000 0.909375 0.048750
1.000000 0.909375 0.048750
1.000000 0.909375 0.048750
0.020000 0.987500 0.048750
0.095000 0.987500 0.048750
0.170000 0.987500 0.048750
0.245000 0.987500 0.048750
0.320000 0.987500 0.048750
0.395000 0.987500 0.048750
0.470000 0.987500 0.048750
0.545000 0.987500 0.048750
0.620000 0.987500 0.048750
0.695000 0.987500 0.048750
0.770000 0.987500 0.048750
0.845000 0.987500 0.048750
0.920000 0.987500 0.048750
0.995000 0.987500 0.048750
1.000000 0.987500 0.048750
1.000000 0.987500 0.048750
1.000000 0.987500 0.048750
0.020000 1.000000 0.048750
0.095000 1.000000 0.048750
0.170000 1.000000 0.048750
0.245000 1.000000 0.048750
0.320000 1.000000 0.048750
0.395000 1.000000 0.048750
0.470000 1.000000 0.048750
0.545000 1.000000 0.048750
0.620000 1.000000 0.048750
0.695000 1.000000 0.048750
0.770000 1.000000 0.048750
0.845000 1.000000 0.048750
0.920000 1.000000 0.048750
0.995000 1.000000 0.048750
1.000000 1.000000 0.048750
1.000000 1.000000 0.048750
1.000000 1.000000 0.048750
0.020000 1.000000 0.048750
0.095000 1.000000 0.048750
0.170000 1.000000 0.048750
0.245000 1.000000 0.048750
0.320000 1.000000 0.048750
0.395000 1.000000 0.048750
0.470000 1.000000 0.048750
0.545000 1.000000 0.048750
0.620000 1.000000 0.048750
0.695000 1.000000 0.048750
0.770000 1.000000 0.048750
0.845000 1.000000 0.048750
0.920000 1.000000 0.048750
0.995000 1.000000 0.048750
1.000000 1.000000 0.048750
1.000000 1.000000 0.048750
1.000000 1.000000 0.048750
0.020000 1.000000 0.048750
0.095000 1.000000 0.048750
0.170000 1.000000 0.048750
0.245000 1.000000 0.048750
0.320000 1.000000 0.048750
0.395000 1.000000 0.048750
0.470000 1.000000 0.048750
0.545000 1.000000 0.048750
0.620000 1.000000 0.048750
0.695000 1.000000 0.048750
0.770000 1.000000 0.048750
0.845000 1.000000 0.048750
0.920000 1.000000 0.048750
0.995000 1.000000 0.048750
1.000000 1.000000 0.048750
1.000000 1.000000 0.048750
1.000000 1.000000 0.048750
0.020000 1.000000 0.048750
0.095000 1.000000 0.048750
0.170000 1.000000 0.048750
0.245000 1.000000 0.048750
0.320000 1.000000 0.048750
0.395000 1.000000 0.048750
0.470000 1.000000 0.048750
0.545000 1.000000 0.048750
0.620000 1.000000 0.048750
0.695000 1.000000 0.048750
0.770000 1.000000 0.048750
0.845000 1.000000 0.048750
0.920000 1.000000 0.048750
0.995000 1.000000 0.048750
1.000000 1.000000 0.048750
1.000000 1.000000 0.048750
1.000000 1.000000 0.048750
0.020000 0.050000 0.117500
0.095000 0.050000 0.117500
0.170000 0.050000 0.117500
0.245000 0.050000 0.117500
0.320000 0.050000 0.117500
0.395000 0.050000 0.117500
0.470000 0.050000 0.117500
0.545000 0.050000 0.117500
0.620000 0.050000 0.117500
0.695000 0.050000 0.117500
0.770000 0.050000 0.117500
0.845000 0.050000 0.117500
0.920000 0.050000 0.117500
0.995000 0.050000 0.117500
1.000000 0.050000 0.117500
1.000000 0.050000 0.117500
1.000000 0.050000 0.117500
0.020000 0.128125 0.117500
0.095000 0.128125 0.117500
0.170000 0.128125 0.117500
0.245000 0.128125 0.117500
0.320000 0.128125 0.117500
0.395000 0.128125 0.117500
0.470000 0.128125 0.117500
0.545000 0.128125 0.117500
0.620000 0.128125 0.117500
0.695000 0.128125 0.117500
0.770000 0.128125 0.117500
0.845000 0.128125 0.117500
0.920000 0.128125 0.117500
0.995000 0.128125 0.117500
1.000000 0.128125 0.117500
1.000000 0.128125 0.117500
1.000000 0.128125 0.117500
0.020000 0.206250 0.117500
0.095000 0.206250 0.117500
0.170000 0.206250 0.117500
0.245000 0.206250 0.117500
0.320000 0.206250 0.117500
0.395000 0.206250 0.117500
0.470000 0.206250 0.117500
0.545000 0.206250 0.117500
0.620000 0.206250 0.117500
0.695000 0.206250 0.117500
0.770000 0.206250 0.117500
0.845000 0.206250 0.117500
0.920000 0.206250 0.117500
0.995000 0.206250 0.117500
1.000000 0.206250 0.117500
1.000000 0.206250 0.117500
1.000000 0.206250 0.117500
0.020000 0.284375 0.117500
0.095000 0.284375 0.117500
0.170000 0.284375 0.117500
0.245000 0.284375 0.117500
0.320000 0.284375 0.117500
0.395000 0.284375 0.117500
0.470000 0.284375 0.117500
0.545000 0.284375 0.117500
0.620000 0.284375 0.117500
0.695000 0.284375 0.117500
0.770000 0.284375 0.117500
0.845000 0.284375 0.117500
0.920000 0.284375 0.117500
0.995000 0.284375 0.117500
1.000000 0.284375 0.117500
1.000000 0.284375 0.117500
1.000000 0.284375 0.117500
0.020000 0.362500 0.117500
0.095000 0.362500 0.117500
0.170000 0.362500 0.117500
0.245000 0.362500 0.117500
0.320000 0.362500 0.117500
0.395000 0.362500 0.117500
0.470000 0.362500 0.117500
0.545000 0.362500 0.117500
0.620000 0.362500 0.117500
0.695000 0.362500 0.117500
0.770000 0.362500 0.117500
0.845000 0.362500 0.117500
0.920000 0.362500 0.117500
0.995000 0.362500 0.117500
1.000000 0.362500 0.117500
1.000000 0.362500 0.117500
1.000000 0.362500 0.117500
0.020000 0.440625 0.117500
0.095000 0.440625 0.117500
0.170000 0.440625 0.117500
0.245000 0.440625 0.117500
0.320000 0.440625 0.117500
0.395000 0.440625 0.117500
0.470000 0.440625 0.117500
0.545000 0.440625 0.117500
0.620000 0.440625 0.117500
0.695000 0.440625 0.117500
0.770000 0.440625 0.117500
0.845000 0.440625 0.117500
0.920000 0.440625 0.117500
0.995000 0.440625 0.117500
1.000000 0.440625 0.117500
1.000000 0.440625 0.117500
1.000000 0.440625 0.117500
0.020000 0.518750 0.117500
0.095000 0.518750 0.117500
0.170000 0.518750 0.117500
0.245000 0.518750 0.117500
0.320000 0.518750 0.117500
0.395000 0.518750 0.117500
0.470000 0.518750 0.117500
0.545000 0.518750 0.117500
0.620000 0.518750 0.117500
0.695000 0.518750 0.117500
0.770000 0.518750 0.117500
0.845000 0.518750 0.117500
0.920000 0.518750 0.117500
0.995000 0.518750 0.117500
1.000000 0.518750 0.117500
1.000000 0.518750 0.117500
1.000000 0.518750 0.117500
0.020000 0.596875 0.117500
0.095000 0.596875 0.117500
0.170000 0.596875 0.117500
0.245000 0.596875 0.117500
0.320000 0.596875 0.117500
0.395000 0.596875 0.117500
0.470000 0.596875 0.117500
0.545000 0.596875 0.117500
0.620000 0.596875 0.117500
0.695000 0.596875 0.117500
0.770000 0.596875 0.117500
0.845000 0.596875 0.117500
0.920000 0.596875 0.117500
0.995000 0.596875 0.117500
1.000000 0.596875 0.117500
1.000000 0.596875 0.117500
1.000000 0.596875 0.117500
0.020000 0.675000 0.117500
0.095000 0.675000 0.117500
0.170000 0.675000 0.117500
0.245000 0.675000 0.117500
0.320000 0.675000 0.117500
0.395000 0.675000 0.117500
0.470000 0.675000 0.117500
0.545000 0.675000 0.117500
0.620000 0.675000 0.117500
0.695000 0.675000 0.117500
0.770000 0.675000 0.117500
0.845000 0.675000 0.117500
0.920000 0.675000 0.117500
0.995000 0.675000 0.117500
1.000000 0.675000 0.117500
1.000000 0.675000 0.117500
1.000000 0.675000 0.117500
0.020000 0.753125 0.117500
0.095000 0.753125 0.117500
0.170000 0.753125 0.117500
0.245000 0.753125 0.117500
0.320000 0.753125 0.117500
0.395000 0.753125 0.117500
0.470000 0.753125 0.117500
0.545000 0.753125 0.117500
0.620000 0.753125 0.117500
0.695000 0.753125 0.117500
0.770000 0.753125 0.117500
0.845000 0.753125 0.117500
0.920000 0.753125 0.117500
0.995000 0.753125 0.117500
1.000000 0.753125 0.117500
1.000000 0.753125 0.117500
1.000000 0.753125 0.117500
0.020000 0.831250 0.117500
0.095000 0.831250 0.117500
0.170000 0.831250 0.117500
0.245000 0.831250 0.117500
0.320000 0.831250 0.117500
0.395000 0.831250 0.117500
0.470000 0.831250 0.117500
0.545000 0.831250 0.117500
0.620000 0.831250 0.117500
0.695000 0.831250 0.117500
0.770000 0.831250 0.117500
0.845000 0.831250 0.117500
0.920000 0.831250 0.117500
0.995000 0.831250 0.117500
1.000000 0.831250 0.117500
1.000000 0.831250 0.117500
1.000000 0.831250 0.117500
0.020000 0.909375 0.117500
0.095000 0.909375 0.117500
0.170000 0.909375 0.117500
0.245000 0.909375 0.117500
0.320000 0.909375 0.117500
0.395000 0.909375 0.117500
0.470000 0.909375 0.117500
0.545000 0.909375 0.117500
0.620000 0.909375 0.117500
0.695000 0.909375 0.117500
0.770000 0.909375 0.117500
0.845000 0.909375 0.117500
0.920000 0.909375 0.117500
0.995000 0.909375 0.117500
1.000000 0.909375 0.117500
1.000000 0.909375 0.117500
1.000000 0.909375 0.117500
0.020000 0.987500 0.117500
0.095000 0.987500 0.117500
0.170000 0.987500 0.117500
0.245000 0.987500 0.117500
0.320000 0.987500 0.117500
0.395000 0.987500 0.117500
0.470000 0.987500 0.117500
0.545000 0.987500 0.117500
0.620000 0.987500 0.117500
0.695000 0.987500 0.117500
0.770000 0.987500 0.117500
0.845000 0.987500 0.117500
0.920000 0.987500 0.117500
0.995000 0.987500 0.117500
1.000000 0.987500 0.117500
1.000000 0.987500 0.117500
1.000000 0.987500 0.117500
0.020000 1.000000 0.117500
0.095000 1.000000 0.117500
0.170000 1.000000 0.117500
0.245000 1.000000 0.117500
0.320000 1.000000 0.117500
0.395000 1.000000 0.117500
0.470000 1.000000 0.117500
0.545000 1.000000 0.117500
0.620000 1.000000 0.117500
0.695000 1.000000 0.117500
0.770000 1.000000 0.117500
0.845000 1.000000 0.117500
0.920000 1.000000 0.117500
0.995000 1.000000 0.117500
1.000000 1.000000 0.117500
1.000000 1.000000 0.117500
1.000000 1.000000 0.117500
0.020000 1.000000 0.117500
0.095000 1.000000 0.117500
0.170000 1.000000 0.117500
0.245000 1.000000 0.117500
0.320000 1.000000 0.117500
0.395000 1.000000 0.117500
0.470000 1.000000 0.117500
0.545000 1.000000 0.117500
0.620000 1.000000 0.117500
0.695000 1.000000 0.117500
0.770000 1.000000 0.117500
0.845000 1.000000 0.117500
0.920000 1.000000 0.117500
0.995000 1.000000 0.117500
1.000000 1.000000 0.117500
1.000000 1.000000 0.117500
1.000000 1.000000 0.117500
0.020000 1.000000 0.117500
0.095000 1.000000 0.117500
0.170000 1.000000 0.117500
0.245000 1.000000 0.117500
0.320000 1.000000 0.117500
0.395000 1.000000 0.117500
0.470000 1.000000 0.117500
0.545000 1.000000 0.117500
0.620000 1.000000 0.117500
0.695000 1.000000 0.117500
0.770000 1.000000 0.117500
0.845000 1.000000 0.117500
0.920000 1.000000 0.117500
0.995000 1.000000 0.117500
1.000000 1.000000 0.117500
1.000000 1.000000 0.117500
1.000000 1.000000 0.117500
0.020000 1.000000 0.117500
0.095000 1.000000 0.117500
0.170000 1.000000 0.117500
0.245000 1.000000 0.117500
0.320000 1.000000 0.117500
0.395000 1.000000 0.117500
0.470000 1.000000 0.117500
0.545000 1.000000 0.117500
0.620000 1.000000 0.117500
0.695000 1.000000 0.117500
0.770000 1.000000 0.117500
0.845000 1.000000 0.117500
0.920000 1.000000 0.117500
0.995000 1.000000 0.117500
1.000000 1.000000 0.117500
1.000000 1.000000 0.117500
1.000000 1.000000 0.117500
0.020000 0.050000 0.186250
0.095000 0.050000 0.186250
0.170000 0.050000 0.186250
0.245000 0.050000 0.186250
0.320000 0.050000 0.186250
0.395000 0.050000 0.186250
0.470000 0.050000 0.186250
0.545000 0.050000 0.186250
0.620000 0.050000 0.186250
0.695000 0.050000 0.186250
0.770000 0.050000 0.186250
0.845000 0.050000 0.186250
0.920000 0.050000 0.186250
0.995000 0.050000 0.186250
1.000000 0.050000 0.186250
1.000000 0.050000 0.186250
1.000000 0.050000 0.186250
0.020000 0.128125 0.186250
