app/src/main/assets/luts/fuji_chrome.cube
# ApexStudio filter: fuji_chrome
LUT_3D_SIZE 5
DOMAIN_MIN 0.0 0.0 0.0
DOMAIN_MAX 1.0 1.0 1.0
0.000345 0.000345 0.057867
0.195493 0.003369 0.060891
0.423689 0.006904 0.064426
0.658545 0.010543 0.068065
0.897759 0.014249 0.071771
0.007683 0.245183 0.065205
0.202830 0.248206 0.068228
0.431026 0.251742 0.071764
0.665882 0.255380 0.075403
0.905096 0.259086 0.079109
0.015020 0.490020 0.072542
0.210168 0.493044 0.075566
0.438364 0.496579 0.079101
0.673220 0.500218 0.082740
0.912434 0.503924 0.086446
0.022358 0.734858 0.079880
0.217505 0.737881 0.082903
0.445701 0.741417 0.086439
0.680557 0.745055 0.090078
0.919771 0.748761 0.093784
0.029695 0.979695 0.087217
0.224843 0.982719 0.090241
0.453039 0.986254 0.093776
0.687895 0.989893 0.097415
0.927109 0.993599 0.101121
0.001901 0.001901 0.318809
0.197049 0.004925 0.321833
0.425245 0.008460 0.325368
0.660101 0.012099 0.329007
0.899315 0.015805 0.332713
0.009239 0.246739 0.326147
0.204386 0.249762 0.329170
0.432582 0.253298 0.332706
0.667439 0.256936 0.336344
0.906653 0.260643 0.340051
0.016576 0.491576 0.333484
0.211724 0.494600 0.336508
0.439920 0.498135 0.340043
0.674776 0.501774 0.343682
0.913990 0.505480 0.347388
0.023914 0.736414 0.340822
0.219061 0.739437 0.343845
0.447257 0.742973 0.347381
0.682114 0.746611 0.351019
0.921328 0.750318 0.354726
0.031251 0.981251 0.348159
0.226399 0.984275 0.351183
0.454595 0.987810 0.354718
0.689451 0.991449 0.358357
0.928665 0.995155 0.362063
0.003387 0.003387 0.567855
0.198534 0.006410 0.570878
0.426730 0.009946 0.574414
0.661587 0.013584 0.578052
0.900801 0.017290 0.581758
0.010724 0.248224 0.575192
0.205872 0.251248 0.578216
0.434068 0.254783 0.581751
0.668924 0.258422 0.585390
0.908138 0.262128 0.589096
0.018062 0.493062 0.582530
0.213209 0.496085 0.585553
0.441405 0.499621 0.589089
0.676262 0.503259 0.592727
0.915476 0.506965 0.596433
0.025399 0.737899 0.589867
0.220547 0.740923 0.592891
0.448743 0.744458 0.596426
0.683599 0.748097 0.600065
0.922813 0.751803 0.603771
0.032737 0.982737 0.597205
0.227884 0.985760 0.600228
0.456080 0.989296 0.603764
0.690937 0.992934 0.607402
0.930151 0.996640 0.611108
0.004839 0.004839 0.811364
0.199987 0.007863 0.814387
0.428183 0.011398 0.817923
0.663039 0.015037 0.821561
0.902253 0.018743 0.825267
0.012177 0.249677 0.818701
0.207324 0.252700 0.821725
0.435520 0.256236 0.825260
0.670376 0.259874 0.828899
0.909590 0.263580 0.832605
0.019514 0.494514 0.826039
0.214662 0.497538 0.829062
0.442858 0.501073 0.832598
0.677714 0.504712 0.836236
0.916928 0.508418 0.839942
0.026852 0.739352 0.833376
0.221999 0.742375 0.836400
0.450195 0.745911 0.839935
0.685051 0.749549 0.843574
0.924265 0.753255 0.847280
0.034189 0.984189 0.840714
0.229337 0.987213 0.843737
0.457533 0.990748 0.847273
0.692389 0.994387 0.850911
0.931603 0.998093 0.854617
0.005700 0.005700 0.955700
0.200847 0.008723 0.958723
0.429043 0.012259 0.962259
0.663900 0.015898 0.965898
0.903114 0.019604 0.969604
0.013038 0.250538 0.963037
0.208185 0.253561 0.966061
0.436381 0.257096 0.969596
0.671237 0.260735 0.973235
0.910451 0.264441 0.976941
0.020375 0.495375 0.970375
0.215522 0.498398 0.973398
0.443718 0.501934 0.976934
0.678575 0.505573 0.980573
0.917789 0.509279 0.984279
0.027713 0.740212 0.977712
0.222860 0.743236 0.980736
0.451056 0.746771 0.984271
0.685912 0.750410 0.987910
0.925126 0.754116 0.991616
0.035050 0.985050 0.985050
0.230197 0.988073 0.988073
0.458393 0.991609 0.991609
0.693250 0.995248 0.995248
0.932464 0.998954 0.998954
