app/src/main/assets/luts/ghibli_warmth.cube
# ApexStudio filter: ghibli_warmth
LUT_3D_SIZE 5
DOMAIN_MIN 0.0 0.0 0.0
DOMAIN_MAX 1.0 1.0 1.0
0.080000 0.060000 0.000000
0.392500 0.060000 0.000000
0.705000 0.060000 0.000000
1.000000 0.060000 0.000000
1.000000 0.060000 0.000000
0.080000 0.347500 0.000000
0.392500 0.347500 0.000000
0.705000 0.347500 0.000000
1.000000 0.347500 0.000000
1.000000 0.347500 0.000000
0.080000 0.635000 0.000000
0.392500 0.635000 0.000000
0.705000 0.635000 0.000000
1.000000 0.635000 0.000000
1.000000 0.635000 0.000000
0.080000 0.922500 0.000000
0.392500 0.922500 0.000000
0.705000 0.922500 0.000000
1.000000 0.922500 0.000000
1.000000 0.922500 0.000000
0.080000 1.000000 0.000000
0.392500 1.000000 0.000000
0.705000 1.000000 0.000000
1.000000 1.000000 0.000000
1.000000 1.000000 0.000000
0.080000 0.060000 0.185000
0.392500 0.060000 0.185000
0.705000 0.060000 0.185000
1.000000 0.060000 0.185000
1.000000 0.060000 0.185000
0.080000 0.347500 0.185000
0.392500 0.347500 0.185000
0.705000 0.347500 0.185000
1.000000 0.347500 0.185000
1.000000 0.347500 0.185000
0.080000 0.635000 0.185000
0.392500 0.635000 0.185000
0.705000 0.635000 0.185000
1.000000 0.635000 0.185000
1.000000 0.635000 0.185000
0.080000 0.922500 0.185000
0.392500 0.922500 0.185000
0.705000 0.922500 0.185000
1.000000 0.922500 0.185000
1.000000 0.922500 0.185000
0.080000 1.000000 0.185000
0.392500 1.000000 0.185000
0.705000 1.000000 0.185000
1.000000 1.000000 0.185000
1.000000 1.000000 0.185000
0.080000 0.060000 0.410000
0.392500 0.060000 0.410000
0.705000 0.060000 0.410000
1.000000 0.060000 0.410000
1.000000 0.060000 0.410000
0.080000 0.347500 0.410000
0.392500 0.347500 0.410000
0.705000 0.347500 0.410000
1.000000 0.347500 0.410000
1.000000 0.347500 0.410000
0.080000 0.635000 0.410000
0.392500 0.635000 0.410000
0.705000 0.635000 0.410000
1.000000 0.635000 0.410000
1.000000 0.635000 0.410000
0.080000 0.922500 0.410000
0.392500 0.922500 0.410000
0.705000 0.922500 0.410000
1.000000 0.922500 0.410000
1.000000 0.922500 0.410000
0.080000 1.000000 0.410000
0.392500 1.000000 0.410000
0.705000 1.000000 0.410000
1.000000 1.000000 0.410000
1.000000 1.000000 0.410000
0.080000 0.060000 0.635000
0.392500 0.060000 0.635000
0.705000 0.060000 0.635000
1.000000 0.060000 0.635000
1.000000 0.060000 0.635000
0.080000 0.347500 0.635000
0.392500 0.347500 0.635000
0.705000 0.347500 0.635000
1.000000 0.347500 0.635000
1.000000 0.347500 0.635000
0.080000 0.635000 0.635000
0.392500 0.635000 0.635000
0.705000 0.635000 0.635000
1.000000 0.635000 0.635000
1.000000 0.635000 0.635000
0.080000 0.922500 0.635000
0.392500 0.922500 0.635000
0.705000 0.922500 0.635000
1.000000 0.922500 0.635000
1.000000 0.922500 0.635000
0.080000 1.000000 0.635000
0.392500 1.000000 0.635000
0.705000 1.000000 0.635000
1.000000 1.000000 0.635000
1.000000 1.000000 0.635000
0.080000 0.060000 0.860000
0.392500 0.060000 0.860000
0.705000 0.060000 0.860000
1.000000 0.060000 0.860000
1.000000 0.060000 0.860000
0.080000 0.347500 0.860000
0.392500 0.347500 0.860000
0.705000 0.347500 0.860000
1.000000 0.347500 0.860000
1.000000 0.347500 0.860000
0.080000 0.635000 0.860000
0.392500 0.635000 0.860000
0.705000 0.635000 0.860000
1.000000 0.635000 0.860000
1.000000 0.635000 0.860000
0.080000 0.922500 0.860000
0.392500 0.922500 0.860000
0.705000 0.922500 0.860000
1.000000 0.922500 0.860000
1.000000 0.922500 0.860000
0.080000 1.000000 0.860000
0.392500 1.000000 0.860000
0.705000 1.000000 0.860000
1.000000 1.000000 0.860000
1.000000 1.000000 0.860000
