app/src/main/assets/luts/ghibli_warmth.cube
# ApexStudio filter: ghibli_warmth
LUT_3D_SIZE 9
DOMAIN_MIN 0.0 0.0 0.0
DOMAIN_MAX 1.0 1.0 1.0
0.080000 0.060000 0.000000
0.236250 0.060000 0.000000
0.392500 0.060000 0.000000
0.548750 0.060000 0.000000
0.705000 0.060000 0.000000
0.861250 0.060000 0.000000
1.000000 0.060000 0.000000
1.000000 0.060000 0.000000
1.000000 0.060000 0.000000
0.080000 0.203750 0.000000
0.236250 0.203750 0.000000
0.392500 0.203750 0.000000
0.548750 0.203750 0.000000
0.705000 0.203750 0.000000
0.861250 0.203750 0.000000
1.000000 0.203750 0.000000
1.000000 0.203750 0.000000
1.000000 0.203750 0.000000
0.080000 0.347500 0.000000
0.236250 0.347500 0.000000
0.392500 0.347500 0.000000
0.548750 0.347500 0.000000
0.705000 0.347500 0.000000
0.861250 0.347500 0.000000
1.000000 0.347500 0.000000
1.000000 0.347500 0.000000
1.000000 0.347500 0.000000
0.080000 0.491250 0.000000
0.236250 0.491250 0.000000
0.392500 0.491250 0.000000
0.548750 0.491250 0.000000
0.705000 0.491250 0.000000
0.861250 0.491250 0.000000
1.000000 0.491250 0.000000
1.000000 0.491250 0.000000
1.000000 0.491250 0.000000
0.080000 0.635000 0.000000
0.236250 0.635000 0.000000
0.392500 0.635000 0.000000
0.548750 0.635000 0.000000
0.705000 0.635000 0.000000
0.861250 0.635000 0.000000
1.000000 0.635000 0.000000
1.000000 0.635000 0.000000
1.000000 0.635000 0.000000
0.080000 0.778750 0.000000
0.236250 0.778750 0.000000
0.392500 0.778750 0.000000
0.548750 0.778750 0.000000
0.705000 0.778750 0.000000
0.861250 0.778750 0.000000
1.000000 0.778750 0.000000
1.000000 0.778750 0.000000
1.000000 0.778750 0.000000
0.080000 0.922500 0.000000
0.236250 0.922500 0.000000
0.392500 0.922500 0.000000
0.548750 0.922500 0.000000
0.705000 0.922500 0.000000
0.861250 0.922500 0.000000
1.000000 0.922500 0.000000
1.000000 0.922500 0.000000
1.000000 0.922500 0.000000
0.080000 1.000000 0.000000
0.236250 1.000000 0.000000
0.392500 1.000000 0.000000
0.548750 1.000000 0.000000
0.705000 1.000000 0.000000
0.861250 1.000000 0.000000
1.000000 1.000000 0.000000
1.000000 1.000000 0.000000
1.000000 1.000000 0.000000
0.080000 1.000000 0.000000
0.236250 1.000000 0.000000
0.392500 1.000000 0.000000
0.548750 1.000000 0.000000
0.705000 1.000000 0.000000
0.861250 1.000000 0.000000
1.000000 1.000000 0.000000
1.000000 1.000000 0.000000
1.000000 1.000000 0.000000
0.080000 0.060000 0.072500
0.236250 0.060000 0.072500
0.392500 0.060000 0.072500
0.548750 0.060000 0.072500
0.705000 0.060000 0.072500
0.861250 0.060000 0.072500
1.000000 0.060000 0.072500
1.000000 0.060000 0.072500
1.000000 0.060000 0.072500
0.080000 0.203750 0.072500
0.236250 0.203750 0.072500
0.392500 0.203750 0.072500
0.548750 0.203750 0.072500
0.705000 0.203750 0.072500
0.861250 0.203750 0.072500
1.000000 0.203750 0.072500
1.000000 0.203750 0.072500
1.000000 0.203750 0.072500
0.080000 0.347500 0.072500
0.236250 0.347500 0.072500
0.392500 0.347500 0.072500
0.548750 0.347500 0.072500
0.705000 0.347500 0.072500
0.861250 0.347500 0.072500
1.000000 0.347500 0.072500
1.000000 0.347500 0.072500
1.000000 0.347500 0.072500
0.080000 0.491250 0.072500
0.236250 0.491250 0.072500
0.392500 0.491250 0.072500
0.548750 0.491250 0.072500
0.705000 0.491250 0.072500
0.861250 0.491250 0.072500
1.000000 0.491250 0.072500
1.000000 0.491250 0.072500
1.000000 0.491250 0.072500
0.080000 0.635000 0.072500
0.236250 0.635000 0.072500
0.392500 0.635000 0.072500
0.548750 0.635000 0.072500
0.705000 0.635000 0.072500
0.861250 0.635000 0.072500
1.000000 0.635000 0.072500
1.000000 0.635000 0.072500
1.000000 0.635000 0.072500
0.080000 0.778750 0.072500
0.236250 0.778750 0.072500
0.392500 0.778750 0.072500
0.548750 0.778750 0.072500
0.705000 0.778750 0.072500
0.861250 0.778750 0.072500
1.000000 0.778750 0.072500
1.000000 0.778750 0.072500
1.000000 0.778750 0.072500
0.080000 0.922500 0.072500
0.236250 0.922500 0.072500
0.392500 0.922500 0.072500
0.548750 0.922500 0.072500
0.705000 0.922500 0.072500
0.861250 0.922500 0.072500
1.000000 0.922500 0.072500
1.000000 0.922500 0.072500
1.000000 0.922500 0.072500
0.080000 1.000000 0.072500
0.236250 1.000000 0.072500
0.392500 1.000000 0.072500
0.548750 1.000000 0.072500
0.705000 1.000000 0.072500
0.861250 1.000000 0.072500
1.000000 1.000000 0.072500
1.000000 1.000000 0.072500
1.000000 1.000000 0.072500
0.080000 1.000000 0.072500
0.236250 1.000000 0.072500
0.392500 1.000000 0.072500
0.548750 1.000000 0.072500
0.705000 1.000000 0.072500
0.861250 1.000000 0.072500
1.000000 1.000000 0.072500
1.000000 1.000000 0.072500
1.000000 1.000000 0.072500
0.080000 0.060000 0.185000
0.236250 0.060000 0.185000
0.392500 0.060000 0.185000
0.548750 0.060000 0.185000
0.705000 0.060000 0.185000
0.861250 0.060000 0.185000
1.000000 0.060000 0.185000
1.000000 0.060000 0.185000
1.000000 0.060000 0.185000
0.080000 0.203750 0.185000
0.236250 0.203750 0.185000
0.392500 0.203750 0.185000
0.548750 0.203750 0.185000
0.705000 0.203750 0.185000
0.861250 0.203750 0.185000
1.000000 0.203750 0.185000
1.000000 0.203750 0.185000
1.000000 0.203750 0.185000
0.080000 0.347500 0.185000
0.236250 0.347500 0.185000
0.392500 0.347500 0.185000
0.548750 0.347500 0.185000
0.705000 0.347500 0.185000
0.861250 0.347500 0.185000
1.000000 0.347500 0.185000
1.000000 0.347500 0.185000
1.000000 0.347500 0.185000
0.080000 0.491250 0.185000
0.236250 0.491250 0.185000
0.392500 0.491250 0.185000
0.548750 0.491250 0.185000
0.705000 0.491250 0.185000
0.861250 0.491250 0.185000
1.000000 0.491250 0.185000
1.000000 0.491250 0.185000
1.000000 0.491250 0.185000
0.080000 0.635000 0.185000
0.236250 0.635000 0.185000
0.392500 0.635000 0.185000
0.548750 0.635000 0.185000
0.705000 0.635000 0.185000
0.861250 0.635000 0.185000
1.000000 0.635000 0.185000
1.000000 0.635000 0.185000
1.000000 0.635000 0.185000
0.080000 0.778750 0.185000
0.236250 0.778750 0.185000
0.392500 0.778750 0.185000
0.548750 0.778750 0.185000
0.705000 0.778750 0.185000
0.861250 0.778750 0.185000
1.000000 0.778750 0.185000
1.000000 0.778750 0.185000
1.000000 0.778750 0.185000
0.080000 0.922500 0.185000
0.236250 0.922500 0.185000
0.392500 0.922500 0.185000
0.548750 0.922500 0.185000
0.705000 0.922500 0.185000
0.861250 0.922500 0.185000
1.000000 0.922500 0.185000
1.000000 0.922500 0.185000
1.000000 0.922500 0.185000
0.080000 1.000000 0.185000
0.236250 1.000000 0.185000
0.392500 1.000000 0.185000
0.548750 1.000000 0.185000
0.705000 1.000000 0.185000
0.861250 1.000000 0.185000
1.000000 1.000000 0.185000
1.000000 1.000000 0.185000
1.000000 1.000000 0.185000
0.080000 1.000000 0.185000
0.236250 1.000000 0.185000
0.392500 1.000000 0.185000
0.548750 1.000000 0.185000
0.705000 1.000000 0.185000
0.861250 1.000000 0.185000
1.000000 1.000000 0.185000
1.000000 1.000000 0.185000
1.000000 1.000000 0.185000
0.080000 0.060000 0.297500
0.236250 0.060000 0.297500
0.392500 0.060000 0.297500
0.548750 0.060000 0.297500
0.705000 0.060000 0.297500
0.861250 0.060000 0.297500
1.000000 0.060000 0.297500
1.000000 0.060000 0.297500
1.000000 0.060000 0.297500
0.080000 0.203750 0.297500
0.236250 0.203750 0.297500
0.392500 0.203750 0.297500
0.548750 0.203750 0.297500
0.705000 0.203750 0.297500
0.861250 0.203750 0.297500
1.000000 0.203750 0.297500
1.000000 0.203750 0.297500
1.000000 0.203750 0.297500
0.080000 0.347500 0.297500
0.236250 0.347500 0.297500
0.392500 0.347500 0.297500
0.548750 0.347500 0.297500
0.705000 0.347500 0.297500
0.861250 0.347500 0.297500
1.000000 0.347500 0.297500
1.000000 0.347500 0.297500
1.000000 0.347500 0.297500
0.080000 0.491250 0.297500
0.236250 0.491250 0.297500
0.392500 0.491250 0.297500
0.548750 0.491250 0.297500
0.705000 0.491250 0.297500
0.861250 0.491250 0.297500
1.000000 0.491250 0.297500
1.000000 0.491250 0.297500
1.000000 0.491250 0.297500
0.080000 0.635000 0.297500
0.236250 0.635000 0.297500
0.392500 0.635000 0.297500
0.548750 0.635000 0.297500
0.705000 0.635000 0.297500
0.861250 0.635000 0.297500
1.000000 0.635000 0.297500
1.000000 0.635000 0.297500
1.000000 0.635000 0.297500
0.080000 0.778750 0.297500
0.236250 0.778750 0.297500
0.392500 0.778750 0.297500
0.548750 0.778750 0.297500
0.705000 0.778750 0.297500
0.861250 0.778750 0.297500
1.000000 0.778750 0.297500
1.000000 0.778750 0.297500
1.000000 0.778750 0.297500
0.080000 0.922500 0.297500
0.236250 0.922500 0.297500
0.392500 0.922500 0.297500
0.548750 0.922500 0.297500
0.705000 0.922500 0.297500
0.861250 0.922500 0.297500
1.000000 0.922500 0.297500
1.000000 0.922500 0.297500
1.000000 0.922500 0.297500
0.080000 1.000000 0.297500
0.236250 1.000000 0.297500
0.392500 1.000000 0.297500
0.548750 1.000000 0.297500
0.705000 1.000000 0.297500
0.861250 1.000000 0.297500
1.000000 1.000000 0.297500
1.000000 1.000000 0.297500
1.000000 1.000000 0.297500
0.080000 1.000000 0.297500
0.236250 1.000000 0.297500
0.392500 1.000000 0.297500
0.548750 1.000000 0.297500
0.705000 1.000000 0.297500
0.861250 1.000000 0.297500
1.000000 1.000000 0.297500
1.000000 1.000000 0.297500
1.000000 1.000000 0.297500
0.080000 0.060000 0.410000
0.236250 0.060000 0.410000
0.392500 0.060000 0.410000
0.548750 0.060000 0.410000
0.705000 0.060000 0.410000
0.861250 0.060000 0.410000
1.000000 0.060000 0.410000
1.000000 0.060000 0.410000
1.000000 0.060000 0.410000
0.080000 0.203750 0.410000
0.236250 0.203750 0.410000
0.392500 0.203750 0.410000
0.548750 0.203750 0.410000
0.705000 0.203750 0.410000
0.861250 0.203750 0.410000
1.000000 0.203750 0.410000
1.000000 0.203750 0.410000
1.000000 0.203750 0.410000
0.080000 0.347500 0.410000
0.236250 0.347500 0.410000
0.392500 0.347500 0.410000
0.548750 0.347500 0.410000
0.705000 0.347500 0.410000
0.861250 0.347500 0.410000
1.000000 0.347500 0.410000
1.000000 0.347500 0.410000
1.000000 0.347500 0.410000
0.080000 0.491250 0.410000
0.236250 0.491250 0.410000
0.392500 0.491250 0.410000
0.548750 0.491250 0.410000
0.705000 0.491250 0.410000
0.861250 0.491250 0.410000
1.000000 0.491250 0.410000
1.000000 0.491250 0.410000
1.000000 0.491250 0.410000
0.080000 0.635000 0.410000
0.236250 0.635000 0.410000
0.392500 0.635000 0.410000
0.548750 0.635000 0.410000
0.705000 0.635000 0.410000
0.861250 0.635000 0.410000
1.000000 0.635000 0.410000
1.000000 0.635000 0.410000
1.000000 0.635000 0.410000
0.080000 0.778750 0.410000
0.236250 0.778750 0.410000
0.392500 0.778750 0.410000
0.548750 0.778750 0.410000
0.705000 0.778750 0.410000
0.861250 0.778750 0.410000
1.000000 0.778750 0.410000
1.000000 0.778750 0.410000
1.000000 0.778750 0.410000
0.080000 0.922500 0.410000
0.236250 0.922500 0.410000
0.392500 0.922500 0.410000
0.548750 0.922500 0.410000
0.705000 0.922500 0.410000
0.861250 0.922500 0.410000
1.000000 0.922500 0.410000
1.000000 0.922500 0.410000
1.000000 0.922500 0.410000
0.080000 1.000000 0.410000
0.236250 1.000000 0.410000
0.392500 1.000000 0.410000
0.548750 1.000000 0.410000
0.705000 1.000000 0.410000
0.861250 1.000000 0.410000
1.000000 1.000000 0.410000
1.000000 1.000000 0.410000
1.000000 1.000000 0.410000
0.080000 1.000000 0.410000
0.236250 1.000000 0.410000
0.392500 1.000000 0.410000
0.548750 1.000000 0.410000
0.705000 1.000000 0.410000
0.861250 1.000000 0.410000
1.000000 1.000000 0.410000
1.000000 1.000000 0.410000
1.000000 1.000000 0.410000
0.080000 0.060000 0.522500
0.236250 0.060000 0.522500
0.392500 0.060000 0.522500
0.548750 0.060000 0.522500
0.705000 0.060000 0.522500
0.861250 0.060000 0.522500
1.000000 0.060000 0.522500
1.000000 0.060000 0.522500
1.000000 0.060000 0.522500
0.080000 0.203750 0.522500
0.236250 0.203750 0.522500
0.392500 0.203750 0.522500
0.548750 0.203750 0.522500
0.705000 0.203750 0.522500
0.861250 0.203750 0.522500
1.000000 0.203750 0.522500
1.000000 0.203750 0.522500
1.000000 0.203750 0.522500
0.080000 0.347500 0.522500
0.236250 0.347500 0.522500
0.392500 0.347500 0.522500
0.548750 0.347500 0.522500
0.705000 0.347500 0.522500
0.861250 0.347500 0.522500
1.000000 0.347500 0.522500
1.000000 0.347500 0.522500
1.000000 0.347500 0.522500
0.080000 0.491250 0.522500
0.236250 0.491250 0.522500
0.392500 0.491250 0.522500
0.548750 0.491250 0.522500
0.705000 0.491250 0.522500
0.861250 0.491250 0.522500
1.000000 0.491250 0.522500
1.000000 0.491250 0.522500
1.000000 0.491250 0.522500
0.080000 0.635000 0.522500
0.236250 0.635000 0.522500
0.392500 0.635000 0.522500
0.548750 0.635000 0.522500
0.705000 0.635000 0.522500
0.861250 0.635000 0.522500
1.000000 0.635000 0.522500
1.000000 0.635000 0.522500
1.000000 0.635000 0.522500
0.080000 0.778750 0.522500
0.236250 0.778750 0.522500
0.392500 0.778750 0.522500
0.548750 0.778750 0.522500
0.705000 0.778750 0.522500
0.861250 0.778750 0.522500
1.000000 0.778750 0.522500
1.000000 0.778750 0.522500
1.000000 0.778750 0.522500
0.080000 0.922500 0.522500
0.236250 0.922500 0.522500
0.392500 0.922500 0.522500
0.548750 0.922500 0.522500
0.705000 0.922500 0.522500
0.861250 0.922500 0.522500
1.000000 0.922500 0.522500
1.000000 0.922500 0.522500
1.000000 0.922500 0.522500
0.080000 1.000000 0.522500
0.236250 1.000000 0.522500
0.392500 1.000000 0.522500
0.548750 1.000000 0.522500
0.705000 1.000000 0.522500
0.861250 1.000000 0.522500
1.000000 1.000000 0.522500
1.000000 1.000000 0.522500
1.000000 1.000000 0.522500
0.080000 1.000000 0.522500
0.236250 1.000000 0.522500
0.392500 1.000000 0.522500
0.548750 1.000000 0.522500
0.705000 1.000000 0.522500
0.861250 1.000000 0.522500
1.000000 1.000000 0.522500
1.000000 1.000000 0.522500
1.000000 1.000000 0.522500
0.080000 0.060000 0.635000
0.236250 0.060000 0.635000
0.392500 0.060000 0.635000
0.548750 0.060000 0.635000
0.705000 0.060000 0.635000
0.861250 0.060000 0.635000
1.000000 0.060000 0.635000
1.000000 0.060000 0.635000
1.000000 0.060000 0.635000
0.080000 0.203750 0.635000
0.236250 0.203750 0.635000
0.392500 0.203750 0.635000
0.548750 0.203750 0.635000
0.705000 0.203750 0.635000
0.861250 0.203750 0.635000
1.000000 0.203750 0.635000
1.000000 0.203750 0.635000
1.000000 0.203750 0.635000
0.080000 0.347500 0.635000
0.236250 0.347500 0.635000
0.392500 0.347500 0.635000
0.548750 0.347500 0.635000
0.705000 0.347500 0.635000
0.861250 0.347500 0.635000
1.000000 0.347500 0.635000
1.000000 0.347500 0.635000
1.000000 0.347500 0.635000
0.080000 0.491250 0.635000
0.236250 0.491250 0.635000
0.392500 0.491250 0.635000
0.548750 0.491250 0.635000
0.705000 0.491250 0.635000
0.861250 0.491250 0.635000
1.000000 0.491250 0.635000
1.000000 0.491250 0.635000
1.000000 0.491250 0.635000
0.080000 0.635000 0.635000
0.236250 0.635000 0.635000
0.392500 0.635000 0.635000
0.548750 0.635000 0.635000
0.705000 0.635000 0.635000
0.861250 0.635000 0.635000
1.000000 0.635000 0.635000
1.000000 0.635000 0.635000
1.000000 0.635000 0.635000
0.080000 0.778750 0.635000
0.236250 0.778750 0.635000
0.392500 0.778750 0.635000
0.548750 0.778750 0.635000
0.705000 0.778750 0.635000
0.861250 0.778750 0.635000
1.000000 0.778750 0.635000
1.000000 0.778750 0.635000
1.000000 0.778750 0.635000
0.080000 0.922500 0.635000
0.236250 0.922500 0.635000
0.392500 0.922500 0.635000
0.548750 0.922500 0.635000
0.705000 0.922500 0.635000
0.861250 0.922500 0.635000
1.000000 0.922500 0.635000
1.000000 0.922500 0.635000
1.000000 0.922500 0.635000
0.080000 1.000000 0.635000
0.236250 1.000000 0.635000
0.392500 1.000000 0.635000
0.548750 1.000000 0.635000
0.705000 1.000000 0.635000
0.861250 1.000000 0.635000
1.000000 1.000000 0.635000
1.000000 1.000000 0.635000
1.000000 1.000000 0.635000
0.080000 1.000000 0.635000
0.236250 1.000000 0.635000
0.392500 1.000000 0.635000
0.548750 1.000000 0.635000
0.705000 1.000000 0.635000
0.861250 1.000000 0.635000
1.000000 1.000000 0.635000
1.000000 1.000000 0.635000
1.000000 1.000000 0.635000
0.080000 0.060000 0.747500
0.236250 0.060000 0.747500
0.392500 0.060000 0.747500
0.548750 0.060000 0.747500
0.705000 0.060000 0.747500
0.861250 0.060000 0.747500
1.000000 0.060000 0.747500
1.000000 0.060000 0.747500
1.000000 0.060000 0.747500
0.080000 0.203750 0.747500
0.236250 0.203750 0.747500
0.392500 0.203750 0.747500
0.548750 0.203750 0.747500
0.705000 0.203750 0.747500
0.861250 0.203750 0.747500
1.000000 0.203750 0.747500
1.000000 0.203750 0.747500
1.000000 0.203750 0.747500
0.080000 0.347500 0.747500
0.236250 0.347500 0.747500
0.392500 0.347500 0.747500
0.548750 0.347500 0.747500
0.705000 0.347500 0.747500
0.861250 0.347500 0.747500
1.000000 0.347500 0.747500
1.000000 0.347500 0.747500
1.000000 0.347500 0.747500
0.080000 0.491250 0.747500
0.236250 0.491250 0.747500
0.392500 0.491250 0.747500
0.548750 0.491250 0.747500
0.705000 0.491250 0.747500
0.861250 0.491250 0.747500
1.000000 0.491250 0.747500
1.000000 0.491250 0.747500
1.000000 0.491250 0.747500
0.080000 0.635000 0.747500
0.236250 0.635000 0.747500
0.392500 0.635000 0.747500
0.548750 0.635000 0.747500
0.705000 0.635000 0.747500
0.861250 0.635000 0.747500
1.000000 0.635000 0.747500
1.000000 0.635000 0.747500
1.000000 0.635000 0.747500
0.080000 0.778750 0.747500
0.236250 0.778750 0.747500
0.392500 0.778750 0.747500
0.548750 0.778750 0.747500
0.705000 0.778750 0.747500
0.861250 0.778750 0.747500
1.000000 0.778750 0.747500
1.000000 0.778750 0.747500
1.000000 0.778750 0.747500
0.080000 0.922500 0.747500
0.236250 0.922500 0.747500
0.392500 0.922500 0.747500
0.548750 0.922500 0.747500
0.705000 0.922500 0.747500
0.861250 0.922500 0.747500
1.000000 0.922500 0.747500
1.000000 0.922500 0.747500
1.000000 0.922500 0.747500
0.080000 1.000000 0.747500
0.236250 1.000000 0.747500
0.392500 1.000000 0.747500
0.548750 1.000000 0.747500
0.705000 1.000000 0.747500
0.861250 1.000000 0.747500
1.000000 1.000000 0.747500
1.000000 1.000000 0.747500
1.000000 1.000000 0.747500
0.080000 1.000000 0.747500
0.236250 1.000000 0.747500
0.392500 1.000000 0.747500
0.548750 1.000000 0.747500
0.705000 1.000000 0.747500
0.861250 1.000000 0.747500
1.000000 1.000000 0.747500
1.000000 1.000000 0.747500
1.000000 1.000000 0.747500
0.080000 0.060000 0.860000
0.236250 0.060000 0.860000
0.392500 0.060000 0.860000
0.548750 0.060000 0.860000
0.705000 0.060000 0.860000
0.861250 0.060000 0.860000
1.000000 0.060000 0.860000
1.000000 0.060000 0.860000
1.000000 0.060000 0.860000
0.080000 0.203750 0.860000
0.236250 0.203750 0.860000
0.392500 0.203750 0.860000
0.548750 0.203750 0.860000
0.705000 0.203750 0.860000
0.861250 0.203750 0.860000
1.000000 0.203750 0.860000
1.000000 0.203750 0.860000
1.000000 0.203750 0.860000
0.080000 0.347500 0.860000
0.236250 0.347500 0.860000
0.392500 0.347500 0.860000
0.548750 0.347500 0.860000
0.705000 0.347500 0.860000
0.861250 0.347500 0.860000
1.000000 0.347500 0.860000
1.000000 0.347500 0.860000
1.000000 0.347500 0.860000
0.080000 0.491250 0.860000
0.236250 0.491250 0.860000
0.392500 0.491250 0.860000
0.548750 0.491250 0.860000
0.705000 0.491250 0.860000
0.861250 0.491250 0.860000
1.000000 0.491250 0.860000
1.000000 0.491250 0.860000
1.000000 0.491250 0.860000
0.080000 0.635000 0.860000
0.236250 0.635000 0.860000
0.392500 0.635000 0.860000
0.548750 0.635000 0.860000
0.705000 0.635000 0.860000
0.861250 0.635000 0.860000
1.000000 0.635000 0.860000
1.000000 0.635000 0.860000
1.000000 0.635000 0.860000
0.080000 0.778750 0.860000
0.236250 0.778750 0.860000
0.392500 0.778750 0.860000
0.548750 0.778750 0.860000
0.705000 0.778750 0.860000
0.861250 0.778750 0.860000
1.000000 0.778750 0.860000
1.000000 0.778750 0.860000
1.000000 0.778750 0.860000
0.080000 0.922500 0.860000
0.236250 0.922500 0.860000
0.392500 0.922500 0.860000
0.548750 0.922500 0.860000
0.705000 0.922500 0.860000
0.861250 0.922500 0.860000
1.000000 0.922500 0.860000
1.000000 0.922500 0.860000
1.000000 0.922500 0.860000
0.080000 1.000000 0.860000
0.236250 1.000000 0.860000
0.392500 1.000000 0.860000
0.548750 1.000000 0.860000
0.705000 1.000000 0.860000
0.861250 1.000000 0.860000
1.000000 1.000000 0.860000
1.000000 1.000000 0.860000
1.000000 1.000000 0.860000
0.080000 1.000000 0.860000
0.236250 1.000000 0.860000
0.392500 1.000000 0.860000
0.548750 1.000000 0.860000
0.705000 1.000000 0.860000
0.861250 1.000000 0.860000
1.000000 1.000000 0.860000
1.000000 1.000000 0.860000
1.000000 1.000000 0.860000
