app/src/main/assets/luts/ghibli_warmth.cube
# ApexStudio filter: ghibli_warmth
LUT_3D_SIZE 17
DOMAIN_MIN 0.0 0.0 0.0
DOMAIN_MAX 1.0 1.0 1.0
0.080000 0.060000 0.000000
0.158125 0.060000 0.000000
0.236250 0.060000 0.000000
0.314375 0.060000 0.000000
0.392500 0.060000 0.000000
0.470625 0.060000 0.000000
0.548750 0.060000 0.000000
0.626875 0.060000 0.000000
0.705000 0.060000 0.000000
0.783125 0.060000 0.000000
0.861250 0.060000 0.000000
0.939375 0.060000 0.000000
1.000000 0.060000 0.000000
1.000000 0.060000 0.000000
1.000000 0.060000 0.000000
1.000000 0.060000 0.000000
1.000000 0.060000 0.000000
0.080000 0.131875 0.000000
0.158125 0.131875 0.000000
0.236250 0.131875 0.000000
0.314375 0.131875 0.000000
0.392500 0.131875 0.000000
0.470625 0.131875 0.000000
0.548750 0.131875 0.000000
0.626875 0.131875 0.000000
0.705000 0.131875 0.000000
0.783125 0.131875 0.000000
0.861250 0.131875 0.000000
0.939375 0.131875 0.000000
1.000000 0.131875 0.000000
1.000000 0.131875 0.000000
1.000000 0.131875 0.000000
1.000000 0.131875 0.000000
1.000000 0.131875 0.000000
0.080000 0.203750 0.000000
0.158125 0.203750 0.000000
0.236250 0.203750 0.000000
0.314375 0.203750 0.000000
0.392500 0.203750 0.000000
0.470625 0.203750 0.000000
0.548750 0.203750 0.000000
0.626875 0.203750 0.000000
0.705000 0.203750 0.000000
0.783125 0.203750 0.000000
0.861250 0.203750 0.000000
0.939375 0.203750 0.000000
1.000000 0.203750 0.000000
1.000000 0.203750 0.000000
1.000000 0.203750 0.000000
1.000000 0.203750 0.000000
1.000000 0.203750 0.000000
0.080000 0.275625 0.000000
0.158125 0.275625 0.000000
0.236250 0.275625 0.000000
0.314375 0.275625 0.000000
0.392500 0.275625 0.000000
0.470625 0.275625 0.000000
0.548750 0.275625 0.000000
0.626875 0.275625 0.000000
0.705000 0.275625 0.000000
0.783125 0.275625 0.000000
0.861250 0.275625 0.000000
0.939375 0.275625 0.000000
1.000000 0.275625 0.000000
1.000000 0.275625 0.000000
1.000000 0.275625 0.000000
1.000000 0.275625 0.000000
1.000000 0.275625 0.000000
0.080000 0.347500 0.000000
0.158125 0.347500 0.000000
0.236250 0.347500 0.000000
0.314375 0.347500 0.000000
0.392500 0.347500 0.000000
0.470625 0.347500 0.000000
0.548750 0.347500 0.000000
0.626875 0.347500 0.000000
0.705000 0.347500 0.000000
0.783125 0.347500 0.000000
0.861250 0.347500 0.000000
0.939375 0.347500 0.000000
1.000000 0.347500 0.000000
1.000000 0.347500 0.000000
1.000000 0.347500 0.000000
1.000000 0.347500 0.000000
1.000000 0.347500 0.000000
0.080000 0.419375 0.000000
0.158125 0.419375 0.000000
0.236250 0.419375 0.000000
0.314375 0.419375 0.000000
0.392500 0.419375 0.000000
0.470625 0.419375 0.000000
0.548750 0.419375 0.000000
0.626875 0.419375 0.000000
0.705000 0.419375 0.000000
0.783125 0.419375 0.000000
0.861250 0.419375 0.000000
0.939375 0.419375 0.000000
1.000000 0.419375 0.000000
1.000000 0.419375 0.000000
1.000000 0.419375 0.000000
1.000000 0.419375 0.000000
1.000000 0.419375 0.000000
0.080000 0.491250 0.000000
0.158125 0.491250 0.000000
0.236250 0.491250 0.000000
0.314375 0.491250 0.000000
0.392500 0.491250 0.000000
0.470625 0.491250 0.000000
0.548750 0.491250 0.000000
0.626875 0.491250 0.000000
0.705000 0.491250 0.000000
0.783125 0.491250 0.000000
0.861250 0.491250 0.000000
0.939375 0.491250 0.000000
1.000000 0.491250 0.000000
1.000000 0.491250 0.000000
1.000000 0.491250 0.000000
1.000000 0.491250 0.000000
1.000000 0.491250 0.000000
0.080000 0.563125 0.000000
0.158125 0.563125 0.000000
0.236250 0.563125 0.000000
0.314375 0.563125 0.000000
0.392500 0.563125 0.000000
0.470625 0.563125 0.000000
0.548750 0.563125 0.000000
0.626875 0.563125 0.000000
0.705000 0.563125 0.000000
0.783125 0.563125 0.000000
0.861250 0.563125 0.000000
0.939375 0.563125 0.000000
1.000000 0.563125 0.000000
1.000000 0.563125 0.000000
1.000000 0.563125 0.000000
1.000000 0.563125 0.000000
1.000000 0.563125 0.000000
0.080000 0.635000 0.000000
0.158125 0.635000 0.000000
0.236250 0.635000 0.000000
0.314375 0.635000 0.000000
0.392500 0.635000 0.000000
0.470625 0.635000 0.000000
0.548750 0.635000 0.000000
0.626875 0.635000 0.000000
0.705000 0.635000 0.000000
0.783125 0.635000 0.000000
0.861250 0.635000 0.000000
0.939375 0.635000 0.000000
1.000000 0.635000 0.000000
1.000000 0.635000 0.000000
1.000000 0.635000 0.000000
1.000000 0.635000 0.000000
1.000000 0.635000 0.000000
0.080000 0.706875 0.000000
0.158125 0.706875 0.000000
0.236250 0.706875 0.000000
0.314375 0.706875 0.000000
0.392500 0.706875 0.000000
0.470625 0.706875 0.000000
0.548750 0.706875 0.000000
0.626875 0.706875 0.000000
0.705000 0.706875 0.000000
0.783125 0.706875 0.000000
0.861250 0.706875 0.000000
0.939375 0.706875 0.000000
1.000000 0.706875 0.000000
1.000000 0.706875 0.000000
1.000000 0.706875 0.000000
1.000000 0.706875 0.000000
1.000000 0.706875 0.000000
0.080000 0.778750 0.000000
0.158125 0.778750 0.000000
0.236250 0.778750 0.000000
0.314375 0.778750 0.000000
0.392500 0.778750 0.000000
0.470625 0.778750 0.000000
0.548750 0.778750 0.000000
0.626875 0.778750 0.000000
0.705000 0.778750 0.000000
0.783125 0.778750 0.000000
0.861250 0.778750 0.000000
0.939375 0.778750 0.000000
1.000000 0.778750 0.000000
1.000000 0.778750 0.000000
1.000000 0.778750 0.000000
1.000000 0.778750 0.000000
1.000000 0.778750 0.000000
0.080000 0.850625 0.000000
0.158125 0.850625 0.000000
0.236250 0.850625 0.000000
0.314375 0.850625 0.000000
0.392500 0.850625 0.000000
0.470625 0.850625 0.000000
0.548750 0.850625 0.000000
0.626875 0.850625 0.000000
0.705000 0.850625 0.000000
0.783125 0.850625 0.000000
0.861250 0.850625 0.000000
0.939375 0.850625 0.000000
1.000000 0.850625 0.000000
1.000000 0.850625 0.000000
1.000000 0.850625 0.000000
1.000000 0.850625 0.000000
1.000000 0.850625 0.000000
0.080000 0.922500 0.000000
0.158125 0.922500 0.000000
0.236250 0.922500 0.000000
0.314375 0.922500 0.000000
0.392500 0.922500 0.000000
0.470625 0.922500 0.000000
0.548750 0.922500 0.000000
0.626875 0.922500 0.000000
0.705000 0.922500 0.000000
0.783125 0.922500 0.000000
0.861250 0.922500 0.000000
0.939375 0.922500 0.000000
1.000000 0.922500 0.000000
1.000000 0.922500 0.000000
1.000000 0.922500 0.000000
1.000000 0.922500 0.000000
1.000000 0.922500 0.000000
0.080000 0.994375 0.000000
0.158125 0.994375 0.000000
0.236250 0.994375 0.000000
0.314375 0.994375 0.000000
0.392500 0.994375 0.000000
0.470625 0.994375 0.000000
0.548750 0.994375 0.000000
0.626875 0.994375 0.000000
0.705000 0.994375 0.000000
0.783125 0.994375 0.000000
0.861250 0.994375 0.000000
0.939375 0.994375 0.000000
1.000000 0.994375 0.000000
1.000000 0.994375 0.000000
1.000000 0.994375 0.000000
1.000000 0.994375 0.000000
1.000000 0.994375 0.000000
0.080000 1.000000 0.000000
0.158125 1.000000 0.000000
0.236250 1.000000 0.000000
0.314375 1.000000 0.000000
0.392500 1.000000 0.000000
0.470625 1.000000 0.000000
0.548750 1.000000 0.000000
0.626875 1.000000 0.000000
0.705000 1.000000 0.000000
0.783125 1.000000 0.000000
0.861250 1.000000 0.000000
0.939375 1.000000 0.000000
1.000000 1.000000 0.000000
1.000000 1.000000 0.000000
1.000000 1.000000 0.000000
1.000000 1.000000 0.000000
1.000000 1.000000 0.000000
0.080000 1.000000 0.000000
0.158125 1.000000 0.000000
0.236250 1.000000 0.000000
0.314375 1.000000 0.000000
0.392500 1.000000 0.000000
0.470625 1.000000 0.000000
0.548750 1.000000 0.000000
0.626875 1.000000 0.000000
0.705000 1.000000 0.000000
0.783125 1.000000 0.000000
0.861250 1.000000 0.000000
0.939375 1.000000 0.000000
1.000000 1.000000 0.000000
1.000000 1.000000 0.000000
1.000000 1.000000 0.000000
1.000000 1.000000 0.000000
1.000000 1.000000 0.000000
0.080000 1.000000 0.000000
0.158125 1.000000 0.000000
0.236250 1.000000 0.000000
0.314375 1.000000 0.000000
0.392500 1.000000 0.000000
0.470625 1.000000 0.000000
0.548750 1.000000 0.000000
0.626875 1.000000 0.000000
0.705000 1.000000 0.000000
0.783125 1.000000 0.000000
0.861250 1.000000 0.000000
0.939375 1.000000 0.000000
1.000000 1.000000 0.000000
1.000000 1.000000 0.000000
1.000000 1.000000 0.000000
1.000000 1.000000 0.000000
1.000000 1.000000 0.000000
0.080000 0.060000 0.016250
0.158125 0.060000 0.016250
0.236250 0.060000 0.016250
0.314375 0.060000 0.016250
0.392500 0.060000 0.016250
0.470625 0.060000 0.016250
0.548750 0.060000 0.016250
0.626875 0.060000 0.016250
0.705000 0.060000 0.016250
0.783125 0.060000 0.016250
0.861250 0.060000 0.016250
0.939375 0.060000 0.016250
1.000000 0.060000 0.016250
1.000000 0.060000 0.016250
1.000000 0.060000 0.016250
1.000000 0.060000 0.016250
1.000000 0.060000 0.016250
0.080000 0.131875 0.016250
0.158125 0.131875 0.016250
0.236250 0.131875 0.016250
0.314375 0.131875 0.016250
0.392500 0.131875 0.016250
0.470625 0.131875 0.016250
0.548750 0.131875 0.016250
0.626875 0.131875 0.016250
0.705000 0.131875 0.016250
0.783125 0.131875 0.016250
0.861250 0.131875 0.016250
0.939375 0.131875 0.016250
1.000000 0.131875 0.016250
1.000000 0.131875 0.016250
1.000000 0.131875 0.016250
1.000000 0.131875 0.016250
1.000000 0.131875 0.016250
0.080000 0.203750 0.016250
0.158125 0.203750 0.016250
0.236250 0.203750 0.016250
0.314375 0.203750 0.016250
0.392500 0.203750 0.016250
0.470625 0.203750 0.016250
0.548750 0.203750 0.016250
0.626875 0.203750 0.016250
0.705000 0.203750 0.016250
0.783125 0.203750 0.016250
0.861250 0.203750 0.016250
0.939375 0.203750 0.016250
1.000000 0.203750 0.016250
1.000000 0.203750 0.016250
1.000000 0.203750 0.016250
1.000000 0.203750 0.016250
1.000000 0.203750 0.016250
0.080000 0.275625 0.016250
0.158125 0.275625 0.016250
0.236250 0.275625 0.016250
0.314375 0.275625 0.016250
0.392500 0.275625 0.016250
0.470625 0.275625 0.016250
0.548750 0.275625 0.016250
0.626875 0.275625 0.016250
0.705000 0.275625 0.016250
0.783125 0.275625 0.016250
0.861250 0.275625 0.016250
0.939375 0.275625 0.016250
1.000000 0.275625 0.016250
1.000000 0.275625 0.016250
1.000000 0.275625 0.016250
1.000000 0.275625 0.016250
1.000000 0.275625 0.016250
0.080000 0.347500 0.016250
0.158125 0.347500 0.016250
0.236250 0.347500 0.016250
0.314375 0.347500 0.016250
0.392500 0.347500 0.016250
0.470625 0.347500 0.016250
0.548750 0.347500 0.016250
0.626875 0.347500 0.016250
0.705000 0.347500 0.016250
0.783125 0.347500 0.016250
0.861250 0.347500 0.016250
0.939375 0.347500 0.016250
1.000000 0.347500 0.016250
1.000000 0.347500 0.016250
1.000000 0.347500 0.016250
1.000000 0.347500 0.016250
1.000000 0.347500 0.016250
0.080000 0.419375 0.016250
0.158125 0.419375 0.016250
0.236250 0.419375 0.016250
0.314375 0.419375 0.016250
0.392500 0.419375 0.016250
0.470625 0.419375 0.016250
0.548750 0.419375 0.016250
0.626875 0.419375 0.016250
0.705000 0.419375 0.016250
0.783125 0.419375 0.016250
0.861250 0.419375 0.016250
0.939375 0.419375 0.016250
1.000000 0.419375 0.016250
1.000000 0.419375 0.016250
1.000000 0.419375 0.016250
1.000000 0.419375 0.016250
1.000000 0.419375 0.016250
0.080000 0.491250 0.016250
0.158125 0.491250 0.016250
0.236250 0.491250 0.016250
0.314375 0.491250 0.016250
0.392500 0.491250 0.016250
0.470625 0.491250 0.016250
0.548750 0.491250 0.016250
0.626875 0.491250 0.016250
0.705000 0.491250 0.016250
0.783125 0.491250 0.016250
0.861250 0.491250 0.016250
0.939375 0.491250 0.016250
1.000000 0.491250 0.016250
1.000000 0.491250 0.016250
1.000000 0.491250 0.016250
1.000000 0.491250 0.016250
1.000000 0.491250 0.016250
0.080000 0.563125 0.016250
0.158125 0.563125 0.016250
0.236250 0.563125 0.016250
0.314375 0.563125 0.016250
0.392500 0.563125 0.016250
0.470625 0.563125 0.016250
0.548750 0.563125 0.016250
0.626875 0.563125 0.016250
0.705000 0.563125 0.016250
0.783125 0.563125 0.016250
0.861250 0.563125 0.016250
0.939375 0.563125 0.016250
1.000000 0.563125 0.016250
1.000000 0.563125 0.016250
1.000000 0.563125 0.016250
1.000000 0.563125 0.016250
1.000000 0.563125 0.016250
0.080000 0.635000 0.016250
0.158125 0.635000 0.016250
0.236250 0.635000 0.016250
0.314375 0.635000 0.016250
0.392500 0.635000 0.016250
0.470625 0.635000 0.016250
0.548750 0.635000 0.016250
0.626875 0.635000 0.016250
0.705000 0.635000 0.016250
0.783125 0.635000 0.016250
0.861250 0.635000 0.016250
0.939375 0.635000 0.016250
1.000000 0.635000 0.016250
1.000000 0.635000 0.016250
1.000000 0.635000 0.016250
1.000000 0.635000 0.016250
1.000000 0.635000 0.016250
0.080000 0.706875 0.016250
0.158125 0.706875 0.016250
0.236250 0.706875 0.016250
0.314375 0.706875 0.016250
0.392500 0.706875 0.016250
0.470625 0.706875 0.016250
0.548750 0.706875 0.016250
0.626875 0.706875 0.016250
0.705000 0.706875 0.016250
0.783125 0.706875 0.016250
0.861250 0.706875 0.016250
0.939375 0.706875 0.016250
1.000000 0.706875 0.016250
1.000000 0.706875 0.016250
1.000000 0.706875 0.016250
1.000000 0.706875 0.016250
1.000000 0.706875 0.016250
0.080000 0.778750 0.016250
0.158125 0.778750 0.016250
0.236250 0.778750 0.016250
0.314375 0.778750 0.016250
0.392500 0.778750 0.016250
0.470625 0.778750 0.016250
0.548750 0.778750 0.016250
0.626875 0.778750 0.016250
0.705000 0.778750 0.016250
0.783125 0.778750 0.016250
0.861250 0.778750 0.016250
0.939375 0.778750 0.016250
1.000000 0.778750 0.016250
1.000000 0.778750 0.016250
1.000000 0.778750 0.016250
1.000000 0.778750 0.016250
1.000000 0.778750 0.016250
0.080000 0.850625 0.016250
0.158125 0.850625 0.016250
0.236250 0.850625 0.016250
0.314375 0.850625 0.016250
0.392500 0.850625 0.016250
0.470625 0.850625 0.016250
0.548750 0.850625 0.016250
0.626875 0.850625 0.016250
0.705000 0.850625 0.016250
0.783125 0.850625 0.016250
0.861250 0.850625 0.016250
0.939375 0.850625 0.016250
1.000000 0.850625 0.016250
1.000000 0.850625 0.016250
1.000000 0.850625 0.016250
1.000000 0.850625 0.016250
1.000000 0.850625 0.016250
0.080000 0.922500 0.016250
0.158125 0.922500 0.016250
0.236250 0.922500 0.016250
0.314375 0.922500 0.016250
0.392500 0.922500 0.016250
0.470625 0.922500 0.016250
0.548750 0.922500 0.016250
0.626875 0.922500 0.016250
0.705000 0.922500 0.016250
0.783125 0.922500 0.016250
0.861250 0.922500 0.016250
0.939375 0.922500 0.016250
1.000000 0.922500 0.016250
1.000000 0.922500 0.016250
1.000000 0.922500 0.016250
1.000000 0.922500 0.016250
1.000000 0.922500 0.016250
0.080000 0.994375 0.016250
0.158125 0.994375 0.016250
0.236250 0.994375 0.016250
0.314375 0.994375 0.016250
0.392500 0.994375 0.016250
0.470625 0.994375 0.016250
0.548750 0.994375 0.016250
0.626875 0.994375 0.016250
0.705000 0.994375 0.016250
0.783125 0.994375 0.016250
0.861250 0.994375 0.016250
0.939375 0.994375 0.016250
1.000000 0.994375 0.016250
1.000000 0.994375 0.016250
1.000000 0.994375 0.016250
1.000000 0.994375 0.016250
1.000000 0.994375 0.016250
0.080000 1.000000 0.016250
0.158125 1.000000 0.016250
0.236250 1.000000 0.016250
0.314375 1.000000 0.016250
0.392500 1.000000 0.016250
0.470625 1.000000 0.016250
0.548750 1.000000 0.016250
0.626875 1.000000 0.016250
0.705000 1.000000 0.016250
0.783125 1.000000 0.016250
0.861250 1.000000 0.016250
0.939375 1.000000 0.016250
1.000000 1.000000 0.016250
1.000000 1.000000 0.016250
1.000000 1.000000 0.016250
1.000000 1.000000 0.016250
1.000000 1.000000 0.016250
0.080000 1.000000 0.016250
0.158125 1.000000 0.016250
0.236250 1.000000 0.016250
0.314375 1.000000 0.016250
0.392500 1.000000 0.016250
0.470625 1.000000 0.016250
0.548750 1.000000 0.016250
0.626875 1.000000 0.016250
0.705000 1.000000 0.016250
0.783125 1.000000 0.016250
0.861250 1.000000 0.016250
0.939375 1.000000 0.016250
1.000000 1.000000 0.016250
1.000000 1.000000 0.016250
1.000000 1.000000 0.016250
1.000000 1.000000 0.016250
1.000000 1.000000 0.016250
0.080000 1.000000 0.016250
0.158125 1.000000 0.016250
0.236250 1.000000 0.016250
0.314375 1.000000 0.016250
0.392500 1.000000 0.016250
0.470625 1.000000 0.016250
0.548750 1.000000 0.016250
0.626875 1.000000 0.016250
0.705000 1.000000 0.016250
0.783125 1.000000 0.016250
0.861250 1.000000 0.016250
0.939375 1.000000 0.016250
1.000000 1.000000 0.016250
1.000000 1.000000 0.016250
1.000000 1.000000 0.016250
1.000000 1.000000 0.016250
1.000000 1.000000 0.016250
0.080000 0.060000 0.072500
0.158125 0.060000 0.072500
0.236250 0.060000 0.072500
0.314375 0.060000 0.072500
0.392500 0.060000 0.072500
0.470625 0.060000 0.072500
0.548750 0.060000 0.072500
0.626875 0.060000 0.072500
0.705000 0.060000 0.072500
0.783125 0.060000 0.072500
0.861250 0.060000 0.072500
0.939375 0.060000 0.072500
1.000000 0.060000 0.072500
1.000000 0.060000 0.072500
1.000000 0.060000 0.072500
1.000000 0.060000 0.072500
1.000000 0.060000 0.072500
0.080000 0.131875 0.072500
0.158125 0.131875 0.072500
0.236250 0.131875 0.072500
0.314375 0.131875 0.072500
0.392500 0.131875 0.072500
0.470625 0.131875 0.072500
0.548750 0.131875 0.072500
0.626875 0.131875 0.072500
0.705000 0.131875 0.072500
0.783125 0.131875 0.072500
0.861250 0.131875 0.072500
0.939375 0.131875 0.072500
1.000000 0.131875 0.072500
1.000000 0.131875 0.072500
1.000000 0.131875 0.072500
1.000000 0.131875 0.072500
1.000000 0.131875 0.072500
0.080000 0.203750 0.072500
0.158125 0.203750 0.072500
0.236250 0.203750 0.072500
0.314375 0.203750 0.072500
0.392500 0.203750 0.072500
0.470625 0.203750 0.072500
0.548750 0.203750 0.072500
0.626875 0.203750 0.072500
0.705000 0.203750 0.072500
0.783125 0.203750 0.072500
0.861250 0.203750 0.072500
0.939375 0.203750 0.072500
1.000000 0.203750 0.072500
1.000000 0.203750 0.072500
1.000000 0.203750 0.072500
1.000000 0.203750 0.072500
1.000000 0.203750 0.072500
0.080000 0.275625 0.072500
0.158125 0.275625 0.072500
0.236250 0.275625 0.072500
0.314375 0.275625 0.072500
0.392500 0.275625 0.072500
0.470625 0.275625 0.072500
0.548750 0.275625 0.072500
0.626875 0.275625 0.072500
0.705000 0.275625 0.072500
0.783125 0.275625 0.072500
0.861250 0.275625 0.072500
0.939375 0.275625 0.072500
1.000000 0.275625 0.072500
1.000000 0.275625 0.072500
1.000000 0.275625 0.072500
1.000000 0.275625 0.072500
1.000000 0.275625 0.072500
0.080000 0.347500 0.072500
0.158125 0.347500 0.072500
0.236250 0.347500 0.072500
0.314375 0.347500 0.072500
0.392500 0.347500 0.072500
0.470625 0.347500 0.072500
0.548750 0.347500 0.072500
0.626875 0.347500 0.072500
0.705000 0.347500 0.072500
0.783125 0.347500 0.072500
0.861250 0.347500 0.072500
0.939375 0.347500 0.072500
1.000000 0.347500 0.072500
1.000000 0.347500 0.072500
1.000000 0.347500 0.072500
1.000000 0.347500 0.072500
1.000000 0.347500 0.072500
0.080000 0.419375 0.072500
0.158125 0.419375 0.072500
0.236250 0.419375 0.072500
0.314375 0.419375 0.072500
0.392500 0.419375 0.072500
0.470625 0.419375 0.072500
0.548750 0.419375 0.072500
0.626875 0.419375 0.072500
0.705000 0.419375 0.072500
0.783125 0.419375 0.072500
0.861250 0.419375 0.072500
0.939375 0.419375 0.072500
1.000000 0.419375 0.072500
1.000000 0.419375 0.072500
1.000000 0.419375 0.072500
1.000000 0.419375 0.072500
1.000000 0.419375 0.072500
0.080000 0.491250 0.072500
0.158125 0.491250 0.072500
0.236250 0.491250 0.072500
0.314375 0.491250 0.072500
0.392500 0.491250 0.072500
0.470625 0.491250 0.072500
0.548750 0.491250 0.072500
0.626875 0.491250 0.072500
0.705000 0.491250 0.072500
0.783125 0.491250 0.072500
0.861250 0.491250 0.072500
0.939375 0.491250 0.072500
1.000000 0.491250 0.072500
1.000000 0.491250 0.072500
1.000000 0.491250 0.072500
1.000000 0.491250 0.072500
1.000000 0.491250 0.072500
0.080000 0.563125 0.072500
0.158125 0.563125 0.072500
0.236250 0.563125 0.072500
0.314375 0.563125 0.072500
0.392500 0.563125 0.072500
0.470625 0.563125 0.072500
0.548750 0.563125 0.072500
0.626875 0.563125 0.072500
0.705000 0.563125 0.072500
0.783125 0.563125 0.072500
0.861250 0.563125 0.072500
0.939375 0.563125 0.072500
1.000000 0.563125 0.072500
1.000000 0.563125 0.072500
1.000000 0.563125 0.072500
1.000000 0.563125 0.072500
1.000000 0.563125 0.072500
0.080000 0.635000 0.072500
0.158125 0.635000 0.072500
0.236250 0.635000 0.072500
0.314375 0.635000 0.072500
0.392500 0.635000 0.072500
0.470625 0.635000 0.072500
0.548750 0.635000 0.072500
0.626875 0.635000 0.072500
0.705000 0.635000 0.072500
0.783125 0.635000 0.072500
0.861250 0.635000 0.072500
0.939375 0.635000 0.072500
1.000000 0.635000 0.072500
1.000000 0.635000 0.072500
1.000000 0.635000 0.072500
1.000000 0.635000 0.072500
1.000000 0.635000 0.072500
0.080000 0.706875 0.072500
0.158125 0.706875 0.072500
0.236250 0.706875 0.072500
0.314375 0.706875 0.072500
0.392500 0.706875 0.072500
0.470625 0.706875 0.072500
0.548750 0.706875 0.072500
0.626875 0.706875 0.072500
0.705000 0.706875 0.072500
0.783125 0.706875 0.072500
0.861250 0.706875 0.072500
0.939375 0.706875 0.072500
1.000000 0.706875 0.072500
1.000000 0.706875 0.072500
1.000000 0.706875 0.072500
1.000000 0.706875 0.072500
1.000000 0.706875 0.072500
0.080000 0.778750 0.072500
0.158125 0.778750 0.072500
0.236250 0.778750 0.072500
0.314375 0.778750 0.072500
0.392500 0.778750 0.072500
0.470625 0.778750 0.072500
0.548750 0.778750 0.072500
0.626875 0.778750 0.072500
0.705000 0.778750 0.072500
0.783125 0.778750 0.072500
0.861250 0.778750 0.072500
0.939375 0.778750 0.072500
1.000000 0.778750 0.072500
1.000000 0.778750 0.072500
1.000000 0.778750 0.072500
1.000000 0.778750 0.072500
1.000000 0.778750 0.072500
0.080000 0.850625 0.072500
0.158125 0.850625 0.072500
0.236250 0.850625 0.072500
0.314375 0.850625 0.072500
0.392500 0.850625 0.072500
0.470625 0.850625 0.072500
0.548750 0.850625 0.072500
0.626875 0.850625 0.072500
0.705000 0.850625 0.072500
0.783125 0.850625 0.072500
0.861250 0.850625 0.072500
0.939375 0.850625 0.072500
1.000000 0.850625 0.072500
1.000000 0.850625 0.072500
1.000000 0.850625 0.072500
1.000000 0.850625 0.072500
1.000000 0.850625 0.072500
0.080000 0.922500 0.072500
0.158125 0.922500 0.072500
0.236250 0.922500 0.072500
0.314375 0.922500 0.072500
0.392500 0.922500 0.072500
0.470625 0.922500 0.072500
0.548750 0.922500 0.072500
0.626875 0.922500 0.072500
0.705000 0.922500 0.072500
0.783125 0.922500 0.072500
0.861250 0.922500 0.072500
0.939375 0.922500 0.072500
1.000000 0.922500 0.072500
1.000000 0.922500 0.072500
1.000000 0.922500 0.072500
1.000000 0.922500 0.072500
1.000000 0.922500 0.072500
0.080000 0.994375 0.072500
0.158125 0.994375 0.072500
0.236250 0.994375 0.072500
0.314375 0.994375 0.072500
0.392500 0.994375 0.072500
0.470625 0.994375 0.072500
0.548750 0.994375 0.072500
0.626875 0.994375 0.072500
0.705000 0.994375 0.072500
0.783125 0.994375 0.072500
0.861250 0.994375 0.072500
0.939375 0.994375 0.072500
1.000000 0.994375 0.072500
1.000000 0.994375 0.072500
1.000000 0.994375 0.072500
1.000000 0.994375 0.072500
1.000000 0.994375 0.072500
0.080000 1.000000 0.072500
0.158125 1.000000 0.072500
0.236250 1.000000 0.072500
0.314375 1.000000 0.072500
0.392500 1.000000 0.072500
0.470625 1.000000 0.072500
0.548750 1.000000 0.072500
0.626875 1.000000 0.072500
0.705000 1.000000 0.072500
0.783125 1.000000 0.072500
0.861250 1.000000 0.072500
0.939375 1.000000 0.072500
1.000000 1.000000 0.072500
1.000000 1.000000 0.072500
1.000000 1.000000 0.072500
1.000000 1.000000 0.072500
1.000000 1.000000 0.072500
0.080000 1.000000 0.072500
0.158125 1.000000 0.072500
0.236250 1.000000 0.072500
0.314375 1.000000 0.072500
0.392500 1.000000 0.072500
0.470625 1.000000 0.072500
0.548750 1.000000 0.072500
0.626875 1.000000 0.072500
0.705000 1.000000 0.072500
0.783125 1.000000 0.072500
0.861250 1.000000 0.072500
0.939375 1.000000 0.072500
1.000000 1.000000 0.072500
1.000000 1.000000 0.072500
1.000000 1.000000 0.072500
1.000000 1.000000 0.072500
1.000000 1.000000 0.072500
0.080000 1.000000 0.072500
0.158125 1.000000 0.072500
0.236250 1.000000 0.072500
0.314375 1.000000 0.072500
0.392500 1.000000 0.072500
0.470625 1.000000 0.072500
0.548750 1.000000 0.072500
0.626875 1.000000 0.072500
0.705000 1.000000 0.072500
0.783125 1.000000 0.072500
0.861250 1.000000 0.072500
0.939375 1.000000 0.072500
1.000000 1.000000 0.072500
1.000000 1.000000 0.072500
1.000000 1.000000 0.072500
1.000000 1.000000 0.072500
1.000000 1.000000 0.072500
0.080000 0.060000 0.128750
0.158125 0.060000 0.128750
0.236250 0.060000 0.128750
0.314375 0.060000 0.128750
0.392500 0.060000 0.128750
0.470625 0.060000 0.128750
0.548750 0.060000 0.128750
0.626875 0.060000 0.128750
0.705000 0.060000 0.128750
0.783125 0.060000 0.128750
0.861250 0.060000 0.128750
0.939375 0.060000 0.128750
1.000000 0.060000 0.128750
1.000000 0.060000 0.128750
1.000000 0.060000 0.128750
1.000000 0.060000 0.128750
1.000000 0.060000 0.128750
0.080000 0.131875 0.128750
