app/src/main/assets/luts/glacier_blue.cube
# ApexStudio filter: glacier_blue
LUT_3D_SIZE 5
DOMAIN_MIN 0.0 0.0 0.0
DOMAIN_MAX 1.0 1.0 1.0
0.000000 0.020000 0.180000
0.120000 0.020000 0.180000
0.320000 0.020000 0.180000
0.520000 0.020000 0.180000
0.720000 0.020000 0.180000
0.000000 0.270000 0.180000
0.120000 0.270000 0.180000
0.320000 0.270000 0.180000
0.520000 0.270000 0.180000
0.720000 0.270000 0.180000
0.000000 0.520000 0.180000
0.120000 0.520000 0.180000
0.320000 0.520000 0.180000
0.520000 0.520000 0.180000
0.720000 0.520000 0.180000
0.000000 0.770000 0.180000
0.120000 0.770000 0.180000
0.320000 0.770000 0.180000
0.520000 0.770000 0.180000
0.720000 0.770000 0.180000
0.000000 1.000000 0.180000
0.120000 1.000000 0.180000
0.320000 1.000000 0.180000
0.520000 1.000000 0.180000
0.720000 1.000000 0.180000
0.000000 0.020000 0.530000
0.120000 0.020000 0.530000
0.320000 0.020000 0.530000
0.520000 0.020000 0.530000
0.720000 0.020000 0.530000
0.000000 0.270000 0.530000
0.120000 0.270000 0.530000
0.320000 0.270000 0.530000
0.520000 0.270000 0.530000
0.720000 0.270000 0.530000
0.000000 0.520000 0.530000
0.120000 0.520000 0.530000
0.320000 0.520000 0.530000
0.520000 0.520000 0.530000
0.720000 0.520000 0.530000
0.000000 0.770000 0.530000
0.120000 0.770000 0.530000
0.320000 0.770000 0.530000
0.520000 0.770000 0.530000
0.720000 0.770000 0.530000
0.000000 1.000000 0.530000
0.120000 1.000000 0.530000
0.320000 1.000000 0.530000
0.520000 1.000000 0.530000
0.720000 1.000000 0.530000
0.000000 0.020000 0.880000
0.120000 0.020000 0.880000
0.320000 0.020000 0.880000
0.520000 0.020000 0.880000
0.720000 0.020000 0.880000
0.000000 0.270000 0.880000
0.120000 0.270000 0.880000
0.320000 0.270000 0.880000
0.520000 0.270000 0.880000
0.720000 0.270000 0.880000
0.000000 0.520000 0.880000
0.120000 0.520000 0.880000
0.320000 0.520000 0.880000
0.520000 0.520000 0.880000
0.720000 0.520000 0.880000
0.000000 0.770000 0.880000
0.120000 0.770000 0.880000
0.320000 0.770000 0.880000
0.520000 0.770000 0.880000
0.720000 0.770000 0.880000
0.000000 1.000000 0.880000
0.120000 1.000000 0.880000
0.320000 1.000000 0.880000
0.520000 1.000000 0.880000
0.720000 1.000000 0.880000
0.000000 0.020000 1.000000
0.120000 0.020000 1.000000
0.320000 0.020000 1.000000
0.520000 0.020000 1.000000
0.720000 0.020000 1.000000
0.000000 0.270000 1.000000
0.120000 0.270000 1.000000
0.320000 0.270000 1.000000
0.520000 0.270000 1.000000
0.720000 0.270000 1.000000
0.000000 0.520000 1.000000
0.120000 0.520000 1.000000
0.320000 0.520000 1.000000
0.520000 0.520000 1.000000
0.720000 0.520000 1.000000
0.000000 0.770000 1.000000
0.120000 0.770000 1.000000
0.320000 0.770000 1.000000
0.520000 0.770000 1.000000
0.720000 0.770000 1.000000
0.000000 1.000000 1.000000
0.120000 1.000000 1.000000
0.320000 1.000000 1.000000
0.520000 1.000000 1.000000
0.720000 1.000000 1.000000
0.000000 0.020000 1.000000
0.120000 0.020000 1.000000
0.320000 0.020000 1.000000
0.520000 0.020000 1.000000
0.720000 0.020000 1.000000
0.000000 0.270000 1.000000
0.120000 0.270000 1.000000
0.320000 0.270000 1.000000
0.520000 0.270000 1.000000
0.720000 0.270000 1.000000
0.000000 0.520000 1.000000
0.120000 0.520000 1.000000
0.320000 0.520000 1.000000
0.520000 0.520000 1.000000
0.720000 0.520000 1.000000
0.000000 0.770000 1.000000
0.120000 0.770000 1.000000
0.320000 0.770000 1.000000
0.520000 0.770000 1.000000
0.720000 0.770000 1.000000
0.000000 1.000000 1.000000
0.120000 1.000000 1.000000
0.320000 1.000000 1.000000
0.520000 1.000000 1.000000
0.720000 1.000000 1.000000
