app/src/main/assets/luts/glacier_blue.cube
# ApexStudio filter: glacier_blue
LUT_3D_SIZE 17
DOMAIN_MIN 0.0 0.0 0.0
DOMAIN_MAX 1.0 1.0 1.0
0.000000 0.020000 0.180000
0.000000 0.020000 0.180000
0.020000 0.020000 0.180000
0.070000 0.020000 0.180000
0.120000 0.020000 0.180000
0.170000 0.020000 0.180000
0.220000 0.020000 0.180000
0.270000 0.020000 0.180000
0.320000 0.020000 0.180000
0.370000 0.020000 0.180000
0.420000 0.020000 0.180000
0.470000 0.020000 0.180000
0.520000 0.020000 0.180000
0.570000 0.020000 0.180000
0.620000 0.020000 0.180000
0.670000 0.020000 0.180000
0.720000 0.020000 0.180000
0.000000 0.082500 0.180000
0.000000 0.082500 0.180000
0.020000 0.082500 0.180000
0.070000 0.082500 0.180000
0.120000 0.082500 0.180000
0.170000 0.082500 0.180000
0.220000 0.082500 0.180000
0.270000 0.082500 0.180000
0.320000 0.082500 0.180000
0.370000 0.082500 0.180000
0.420000 0.082500 0.180000
0.470000 0.082500 0.180000
0.520000 0.082500 0.180000
0.570000 0.082500 0.180000
0.620000 0.082500 0.180000
0.670000 0.082500 0.180000
0.720000 0.082500 0.180000
0.000000 0.145000 0.180000
0.000000 0.145000 0.180000
0.020000 0.145000 0.180000
0.070000 0.145000 0.180000
0.120000 0.145000 0.180000
0.170000 0.145000 0.180000
0.220000 0.145000 0.180000
0.270000 0.145000 0.180000
0.320000 0.145000 0.180000
0.370000 0.145000 0.180000
0.420000 0.145000 0.180000
0.470000 0.145000 0.180000
0.520000 0.145000 0.180000
0.570000 0.145000 0.180000
0.620000 0.145000 0.180000
0.670000 0.145000 0.180000
0.720000 0.145000 0.180000
0.000000 0.207500 0.180000
0.000000 0.207500 0.180000
0.020000 0.207500 0.180000
0.070000 0.207500 0.180000
0.120000 0.207500 0.180000
0.170000 0.207500 0.180000
0.220000 0.207500 0.180000
0.270000 0.207500 0.180000
0.320000 0.207500 0.180000
0.370000 0.207500 0.180000
0.420000 0.207500 0.180000
0.470000 0.207500 0.180000
0.520000 0.207500 0.180000
0.570000 0.207500 0.180000
0.620000 0.207500 0.180000
0.670000 0.207500 0.180000
0.720000 0.207500 0.180000
0.000000 0.270000 0.180000
0.000000 0.270000 0.180000
0.020000 0.270000 0.180000
0.070000 0.270000 0.180000
0.120000 0.270000 0.180000
0.170000 0.270000 0.180000
0.220000 0.270000 0.180000
0.270000 0.270000 0.180000
0.320000 0.270000 0.180000
0.370000 0.270000 0.180000
0.420000 0.270000 0.180000
0.470000 0.270000 0.180000
0.520000 0.270000 0.180000
0.570000 0.270000 0.180000
0.620000 0.270000 0.180000
0.670000 0.270000 0.180000
0.720000 0.270000 0.180000
0.000000 0.332500 0.180000
0.000000 0.332500 0.180000
0.020000 0.332500 0.180000
0.070000 0.332500 0.180000
0.120000 0.332500 0.180000
0.170000 0.332500 0.180000
0.220000 0.332500 0.180000
0.270000 0.332500 0.180000
0.320000 0.332500 0.180000
0.370000 0.332500 0.180000
0.420000 0.332500 0.180000
0.470000 0.332500 0.180000
0.520000 0.332500 0.180000
0.570000 0.332500 0.180000
0.620000 0.332500 0.180000
0.670000 0.332500 0.180000
0.720000 0.332500 0.180000
0.000000 0.395000 0.180000
0.000000 0.395000 0.180000
0.020000 0.395000 0.180000
0.070000 0.395000 0.180000
0.120000 0.395000 0.180000
0.170000 0.395000 0.180000
0.220000 0.395000 0.180000
0.270000 0.395000 0.180000
0.320000 0.395000 0.180000
0.370000 0.395000 0.180000
0.420000 0.395000 0.180000
0.470000 0.395000 0.180000
0.520000 0.395000 0.180000
0.570000 0.395000 0.180000
0.620000 0.395000 0.180000
0.670000 0.395000 0.180000
0.720000 0.395000 0.180000
0.000000 0.457500 0.180000
0.000000 0.457500 0.180000
0.020000 0.457500 0.180000
0.070000 0.457500 0.180000
0.120000 0.457500 0.180000
0.170000 0.457500 0.180000
0.220000 0.457500 0.180000
0.270000 0.457500 0.180000
0.320000 0.457500 0.180000
0.370000 0.457500 0.180000
0.420000 0.457500 0.180000
0.470000 0.457500 0.180000
0.520000 0.457500 0.180000
0.570000 0.457500 0.180000
0.620000 0.457500 0.180000
0.670000 0.457500 0.180000
0.720000 0.457500 0.180000
0.000000 0.520000 0.180000
0.000000 0.520000 0.180000
0.020000 0.520000 0.180000
0.070000 0.520000 0.180000
0.120000 0.520000 0.180000
0.170000 0.520000 0.180000
0.220000 0.520000 0.180000
0.270000 0.520000 0.180000
0.320000 0.520000 0.180000
0.370000 0.520000 0.180000
0.420000 0.520000 0.180000
0.470000 0.520000 0.180000
0.520000 0.520000 0.180000
0.570000 0.520000 0.180000
0.620000 0.520000 0.180000
0.670000 0.520000 0.180000
0.720000 0.520000 0.180000
0.000000 0.582500 0.180000
0.000000 0.582500 0.180000
0.020000 0.582500 0.180000
0.070000 0.582500 0.180000
0.120000 0.582500 0.180000
0.170000 0.582500 0.180000
0.220000 0.582500 0.180000
0.270000 0.582500 0.180000
0.320000 0.582500 0.180000
0.370000 0.582500 0.180000
0.420000 0.582500 0.180000
0.470000 0.582500 0.180000
0.520000 0.582500 0.180000
0.570000 0.582500 0.180000
0.620000 0.582500 0.180000
0.670000 0.582500 0.180000
0.720000 0.582500 0.180000
0.000000 0.645000 0.180000
0.000000 0.645000 0.180000
0.020000 0.645000 0.180000
0.070000 0.645000 0.180000
0.120000 0.645000 0.180000
0.170000 0.645000 0.180000
0.220000 0.645000 0.180000
0.270000 0.645000 0.180000
0.320000 0.645000 0.180000
0.370000 0.645000 0.180000
0.420000 0.645000 0.180000
0.470000 0.645000 0.180000
0.520000 0.645000 0.180000
0.570000 0.645000 0.180000
0.620000 0.645000 0.180000
0.670000 0.645000 0.180000
0.720000 0.645000 0.180000
0.000000 0.707500 0.180000
0.000000 0.707500 0.180000
0.020000 0.707500 0.180000
0.070000 0.707500 0.180000
0.120000 0.707500 0.180000
0.170000 0.707500 0.180000
0.220000 0.707500 0.180000
0.270000 0.707500 0.180000
0.320000 0.707500 0.180000
0.370000 0.707500 0.180000
0.420000 0.707500 0.180000
0.470000 0.707500 0.180000
0.520000 0.707500 0.180000
0.570000 0.707500 0.180000
0.620000 0.707500 0.180000
0.670000 0.707500 0.180000
0.720000 0.707500 0.180000
0.000000 0.770000 0.180000
0.000000 0.770000 0.180000
0.020000 0.770000 0.180000
0.070000 0.770000 0.180000
0.120000 0.770000 0.180000
0.170000 0.770000 0.180000
0.220000 0.770000 0.180000
0.270000 0.770000 0.180000
0.320000 0.770000 0.180000
0.370000 0.770000 0.180000
0.420000 0.770000 0.180000
0.470000 0.770000 0.180000
0.520000 0.770000 0.180000
0.570000 0.770000 0.180000
0.620000 0.770000 0.180000
0.670000 0.770000 0.180000
0.720000 0.770000 0.180000
0.000000 0.832500 0.180000
0.000000 0.832500 0.180000
0.020000 0.832500 0.180000
0.070000 0.832500 0.180000
0.120000 0.832500 0.180000
0.170000 0.832500 0.180000
0.220000 0.832500 0.180000
0.270000 0.832500 0.180000
0.320000 0.832500 0.180000
0.370000 0.832500 0.180000
0.420000 0.832500 0.180000
0.470000 0.832500 0.180000
0.520000 0.832500 0.180000
0.570000 0.832500 0.180000
0.620000 0.832500 0.180000
0.670000 0.832500 0.180000
0.720000 0.832500 0.180000
0.000000 0.895000 0.180000
0.000000 0.895000 0.180000
0.020000 0.895000 0.180000
0.070000 0.895000 0.180000
0.120000 0.895000 0.180000
0.170000 0.895000 0.180000
0.220000 0.895000 0.180000
0.270000 0.895000 0.180000
0.320000 0.895000 0.180000
0.370000 0.895000 0.180000
0.420000 0.895000 0.180000
0.470000 0.895000 0.180000
0.520000 0.895000 0.180000
0.570000 0.895000 0.180000
0.620000 0.895000 0.180000
0.670000 0.895000 0.180000
0.720000 0.895000 0.180000
0.000000 0.957500 0.180000
0.000000 0.957500 0.180000
0.020000 0.957500 0.180000
0.070000 0.957500 0.180000
0.120000 0.957500 0.180000
0.170000 0.957500 0.180000
0.220000 0.957500 0.180000
0.270000 0.957500 0.180000
0.320000 0.957500 0.180000
0.370000 0.957500 0.180000
0.420000 0.957500 0.180000
0.470000 0.957500 0.180000
0.520000 0.957500 0.180000
0.570000 0.957500 0.180000
0.620000 0.957500 0.180000
0.670000 0.957500 0.180000
0.720000 0.957500 0.180000
0.000000 1.000000 0.180000
0.000000 1.000000 0.180000
0.020000 1.000000 0.180000
0.070000 1.000000 0.180000
0.120000 1.000000 0.180000
0.170000 1.000000 0.180000
0.220000 1.000000 0.180000
0.270000 1.000000 0.180000
0.320000 1.000000 0.180000
0.370000 1.000000 0.180000
0.420000 1.000000 0.180000
0.470000 1.000000 0.180000
0.520000 1.000000 0.180000
0.570000 1.000000 0.180000
0.620000 1.000000 0.180000
0.670000 1.000000 0.180000
0.720000 1.000000 0.180000
0.000000 0.020000 0.267500
0.000000 0.020000 0.267500
0.020000 0.020000 0.267500
0.070000 0.020000 0.267500
0.120000 0.020000 0.267500
0.170000 0.020000 0.267500
0.220000 0.020000 0.267500
0.270000 0.020000 0.267500
0.320000 0.020000 0.267500
0.370000 0.020000 0.267500
0.420000 0.020000 0.267500
0.470000 0.020000 0.267500
0.520000 0.020000 0.267500
0.570000 0.020000 0.267500
0.620000 0.020000 0.267500
0.670000 0.020000 0.267500
0.720000 0.020000 0.267500
0.000000 0.082500 0.267500
0.000000 0.082500 0.267500
0.020000 0.082500 0.267500
0.070000 0.082500 0.267500
0.120000 0.082500 0.267500
0.170000 0.082500 0.267500
0.220000 0.082500 0.267500
0.270000 0.082500 0.267500
0.320000 0.082500 0.267500
0.370000 0.082500 0.267500
0.420000 0.082500 0.267500
0.470000 0.082500 0.267500
0.520000 0.082500 0.267500
0.570000 0.082500 0.267500
0.620000 0.082500 0.267500
0.670000 0.082500 0.267500
0.720000 0.082500 0.267500
0.000000 0.145000 0.267500
0.000000 0.145000 0.267500
0.020000 0.145000 0.267500
0.070000 0.145000 0.267500
0.120000 0.145000 0.267500
0.170000 0.145000 0.267500
0.220000 0.145000 0.267500
0.270000 0.145000 0.267500
0.320000 0.145000 0.267500
0.370000 0.145000 0.267500
0.420000 0.145000 0.267500
0.470000 0.145000 0.267500
0.520000 0.145000 0.267500
0.570000 0.145000 0.267500
0.620000 0.145000 0.267500
0.670000 0.145000 0.267500
0.720000 0.145000 0.267500
0.000000 0.207500 0.267500
0.000000 0.207500 0.267500
0.020000 0.207500 0.267500
0.070000 0.207500 0.267500
0.120000 0.207500 0.267500
0.170000 0.207500 0.267500
0.220000 0.207500 0.267500
0.270000 0.207500 0.267500
0.320000 0.207500 0.267500
0.370000 0.207500 0.267500
0.420000 0.207500 0.267500
0.470000 0.207500 0.267500
0.520000 0.207500 0.267500
0.570000 0.207500 0.267500
0.620000 0.207500 0.267500
0.670000 0.207500 0.267500
0.720000 0.207500 0.267500
0.000000 0.270000 0.267500
0.000000 0.270000 0.267500
0.020000 0.270000 0.267500
0.070000 0.270000 0.267500
0.120000 0.270000 0.267500
0.170000 0.270000 0.267500
0.220000 0.270000 0.267500
0.270000 0.270000 0.267500
0.320000 0.270000 0.267500
0.370000 0.270000 0.267500
0.420000 0.270000 0.267500
0.470000 0.270000 0.267500
0.520000 0.270000 0.267500
0.570000 0.270000 0.267500
0.620000 0.270000 0.267500
0.670000 0.270000 0.267500
0.720000 0.270000 0.267500
0.000000 0.332500 0.267500
0.000000 0.332500 0.267500
0.020000 0.332500 0.267500
0.070000 0.332500 0.267500
0.120000 0.332500 0.267500
0.170000 0.332500 0.267500
0.220000 0.332500 0.267500
0.270000 0.332500 0.267500
0.320000 0.332500 0.267500
0.370000 0.332500 0.267500
0.420000 0.332500 0.267500
0.470000 0.332500 0.267500
0.520000 0.332500 0.267500
0.570000 0.332500 0.267500
0.620000 0.332500 0.267500
0.670000 0.332500 0.267500
0.720000 0.332500 0.267500
0.000000 0.395000 0.267500
0.000000 0.395000 0.267500
0.020000 0.395000 0.267500
0.070000 0.395000 0.267500
0.120000 0.395000 0.267500
0.170000 0.395000 0.267500
0.220000 0.395000 0.267500
0.270000 0.395000 0.267500
0.320000 0.395000 0.267500
0.370000 0.395000 0.267500
0.420000 0.395000 0.267500
0.470000 0.395000 0.267500
0.520000 0.395000 0.267500
0.570000 0.395000 0.267500
0.620000 0.395000 0.267500
0.670000 0.395000 0.267500
0.720000 0.395000 0.267500
0.000000 0.457500 0.267500
0.000000 0.457500 0.267500
0.020000 0.457500 0.267500
0.070000 0.457500 0.267500
0.120000 0.457500 0.267500
0.170000 0.457500 0.267500
0.220000 0.457500 0.267500
0.270000 0.457500 0.267500
0.320000 0.457500 0.267500
0.370000 0.457500 0.267500
0.420000 0.457500 0.267500
0.470000 0.457500 0.267500
0.520000 0.457500 0.267500
0.570000 0.457500 0.267500
0.620000 0.457500 0.267500
0.670000 0.457500 0.267500
0.720000 0.457500 0.267500
0.000000 0.520000 0.267500
0.000000 0.520000 0.267500
0.020000 0.520000 0.267500
0.070000 0.520000 0.267500
0.120000 0.520000 0.267500
0.170000 0.520000 0.267500
0.220000 0.520000 0.267500
0.270000 0.520000 0.267500
0.320000 0.520000 0.267500
0.370000 0.520000 0.267500
0.420000 0.520000 0.267500
0.470000 0.520000 0.267500
0.520000 0.520000 0.267500
0.570000 0.520000 0.267500
0.620000 0.520000 0.267500
0.670000 0.520000 0.267500
0.720000 0.520000 0.267500
0.000000 0.582500 0.267500
0.000000 0.582500 0.267500
0.020000 0.582500 0.267500
0.070000 0.582500 0.267500
0.120000 0.582500 0.267500
0.170000 0.582500 0.267500
0.220000 0.582500 0.267500
0.270000 0.582500 0.267500
0.320000 0.582500 0.267500
0.370000 0.582500 0.267500
0.420000 0.582500 0.267500
0.470000 0.582500 0.267500
0.520000 0.582500 0.267500
0.570000 0.582500 0.267500
0.620000 0.582500 0.267500
0.670000 0.582500 0.267500
0.720000 0.582500 0.267500
0.000000 0.645000 0.267500
0.000000 0.645000 0.267500
0.020000 0.645000 0.267500
0.070000 0.645000 0.267500
0.120000 0.645000 0.267500
0.170000 0.645000 0.267500
0.220000 0.645000 0.267500
0.270000 0.645000 0.267500
0.320000 0.645000 0.267500
0.370000 0.645000 0.267500
0.420000 0.645000 0.267500
0.470000 0.645000 0.267500
0.520000 0.645000 0.267500
0.570000 0.645000 0.267500
0.620000 0.645000 0.267500
0.670000 0.645000 0.267500
0.720000 0.645000 0.267500
0.000000 0.707500 0.267500
0.000000 0.707500 0.267500
0.020000 0.707500 0.267500
0.070000 0.707500 0.267500
0.120000 0.707500 0.267500
0.170000 0.707500 0.267500
0.220000 0.707500 0.267500
0.270000 0.707500 0.267500
0.320000 0.707500 0.267500
0.370000 0.707500 0.267500
0.420000 0.707500 0.267500
0.470000 0.707500 0.267500
0.520000 0.707500 0.267500
0.570000 0.707500 0.267500
0.620000 0.707500 0.267500
0.670000 0.707500 0.267500
0.720000 0.707500 0.267500
0.000000 0.770000 0.267500
0.000000 0.770000 0.267500
0.020000 0.770000 0.267500
0.070000 0.770000 0.267500
0.120000 0.770000 0.267500
0.170000 0.770000 0.267500
0.220000 0.770000 0.267500
0.270000 0.770000 0.267500
0.320000 0.770000 0.267500
0.370000 0.770000 0.267500
0.420000 0.770000 0.267500
0.470000 0.770000 0.267500
0.520000 0.770000 0.267500
0.570000 0.770000 0.267500
0.620000 0.770000 0.267500
0.670000 0.770000 0.267500
0.720000 0.770000 0.267500
0.000000 0.832500 0.267500
0.000000 0.832500 0.267500
0.020000 0.832500 0.267500
0.070000 0.832500 0.267500
0.120000 0.832500 0.267500
0.170000 0.832500 0.267500
0.220000 0.832500 0.267500
0.270000 0.832500 0.267500
0.320000 0.832500 0.267500
0.370000 0.832500 0.267500
0.420000 0.832500 0.267500
0.470000 0.832500 0.267500
0.520000 0.832500 0.267500
0.570000 0.832500 0.267500
0.620000 0.832500 0.267500
0.670000 0.832500 0.267500
0.720000 0.832500 0.267500
0.000000 0.895000 0.267500
0.000000 0.895000 0.267500
0.020000 0.895000 0.267500
0.070000 0.895000 0.267500
0.120000 0.895000 0.267500
0.170000 0.895000 0.267500
0.220000 0.895000 0.267500
0.270000 0.895000 0.267500
0.320000 0.895000 0.267500
0.370000 0.895000 0.267500
0.420000 0.895000 0.267500
0.470000 0.895000 0.267500
0.520000 0.895000 0.267500
0.570000 0.895000 0.267500
0.620000 0.895000 0.267500
0.670000 0.895000 0.267500
0.720000 0.895000 0.267500
0.000000 0.957500 0.267500
0.000000 0.957500 0.267500
0.020000 0.957500 0.267500
0.070000 0.957500 0.267500
0.120000 0.957500 0.267500
0.170000 0.957500 0.267500
0.220000 0.957500 0.267500
0.270000 0.957500 0.267500
0.320000 0.957500 0.267500
0.370000 0.957500 0.267500
0.420000 0.957500 0.267500
0.470000 0.957500 0.267500
0.520000 0.957500 0.267500
0.570000 0.957500 0.267500
0.620000 0.957500 0.267500
0.670000 0.957500 0.267500
0.720000 0.957500 0.267500
0.000000 1.000000 0.267500
0.000000 1.000000 0.267500
0.020000 1.000000 0.267500
0.070000 1.000000 0.267500
0.120000 1.000000 0.267500
0.170000 1.000000 0.267500
0.220000 1.000000 0.267500
0.270000 1.000000 0.267500
0.320000 1.000000 0.267500
0.370000 1.000000 0.267500
0.420000 1.000000 0.267500
0.470000 1.000000 0.267500
0.520000 1.000000 0.267500
0.570000 1.000000 0.267500
0.620000 1.000000 0.267500
0.670000 1.000000 0.267500
0.720000 1.000000 0.267500
0.000000 0.020000 0.355000
0.000000 0.020000 0.355000
0.020000 0.020000 0.355000
0.070000 0.020000 0.355000
0.120000 0.020000 0.355000
0.170000 0.020000 0.355000
0.220000 0.020000 0.355000
0.270000 0.020000 0.355000
0.320000 0.020000 0.355000
0.370000 0.020000 0.355000
0.420000 0.020000 0.355000
0.470000 0.020000 0.355000
0.520000 0.020000 0.355000
0.570000 0.020000 0.355000
0.620000 0.020000 0.355000
0.670000 0.020000 0.355000
0.720000 0.020000 0.355000
0.000000 0.082500 0.355000
0.000000 0.082500 0.355000
0.020000 0.082500 0.355000
0.070000 0.082500 0.355000
0.120000 0.082500 0.355000
0.170000 0.082500 0.355000
0.220000 0.082500 0.355000
0.270000 0.082500 0.355000
0.320000 0.082500 0.355000
0.370000 0.082500 0.355000
0.420000 0.082500 0.355000
0.470000 0.082500 0.355000
0.520000 0.082500 0.355000
0.570000 0.082500 0.355000
0.620000 0.082500 0.355000
0.670000 0.082500 0.355000
0.720000 0.082500 0.355000
0.000000 0.145000 0.355000
0.000000 0.145000 0.355000
0.020000 0.145000 0.355000
0.070000 0.145000 0.355000
0.120000 0.145000 0.355000
0.170000 0.145000 0.355000
0.220000 0.145000 0.355000
0.270000 0.145000 0.355000
0.320000 0.145000 0.355000
0.370000 0.145000 0.355000
0.420000 0.145000 0.355000
0.470000 0.145000 0.355000
0.520000 0.145000 0.355000
0.570000 0.145000 0.355000
0.620000 0.145000 0.355000
0.670000 0.145000 0.355000
0.720000 0.145000 0.355000
0.000000 0.207500 0.355000
0.000000 0.207500 0.355000
0.020000 0.207500 0.355000
0.070000 0.207500 0.355000
0.120000 0.207500 0.355000
0.170000 0.207500 0.355000
0.220000 0.207500 0.355000
0.270000 0.207500 0.355000
0.320000 0.207500 0.355000
0.370000 0.207500 0.355000
0.420000 0.207500 0.355000
0.470000 0.207500 0.355000
0.520000 0.207500 0.355000
0.570000 0.207500 0.355000
0.620000 0.207500 0.355000
0.670000 0.207500 0.355000
0.720000 0.207500 0.355000
0.000000 0.270000 0.355000
0.000000 0.270000 0.355000
0.020000 0.270000 0.355000
0.070000 0.270000 0.355000
0.120000 0.270000 0.355000
0.170000 0.270000 0.355000
0.220000 0.270000 0.355000
0.270000 0.270000 0.355000
0.320000 0.270000 0.355000
0.370000 0.270000 0.355000
0.420000 0.270000 0.355000
0.470000 0.270000 0.355000
0.520000 0.270000 0.355000
0.570000 0.270000 0.355000
0.620000 0.270000 0.355000
0.670000 0.270000 0.355000
0.720000 0.270000 0.355000
0.000000 0.332500 0.355000
0.000000 0.332500 0.355000
0.020000 0.332500 0.355000
0.070000 0.332500 0.355000
0.120000 0.332500 0.355000
0.170000 0.332500 0.355000
0.220000 0.332500 0.355000
0.270000 0.332500 0.355000
0.320000 0.332500 0.355000
0.370000 0.332500 0.355000
0.420000 0.332500 0.355000
0.470000 0.332500 0.355000
0.520000 0.332500 0.355000
0.570000 0.332500 0.355000
0.620000 0.332500 0.355000
0.670000 0.332500 0.355000
0.720000 0.332500 0.355000
0.000000 0.395000 0.355000
0.000000 0.395000 0.355000
0.020000 0.395000 0.355000
0.070000 0.395000 0.355000
0.120000 0.395000 0.355000
0.170000 0.395000 0.355000
0.220000 0.395000 0.355000
0.270000 0.395000 0.355000
0.320000 0.395000 0.355000
0.370000 0.395000 0.355000
0.420000 0.395000 0.355000
0.470000 0.395000 0.355000
0.520000 0.395000 0.355000
0.570000 0.395000 0.355000
0.620000 0.395000 0.355000
0.670000 0.395000 0.355000
0.720000 0.395000 0.355000
0.000000 0.457500 0.355000
0.000000 0.457500 0.355000
0.020000 0.457500 0.355000
0.070000 0.457500 0.355000
0.120000 0.457500 0.355000
0.170000 0.457500 0.355000
0.220000 0.457500 0.355000
0.270000 0.457500 0.355000
0.320000 0.457500 0.355000
0.370000 0.457500 0.355000
0.420000 0.457500 0.355000
0.470000 0.457500 0.355000
0.520000 0.457500 0.355000
0.570000 0.457500 0.355000
0.620000 0.457500 0.355000
0.670000 0.457500 0.355000
0.720000 0.457500 0.355000
0.000000 0.520000 0.355000
0.000000 0.520000 0.355000
0.020000 0.520000 0.355000
0.070000 0.520000 0.355000
0.120000 0.520000 0.355000
0.170000 0.520000 0.355000
0.220000 0.520000 0.355000
0.270000 0.520000 0.355000
0.320000 0.520000 0.355000
0.370000 0.520000 0.355000
0.420000 0.520000 0.355000
0.470000 0.520000 0.355000
0.520000 0.520000 0.355000
0.570000 0.520000 0.355000
0.620000 0.520000 0.355000
0.670000 0.520000 0.355000
0.720000 0.520000 0.355000
0.000000 0.582500 0.355000
0.000000 0.582500 0.355000
0.020000 0.582500 0.355000
0.070000 0.582500 0.355000
0.120000 0.582500 0.355000
0.170000 0.582500 0.355000
0.220000 0.582500 0.355000
0.270000 0.582500 0.355000
0.320000 0.582500 0.355000
0.370000 0.582500 0.355000
0.420000 0.582500 0.355000
0.470000 0.582500 0.355000
0.520000 0.582500 0.355000
0.570000 0.582500 0.355000
0.620000 0.582500 0.355000
0.670000 0.582500 0.355000
0.720000 0.582500 0.355000
0.000000 0.645000 0.355000
0.000000 0.645000 0.355000
0.020000 0.645000 0.355000
0.070000 0.645000 0.355000
0.120000 0.645000 0.355000
0.170000 0.645000 0.355000
0.220000 0.645000 0.355000
0.270000 0.645000 0.355000
0.320000 0.645000 0.355000
0.370000 0.645000 0.355000
0.420000 0.645000 0.355000
0.470000 0.645000 0.355000
0.520000 0.645000 0.355000
0.570000 0.645000 0.355000
0.620000 0.645000 0.355000
0.670000 0.645000 0.355000
0.720000 0.645000 0.355000
0.000000 0.707500 0.355000
0.000000 0.707500 0.355000
0.020000 0.707500 0.355000
0.070000 0.707500 0.355000
0.120000 0.707500 0.355000
0.170000 0.707500 0.355000
0.220000 0.707500 0.355000
0.270000 0.707500 0.355000
0.320000 0.707500 0.355000
0.370000 0.707500 0.355000
0.420000 0.707500 0.355000
0.470000 0.707500 0.355000
0.520000 0.707500 0.355000
0.570000 0.707500 0.355000
0.620000 0.707500 0.355000
0.670000 0.707500 0.355000
0.720000 0.707500 0.355000
0.000000 0.770000 0.355000
0.000000 0.770000 0.355000
0.020000 0.770000 0.355000
0.070000 0.770000 0.355000
0.120000 0.770000 0.355000
0.170000 0.770000 0.355000
0.220000 0.770000 0.355000
0.270000 0.770000 0.355000
0.320000 0.770000 0.355000
0.370000 0.770000 0.355000
0.420000 0.770000 0.355000
0.470000 0.770000 0.355000
0.520000 0.770000 0.355000
0.570000 0.770000 0.355000
0.620000 0.770000 0.355000
0.670000 0.770000 0.355000
0.720000 0.770000 0.355000
0.000000 0.832500 0.355000
0.000000 0.832500 0.355000
0.020000 0.832500 0.355000
0.070000 0.832500 0.355000
0.120000 0.832500 0.355000
0.170000 0.832500 0.355000
0.220000 0.832500 0.355000
0.270000 0.832500 0.355000
0.320000 0.832500 0.355000
0.370000 0.832500 0.355000
0.420000 0.832500 0.355000
0.470000 0.832500 0.355000
0.520000 0.832500 0.355000
0.570000 0.832500 0.355000
0.620000 0.832500 0.355000
0.670000 0.832500 0.355000
0.720000 0.832500 0.355000
0.000000 0.895000 0.355000
0.000000 0.895000 0.355000
0.020000 0.895000 0.355000
0.070000 0.895000 0.355000
0.120000 0.895000 0.355000
0.170000 0.895000 0.355000
0.220000 0.895000 0.355000
0.270000 0.895000 0.355000
0.320000 0.895000 0.355000
0.370000 0.895000 0.355000
0.420000 0.895000 0.355000
0.470000 0.895000 0.355000
0.520000 0.895000 0.355000
0.570000 0.895000 0.355000
0.620000 0.895000 0.355000
0.670000 0.895000 0.355000
0.720000 0.895000 0.355000
0.000000 0.957500 0.355000
0.000000 0.957500 0.355000
0.020000 0.957500 0.355000
0.070000 0.957500 0.355000
0.120000 0.957500 0.355000
0.170000 0.957500 0.355000
0.220000 0.957500 0.355000
0.270000 0.957500 0.355000
0.320000 0.957500 0.355000
0.370000 0.957500 0.355000
0.420000 0.957500 0.355000
0.470000 0.957500 0.355000
0.520000 0.957500 0.355000
0.570000 0.957500 0.355000
0.620000 0.957500 0.355000
0.670000 0.957500 0.355000
0.720000 0.957500 0.355000
0.000000 1.000000 0.355000
0.000000 1.000000 0.355000
0.020000 1.000000 0.355000
0.070000 1.000000 0.355000
0.120000 1.000000 0.355000
0.170000 1.000000 0.355000
0.220000 1.000000 0.355000
0.270000 1.000000 0.355000
0.320000 1.000000 0.355000
0.370000 1.000000 0.355000
0.420000 1.000000 0.355000
0.470000 1.000000 0.355000
0.520000 1.000000 0.355000
0.570000 1.000000 0.355000
0.620000 1.000000 0.355000
0.670000 1.000000 0.355000
0.720000 1.000000 0.355000
0.000000 0.020000 0.442500
0.000000 0.020000 0.442500
0.020000 0.020000 0.442500
0.070000 0.020000 0.442500
0.120000 0.020000 0.442500
0.170000 0.020000 0.442500
0.220000 0.020000 0.442500
0.270000 0.020000 0.442500
0.320000 0.020000 0.442500
0.370000 0.020000 0.442500
0.420000 0.020000 0.442500
0.470000 0.020000 0.442500
0.520000 0.020000 0.442500
0.570000 0.020000 0.442500
0.620000 0.020000 0.442500
0.670000 0.020000 0.442500
0.720000 0.020000 0.442500
0.000000 0.082500 0.442500
