app/src/main/assets/luts/golden_chiharu.cube
# ApexStudio filter: golden_chiharu
LUT_3D_SIZE 5
DOMAIN_MIN 0.0 0.0 0.0
DOMAIN_MAX 1.0 1.0 1.0
0.120000 0.080000 0.000000
0.445000 0.080000 0.000000
0.770000 0.080000 0.000000
1.000000 0.080000 0.000000
1.000000 0.080000 0.000000
0.120000 0.355000 0.000000
0.445000 0.355000 0.000000
0.770000 0.355000 0.000000
1.000000 0.355000 0.000000
1.000000 0.355000 0.000000
0.120000 0.630000 0.000000
0.445000 0.630000 0.000000
0.770000 0.630000 0.000000
1.000000 0.630000 0.000000
1.000000 0.630000 0.000000
0.120000 0.905000 0.000000
0.445000 0.905000 0.000000
0.770000 0.905000 0.000000
1.000000 0.905000 0.000000
1.000000 0.905000 0.000000
0.120000 1.000000 0.000000
0.445000 1.000000 0.000000
0.770000 1.000000 0.000000
1.000000 1.000000 0.000000
1.000000 1.000000 0.000000
0.120000 0.080000 0.152500
0.445000 0.080000 0.152500
0.770000 0.080000 0.152500
1.000000 0.080000 0.152500
1.000000 0.080000 0.152500
0.120000 0.355000 0.152500
0.445000 0.355000 0.152500
0.770000 0.355000 0.152500
1.000000 0.355000 0.152500
1.000000 0.355000 0.152500
0.120000 0.630000 0.152500
0.445000 0.630000 0.152500
0.770000 0.630000 0.152500
1.000000 0.630000 0.152500
1.000000 0.630000 0.152500
0.120000 0.905000 0.152500
0.445000 0.905000 0.152500
0.770000 0.905000 0.152500
1.000000 0.905000 0.152500
1.000000 0.905000 0.152500
0.120000 1.000000 0.152500
0.445000 1.000000 0.152500
0.770000 1.000000 0.152500
1.000000 1.000000 0.152500
1.000000 1.000000 0.152500
0.120000 0.080000 0.365000
0.445000 0.080000 0.365000
0.770000 0.080000 0.365000
1.000000 0.080000 0.365000
1.000000 0.080000 0.365000
0.120000 0.355000 0.365000
0.445000 0.355000 0.365000
0.770000 0.355000 0.365000
1.000000 0.355000 0.365000
1.000000 0.355000 0.365000
0.120000 0.630000 0.365000
0.445000 0.630000 0.365000
0.770000 0.630000 0.365000
1.000000 0.630000 0.365000
1.000000 0.630000 0.365000
0.120000 0.905000 0.365000
0.445000 0.905000 0.365000
0.770000 0.905000 0.365000
1.000000 0.905000 0.365000
1.000000 0.905000 0.365000
0.120000 1.000000 0.365000
0.445000 1.000000 0.365000
0.770000 1.000000 0.365000
1.000000 1.000000 0.365000
1.000000 1.000000 0.365000
0.120000 0.080000 0.577500
0.445000 0.080000 0.577500
0.770000 0.080000 0.577500
1.000000 0.080000 0.577500
1.000000 0.080000 0.577500
0.120000 0.355000 0.577500
0.445000 0.355000 0.577500
0.770000 0.355000 0.577500
1.000000 0.355000 0.577500
1.000000 0.355000 0.577500
0.120000 0.630000 0.577500
0.445000 0.630000 0.577500
0.770000 0.630000 0.577500
1.000000 0.630000 0.577500
1.000000 0.630000 0.577500
0.120000 0.905000 0.577500
0.445000 0.905000 0.577500
0.770000 0.905000 0.577500
1.000000 0.905000 0.577500
1.000000 0.905000 0.577500
0.120000 1.000000 0.577500
0.445000 1.000000 0.577500
0.770000 1.000000 0.577500
1.000000 1.000000 0.577500
1.000000 1.000000 0.577500
0.120000 0.080000 0.790000
0.445000 0.080000 0.790000
0.770000 0.080000 0.790000
1.000000 0.080000 0.790000
1.000000 0.080000 0.790000
0.120000 0.355000 0.790000
0.445000 0.355000 0.790000
0.770000 0.355000 0.790000
1.000000 0.355000 0.790000
1.000000 0.355000 0.790000
0.120000 0.630000 0.790000
0.445000 0.630000 0.790000
0.770000 0.630000 0.790000
1.000000 0.630000 0.790000
1.000000 0.630000 0.790000
0.120000 0.905000 0.790000
0.445000 0.905000 0.790000
0.770000 0.905000 0.790000
1.000000 0.905000 0.790000
1.000000 0.905000 0.790000
0.120000 1.000000 0.790000
0.445000 1.000000 0.790000
0.770000 1.000000 0.790000
1.000000 1.000000 0.790000
1.000000 1.000000 0.790000
