app/src/main/assets/luts/golden_chiharu.cube
# ApexStudio filter: golden_chiharu
LUT_3D_SIZE 17
DOMAIN_MIN 0.0 0.0 0.0
DOMAIN_MAX 1.0 1.0 1.0
0.120000 0.080000 0.000000
0.201250 0.080000 0.000000
0.282500 0.080000 0.000000
0.363750 0.080000 0.000000
0.445000 0.080000 0.000000
0.526250 0.080000 0.000000
0.607500 0.080000 0.000000
0.688750 0.080000 0.000000
0.770000 0.080000 0.000000
0.851250 0.080000 0.000000
0.932500 0.080000 0.000000
1.000000 0.080000 0.000000
1.000000 0.080000 0.000000
1.000000 0.080000 0.000000
1.000000 0.080000 0.000000
1.000000 0.080000 0.000000
1.000000 0.080000 0.000000
0.120000 0.148750 0.000000
0.201250 0.148750 0.000000
0.282500 0.148750 0.000000
0.363750 0.148750 0.000000
0.445000 0.148750 0.000000
0.526250 0.148750 0.000000
0.607500 0.148750 0.000000
0.688750 0.148750 0.000000
0.770000 0.148750 0.000000
0.851250 0.148750 0.000000
0.932500 0.148750 0.000000
1.000000 0.148750 0.000000
1.000000 0.148750 0.000000
1.000000 0.148750 0.000000
1.000000 0.148750 0.000000
1.000000 0.148750 0.000000
1.000000 0.148750 0.000000
0.120000 0.217500 0.000000
0.201250 0.217500 0.000000
0.282500 0.217500 0.000000
0.363750 0.217500 0.000000
0.445000 0.217500 0.000000
0.526250 0.217500 0.000000
0.607500 0.217500 0.000000
0.688750 0.217500 0.000000
0.770000 0.217500 0.000000
0.851250 0.217500 0.000000
0.932500 0.217500 0.000000
1.000000 0.217500 0.000000
1.000000 0.217500 0.000000
1.000000 0.217500 0.000000
1.000000 0.217500 0.000000
1.000000 0.217500 0.000000
1.000000 0.217500 0.000000
0.120000 0.286250 0.000000
0.201250 0.286250 0.000000
0.282500 0.286250 0.000000
0.363750 0.286250 0.000000
0.445000 0.286250 0.000000
0.526250 0.286250 0.000000
0.607500 0.286250 0.000000
0.688750 0.286250 0.000000
0.770000 0.286250 0.000000
0.851250 0.286250 0.000000
0.932500 0.286250 0.000000
1.000000 0.286250 0.000000
1.000000 0.286250 0.000000
1.000000 0.286250 0.000000
1.000000 0.286250 0.000000
1.000000 0.286250 0.000000
1.000000 0.286250 0.000000
0.120000 0.355000 0.000000
0.201250 0.355000 0.000000
0.282500 0.355000 0.000000
0.363750 0.355000 0.000000
0.445000 0.355000 0.000000
0.526250 0.355000 0.000000
0.607500 0.355000 0.000000
0.688750 0.355000 0.000000
0.770000 0.355000 0.000000
0.851250 0.355000 0.000000
0.932500 0.355000 0.000000
1.000000 0.355000 0.000000
1.000000 0.355000 0.000000
1.000000 0.355000 0.000000
1.000000 0.355000 0.000000
1.000000 0.355000 0.000000
1.000000 0.355000 0.000000
0.120000 0.423750 0.000000
0.201250 0.423750 0.000000
0.282500 0.423750 0.000000
0.363750 0.423750 0.000000
0.445000 0.423750 0.000000
0.526250 0.423750 0.000000
0.607500 0.423750 0.000000
0.688750 0.423750 0.000000
0.770000 0.423750 0.000000
0.851250 0.423750 0.000000
0.932500 0.423750 0.000000
1.000000 0.423750 0.000000
1.000000 0.423750 0.000000
1.000000 0.423750 0.000000
1.000000 0.423750 0.000000
1.000000 0.423750 0.000000
1.000000 0.423750 0.000000
0.120000 0.492500 0.000000
0.201250 0.492500 0.000000
0.282500 0.492500 0.000000
0.363750 0.492500 0.000000
0.445000 0.492500 0.000000
0.526250 0.492500 0.000000
0.607500 0.492500 0.000000
0.688750 0.492500 0.000000
0.770000 0.492500 0.000000
0.851250 0.492500 0.000000
0.932500 0.492500 0.000000
1.000000 0.492500 0.000000
1.000000 0.492500 0.000000
1.000000 0.492500 0.000000
1.000000 0.492500 0.000000
1.000000 0.492500 0.000000
1.000000 0.492500 0.000000
0.120000 0.561250 0.000000
0.201250 0.561250 0.000000
0.282500 0.561250 0.000000
0.363750 0.561250 0.000000
0.445000 0.561250 0.000000
0.526250 0.561250 0.000000
0.607500 0.561250 0.000000
0.688750 0.561250 0.000000
0.770000 0.561250 0.000000
0.851250 0.561250 0.000000
0.932500 0.561250 0.000000
1.000000 0.561250 0.000000
1.000000 0.561250 0.000000
1.000000 0.561250 0.000000
1.000000 0.561250 0.000000
1.000000 0.561250 0.000000
1.000000 0.561250 0.000000
0.120000 0.630000 0.000000
0.201250 0.630000 0.000000
0.282500 0.630000 0.000000
0.363750 0.630000 0.000000
0.445000 0.630000 0.000000
0.526250 0.630000 0.000000
0.607500 0.630000 0.000000
0.688750 0.630000 0.000000
0.770000 0.630000 0.000000
0.851250 0.630000 0.000000
0.932500 0.630000 0.000000
1.000000 0.630000 0.000000
1.000000 0.630000 0.000000
1.000000 0.630000 0.000000
1.000000 0.630000 0.000000
1.000000 0.630000 0.000000
1.000000 0.630000 0.000000
0.120000 0.698750 0.000000
0.201250 0.698750 0.000000
0.282500 0.698750 0.000000
0.363750 0.698750 0.000000
0.445000 0.698750 0.000000
0.526250 0.698750 0.000000
0.607500 0.698750 0.000000
0.688750 0.698750 0.000000
0.770000 0.698750 0.000000
0.851250 0.698750 0.000000
0.932500 0.698750 0.000000
1.000000 0.698750 0.000000
1.000000 0.698750 0.000000
1.000000 0.698750 0.000000
1.000000 0.698750 0.000000
1.000000 0.698750 0.000000
1.000000 0.698750 0.000000
0.120000 0.767500 0.000000
0.201250 0.767500 0.000000
0.282500 0.767500 0.000000
0.363750 0.767500 0.000000
0.445000 0.767500 0.000000
0.526250 0.767500 0.000000
0.607500 0.767500 0.000000
0.688750 0.767500 0.000000
0.770000 0.767500 0.000000
0.851250 0.767500 0.000000
0.932500 0.767500 0.000000
1.000000 0.767500 0.000000
1.000000 0.767500 0.000000
1.000000 0.767500 0.000000
1.000000 0.767500 0.000000
1.000000 0.767500 0.000000
1.000000 0.767500 0.000000
0.120000 0.836250 0.000000
0.201250 0.836250 0.000000
0.282500 0.836250 0.000000
0.363750 0.836250 0.000000
0.445000 0.836250 0.000000
0.526250 0.836250 0.000000
0.607500 0.836250 0.000000
0.688750 0.836250 0.000000
0.770000 0.836250 0.000000
0.851250 0.836250 0.000000
0.932500 0.836250 0.000000
1.000000 0.836250 0.000000
1.000000 0.836250 0.000000
1.000000 0.836250 0.000000
1.000000 0.836250 0.000000
1.000000 0.836250 0.000000
1.000000 0.836250 0.000000
0.120000 0.905000 0.000000
0.201250 0.905000 0.000000
0.282500 0.905000 0.000000
0.363750 0.905000 0.000000
0.445000 0.905000 0.000000
0.526250 0.905000 0.000000
0.607500 0.905000 0.000000
0.688750 0.905000 0.000000
0.770000 0.905000 0.000000
0.851250 0.905000 0.000000
0.932500 0.905000 0.000000
1.000000 0.905000 0.000000
1.000000 0.905000 0.000000
1.000000 0.905000 0.000000
1.000000 0.905000 0.000000
1.000000 0.905000 0.000000
1.000000 0.905000 0.000000
0.120000 0.973750 0.000000
0.201250 0.973750 0.000000
0.282500 0.973750 0.000000
0.363750 0.973750 0.000000
0.445000 0.973750 0.000000
0.526250 0.973750 0.000000
0.607500 0.973750 0.000000
0.688750 0.973750 0.000000
0.770000 0.973750 0.000000
0.851250 0.973750 0.000000
0.932500 0.973750 0.000000
1.000000 0.973750 0.000000
1.000000 0.973750 0.000000
1.000000 0.973750 0.000000
1.000000 0.973750 0.000000
1.000000 0.973750 0.000000
1.000000 0.973750 0.000000
0.120000 1.000000 0.000000
0.201250 1.000000 0.000000
0.282500 1.000000 0.000000
0.363750 1.000000 0.000000
0.445000 1.000000 0.000000
0.526250 1.000000 0.000000
0.607500 1.000000 0.000000
0.688750 1.000000 0.000000
0.770000 1.000000 0.000000
0.851250 1.000000 0.000000
0.932500 1.000000 0.000000
1.000000 1.000000 0.000000
1.000000 1.000000 0.000000
1.000000 1.000000 0.000000
1.000000 1.000000 0.000000
1.000000 1.000000 0.000000
1.000000 1.000000 0.000000
0.120000 1.000000 0.000000
0.201250 1.000000 0.000000
0.282500 1.000000 0.000000
0.363750 1.000000 0.000000
0.445000 1.000000 0.000000
0.526250 1.000000 0.000000
0.607500 1.000000 0.000000
0.688750 1.000000 0.000000
0.770000 1.000000 0.000000
0.851250 1.000000 0.000000
0.932500 1.000000 0.000000
1.000000 1.000000 0.000000
1.000000 1.000000 0.000000
1.000000 1.000000 0.000000
1.000000 1.000000 0.000000
1.000000 1.000000 0.000000
1.000000 1.000000 0.000000
0.120000 1.000000 0.000000
0.201250 1.000000 0.000000
0.282500 1.000000 0.000000
0.363750 1.000000 0.000000
0.445000 1.000000 0.000000
0.526250 1.000000 0.000000
0.607500 1.000000 0.000000
0.688750 1.000000 0.000000
0.770000 1.000000 0.000000
0.851250 1.000000 0.000000
0.932500 1.000000 0.000000
1.000000 1.000000 0.000000
1.000000 1.000000 0.000000
1.000000 1.000000 0.000000
1.000000 1.000000 0.000000
1.000000 1.000000 0.000000
1.000000 1.000000 0.000000
0.120000 0.080000 0.000000
0.201250 0.080000 0.000000
0.282500 0.080000 0.000000
0.363750 0.080000 0.000000
0.445000 0.080000 0.000000
0.526250 0.080000 0.000000
0.607500 0.080000 0.000000
0.688750 0.080000 0.000000
0.770000 0.080000 0.000000
0.851250 0.080000 0.000000
0.932500 0.080000 0.000000
1.000000 0.080000 0.000000
1.000000 0.080000 0.000000
1.000000 0.080000 0.000000
1.000000 0.080000 0.000000
1.000000 0.080000 0.000000
1.000000 0.080000 0.000000
0.120000 0.148750 0.000000
0.201250 0.148750 0.000000
0.282500 0.148750 0.000000
0.363750 0.148750 0.000000
0.445000 0.148750 0.000000
0.526250 0.148750 0.000000
0.607500 0.148750 0.000000
0.688750 0.148750 0.000000
0.770000 0.148750 0.000000
0.851250 0.148750 0.000000
0.932500 0.148750 0.000000
1.000000 0.148750 0.000000
1.000000 0.148750 0.000000
1.000000 0.148750 0.000000
1.000000 0.148750 0.000000
1.000000 0.148750 0.000000
1.000000 0.148750 0.000000
0.120000 0.217500 0.000000
0.201250 0.217500 0.000000
0.282500 0.217500 0.000000
0.363750 0.217500 0.000000
0.445000 0.217500 0.000000
0.526250 0.217500 0.000000
0.607500 0.217500 0.000000
0.688750 0.217500 0.000000
0.770000 0.217500 0.000000
0.851250 0.217500 0.000000
0.932500 0.217500 0.000000
1.000000 0.217500 0.000000
1.000000 0.217500 0.000000
1.000000 0.217500 0.000000
1.000000 0.217500 0.000000
1.000000 0.217500 0.000000
1.000000 0.217500 0.000000
0.120000 0.286250 0.000000
0.201250 0.286250 0.000000
0.282500 0.286250 0.000000
0.363750 0.286250 0.000000
0.445000 0.286250 0.000000
0.526250 0.286250 0.000000
0.607500 0.286250 0.000000
0.688750 0.286250 0.000000
0.770000 0.286250 0.000000
0.851250 0.286250 0.000000
0.932500 0.286250 0.000000
1.000000 0.286250 0.000000
1.000000 0.286250 0.000000
1.000000 0.286250 0.000000
1.000000 0.286250 0.000000
1.000000 0.286250 0.000000
1.000000 0.286250 0.000000
0.120000 0.355000 0.000000
0.201250 0.355000 0.000000
0.282500 0.355000 0.000000
0.363750 0.355000 0.000000
0.445000 0.355000 0.000000
0.526250 0.355000 0.000000
0.607500 0.355000 0.000000
0.688750 0.355000 0.000000
0.770000 0.355000 0.000000
0.851250 0.355000 0.000000
0.932500 0.355000 0.000000
1.000000 0.355000 0.000000
1.000000 0.355000 0.000000
1.000000 0.355000 0.000000
1.000000 0.355000 0.000000
1.000000 0.355000 0.000000
1.000000 0.355000 0.000000
0.120000 0.423750 0.000000
0.201250 0.423750 0.000000
0.282500 0.423750 0.000000
0.363750 0.423750 0.000000
0.445000 0.423750 0.000000
0.526250 0.423750 0.000000
0.607500 0.423750 0.000000
0.688750 0.423750 0.000000
0.770000 0.423750 0.000000
0.851250 0.423750 0.000000
0.932500 0.423750 0.000000
1.000000 0.423750 0.000000
1.000000 0.423750 0.000000
1.000000 0.423750 0.000000
1.000000 0.423750 0.000000
1.000000 0.423750 0.000000
1.000000 0.423750 0.000000
0.120000 0.492500 0.000000
0.201250 0.492500 0.000000
0.282500 0.492500 0.000000
0.363750 0.492500 0.000000
0.445000 0.492500 0.000000
0.526250 0.492500 0.000000
0.607500 0.492500 0.000000
0.688750 0.492500 0.000000
0.770000 0.492500 0.000000
0.851250 0.492500 0.000000
0.932500 0.492500 0.000000
1.000000 0.492500 0.000000
1.000000 0.492500 0.000000
1.000000 0.492500 0.000000
1.000000 0.492500 0.000000
1.000000 0.492500 0.000000
1.000000 0.492500 0.000000
0.120000 0.561250 0.000000
0.201250 0.561250 0.000000
0.282500 0.561250 0.000000
0.363750 0.561250 0.000000
0.445000 0.561250 0.000000
0.526250 0.561250 0.000000
0.607500 0.561250 0.000000
0.688750 0.561250 0.000000
0.770000 0.561250 0.000000
0.851250 0.561250 0.000000
0.932500 0.561250 0.000000
1.000000 0.561250 0.000000
1.000000 0.561250 0.000000
1.000000 0.561250 0.000000
1.000000 0.561250 0.000000
1.000000 0.561250 0.000000
1.000000 0.561250 0.000000
0.120000 0.630000 0.000000
0.201250 0.630000 0.000000
0.282500 0.630000 0.000000
0.363750 0.630000 0.000000
0.445000 0.630000 0.000000
0.526250 0.630000 0.000000
0.607500 0.630000 0.000000
0.688750 0.630000 0.000000
0.770000 0.630000 0.000000
0.851250 0.630000 0.000000
0.932500 0.630000 0.000000
1.000000 0.630000 0.000000
1.000000 0.630000 0.000000
1.000000 0.630000 0.000000
1.000000 0.630000 0.000000
1.000000 0.630000 0.000000
1.000000 0.630000 0.000000
0.120000 0.698750 0.000000
0.201250 0.698750 0.000000
0.282500 0.698750 0.000000
0.363750 0.698750 0.000000
0.445000 0.698750 0.000000
0.526250 0.698750 0.000000
0.607500 0.698750 0.000000
0.688750 0.698750 0.000000
0.770000 0.698750 0.000000
0.851250 0.698750 0.000000
0.932500 0.698750 0.000000
1.000000 0.698750 0.000000
1.000000 0.698750 0.000000
1.000000 0.698750 0.000000
1.000000 0.698750 0.000000
1.000000 0.698750 0.000000
1.000000 0.698750 0.000000
0.120000 0.767500 0.000000
0.201250 0.767500 0.000000
0.282500 0.767500 0.000000
0.363750 0.767500 0.000000
0.445000 0.767500 0.000000
0.526250 0.767500 0.000000
0.607500 0.767500 0.000000
0.688750 0.767500 0.000000
0.770000 0.767500 0.000000
0.851250 0.767500 0.000000
0.932500 0.767500 0.000000
1.000000 0.767500 0.000000
1.000000 0.767500 0.000000
1.000000 0.767500 0.000000
1.000000 0.767500 0.000000
1.000000 0.767500 0.000000
1.000000 0.767500 0.000000
0.120000 0.836250 0.000000
0.201250 0.836250 0.000000
0.282500 0.836250 0.000000
0.363750 0.836250 0.000000
0.445000 0.836250 0.000000
0.526250 0.836250 0.000000
0.607500 0.836250 0.000000
0.688750 0.836250 0.000000
0.770000 0.836250 0.000000
0.851250 0.836250 0.000000
0.932500 0.836250 0.000000
1.000000 0.836250 0.000000
1.000000 0.836250 0.000000
1.000000 0.836250 0.000000
1.000000 0.836250 0.000000
1.000000 0.836250 0.000000
1.000000 0.836250 0.000000
0.120000 0.905000 0.000000
0.201250 0.905000 0.000000
0.282500 0.905000 0.000000
0.363750 0.905000 0.000000
0.445000 0.905000 0.000000
0.526250 0.905000 0.000000
0.607500 0.905000 0.000000
0.688750 0.905000 0.000000
0.770000 0.905000 0.000000
0.851250 0.905000 0.000000
0.932500 0.905000 0.000000
1.000000 0.905000 0.000000
1.000000 0.905000 0.000000
1.000000 0.905000 0.000000
1.000000 0.905000 0.000000
1.000000 0.905000 0.000000
1.000000 0.905000 0.000000
0.120000 0.973750 0.000000
0.201250 0.973750 0.000000
0.282500 0.973750 0.000000
0.363750 0.973750 0.000000
0.445000 0.973750 0.000000
0.526250 0.973750 0.000000
0.607500 0.973750 0.000000
0.688750 0.973750 0.000000
0.770000 0.973750 0.000000
0.851250 0.973750 0.000000
0.932500 0.973750 0.000000
1.000000 0.973750 0.000000
1.000000 0.973750 0.000000
1.000000 0.973750 0.000000
1.000000 0.973750 0.000000
1.000000 0.973750 0.000000
1.000000 0.973750 0.000000
0.120000 1.000000 0.000000
0.201250 1.000000 0.000000
0.282500 1.000000 0.000000
0.363750 1.000000 0.000000
0.445000 1.000000 0.000000
0.526250 1.000000 0.000000
0.607500 1.000000 0.000000
0.688750 1.000000 0.000000
0.770000 1.000000 0.000000
0.851250 1.000000 0.000000
0.932500 1.000000 0.000000
1.000000 1.000000 0.000000
1.000000 1.000000 0.000000
1.000000 1.000000 0.000000
1.000000 1.000000 0.000000
1.000000 1.000000 0.000000
1.000000 1.000000 0.000000
0.120000 1.000000 0.000000
0.201250 1.000000 0.000000
0.282500 1.000000 0.000000
0.363750 1.000000 0.000000
0.445000 1.000000 0.000000
0.526250 1.000000 0.000000
0.607500 1.000000 0.000000
0.688750 1.000000 0.000000
0.770000 1.000000 0.000000
0.851250 1.000000 0.000000
0.932500 1.000000 0.000000
1.000000 1.000000 0.000000
1.000000 1.000000 0.000000
1.000000 1.000000 0.000000
1.000000 1.000000 0.000000
1.000000 1.000000 0.000000
1.000000 1.000000 0.000000
0.120000 1.000000 0.000000
0.201250 1.000000 0.000000
0.282500 1.000000 0.000000
0.363750 1.000000 0.000000
0.445000 1.000000 0.000000
0.526250 1.000000 0.000000
0.607500 1.000000 0.000000
0.688750 1.000000 0.000000
0.770000 1.000000 0.000000
0.851250 1.000000 0.000000
0.932500 1.000000 0.000000
1.000000 1.000000 0.000000
1.000000 1.000000 0.000000
1.000000 1.000000 0.000000
1.000000 1.000000 0.000000
1.000000 1.000000 0.000000
1.000000 1.000000 0.000000
0.120000 0.080000 0.046250
0.201250 0.080000 0.046250
0.282500 0.080000 0.046250
0.363750 0.080000 0.046250
0.445000 0.080000 0.046250
0.526250 0.080000 0.046250
0.607500 0.080000 0.046250
0.688750 0.080000 0.046250
0.770000 0.080000 0.046250
0.851250 0.080000 0.046250
0.932500 0.080000 0.046250
1.000000 0.080000 0.046250
1.000000 0.080000 0.046250
1.000000 0.080000 0.046250
1.000000 0.080000 0.046250
1.000000 0.080000 0.046250
1.000000 0.080000 0.046250
0.120000 0.148750 0.046250
0.201250 0.148750 0.046250
0.282500 0.148750 0.046250
0.363750 0.148750 0.046250
0.445000 0.148750 0.046250
0.526250 0.148750 0.046250
0.607500 0.148750 0.046250
0.688750 0.148750 0.046250
0.770000 0.148750 0.046250
0.851250 0.148750 0.046250
0.932500 0.148750 0.046250
1.000000 0.148750 0.046250
1.000000 0.148750 0.046250
1.000000 0.148750 0.046250
1.000000 0.148750 0.046250
1.000000 0.148750 0.046250
1.000000 0.148750 0.046250
0.120000 0.217500 0.046250
0.201250 0.217500 0.046250
0.282500 0.217500 0.046250
0.363750 0.217500 0.046250
0.445000 0.217500 0.046250
0.526250 0.217500 0.046250
0.607500 0.217500 0.046250
0.688750 0.217500 0.046250
0.770000 0.217500 0.046250
0.851250 0.217500 0.046250
0.932500 0.217500 0.046250
1.000000 0.217500 0.046250
1.000000 0.217500 0.046250
1.000000 0.217500 0.046250
1.000000 0.217500 0.046250
1.000000 0.217500 0.046250
1.000000 0.217500 0.046250
0.120000 0.286250 0.046250
0.201250 0.286250 0.046250
0.282500 0.286250 0.046250
0.363750 0.286250 0.046250
0.445000 0.286250 0.046250
0.526250 0.286250 0.046250
0.607500 0.286250 0.046250
0.688750 0.286250 0.046250
0.770000 0.286250 0.046250
0.851250 0.286250 0.046250
0.932500 0.286250 0.046250
1.000000 0.286250 0.046250
1.000000 0.286250 0.046250
1.000000 0.286250 0.046250
1.000000 0.286250 0.046250
1.000000 0.286250 0.046250
1.000000 0.286250 0.046250
0.120000 0.355000 0.046250
0.201250 0.355000 0.046250
0.282500 0.355000 0.046250
0.363750 0.355000 0.046250
0.445000 0.355000 0.046250
0.526250 0.355000 0.046250
0.607500 0.355000 0.046250
0.688750 0.355000 0.046250
0.770000 0.355000 0.046250
0.851250 0.355000 0.046250
0.932500 0.355000 0.046250
1.000000 0.355000 0.046250
1.000000 0.355000 0.046250
1.000000 0.355000 0.046250
1.000000 0.355000 0.046250
1.000000 0.355000 0.046250
1.000000 0.355000 0.046250
0.120000 0.423750 0.046250
0.201250 0.423750 0.046250
0.282500 0.423750 0.046250
0.363750 0.423750 0.046250
0.445000 0.423750 0.046250
0.526250 0.423750 0.046250
0.607500 0.423750 0.046250
0.688750 0.423750 0.046250
0.770000 0.423750 0.046250
0.851250 0.423750 0.046250
0.932500 0.423750 0.046250
1.000000 0.423750 0.046250
1.000000 0.423750 0.046250
1.000000 0.423750 0.046250
1.000000 0.423750 0.046250
1.000000 0.423750 0.046250
1.000000 0.423750 0.046250
0.120000 0.492500 0.046250
0.201250 0.492500 0.046250
0.282500 0.492500 0.046250
0.363750 0.492500 0.046250
0.445000 0.492500 0.046250
0.526250 0.492500 0.046250
0.607500 0.492500 0.046250
0.688750 0.492500 0.046250
0.770000 0.492500 0.046250
0.851250 0.492500 0.046250
0.932500 0.492500 0.046250
1.000000 0.492500 0.046250
1.000000 0.492500 0.046250
1.000000 0.492500 0.046250
1.000000 0.492500 0.046250
1.000000 0.492500 0.046250
1.000000 0.492500 0.046250
0.120000 0.561250 0.046250
0.201250 0.561250 0.046250
0.282500 0.561250 0.046250
0.363750 0.561250 0.046250
0.445000 0.561250 0.046250
0.526250 0.561250 0.046250
0.607500 0.561250 0.046250
0.688750 0.561250 0.046250
0.770000 0.561250 0.046250
0.851250 0.561250 0.046250
0.932500 0.561250 0.046250
1.000000 0.561250 0.046250
1.000000 0.561250 0.046250
1.000000 0.561250 0.046250
1.000000 0.561250 0.046250
1.000000 0.561250 0.046250
1.000000 0.561250 0.046250
0.120000 0.630000 0.046250
0.201250 0.630000 0.046250
0.282500 0.630000 0.046250
0.363750 0.630000 0.046250
0.445000 0.630000 0.046250
0.526250 0.630000 0.046250
0.607500 0.630000 0.046250
0.688750 0.630000 0.046250
0.770000 0.630000 0.046250
0.851250 0.630000 0.046250
0.932500 0.630000 0.046250
1.000000 0.630000 0.046250
1.000000 0.630000 0.046250
1.000000 0.630000 0.046250
1.000000 0.630000 0.046250
1.000000 0.630000 0.046250
1.000000 0.630000 0.046250
0.120000 0.698750 0.046250
0.201250 0.698750 0.046250
0.282500 0.698750 0.046250
0.363750 0.698750 0.046250
0.445000 0.698750 0.046250
0.526250 0.698750 0.046250
0.607500 0.698750 0.046250
0.688750 0.698750 0.046250
0.770000 0.698750 0.046250
0.851250 0.698750 0.046250
0.932500 0.698750 0.046250
1.000000 0.698750 0.046250
1.000000 0.698750 0.046250
1.000000 0.698750 0.046250
1.000000 0.698750 0.046250
1.000000 0.698750 0.046250
1.000000 0.698750 0.046250
0.120000 0.767500 0.046250
0.201250 0.767500 0.046250
0.282500 0.767500 0.046250
0.363750 0.767500 0.046250
0.445000 0.767500 0.046250
0.526250 0.767500 0.046250
0.607500 0.767500 0.046250
0.688750 0.767500 0.046250
0.770000 0.767500 0.046250
0.851250 0.767500 0.046250
0.932500 0.767500 0.046250
1.000000 0.767500 0.046250
1.000000 0.767500 0.046250
1.000000 0.767500 0.046250
1.000000 0.767500 0.046250
1.000000 0.767500 0.046250
1.000000 0.767500 0.046250
0.120000 0.836250 0.046250
0.201250 0.836250 0.046250
0.282500 0.836250 0.046250
0.363750 0.836250 0.046250
0.445000 0.836250 0.046250
0.526250 0.836250 0.046250
0.607500 0.836250 0.046250
0.688750 0.836250 0.046250
0.770000 0.836250 0.046250
0.851250 0.836250 0.046250
0.932500 0.836250 0.046250
1.000000 0.836250 0.046250
1.000000 0.836250 0.046250
1.000000 0.836250 0.046250
1.000000 0.836250 0.046250
1.000000 0.836250 0.046250
1.000000 0.836250 0.046250
0.120000 0.905000 0.046250
0.201250 0.905000 0.046250
0.282500 0.905000 0.046250
0.363750 0.905000 0.046250
0.445000 0.905000 0.046250
0.526250 0.905000 0.046250
0.607500 0.905000 0.046250
0.688750 0.905000 0.046250
0.770000 0.905000 0.046250
0.851250 0.905000 0.046250
0.932500 0.905000 0.046250
1.000000 0.905000 0.046250
1.000000 0.905000 0.046250
1.000000 0.905000 0.046250
1.000000 0.905000 0.046250
1.000000 0.905000 0.046250
1.000000 0.905000 0.046250
0.120000 0.973750 0.046250
0.201250 0.973750 0.046250
0.282500 0.973750 0.046250
0.363750 0.973750 0.046250
0.445000 0.973750 0.046250
0.526250 0.973750 0.046250
0.607500 0.973750 0.046250
0.688750 0.973750 0.046250
0.770000 0.973750 0.046250
0.851250 0.973750 0.046250
0.932500 0.973750 0.046250
1.000000 0.973750 0.046250
1.000000 0.973750 0.046250
1.000000 0.973750 0.046250
1.000000 0.973750 0.046250
1.000000 0.973750 0.046250
1.000000 0.973750 0.046250
0.120000 1.000000 0.046250
0.201250 1.000000 0.046250
0.282500 1.000000 0.046250
0.363750 1.000000 0.046250
0.445000 1.000000 0.046250
0.526250 1.000000 0.046250
0.607500 1.000000 0.046250
0.688750 1.000000 0.046250
0.770000 1.000000 0.046250
0.851250 1.000000 0.046250
0.932500 1.000000 0.046250
1.000000 1.000000 0.046250
1.000000 1.000000 0.046250
1.000000 1.000000 0.046250
1.000000 1.000000 0.046250
1.000000 1.000000 0.046250
1.000000 1.000000 0.046250
0.120000 1.000000 0.046250
0.201250 1.000000 0.046250
0.282500 1.000000 0.046250
0.363750 1.000000 0.046250
0.445000 1.000000 0.046250
0.526250 1.000000 0.046250
0.607500 1.000000 0.046250
0.688750 1.000000 0.046250
0.770000 1.000000 0.046250
0.851250 1.000000 0.046250
0.932500 1.000000 0.046250
1.000000 1.000000 0.046250
1.000000 1.000000 0.046250
1.000000 1.000000 0.046250
1.000000 1.000000 0.046250
1.000000 1.000000 0.046250
1.000000 1.000000 0.046250
0.120000 1.000000 0.046250
0.201250 1.000000 0.046250
0.282500 1.000000 0.046250
0.363750 1.000000 0.046250
0.445000 1.000000 0.046250
0.526250 1.000000 0.046250
0.607500 1.000000 0.046250
0.688750 1.000000 0.046250
0.770000 1.000000 0.046250
0.851250 1.000000 0.046250
0.932500 1.000000 0.046250
1.000000 1.000000 0.046250
1.000000 1.000000 0.046250
1.000000 1.000000 0.046250
1.000000 1.000000 0.046250
1.000000 1.000000 0.046250
1.000000 1.000000 0.046250
0.120000 0.080000 0.099375
0.201250 0.080000 0.099375
0.282500 0.080000 0.099375
0.363750 0.080000 0.099375
0.445000 0.080000 0.099375
0.526250 0.080000 0.099375
0.607500 0.080000 0.099375
0.688750 0.080000 0.099375
0.770000 0.080000 0.099375
0.851250 0.080000 0.099375
0.932500 0.080000 0.099375
1.000000 0.080000 0.099375
1.000000 0.080000 0.099375
1.000000 0.080000 0.099375
1.000000 0.080000 0.099375
1.000000 0.080000 0.099375
1.000000 0.080000 0.099375
0.120000 0.148750 0.099375
