app/src/main/assets/luts/golden_hour.cube
# ApexStudio filter: golden_hour
LUT_3D_SIZE 5
DOMAIN_MIN 0.0 0.0 0.0
DOMAIN_MAX 1.0 1.0 1.0
0.067500 0.000000 0.000000
0.317500 0.000000 0.000000
0.567500 0.000000 0.000000
0.817500 0.000000 0.000000
1.000000 0.000000 0.000000
0.067500 0.227500 0.000000
0.317500 0.227500 0.000000
0.567500 0.227500 0.000000
0.817500 0.227500 0.000000
1.000000 0.227500 0.000000
0.067500 0.477500 0.000000
0.317500 0.477500 0.000000
0.567500 0.477500 0.000000
0.817500 0.477500 0.000000
1.000000 0.477500 0.000000
0.067500 0.727500 0.000000
0.317500 0.727500 0.000000
0.567500 0.727500 0.000000
0.817500 0.727500 0.000000
1.000000 0.727500 0.000000
0.067500 0.977500 0.000000
0.317500 0.977500 0.000000
0.567500 0.977500 0.000000
0.817500 0.977500 0.000000
1.000000 0.977500 0.000000
0.067500 0.000000 0.182500
0.317500 0.000000 0.182500
0.567500 0.000000 0.182500
0.817500 0.000000 0.182500
1.000000 0.000000 0.182500
0.067500 0.227500 0.182500
0.317500 0.227500 0.182500
0.567500 0.227500 0.182500
0.817500 0.227500 0.182500
1.000000 0.227500 0.182500
0.067500 0.477500 0.182500
0.317500 0.477500 0.182500
0.567500 0.477500 0.182500
0.817500 0.477500 0.182500
1.000000 0.477500 0.182500
0.067500 0.727500 0.182500
0.317500 0.727500 0.182500
0.567500 0.727500 0.182500
0.817500 0.727500 0.182500
1.000000 0.727500 0.182500
0.067500 0.977500 0.182500
0.317500 0.977500 0.182500
0.567500 0.977500 0.182500
0.817500 0.977500 0.182500
1.000000 0.977500 0.182500
0.067500 0.000000 0.432500
0.317500 0.000000 0.432500
0.567500 0.000000 0.432500
0.817500 0.000000 0.432500
1.000000 0.000000 0.432500
0.067500 0.227500 0.432500
0.317500 0.227500 0.432500
0.567500 0.227500 0.432500
0.817500 0.227500 0.432500
1.000000 0.227500 0.432500
0.067500 0.477500 0.432500
0.317500 0.477500 0.432500
0.567500 0.477500 0.432500
0.817500 0.477500 0.432500
1.000000 0.477500 0.432500
0.067500 0.727500 0.432500
0.317500 0.727500 0.432500
0.567500 0.727500 0.432500
0.817500 0.727500 0.432500
1.000000 0.727500 0.432500
0.067500 0.977500 0.432500
0.317500 0.977500 0.432500
0.567500 0.977500 0.432500
0.817500 0.977500 0.432500
1.000000 0.977500 0.432500
0.067500 0.000000 0.682500
0.317500 0.000000 0.682500
0.567500 0.000000 0.682500
0.817500 0.000000 0.682500
1.000000 0.000000 0.682500
0.067500 0.227500 0.682500
0.317500 0.227500 0.682500
0.567500 0.227500 0.682500
0.817500 0.227500 0.682500
1.000000 0.227500 0.682500
0.067500 0.477500 0.682500
0.317500 0.477500 0.682500
0.567500 0.477500 0.682500
0.817500 0.477500 0.682500
1.000000 0.477500 0.682500
0.067500 0.727500 0.682500
0.317500 0.727500 0.682500
0.567500 0.727500 0.682500
0.817500 0.727500 0.682500
1.000000 0.727500 0.682500
0.067500 0.977500 0.682500
0.317500 0.977500 0.682500
0.567500 0.977500 0.682500
0.817500 0.977500 0.682500
1.000000 0.977500 0.682500
0.067500 0.000000 0.932500
0.317500 0.000000 0.932500
0.567500 0.000000 0.932500
0.817500 0.000000 0.932500
1.000000 0.000000 0.932500
0.067500 0.227500 0.932500
0.317500 0.227500 0.932500
0.567500 0.227500 0.932500
0.817500 0.227500 0.932500
1.000000 0.227500 0.932500
0.067500 0.477500 0.932500
0.317500 0.477500 0.932500
0.567500 0.477500 0.932500
0.817500 0.477500 0.932500
1.000000 0.477500 0.932500
0.067500 0.727500 0.932500
0.317500 0.727500 0.932500
0.567500 0.727500 0.932500
0.817500 0.727500 0.932500
1.000000 0.727500 0.932500
0.067500 0.977500 0.932500
0.317500 0.977500 0.932500
0.567500 0.977500 0.932500
0.817500 0.977500 0.932500
1.000000 0.977500 0.932500
