app/src/main/assets/luts/graphite.cube
# ApexStudio filter: graphite
LUT_3D_SIZE 5
DOMAIN_MIN 0.0 0.0 0.0
DOMAIN_MAX 1.0 1.0 1.0
0.100000 0.100000 0.100000
0.152325 0.152325 0.152325
0.204650 0.204650 0.204650
0.256975 0.256975 0.256975
0.309300 0.309300 0.309300
0.202725 0.202725 0.202725
0.255050 0.255050 0.255050
0.307375 0.307375 0.307375
0.359700 0.359700 0.359700
0.412025 0.412025 0.412025
0.305450 0.305450 0.305450
0.357775 0.357775 0.357775
0.410100 0.410100 0.410100
0.462425 0.462425 0.462425
0.514750 0.514750 0.514750
0.408175 0.408175 0.408175
0.460500 0.460500 0.460500
0.512825 0.512825 0.512825
0.565150 0.565150 0.565150
0.617475 0.617475 0.617475
0.510900 0.510900 0.510900
0.563225 0.563225 0.563225
0.615550 0.615550 0.615550
0.667875 0.667875 0.667875
0.720200 0.720200 0.720200
0.119950 0.119950 0.119950
0.172275 0.172275 0.172275
0.224600 0.224600 0.224600
0.276925 0.276925 0.276925
0.329250 0.329250 0.329250
0.222675 0.222675 0.222675
0.275000 0.275000 0.275000
0.327325 0.327325 0.327325
0.379650 0.379650 0.379650
0.431975 0.431975 0.431975
0.325400 0.325400 0.325400
0.377725 0.377725 0.377725
0.430050 0.430050 0.430050
0.482375 0.482375 0.482375
0.534700 0.534700 0.534700
0.428125 0.428125 0.428125
0.480450 0.480450 0.480450
0.532775 0.532775 0.532775
0.585100 0.585100 0.585100
0.637425 0.637425 0.637425
0.530850 0.530850 0.530850
0.583175 0.583175 0.583175
0.635500 0.635500 0.635500
0.687825 0.687825 0.687825
0.740150 0.740150 0.740150
0.139900 0.139900 0.139900
0.192225 0.192225 0.192225
0.244550 0.244550 0.244550
0.296875 0.296875 0.296875
0.349200 0.349200 0.349200
0.242625 0.242625 0.242625
0.294950 0.294950 0.294950
0.347275 0.347275 0.347275
0.399600 0.399600 0.399600
0.451925 0.451925 0.451925
0.345350 0.345350 0.345350
0.397675 0.397675 0.397675
0.450000 0.450000 0.450000
0.502325 0.502325 0.502325
0.554650 0.554650 0.554650
0.448075 0.448075 0.448075
0.500400 0.500400 0.500400
0.552725 0.552725 0.552725
0.605050 0.605050 0.605050
0.657375 0.657375 0.657375
0.550800 0.550800 0.550800
0.603125 0.603125 0.603125
0.655450 0.655450 0.655450
0.707775 0.707775 0.707775
0.760100 0.760100 0.760100
0.159850 0.159850 0.159850
0.212175 0.212175 0.212175
0.264500 0.264500 0.264500
0.316825 0.316825 0.316825
0.369150 0.369150 0.369150
0.262575 0.262575 0.262575
0.314900 0.314900 0.314900
0.367225 0.367225 0.367225
0.419550 0.419550 0.419550
0.471875 0.471875 0.471875
0.365300 0.365300 0.365300
0.417625 0.417625 0.417625
0.469950 0.469950 0.469950
0.522275 0.522275 0.522275
0.574600 0.574600 0.574600
0.468025 0.468025 0.468025
0.520350 0.520350 0.520350
0.572675 0.572675 0.572675
0.625000 0.625000 0.625000
0.677325 0.677325 0.677325
0.570750 0.570750 0.570750
0.623075 0.623075 0.623075
0.675400 0.675400 0.675400
0.727725 0.727725 0.727725
0.780050 0.780050 0.780050
0.179800 0.179800 0.179800
0.232125 0.232125 0.232125
0.284450 0.284450 0.284450
0.336775 0.336775 0.336775
0.389100 0.389100 0.389100
0.282525 0.282525 0.282525
0.334850 0.334850 0.334850
0.387175 0.387175 0.387175
0.439500 0.439500 0.439500
0.491825 0.491825 0.491825
0.385250 0.385250 0.385250
0.437575 0.437575 0.437575
0.489900 0.489900 0.489900
0.542225 0.542225 0.542225
0.594550 0.594550 0.594550
0.487975 0.487975 0.487975
0.540300 0.540300 0.540300
0.592625 0.592625 0.592625
0.644950 0.644950 0.644950
0.697275 0.697275 0.697275
0.590700 0.590700 0.590700
0.643025 0.643025 0.643025
0.695350 0.695350 0.695350
0.747675 0.747675 0.747675
0.800000 0.800000 0.800000
