app/src/main/assets/luts/graphite.cube
# ApexStudio filter: graphite
LUT_3D_SIZE 9
DOMAIN_MIN 0.0 0.0 0.0
DOMAIN_MAX 1.0 1.0 1.0
0.100000 0.100000 0.100000
0.126163 0.126163 0.126163
0.152325 0.152325 0.152325
0.178488 0.178488 0.178488
0.204650 0.204650 0.204650
0.230812 0.230812 0.230812
0.256975 0.256975 0.256975
0.283137 0.283137 0.283137
0.309300 0.309300 0.309300
0.151363 0.151363 0.151363
0.177525 0.177525 0.177525
0.203688 0.203688 0.203688
0.229850 0.229850 0.229850
0.256012 0.256012 0.256012
0.282175 0.282175 0.282175
0.308338 0.308338 0.308338
0.334500 0.334500 0.334500
0.360662 0.360662 0.360662
0.202725 0.202725 0.202725
0.228887 0.228887 0.228887
0.255050 0.255050 0.255050
0.281212 0.281212 0.281212
0.307375 0.307375 0.307375
0.333537 0.333537 0.333537
0.359700 0.359700 0.359700
0.385862 0.385862 0.385862
0.412025 0.412025 0.412025
0.254088 0.254088 0.254088
0.280250 0.280250 0.280250
0.306412 0.306412 0.306412
0.332575 0.332575 0.332575
0.358737 0.358737 0.358737
0.384900 0.384900 0.384900
0.411062 0.411062 0.411062
0.437225 0.437225 0.437225
0.463387 0.463387 0.463387
0.305450 0.305450 0.305450
0.331612 0.331612 0.331612
0.357775 0.357775 0.357775
0.383938 0.383938 0.383938
0.410100 0.410100 0.410100
0.436262 0.436262 0.436262
0.462425 0.462425 0.462425
0.488587 0.488587 0.488587
0.514750 0.514750 0.514750
0.356812 0.356812 0.356812
0.382975 0.382975 0.382975
0.409137 0.409137 0.409137
0.435300 0.435300 0.435300
0.461462 0.461462 0.461462
0.487625 0.487625 0.487625
0.513787 0.513787 0.513787
0.539950 0.539950 0.539950
0.566113 0.566113 0.566113
0.408175 0.408175 0.408175
0.434337 0.434337 0.434337
0.460500 0.460500 0.460500
0.486662 0.486662 0.486662
0.512825 0.512825 0.512825
0.538987 0.538987 0.538987
0.565150 0.565150 0.565150
0.591313 0.591313 0.591313
0.617475 0.617475 0.617475
0.459537 0.459537 0.459537
0.485700 0.485700 0.485700
0.511862 0.511862 0.511862
0.538025 0.538025 0.538025
0.564187 0.564187 0.564187
0.590350 0.590350 0.590350
0.616513 0.616513 0.616513
0.642675 0.642675 0.642675
0.668837 0.668837 0.668837
0.510900 0.510900 0.510900
0.537062 0.537062 0.537062
0.563225 0.563225 0.563225
0.589387 0.589387 0.589387
0.615550 0.615550 0.615550
0.641712 0.641712 0.641712
0.667875 0.667875 0.667875
0.694037 0.694037 0.694037
0.720200 0.720200 0.720200
0.109975 0.109975 0.109975
0.136137 0.136137 0.136137
0.162300 0.162300 0.162300
0.188463 0.188463 0.188463
0.214625 0.214625 0.214625
0.240787 0.240787 0.240787
0.266950 0.266950 0.266950
0.293112 0.293112 0.293112
0.319275 0.319275 0.319275
0.161337 0.161337 0.161337
0.187500 0.187500 0.187500
0.213663 0.213663 0.213663
0.239825 0.239825 0.239825
0.265987 0.265987 0.265987
0.292150 0.292150 0.292150
0.318312 0.318312 0.318312
0.344475 0.344475 0.344475
0.370637 0.370637 0.370637
0.212700 0.212700 0.212700
0.238863 0.238863 0.238863
0.265025 0.265025 0.265025
0.291187 0.291187 0.291187
0.317350 0.317350 0.317350
0.343512 0.343512 0.343512
0.369675 0.369675 0.369675
0.395837 0.395837 0.395837
0.422000 0.422000 0.422000
0.264062 0.264062 0.264062
0.290225 0.290225 0.290225
0.316387 0.316387 0.316387
0.342550 0.342550 0.342550
0.368712 0.368712 0.368712
0.394875 0.394875 0.394875
0.421037 0.421037 0.421037
0.447200 0.447200 0.447200
0.473362 0.473362 0.473362
0.315425 0.315425 0.315425
0.341587 0.341587 0.341587
0.367750 0.367750 0.367750
0.393912 0.393912 0.393912
0.420075 0.420075 0.420075
0.446237 0.446237 0.446237
0.472400 0.472400 0.472400
0.498562 0.498562 0.498562
0.524725 0.524725 0.524725
0.366787 0.366787 0.366787
0.392950 0.392950 0.392950
0.419112 0.419112 0.419112
0.445275 0.445275 0.445275
0.471437 0.471437 0.471437
0.497600 0.497600 0.497600
0.523762 0.523762 0.523762
0.549925 0.549925 0.549925
0.576087 0.576087 0.576087
0.418150 0.418150 0.418150
0.444312 0.444312 0.444312
0.470475 0.470475 0.470475
0.496637 0.496637 0.496637
0.522800 0.522800 0.522800
0.548962 0.548962 0.548962
0.575125 0.575125 0.575125
0.601287 0.601287 0.601287
0.627450 0.627450 0.627450
0.469512 0.469512 0.469512
0.495675 0.495675 0.495675
0.521837 0.521837 0.521837
0.548000 0.548000 0.548000
0.574162 0.574162 0.574162
0.600325 0.600325 0.600325
0.626487 0.626487 0.626487
0.652650 0.652650 0.652650
0.678812 0.678812 0.678812
0.520875 0.520875 0.520875
0.547037 0.547037 0.547037
0.573200 0.573200 0.573200
0.599362 0.599362 0.599362
0.625525 0.625525 0.625525
0.651687 0.651687 0.651687
0.677850 0.677850 0.677850
0.704012 0.704012 0.704012
0.730175 0.730175 0.730175
0.119950 0.119950 0.119950
0.146113 0.146113 0.146113
0.172275 0.172275 0.172275
0.198437 0.198437 0.198437
0.224600 0.224600 0.224600
0.250762 0.250762 0.250762
0.276925 0.276925 0.276925
0.303088 0.303088 0.303088
0.329250 0.329250 0.329250
0.171312 0.171312 0.171312
0.197475 0.197475 0.197475
0.223637 0.223637 0.223637
0.249800 0.249800 0.249800
0.275962 0.275962 0.275962
0.302125 0.302125 0.302125
0.328288 0.328288 0.328288
0.354450 0.354450 0.354450
0.380613 0.380613 0.380613
0.222675 0.222675 0.222675
0.248837 0.248837 0.248837
0.275000 0.275000 0.275000
0.301162 0.301162 0.301162
0.327325 0.327325 0.327325
0.353487 0.353487 0.353487
0.379650 0.379650 0.379650
0.405813 0.405813 0.405813
0.431975 0.431975 0.431975
0.274037 0.274037 0.274037
0.300200 0.300200 0.300200
0.326362 0.326362 0.326362
0.352525 0.352525 0.352525
0.378687 0.378687 0.378687
0.404850 0.404850 0.404850
0.431013 0.431013 0.431013
0.457175 0.457175 0.457175
0.483337 0.483337 0.483337
0.325400 0.325400 0.325400
0.351562 0.351562 0.351562
0.377725 0.377725 0.377725
0.403888 0.403888 0.403888
0.430050 0.430050 0.430050
0.456212 0.456212 0.456212
0.482375 0.482375 0.482375
0.508537 0.508537 0.508537
0.534700 0.534700 0.534700
0.376763 0.376763 0.376763
0.402925 0.402925 0.402925
0.429087 0.429087 0.429087
0.455250 0.455250 0.455250
0.481412 0.481412 0.481412
0.507575 0.507575 0.507575
0.533737 0.533737 0.533737
0.559900 0.559900 0.559900
0.586062 0.586062 0.586062
0.428125 0.428125 0.428125
0.454287 0.454287 0.454287
0.480450 0.480450 0.480450
0.506612 0.506612 0.506612
0.532775 0.532775 0.532775
0.558937 0.558937 0.558937
0.585100 0.585100 0.585100
0.611262 0.611262 0.611262
0.637425 0.637425 0.637425
0.479487 0.479487 0.479487
0.505650 0.505650 0.505650
0.531812 0.531812 0.531812
0.557975 0.557975 0.557975
0.584137 0.584137 0.584137
0.610300 0.610300 0.610300
0.636462 0.636462 0.636462
0.662625 0.662625 0.662625
0.688787 0.688787 0.688787
0.530850 0.530850 0.530850
0.557012 0.557012 0.557012
0.583175 0.583175 0.583175
0.609337 0.609337 0.609337
0.635500 0.635500 0.635500
0.661662 0.661662 0.661662
0.687825 0.687825 0.687825
0.713987 0.713987 0.713987
0.740150 0.740150 0.740150
0.129925 0.129925 0.129925
0.156087 0.156087 0.156087
0.182250 0.182250 0.182250
0.208413 0.208413 0.208413
0.234575 0.234575 0.234575
0.260737 0.260737 0.260737
0.286900 0.286900 0.286900
0.313063 0.313063 0.313063
0.339225 0.339225 0.339225
0.181287 0.181287 0.181287
0.207450 0.207450 0.207450
0.233613 0.233613 0.233613
0.259775 0.259775 0.259775
0.285937 0.285937 0.285937
0.312100 0.312100 0.312100
0.338263 0.338263 0.338263
0.364425 0.364425 0.364425
0.390587 0.390587 0.390587
0.232650 0.232650 0.232650
0.258813 0.258813 0.258813
0.284975 0.284975 0.284975
0.311137 0.311137 0.311137
0.337300 0.337300 0.337300
0.363462 0.363462 0.363462
0.389625 0.389625 0.389625
0.415787 0.415787 0.415787
0.441950 0.441950 0.441950
0.284013 0.284013 0.284013
0.310175 0.310175 0.310175
0.336337 0.336337 0.336337
0.362500 0.362500 0.362500
0.388663 0.388663 0.388663
0.414825 0.414825 0.414825
0.440987 0.440987 0.440987
0.467150 0.467150 0.467150
0.493312 0.493312 0.493312
0.335375 0.335375 0.335375
0.361537 0.361537 0.361537
0.387700 0.387700 0.387700
0.413863 0.413863 0.413863
0.440025 0.440025 0.440025
0.466187 0.466187 0.466187
0.492350 0.492350 0.492350
0.518512 0.518512 0.518512
0.544675 0.544675 0.544675
0.386737 0.386737 0.386737
0.412900 0.412900 0.412900
0.439062 0.439062 0.439062
0.465225 0.465225 0.465225
0.491387 0.491387 0.491387
0.517550 0.517550 0.517550
0.543712 0.543712 0.543712
0.569875 0.569875 0.569875
0.596037 0.596037 0.596037
0.438100 0.438100 0.438100
0.464262 0.464262 0.464262
0.490425 0.490425 0.490425
0.516587 0.516587 0.516587
0.542750 0.542750 0.542750
0.568912 0.568912 0.568912
0.595075 0.595075 0.595075
0.621237 0.621237 0.621237
0.647400 0.647400 0.647400
0.489462 0.489462 0.489462
0.515625 0.515625 0.515625
0.541787 0.541787 0.541787
0.567950 0.567950 0.567950
0.594112 0.594112 0.594112
0.620275 0.620275 0.620275
0.646437 0.646437 0.646437
0.672600 0.672600 0.672600
0.698762 0.698762 0.698762
0.540825 0.540825 0.540825
0.566987 0.566987 0.566987
0.593150 0.593150 0.593150
0.619312 0.619312 0.619312
0.645475 0.645475 0.645475
0.671637 0.671637 0.671637
0.697800 0.697800 0.697800
0.723962 0.723962 0.723962
0.750125 0.750125 0.750125
0.139900 0.139900 0.139900
0.166063 0.166063 0.166063
0.192225 0.192225 0.192225
0.218388 0.218388 0.218388
0.244550 0.244550 0.244550
0.270713 0.270713 0.270713
0.296875 0.296875 0.296875
0.323037 0.323037 0.323037
0.349200 0.349200 0.349200
0.191263 0.191263 0.191263
0.217425 0.217425 0.217425
0.243587 0.243587 0.243587
0.269750 0.269750 0.269750
0.295913 0.295913 0.295913
0.322075 0.322075 0.322075
0.348237 0.348237 0.348237
0.374400 0.374400 0.374400
0.400563 0.400563 0.400563
0.242625 0.242625 0.242625
0.268787 0.268787 0.268787
0.294950 0.294950 0.294950
0.321112 0.321112 0.321112
0.347275 0.347275 0.347275
0.373437 0.373437 0.373437
0.399600 0.399600 0.399600
0.425762 0.425762 0.425762
0.451925 0.451925 0.451925
0.293988 0.293988 0.293988
0.320150 0.320150 0.320150
0.346313 0.346313 0.346313
0.372475 0.372475 0.372475
0.398637 0.398637 0.398637
0.424800 0.424800 0.424800
0.450963 0.450963 0.450963
0.477125 0.477125 0.477125
0.503287 0.503287 0.503287
0.345350 0.345350 0.345350
0.371512 0.371512 0.371512
0.397675 0.397675 0.397675
0.423837 0.423837 0.423837
0.450000 0.450000 0.450000
0.476163 0.476163 0.476163
0.502325 0.502325 0.502325
0.528487 0.528487 0.528487
0.554650 0.554650 0.554650
0.396712 0.396712 0.396712
0.422875 0.422875 0.422875
0.449037 0.449037 0.449037
0.475200 0.475200 0.475200
0.501362 0.501362 0.501362
0.527525 0.527525 0.527525
0.553687 0.553687 0.553687
0.579850 0.579850 0.579850
0.606012 0.606012 0.606012
0.448075 0.448075 0.448075
0.474237 0.474237 0.474237
0.500400 0.500400 0.500400
0.526562 0.526562 0.526562
0.552725 0.552725 0.552725
0.578887 0.578887 0.578887
0.605050 0.605050 0.605050
0.631212 0.631212 0.631212
0.657375 0.657375 0.657375
0.499437 0.499437 0.499437
0.525600 0.525600 0.525600
0.551763 0.551763 0.551763
0.577925 0.577925 0.577925
0.604087 0.604087 0.604087
0.630250 0.630250 0.630250
0.656413 0.656413 0.656413
0.682575 0.682575 0.682575
0.708737 0.708737 0.708737
0.550800 0.550800 0.550800
0.576963 0.576963 0.576963
0.603125 0.603125 0.603125
0.629287 0.629287 0.629287
0.655450 0.655450 0.655450
0.681612 0.681612 0.681612
0.707775 0.707775 0.707775
0.733937 0.733937 0.733937
0.760100 0.760100 0.760100
0.149875 0.149875 0.149875
0.176038 0.176038 0.176038
0.202200 0.202200 0.202200
0.228362 0.228362 0.228362
0.254525 0.254525 0.254525
0.280687 0.280687 0.280687
0.306850 0.306850 0.306850
0.333013 0.333013 0.333013
0.359175 0.359175 0.359175
0.201238 0.201238 0.201238
0.227400 0.227400 0.227400
0.253563 0.253563 0.253563
0.279725 0.279725 0.279725
0.305887 0.305887 0.305887
0.332050 0.332050 0.332050
0.358213 0.358213 0.358213
0.384375 0.384375 0.384375
0.410537 0.410537 0.410537
0.252600 0.252600 0.252600
0.278763 0.278763 0.278763
0.304925 0.304925 0.304925
0.331087 0.331087 0.331087
0.357250 0.357250 0.357250
0.383412 0.383412 0.383412
0.409575 0.409575 0.409575
0.435737 0.435737 0.435737
0.461900 0.461900 0.461900
0.303963 0.303963 0.303963
0.330125 0.330125 0.330125
0.356287 0.356287 0.356287
0.382450 0.382450 0.382450
0.408613 0.408613 0.408613
0.434775 0.434775 0.434775
0.460938 0.460938 0.460938
0.487100 0.487100 0.487100
0.513262 0.513262 0.513262
0.355325 0.355325 0.355325
0.381487 0.381487 0.381487
0.407650 0.407650 0.407650
0.433813 0.433813 0.433813
0.459975 0.459975 0.459975
0.486138 0.486138 0.486138
0.512300 0.512300 0.512300
0.538462 0.538462 0.538462
0.564625 0.564625 0.564625
0.406687 0.406687 0.406687
0.432850 0.432850 0.432850
0.459012 0.459012 0.459012
0.485175 0.485175 0.485175
0.511338 0.511338 0.511338
0.537500 0.537500 0.537500
0.563662 0.563662 0.563662
0.589825 0.589825 0.589825
0.615988 0.615988 0.615988
0.458050 0.458050 0.458050
0.484212 0.484212 0.484212
0.510375 0.510375 0.510375
0.536538 0.536538 0.536538
0.562700 0.562700 0.562700
0.588862 0.588862 0.588862
0.615025 0.615025 0.615025
0.641188 0.641188 0.641188
0.667350 0.667350 0.667350
0.509413 0.509413 0.509413
0.535575 0.535575 0.535575
0.561738 0.561738 0.561738
0.587900 0.587900 0.587900
0.614062 0.614062 0.614062
0.640225 0.640225 0.640225
0.666388 0.666388 0.666388
0.692550 0.692550 0.692550
0.718712 0.718712 0.718712
0.560775 0.560775 0.560775
0.586938 0.586938 0.586938
0.613100 0.613100 0.613100
0.639262 0.639262 0.639262
0.665425 0.665425 0.665425
0.691587 0.691587 0.691587
0.717750 0.717750 0.717750
0.743912 0.743912 0.743912
0.770075 0.770075 0.770075
0.159850 0.159850 0.159850
0.186013 0.186013 0.186013
0.212175 0.212175 0.212175
0.238337 0.238337 0.238337
0.264500 0.264500 0.264500
0.290662 0.290662 0.290662
0.316825 0.316825 0.316825
0.342988 0.342988 0.342988
0.369150 0.369150 0.369150
0.211212 0.211212 0.211212
0.237375 0.237375 0.237375
0.263537 0.263537 0.263537
0.289700 0.289700 0.289700
0.315862 0.315862 0.315862
0.342025 0.342025 0.342025
0.368188 0.368188 0.368188
0.394350 0.394350 0.394350
0.420512 0.420512 0.420512
0.262575 0.262575 0.262575
0.288737 0.288737 0.288737
0.314900 0.314900 0.314900
0.341062 0.341062 0.341062
0.367225 0.367225 0.367225
0.393388 0.393388 0.393388
0.419550 0.419550 0.419550
0.445712 0.445712 0.445712
0.471875 0.471875 0.471875
0.313937 0.313937 0.313937
0.340100 0.340100 0.340100
0.366263 0.366263 0.366263
0.392425 0.392425 0.392425
0.418588 0.418588 0.418588
0.444750 0.444750 0.444750
0.470912 0.470912 0.470912
0.497075 0.497075 0.497075
0.523237 0.523237 0.523237
0.365300 0.365300 0.365300
0.391462 0.391462 0.391462
0.417625 0.417625 0.417625
0.443788 0.443788 0.443788
0.469950 0.469950 0.469950
0.496112 0.496112 0.496112
0.522275 0.522275 0.522275
0.548438 0.548438 0.548438
0.574600 0.574600 0.574600
0.416662 0.416662 0.416662
0.442825 0.442825 0.442825
0.468988 0.468988 0.468988
0.495150 0.495150 0.495150
0.521312 0.521312 0.521312
0.547475 0.547475 0.547475
0.573637 0.573637 0.573637
0.599800 0.599800 0.599800
0.625962 0.625962 0.625962
0.468025 0.468025 0.468025
0.494188 0.494188 0.494188
0.520350 0.520350 0.520350
0.546512 0.546512 0.546512
0.572675 0.572675 0.572675
0.598837 0.598837 0.598837
0.625000 0.625000 0.625000
0.651162 0.651162 0.651162
0.677325 0.677325 0.677325
0.519388 0.519388 0.519388
0.545550 0.545550 0.545550
0.571712 0.571712 0.571712
0.597875 0.597875 0.597875
0.624037 0.624037 0.624037
0.650200 0.650200 0.650200
0.676362 0.676362 0.676362
0.702525 0.702525 0.702525
0.728687 0.728687 0.728687
0.570750 0.570750 0.570750
0.596912 0.596912 0.596912
0.623075 0.623075 0.623075
0.649237 0.649237 0.649237
0.675400 0.675400 0.675400
0.701562 0.701562 0.701562
0.727725 0.727725 0.727725
0.753887 0.753887 0.753887
0.780050 0.780050 0.780050
0.169825 0.169825 0.169825
0.195987 0.195987 0.195987
0.222150 0.222150 0.222150
0.248312 0.248312 0.248312
0.274475 0.274475 0.274475
0.300638 0.300638 0.300638
0.326800 0.326800 0.326800
0.352962 0.352962 0.352962
0.379125 0.379125 0.379125
0.221187 0.221187 0.221187
0.247350 0.247350 0.247350
0.273512 0.273512 0.273512
0.299675 0.299675 0.299675
0.325838 0.325838 0.325838
0.352000 0.352000 0.352000
0.378162 0.378162 0.378162
0.404325 0.404325 0.404325
0.430488 0.430488 0.430488
0.272550 0.272550 0.272550
0.298712 0.298712 0.298712
0.324875 0.324875 0.324875
0.351038 0.351038 0.351038
0.377200 0.377200 0.377200
0.403362 0.403362 0.403362
0.429525 0.429525 0.429525
0.455687 0.455687 0.455687
0.481850 0.481850 0.481850
0.323912 0.323912 0.323912
0.350075 0.350075 0.350075
0.376238 0.376238 0.376238
0.402400 0.402400 0.402400
0.428562 0.428562 0.428562
0.454725 0.454725 0.454725
0.480887 0.480887 0.480887
0.507050 0.507050 0.507050
0.533212 0.533212 0.533212
0.375275 0.375275 0.375275
0.401438 0.401438 0.401438
0.427600 0.427600 0.427600
0.453762 0.453762 0.453762
0.479925 0.479925 0.479925
0.506088 0.506088 0.506088
0.532250 0.532250 0.532250
0.558412 0.558412 0.558412
0.584575 0.584575 0.584575
0.426638 0.426638 0.426638
0.452800 0.452800 0.452800
0.478962 0.478962 0.478962
0.505125 0.505125 0.505125
0.531287 0.531287 0.531287
0.557450 0.557450 0.557450
0.583612 0.583612 0.583612
0.609775 0.609775 0.609775
0.635937 0.635937 0.635937
0.478000 0.478000 0.478000
0.504162 0.504162 0.504162
0.530325 0.530325 0.530325
0.556487 0.556487 0.556487
0.582650 0.582650 0.582650
0.608812 0.608812 0.608812
0.634975 0.634975 0.634975
0.661137 0.661137 0.661137
0.687300 0.687300 0.687300
0.529362 0.529362 0.529362
0.555525 0.555525 0.555525
0.581687 0.581687 0.581687
0.607850 0.607850 0.607850
0.634012 0.634012 0.634012
0.660175 0.660175 0.660175
0.686337 0.686337 0.686337
0.712500 0.712500 0.712500
0.738662 0.738662 0.738662
0.580725 0.580725 0.580725
0.606887 0.606887 0.606887
0.633050 0.633050 0.633050
0.659212 0.659212 0.659212
0.685375 0.685375 0.685375
0.711537 0.711537 0.711537
0.737700 0.737700 0.737700
0.763862 0.763862 0.763862
0.790025 0.790025 0.790025
0.179800 0.179800 0.179800
0.205962 0.205962 0.205962
0.232125 0.232125 0.232125
0.258288 0.258288 0.258288
0.284450 0.284450 0.284450
0.310612 0.310612 0.310612
0.336775 0.336775 0.336775
0.362938 0.362938 0.362938
0.389100 0.389100 0.389100
0.231163 0.231163 0.231163
0.257325 0.257325 0.257325
0.283488 0.283488 0.283488
0.309650 0.309650 0.309650
0.335812 0.335812 0.335812
0.361975 0.361975 0.361975
0.388138 0.388138 0.388138
0.414300 0.414300 0.414300
0.440462 0.440462 0.440462
0.282525 0.282525 0.282525
0.308688 0.308688 0.308688
0.334850 0.334850 0.334850
0.361012 0.361012 0.361012
0.387175 0.387175 0.387175
0.413337 0.413337 0.413337
0.439500 0.439500 0.439500
0.465662 0.465662 0.465662
0.491825 0.491825 0.491825
0.333888 0.333888 0.333888
0.360050 0.360050 0.360050
0.386212 0.386212 0.386212
0.412375 0.412375 0.412375
0.438537 0.438537 0.438537
0.464700 0.464700 0.464700
0.490862 0.490862 0.490862
0.517025 0.517025 0.517025
0.543187 0.543187 0.543187
0.385250 0.385250 0.385250
0.411412 0.411412 0.411412
0.437575 0.437575 0.437575
0.463738 0.463738 0.463738
0.489900 0.489900 0.489900
0.516062 0.516062 0.516062
0.542225 0.542225 0.542225
0.568387 0.568387 0.568387
0.594550 0.594550 0.594550
0.436612 0.436612 0.436612
0.462775 0.462775 0.462775
0.488937 0.488937 0.488937
0.515100 0.515100 0.515100
0.541262 0.541262 0.541262
0.567425 0.567425 0.567425
0.593587 0.593587 0.593587
0.619750 0.619750 0.619750
0.645912 0.645912 0.645912
0.487975 0.487975 0.487975
0.514137 0.514137 0.514137
0.540300 0.540300 0.540300
0.566462 0.566462 0.566462
0.592625 0.592625 0.592625
0.618787 0.618787 0.618787
0.644950 0.644950 0.644950
0.671113 0.671113 0.671113
0.697275 0.697275 0.697275
0.539337 0.539337 0.539337
0.565500 0.565500 0.565500
0.591662 0.591662 0.591662
0.617825 0.617825 0.617825
0.643987 0.643987 0.643987
0.670150 0.670150 0.670150
0.696313 0.696313 0.696313
0.722475 0.722475 0.722475
0.748637 0.748637 0.748637
0.590700 0.590700 0.590700
0.616862 0.616862 0.616862
0.643025 0.643025 0.643025
0.669187 0.669187 0.669187
0.695350 0.695350 0.695350
0.721512 0.721512 0.721512
0.747675 0.747675 0.747675
0.773837 0.773837 0.773837
0.800000 0.800000 0.800000
