app/src/main/assets/luts/graphite.cube
# ApexStudio filter: graphite
LUT_3D_SIZE 17
DOMAIN_MIN 0.0 0.0 0.0
DOMAIN_MAX 1.0 1.0 1.0
0.100000 0.100000 0.100000
0.113081 0.113081 0.113081
0.126163 0.126163 0.126163
0.139244 0.139244 0.139244
0.152325 0.152325 0.152325
0.165406 0.165406 0.165406
0.178488 0.178488 0.178488
0.191569 0.191569 0.191569
0.204650 0.204650 0.204650
0.217731 0.217731 0.217731
0.230812 0.230812 0.230812
0.243894 0.243894 0.243894
0.256975 0.256975 0.256975
0.270056 0.270056 0.270056
0.283137 0.283137 0.283137
0.296219 0.296219 0.296219
0.309300 0.309300 0.309300
0.125681 0.125681 0.125681
0.138763 0.138763 0.138763
0.151844 0.151844 0.151844
0.164925 0.164925 0.164925
0.178006 0.178006 0.178006
0.191087 0.191087 0.191087
0.204169 0.204169 0.204169
0.217250 0.217250 0.217250
0.230331 0.230331 0.230331
0.243412 0.243412 0.243412
0.256494 0.256494 0.256494
0.269575 0.269575 0.269575
0.282656 0.282656 0.282656
0.295737 0.295737 0.295737
0.308819 0.308819 0.308819
0.321900 0.321900 0.321900
0.334981 0.334981 0.334981
0.151363 0.151363 0.151363
0.164444 0.164444 0.164444
0.177525 0.177525 0.177525
0.190606 0.190606 0.190606
0.203688 0.203688 0.203688
0.216769 0.216769 0.216769
0.229850 0.229850 0.229850
0.242931 0.242931 0.242931
0.256012 0.256012 0.256012
0.269094 0.269094 0.269094
0.282175 0.282175 0.282175
0.295256 0.295256 0.295256
0.308338 0.308338 0.308338
0.321419 0.321419 0.321419
0.334500 0.334500 0.334500
0.347581 0.347581 0.347581
0.360662 0.360662 0.360662
0.177044 0.177044 0.177044
0.190125 0.190125 0.190125
0.203206 0.203206 0.203206
0.216287 0.216287 0.216287
0.229369 0.229369 0.229369
0.242450 0.242450 0.242450
0.255531 0.255531 0.255531
0.268613 0.268613 0.268613
0.281694 0.281694 0.281694
0.294775 0.294775 0.294775
0.307856 0.307856 0.307856
0.320937 0.320937 0.320937
0.334019 0.334019 0.334019
0.347100 0.347100 0.347100
0.360181 0.360181 0.360181
0.373262 0.373262 0.373262
0.386344 0.386344 0.386344
0.202725 0.202725 0.202725
0.215806 0.215806 0.215806
0.228887 0.228887 0.228887
0.241969 0.241969 0.241969
0.255050 0.255050 0.255050
0.268131 0.268131 0.268131
0.281212 0.281212 0.281212
0.294294 0.294294 0.294294
0.307375 0.307375 0.307375
0.320456 0.320456 0.320456
0.333537 0.333537 0.333537
0.346619 0.346619 0.346619
0.359700 0.359700 0.359700
0.372781 0.372781 0.372781
0.385862 0.385862 0.385862
0.398944 0.398944 0.398944
0.412025 0.412025 0.412025
0.228406 0.228406 0.228406
0.241487 0.241487 0.241487
0.254569 0.254569 0.254569
0.267650 0.267650 0.267650
0.280731 0.280731 0.280731
0.293812 0.293812 0.293812
0.306894 0.306894 0.306894
0.319975 0.319975 0.319975
0.333056 0.333056 0.333056
0.346137 0.346137 0.346137
0.359219 0.359219 0.359219
0.372300 0.372300 0.372300
0.385381 0.385381 0.385381
0.398462 0.398462 0.398462
0.411544 0.411544 0.411544
0.424625 0.424625 0.424625
0.437706 0.437706 0.437706
0.254088 0.254088 0.254088
0.267169 0.267169 0.267169
0.280250 0.280250 0.280250
0.293331 0.293331 0.293331
0.306412 0.306412 0.306412
0.319494 0.319494 0.319494
0.332575 0.332575 0.332575
0.345656 0.345656 0.345656
0.358737 0.358737 0.358737
0.371819 0.371819 0.371819
0.384900 0.384900 0.384900
0.397981 0.397981 0.397981
0.411062 0.411062 0.411062
0.424144 0.424144 0.424144
0.437225 0.437225 0.437225
0.450306 0.450306 0.450306
0.463387 0.463387 0.463387
0.279769 0.279769 0.279769
0.292850 0.292850 0.292850
0.305931 0.305931 0.305931
0.319013 0.319013 0.319013
0.332094 0.332094 0.332094
0.345175 0.345175 0.345175
0.358256 0.358256 0.358256
0.371337 0.371337 0.371337
0.384419 0.384419 0.384419
0.397500 0.397500 0.397500
0.410581 0.410581 0.410581
0.423662 0.423662 0.423662
0.436744 0.436744 0.436744
0.449825 0.449825 0.449825
0.462906 0.462906 0.462906
0.475988 0.475988 0.475988
0.489069 0.489069 0.489069
0.305450 0.305450 0.305450
0.318531 0.318531 0.318531
0.331612 0.331612 0.331612
0.344694 0.344694 0.344694
0.357775 0.357775 0.357775
0.370856 0.370856 0.370856
0.383938 0.383938 0.383938
0.397019 0.397019 0.397019
0.410100 0.410100 0.410100
0.423181 0.423181 0.423181
0.436262 0.436262 0.436262
0.449344 0.449344 0.449344
0.462425 0.462425 0.462425
0.475506 0.475506 0.475506
0.488587 0.488587 0.488587
0.501669 0.501669 0.501669
0.514750 0.514750 0.514750
0.331131 0.331131 0.331131
0.344212 0.344212 0.344212
0.357294 0.357294 0.357294
0.370375 0.370375 0.370375
0.383456 0.383456 0.383456
0.396537 0.396537 0.396537
0.409619 0.409619 0.409619
0.422700 0.422700 0.422700
0.435781 0.435781 0.435781
0.448862 0.448862 0.448862
0.461944 0.461944 0.461944
0.475025 0.475025 0.475025
0.488106 0.488106 0.488106
0.501188 0.501188 0.501188
0.514269 0.514269 0.514269
0.527350 0.527350 0.527350
0.540431 0.540431 0.540431
0.356812 0.356812 0.356812
0.369894 0.369894 0.369894
0.382975 0.382975 0.382975
0.396056 0.396056 0.396056
0.409137 0.409137 0.409137
0.422219 0.422219 0.422219
0.435300 0.435300 0.435300
0.448381 0.448381 0.448381
0.461462 0.461462 0.461462
0.474544 0.474544 0.474544
0.487625 0.487625 0.487625
0.500706 0.500706 0.500706
0.513787 0.513787 0.513787
0.526869 0.526869 0.526869
0.539950 0.539950 0.539950
0.553031 0.553031 0.553031
0.566113 0.566113 0.566113
0.382494 0.382494 0.382494
0.395575 0.395575 0.395575
0.408656 0.408656 0.408656
0.421737 0.421737 0.421737
0.434819 0.434819 0.434819
0.447900 0.447900 0.447900
0.460981 0.460981 0.460981
0.474063 0.474063 0.474063
0.487144 0.487144 0.487144
0.500225 0.500225 0.500225
0.513306 0.513306 0.513306
0.526387 0.526387 0.526387
0.539469 0.539469 0.539469
0.552550 0.552550 0.552550
0.565631 0.565631 0.565631
0.578712 0.578712 0.578712
0.591794 0.591794 0.591794
0.408175 0.408175 0.408175
0.421256 0.421256 0.421256
0.434337 0.434337 0.434337
0.447419 0.447419 0.447419
0.460500 0.460500 0.460500
0.473581 0.473581 0.473581
0.486662 0.486662 0.486662
0.499744 0.499744 0.499744
0.512825 0.512825 0.512825
0.525906 0.525906 0.525906
0.538987 0.538987 0.538987
0.552069 0.552069 0.552069
0.565150 0.565150 0.565150
0.578231 0.578231 0.578231
0.591313 0.591313 0.591313
0.604394 0.604394 0.604394
0.617475 0.617475 0.617475
0.433856 0.433856 0.433856
0.446937 0.446937 0.446937
0.460019 0.460019 0.460019
0.473100 0.473100 0.473100
0.486181 0.486181 0.486181
0.499262 0.499262 0.499262
0.512344 0.512344 0.512344
0.525425 0.525425 0.525425
0.538506 0.538506 0.538506
0.551587 0.551587 0.551587
0.564669 0.564669 0.564669
0.577750 0.577750 0.577750
0.590831 0.590831 0.590831
0.603912 0.603912 0.603912
0.616994 0.616994 0.616994
0.630075 0.630075 0.630075
0.643156 0.643156 0.643156
0.459537 0.459537 0.459537
0.472619 0.472619 0.472619
0.485700 0.485700 0.485700
0.498781 0.498781 0.498781
0.511862 0.511862 0.511862
0.524944 0.524944 0.524944
0.538025 0.538025 0.538025
0.551106 0.551106 0.551106
0.564187 0.564187 0.564187
0.577269 0.577269 0.577269
0.590350 0.590350 0.590350
0.603431 0.603431 0.603431
0.616513 0.616513 0.616513
0.629594 0.629594 0.629594
0.642675 0.642675 0.642675
0.655756 0.655756 0.655756
0.668837 0.668837 0.668837
0.485219 0.485219 0.485219
0.498300 0.498300 0.498300
0.511381 0.511381 0.511381
0.524462 0.524462 0.524462
0.537544 0.537544 0.537544
0.550625 0.550625 0.550625
0.563706 0.563706 0.563706
0.576788 0.576788 0.576788
0.589869 0.589869 0.589869
0.602950 0.602950 0.602950
0.616031 0.616031 0.616031
0.629112 0.629112 0.629112
0.642194 0.642194 0.642194
0.655275 0.655275 0.655275
0.668356 0.668356 0.668356
0.681437 0.681437 0.681437
0.694519 0.694519 0.694519
0.510900 0.510900 0.510900
0.523981 0.523981 0.523981
0.537062 0.537062 0.537062
0.550144 0.550144 0.550144
0.563225 0.563225 0.563225
0.576306 0.576306 0.576306
0.589387 0.589387 0.589387
0.602469 0.602469 0.602469
0.615550 0.615550 0.615550
0.628631 0.628631 0.628631
0.641712 0.641712 0.641712
0.654794 0.654794 0.654794
0.667875 0.667875 0.667875
0.680956 0.680956 0.680956
0.694037 0.694037 0.694037
0.707119 0.707119 0.707119
0.720200 0.720200 0.720200
0.104988 0.104988 0.104988
0.118069 0.118069 0.118069
0.131150 0.131150 0.131150
0.144231 0.144231 0.144231
0.157312 0.157312 0.157312
0.170394 0.170394 0.170394
0.183475 0.183475 0.183475
0.196556 0.196556 0.196556
0.209637 0.209637 0.209637
0.222719 0.222719 0.222719
0.235800 0.235800 0.235800
0.248881 0.248881 0.248881
0.261962 0.261962 0.261962
0.275044 0.275044 0.275044
0.288125 0.288125 0.288125
0.301206 0.301206 0.301206
0.314287 0.314287 0.314287
0.130669 0.130669 0.130669
0.143750 0.143750 0.143750
0.156831 0.156831 0.156831
0.169913 0.169913 0.169913
0.182994 0.182994 0.182994
0.196075 0.196075 0.196075
0.209156 0.209156 0.209156
0.222237 0.222237 0.222237
0.235319 0.235319 0.235319
0.248400 0.248400 0.248400
0.261481 0.261481 0.261481
0.274562 0.274562 0.274562
0.287644 0.287644 0.287644
0.300725 0.300725 0.300725
0.313806 0.313806 0.313806
0.326887 0.326887 0.326887
0.339969 0.339969 0.339969
0.156350 0.156350 0.156350
0.169431 0.169431 0.169431
0.182512 0.182512 0.182512
0.195594 0.195594 0.195594
0.208675 0.208675 0.208675
0.221756 0.221756 0.221756
0.234837 0.234837 0.234837
0.247919 0.247919 0.247919
0.261000 0.261000 0.261000
0.274081 0.274081 0.274081
0.287162 0.287162 0.287162
0.300244 0.300244 0.300244
0.313325 0.313325 0.313325
0.326406 0.326406 0.326406
0.339487 0.339487 0.339487
0.352569 0.352569 0.352569
0.365650 0.365650 0.365650
0.182031 0.182031 0.182031
0.195112 0.195112 0.195112
0.208194 0.208194 0.208194
0.221275 0.221275 0.221275
0.234356 0.234356 0.234356
0.247437 0.247437 0.247437
0.260519 0.260519 0.260519
0.273600 0.273600 0.273600
0.286681 0.286681 0.286681
0.299762 0.299762 0.299762
0.312844 0.312844 0.312844
0.325925 0.325925 0.325925
0.339006 0.339006 0.339006
0.352087 0.352087 0.352087
0.365169 0.365169 0.365169
0.378250 0.378250 0.378250
0.391331 0.391331 0.391331
0.207712 0.207712 0.207712
0.220794 0.220794 0.220794
0.233875 0.233875 0.233875
0.246956 0.246956 0.246956
0.260037 0.260037 0.260037
0.273119 0.273119 0.273119
0.286200 0.286200 0.286200
0.299281 0.299281 0.299281
0.312362 0.312362 0.312362
0.325444 0.325444 0.325444
0.338525 0.338525 0.338525
0.351606 0.351606 0.351606
0.364687 0.364687 0.364687
0.377769 0.377769 0.377769
0.390850 0.390850 0.390850
0.403931 0.403931 0.403931
0.417013 0.417013 0.417013
0.233394 0.233394 0.233394
0.246475 0.246475 0.246475
0.259556 0.259556 0.259556
0.272637 0.272637 0.272637
0.285719 0.285719 0.285719
0.298800 0.298800 0.298800
0.311881 0.311881 0.311881
0.324962 0.324962 0.324962
0.338044 0.338044 0.338044
0.351125 0.351125 0.351125
0.364206 0.364206 0.364206
0.377287 0.377287 0.377287
0.390369 0.390369 0.390369
0.403450 0.403450 0.403450
0.416531 0.416531 0.416531
0.429612 0.429612 0.429612
0.442694 0.442694 0.442694
0.259075 0.259075 0.259075
0.272156 0.272156 0.272156
0.285238 0.285238 0.285238
0.298319 0.298319 0.298319
0.311400 0.311400 0.311400
0.324481 0.324481 0.324481
0.337562 0.337562 0.337562
0.350644 0.350644 0.350644
0.363725 0.363725 0.363725
0.376806 0.376806 0.376806
0.389887 0.389887 0.389887
0.402969 0.402969 0.402969
0.416050 0.416050 0.416050
0.429131 0.429131 0.429131
0.442213 0.442213 0.442213
0.455294 0.455294 0.455294
0.468375 0.468375 0.468375
0.284756 0.284756 0.284756
0.297837 0.297837 0.297837
0.310919 0.310919 0.310919
0.324000 0.324000 0.324000
0.337081 0.337081 0.337081
0.350163 0.350163 0.350163
0.363244 0.363244 0.363244
0.376325 0.376325 0.376325
0.389406 0.389406 0.389406
0.402487 0.402487 0.402487
0.415569 0.415569 0.415569
0.428650 0.428650 0.428650
0.441731 0.441731 0.441731
0.454813 0.454813 0.454813
0.467894 0.467894 0.467894
0.480975 0.480975 0.480975
0.494056 0.494056 0.494056
0.310437 0.310437 0.310437
0.323519 0.323519 0.323519
0.336600 0.336600 0.336600
0.349681 0.349681 0.349681
0.362762 0.362762 0.362762
0.375844 0.375844 0.375844
0.388925 0.388925 0.388925
0.402006 0.402006 0.402006
0.415087 0.415087 0.415087
0.428169 0.428169 0.428169
0.441250 0.441250 0.441250
0.454331 0.454331 0.454331
0.467413 0.467413 0.467413
0.480494 0.480494 0.480494
0.493575 0.493575 0.493575
0.506656 0.506656 0.506656
0.519738 0.519738 0.519738
0.336119 0.336119 0.336119
0.349200 0.349200 0.349200
0.362281 0.362281 0.362281
0.375362 0.375362 0.375362
0.388444 0.388444 0.388444
0.401525 0.401525 0.401525
0.414606 0.414606 0.414606
0.427687 0.427687 0.427687
0.440769 0.440769 0.440769
0.453850 0.453850 0.453850
0.466931 0.466931 0.466931
0.480012 0.480012 0.480012
0.493094 0.493094 0.493094
0.506175 0.506175 0.506175
0.519256 0.519256 0.519256
0.532338 0.532338 0.532338
0.545419 0.545419 0.545419
0.361800 0.361800 0.361800
0.374881 0.374881 0.374881
0.387962 0.387962 0.387962
0.401044 0.401044 0.401044
0.414125 0.414125 0.414125
0.427206 0.427206 0.427206
0.440287 0.440287 0.440287
0.453369 0.453369 0.453369
0.466450 0.466450 0.466450
0.479531 0.479531 0.479531
0.492613 0.492613 0.492613
0.505694 0.505694 0.505694
0.518775 0.518775 0.518775
0.531856 0.531856 0.531856
0.544937 0.544937 0.544937
0.558019 0.558019 0.558019
0.571100 0.571100 0.571100
0.387481 0.387481 0.387481
0.400563 0.400563 0.400563
0.413644 0.413644 0.413644
0.426725 0.426725 0.426725
0.439806 0.439806 0.439806
0.452887 0.452887 0.452887
0.465969 0.465969 0.465969
0.479050 0.479050 0.479050
0.492131 0.492131 0.492131
0.505212 0.505212 0.505212
0.518294 0.518294 0.518294
0.531375 0.531375 0.531375
0.544456 0.544456 0.544456
0.557538 0.557538 0.557538
0.570619 0.570619 0.570619
0.583700 0.583700 0.583700
0.596781 0.596781 0.596781
0.413162 0.413162 0.413162
0.426244 0.426244 0.426244
0.439325 0.439325 0.439325
0.452406 0.452406 0.452406
0.465488 0.465488 0.465488
0.478569 0.478569 0.478569
0.491650 0.491650 0.491650
0.504731 0.504731 0.504731
0.517813 0.517813 0.517813
0.530894 0.530894 0.530894
0.543975 0.543975 0.543975
0.557056 0.557056 0.557056
0.570137 0.570137 0.570137
0.583219 0.583219 0.583219
0.596300 0.596300 0.596300
0.609381 0.609381 0.609381
0.622462 0.622462 0.622462
0.438844 0.438844 0.438844
0.451925 0.451925 0.451925
0.465006 0.465006 0.465006
0.478087 0.478087 0.478087
0.491169 0.491169 0.491169
0.504250 0.504250 0.504250
0.517331 0.517331 0.517331
0.530413 0.530413 0.530413
0.543494 0.543494 0.543494
0.556575 0.556575 0.556575
0.569656 0.569656 0.569656
0.582737 0.582737 0.582737
0.595819 0.595819 0.595819
0.608900 0.608900 0.608900
0.621981 0.621981 0.621981
0.635062 0.635062 0.635062
0.648144 0.648144 0.648144
0.464525 0.464525 0.464525
0.477606 0.477606 0.477606
0.490688 0.490688 0.490688
0.503769 0.503769 0.503769
0.516850 0.516850 0.516850
0.529931 0.529931 0.529931
0.543013 0.543013 0.543013
0.556094 0.556094 0.556094
0.569175 0.569175 0.569175
0.582256 0.582256 0.582256
0.595337 0.595337 0.595337
0.608419 0.608419 0.608419
0.621500 0.621500 0.621500
0.634581 0.634581 0.634581
0.647662 0.647662 0.647662
0.660744 0.660744 0.660744
0.673825 0.673825 0.673825
0.490206 0.490206 0.490206
0.503287 0.503287 0.503287
0.516369 0.516369 0.516369
0.529450 0.529450 0.529450
0.542531 0.542531 0.542531
0.555612 0.555612 0.555612
0.568694 0.568694 0.568694
0.581775 0.581775 0.581775
0.594856 0.594856 0.594856
0.607937 0.607937 0.607937
0.621019 0.621019 0.621019
0.634100 0.634100 0.634100
0.647181 0.647181 0.647181
0.660262 0.660262 0.660262
0.673344 0.673344 0.673344
0.686425 0.686425 0.686425
0.699506 0.699506 0.699506
0.515887 0.515887 0.515887
0.528969 0.528969 0.528969
0.542050 0.542050 0.542050
0.555131 0.555131 0.555131
0.568213 0.568213 0.568213
0.581294 0.581294 0.581294
0.594375 0.594375 0.594375
0.607456 0.607456 0.607456
0.620537 0.620537 0.620537
0.633619 0.633619 0.633619
0.646700 0.646700 0.646700
0.659781 0.659781 0.659781
0.672863 0.672863 0.672863
0.685944 0.685944 0.685944
0.699025 0.699025 0.699025
0.712106 0.712106 0.712106
0.725187 0.725187 0.725187
0.109975 0.109975 0.109975
0.123056 0.123056 0.123056
0.136137 0.136137 0.136137
0.149219 0.149219 0.149219
0.162300 0.162300 0.162300
0.175381 0.175381 0.175381
0.188463 0.188463 0.188463
0.201544 0.201544 0.201544
0.214625 0.214625 0.214625
0.227706 0.227706 0.227706
0.240787 0.240787 0.240787
0.253869 0.253869 0.253869
0.266950 0.266950 0.266950
0.280031 0.280031 0.280031
0.293112 0.293112 0.293112
0.306194 0.306194 0.306194
0.319275 0.319275 0.319275
0.135656 0.135656 0.135656
0.148737 0.148737 0.148737
0.161819 0.161819 0.161819
0.174900 0.174900 0.174900
0.187981 0.187981 0.187981
0.201063 0.201063 0.201063
0.214144 0.214144 0.214144
0.227225 0.227225 0.227225
0.240306 0.240306 0.240306
0.253387 0.253387 0.253387
0.266469 0.266469 0.266469
0.279550 0.279550 0.279550
0.292631 0.292631 0.292631
0.305712 0.305712 0.305712
0.318794 0.318794 0.318794
0.331875 0.331875 0.331875
0.344956 0.344956 0.344956
0.161337 0.161337 0.161337
0.174419 0.174419 0.174419
0.187500 0.187500 0.187500
0.200581 0.200581 0.200581
0.213663 0.213663 0.213663
0.226744 0.226744 0.226744
0.239825 0.239825 0.239825
0.252906 0.252906 0.252906
0.265987 0.265987 0.265987
0.279069 0.279069 0.279069
0.292150 0.292150 0.292150
0.305231 0.305231 0.305231
0.318312 0.318312 0.318312
0.331394 0.331394 0.331394
0.344475 0.344475 0.344475
0.357556 0.357556 0.357556
0.370637 0.370637 0.370637
0.187019 0.187019 0.187019
0.200100 0.200100 0.200100
0.213181 0.213181 0.213181
0.226263 0.226263 0.226263
0.239344 0.239344 0.239344
0.252425 0.252425 0.252425
0.265506 0.265506 0.265506
0.278587 0.278587 0.278587
0.291669 0.291669 0.291669
0.304750 0.304750 0.304750
0.317831 0.317831 0.317831
0.330912 0.330912 0.330912
0.343994 0.343994 0.343994
0.357075 0.357075 0.357075
0.370156 0.370156 0.370156
0.383238 0.383238 0.383238
0.396319 0.396319 0.396319
0.212700 0.212700 0.212700
0.225781 0.225781 0.225781
0.238863 0.238863 0.238863
0.251944 0.251944 0.251944
0.265025 0.265025 0.265025
0.278106 0.278106 0.278106
0.291187 0.291187 0.291187
0.304269 0.304269 0.304269
0.317350 0.317350 0.317350
0.330431 0.330431 0.330431
0.343512 0.343512 0.343512
0.356594 0.356594 0.356594
0.369675 0.369675 0.369675
0.382756 0.382756 0.382756
0.395837 0.395837 0.395837
0.408919 0.408919 0.408919
0.422000 0.422000 0.422000
0.238381 0.238381 0.238381
0.251462 0.251462 0.251462
0.264544 0.264544 0.264544
0.277625 0.277625 0.277625
0.290706 0.290706 0.290706
0.303787 0.303787 0.303787
0.316869 0.316869 0.316869
0.329950 0.329950 0.329950
0.343031 0.343031 0.343031
0.356112 0.356112 0.356112
0.369194 0.369194 0.369194
0.382275 0.382275 0.382275
0.395356 0.395356 0.395356
0.408437 0.408437 0.408437
0.421519 0.421519 0.421519
0.434600 0.434600 0.434600
0.447681 0.447681 0.447681
0.264062 0.264062 0.264062
0.277144 0.277144 0.277144
0.290225 0.290225 0.290225
0.303306 0.303306 0.303306
0.316387 0.316387 0.316387
0.329469 0.329469 0.329469
0.342550 0.342550 0.342550
0.355631 0.355631 0.355631
0.368712 0.368712 0.368712
0.381794 0.381794 0.381794
0.394875 0.394875 0.394875
0.407956 0.407956 0.407956
0.421037 0.421037 0.421037
0.434119 0.434119 0.434119
0.447200 0.447200 0.447200
0.460281 0.460281 0.460281
0.473362 0.473362 0.473362
0.289744 0.289744 0.289744
0.302825 0.302825 0.302825
0.315906 0.315906 0.315906
0.328987 0.328987 0.328987
0.342069 0.342069 0.342069
0.355150 0.355150 0.355150
0.368231 0.368231 0.368231
0.381312 0.381312 0.381312
0.394394 0.394394 0.394394
0.407475 0.407475 0.407475
0.420556 0.420556 0.420556
0.433638 0.433638 0.433638
0.446719 0.446719 0.446719
0.459800 0.459800 0.459800
0.472881 0.472881 0.472881
0.485962 0.485962 0.485962
0.499044 0.499044 0.499044
0.315425 0.315425 0.315425
0.328506 0.328506 0.328506
0.341587 0.341587 0.341587
0.354669 0.354669 0.354669
0.367750 0.367750 0.367750
0.380831 0.380831 0.380831
0.393912 0.393912 0.393912
0.406994 0.406994 0.406994
0.420075 0.420075 0.420075
0.433156 0.433156 0.433156
0.446237 0.446237 0.446237
0.459319 0.459319 0.459319
0.472400 0.472400 0.472400
0.485481 0.485481 0.485481
0.498562 0.498562 0.498562
0.511644 0.511644 0.511644
0.524725 0.524725 0.524725
0.341106 0.341106 0.341106
0.354187 0.354187 0.354187
0.367269 0.367269 0.367269
0.380350 0.380350 0.380350
0.393431 0.393431 0.393431
0.406512 0.406512 0.406512
0.419594 0.419594 0.419594
0.432675 0.432675 0.432675
0.445756 0.445756 0.445756
0.458838 0.458838 0.458838
0.471919 0.471919 0.471919
0.485000 0.485000 0.485000
0.498081 0.498081 0.498081
0.511162 0.511162 0.511162
0.524244 0.524244 0.524244
0.537325 0.537325 0.537325
0.550406 0.550406 0.550406
0.366787 0.366787 0.366787
0.379869 0.379869 0.379869
0.392950 0.392950 0.392950
0.406031 0.406031 0.406031
0.419112 0.419112 0.419112
0.432194 0.432194 0.432194
0.445275 0.445275 0.445275
0.458356 0.458356 0.458356
0.471437 0.471437 0.471437
0.484519 0.484519 0.484519
0.497600 0.497600 0.497600
0.510681 0.510681 0.510681
0.523762 0.523762 0.523762
0.536844 0.536844 0.536844
0.549925 0.549925 0.549925
0.563006 0.563006 0.563006
0.576087 0.576087 0.576087
0.392469 0.392469 0.392469
0.405550 0.405550 0.405550
0.418631 0.418631 0.418631
0.431712 0.431712 0.431712
0.444794 0.444794 0.444794
0.457875 0.457875 0.457875
0.470956 0.470956 0.470956
0.484038 0.484038 0.484038
0.497119 0.497119 0.497119
0.510200 0.510200 0.510200
0.523281 0.523281 0.523281
0.536362 0.536362 0.536362
0.549444 0.549444 0.549444
0.562525 0.562525 0.562525
0.575606 0.575606 0.575606
0.588687 0.588687 0.588687
0.601769 0.601769 0.601769
0.418150 0.418150 0.418150
0.431231 0.431231 0.431231
0.444312 0.444312 0.444312
0.457394 0.457394 0.457394
0.470475 0.470475 0.470475
0.483556 0.483556 0.483556
0.496637 0.496637 0.496637
0.509719 0.509719 0.509719
0.522800 0.522800 0.522800
0.535881 0.535881 0.535881
0.548962 0.548962 0.548962
0.562044 0.562044 0.562044
0.575125 0.575125 0.575125
0.588206 0.588206 0.588206
0.601287 0.601287 0.601287
0.614369 0.614369 0.614369
0.627450 0.627450 0.627450
0.443831 0.443831 0.443831
0.456912 0.456912 0.456912
0.469994 0.469994 0.469994
0.483075 0.483075 0.483075
0.496156 0.496156 0.496156
0.509237 0.509237 0.509237
0.522319 0.522319 0.522319
0.535400 0.535400 0.535400
0.548481 0.548481 0.548481
0.561562 0.561562 0.561562
0.574644 0.574644 0.574644
0.587725 0.587725 0.587725
0.600806 0.600806 0.600806
0.613887 0.613887 0.613887
0.626969 0.626969 0.626969
0.640050 0.640050 0.640050
0.653131 0.653131 0.653131
0.469512 0.469512 0.469512
0.482594 0.482594 0.482594
0.495675 0.495675 0.495675
0.508756 0.508756 0.508756
0.521837 0.521837 0.521837
0.534919 0.534919 0.534919
0.548000 0.548000 0.548000
0.561081 0.561081 0.561081
0.574162 0.574162 0.574162
0.587244 0.587244 0.587244
0.600325 0.600325 0.600325
0.613406 0.613406 0.613406
0.626487 0.626487 0.626487
0.639569 0.639569 0.639569
0.652650 0.652650 0.652650
0.665731 0.665731 0.665731
0.678812 0.678812 0.678812
0.495194 0.495194 0.495194
0.508275 0.508275 0.508275
0.521356 0.521356 0.521356
0.534438 0.534438 0.534438
0.547519 0.547519 0.547519
0.560600 0.560600 0.560600
0.573681 0.573681 0.573681
0.586762 0.586762 0.586762
0.599844 0.599844 0.599844
0.612925 0.612925 0.612925
0.626006 0.626006 0.626006
0.639087 0.639087 0.639087
0.652169 0.652169 0.652169
0.665250 0.665250 0.665250
0.678331 0.678331 0.678331
0.691412 0.691412 0.691412
0.704494 0.704494 0.704494
0.520875 0.520875 0.520875
0.533956 0.533956 0.533956
0.547037 0.547037 0.547037
0.560119 0.560119 0.560119
0.573200 0.573200 0.573200
0.586281 0.586281 0.586281
0.599362 0.599362 0.599362
0.612444 0.612444 0.612444
0.625525 0.625525 0.625525
0.638606 0.638606 0.638606
0.651687 0.651687 0.651687
0.664769 0.664769 0.664769
0.677850 0.677850 0.677850
0.690931 0.690931 0.690931
0.704012 0.704012 0.704012
0.717094 0.717094 0.717094
0.730175 0.730175 0.730175
0.114963 0.114963 0.114963
0.128044 0.128044 0.128044
0.141125 0.141125 0.141125
0.154206 0.154206 0.154206
0.167288 0.167288 0.167288
0.180369 0.180369 0.180369
0.193450 0.193450 0.193450
0.206531 0.206531 0.206531
0.219612 0.219612 0.219612
0.232694 0.232694 0.232694
0.245775 0.245775 0.245775
0.258856 0.258856 0.258856
0.271937 0.271937 0.271937
0.285019 0.285019 0.285019
0.298100 0.298100 0.298100
0.311181 0.311181 0.311181
0.324262 0.324262 0.324262
0.140644 0.140644 0.140644
