app/src/main/assets/luts/hdr_punch.cube
# ApexStudio filter: hdr_punch
LUT_3D_SIZE 9
DOMAIN_MIN 0.0 0.0 0.0
DOMAIN_MAX 1.0 1.0 1.0
0.000000 0.000000 0.000000
0.118750 0.000000 0.000000
0.287500 0.000000 0.000000
0.456250 0.000000 0.000000
0.625000 0.000000 0.000000
0.793750 0.000000 0.000000
0.962500 0.000000 0.000000
1.000000 0.000000 0.000000
1.000000 0.000000 0.000000
0.000000 0.118750 0.000000
0.118750 0.118750 0.000000
0.287500 0.118750 0.000000
0.456250 0.118750 0.000000
0.625000 0.118750 0.000000
0.793750 0.118750 0.000000
0.962500 0.118750 0.000000
1.000000 0.118750 0.000000
1.000000 0.118750 0.000000
0.000000 0.287500 0.000000
0.118750 0.287500 0.000000
0.287500 0.287500 0.000000
0.456250 0.287500 0.000000
0.625000 0.287500 0.000000
0.793750 0.287500 0.000000
0.962500 0.287500 0.000000
1.000000 0.287500 0.000000
1.000000 0.287500 0.000000
0.000000 0.456250 0.000000
0.118750 0.456250 0.000000
0.287500 0.456250 0.000000
0.456250 0.456250 0.000000
0.625000 0.456250 0.000000
0.793750 0.456250 0.000000
0.962500 0.456250 0.000000
1.000000 0.456250 0.000000
1.000000 0.456250 0.000000
0.000000 0.625000 0.000000
0.118750 0.625000 0.000000
0.287500 0.625000 0.000000
0.456250 0.625000 0.000000
0.625000 0.625000 0.000000
0.793750 0.625000 0.000000
0.962500 0.625000 0.000000
1.000000 0.625000 0.000000
1.000000 0.625000 0.000000
0.000000 0.793750 0.000000
0.118750 0.793750 0.000000
0.287500 0.793750 0.000000
0.456250 0.793750 0.000000
0.625000 0.793750 0.000000
0.793750 0.793750 0.000000
0.962500 0.793750 0.000000
1.000000 0.793750 0.000000
1.000000 0.793750 0.000000
0.000000 0.962500 0.000000
0.118750 0.962500 0.000000
0.287500 0.962500 0.000000
0.456250 0.962500 0.000000
0.625000 0.962500 0.000000
0.793750 0.962500 0.000000
0.962500 0.962500 0.000000
1.000000 0.962500 0.000000
1.000000 0.962500 0.000000
0.000000 1.000000 0.000000
0.118750 1.000000 0.000000
0.287500 1.000000 0.000000
0.456250 1.000000 0.000000
0.625000 1.000000 0.000000
0.793750 1.000000 0.000000
0.962500 1.000000 0.000000
1.000000 1.000000 0.000000
1.000000 1.000000 0.000000
0.000000 1.000000 0.000000
0.118750 1.000000 0.000000
0.287500 1.000000 0.000000
0.456250 1.000000 0.000000
0.625000 1.000000 0.000000
0.793750 1.000000 0.000000
0.962500 1.000000 0.000000
1.000000 1.000000 0.000000
1.000000 1.000000 0.000000
0.000000 0.000000 0.118750
0.118750 0.000000 0.118750
0.287500 0.000000 0.118750
0.456250 0.000000 0.118750
0.625000 0.000000 0.118750
0.793750 0.000000 0.118750
0.962500 0.000000 0.118750
1.000000 0.000000 0.118750
1.000000 0.000000 0.118750
0.000000 0.118750 0.118750
0.118750 0.118750 0.118750
0.287500 0.118750 0.118750
0.456250 0.118750 0.118750
0.625000 0.118750 0.118750
0.793750 0.118750 0.118750
0.962500 0.118750 0.118750
1.000000 0.118750 0.118750
1.000000 0.118750 0.118750
0.000000 0.287500 0.118750
0.118750 0.287500 0.118750
0.287500 0.287500 0.118750
0.456250 0.287500 0.118750
0.625000 0.287500 0.118750
0.793750 0.287500 0.118750
0.962500 0.287500 0.118750
1.000000 0.287500 0.118750
1.000000 0.287500 0.118750
0.000000 0.456250 0.118750
0.118750 0.456250 0.118750
0.287500 0.456250 0.118750
0.456250 0.456250 0.118750
0.625000 0.456250 0.118750
0.793750 0.456250 0.118750
0.962500 0.456250 0.118750
1.000000 0.456250 0.118750
1.000000 0.456250 0.118750
0.000000 0.625000 0.118750
0.118750 0.625000 0.118750
0.287500 0.625000 0.118750
0.456250 0.625000 0.118750
0.625000 0.625000 0.118750
0.793750 0.625000 0.118750
0.962500 0.625000 0.118750
1.000000 0.625000 0.118750
1.000000 0.625000 0.118750
0.000000 0.793750 0.118750
0.118750 0.793750 0.118750
0.287500 0.793750 0.118750
0.456250 0.793750 0.118750
0.625000 0.793750 0.118750
0.793750 0.793750 0.118750
0.962500 0.793750 0.118750
1.000000 0.793750 0.118750
1.000000 0.793750 0.118750
0.000000 0.962500 0.118750
0.118750 0.962500 0.118750
0.287500 0.962500 0.118750
0.456250 0.962500 0.118750
0.625000 0.962500 0.118750
0.793750 0.962500 0.118750
0.962500 0.962500 0.118750
1.000000 0.962500 0.118750
1.000000 0.962500 0.118750
0.000000 1.000000 0.118750
0.118750 1.000000 0.118750
0.287500 1.000000 0.118750
0.456250 1.000000 0.118750
0.625000 1.000000 0.118750
0.793750 1.000000 0.118750
0.962500 1.000000 0.118750
1.000000 1.000000 0.118750
1.000000 1.000000 0.118750
0.000000 1.000000 0.118750
0.118750 1.000000 0.118750
0.287500 1.000000 0.118750
0.456250 1.000000 0.118750
0.625000 1.000000 0.118750
0.793750 1.000000 0.118750
0.962500 1.000000 0.118750
1.000000 1.000000 0.118750
1.000000 1.000000 0.118750
0.000000 0.000000 0.287500
0.118750 0.000000 0.287500
0.287500 0.000000 0.287500
0.456250 0.000000 0.287500
0.625000 0.000000 0.287500
0.793750 0.000000 0.287500
0.962500 0.000000 0.287500
1.000000 0.000000 0.287500
1.000000 0.000000 0.287500
0.000000 0.118750 0.287500
0.118750 0.118750 0.287500
0.287500 0.118750 0.287500
0.456250 0.118750 0.287500
0.625000 0.118750 0.287500
0.793750 0.118750 0.287500
0.962500 0.118750 0.287500
1.000000 0.118750 0.287500
1.000000 0.118750 0.287500
0.000000 0.287500 0.287500
0.118750 0.287500 0.287500
0.287500 0.287500 0.287500
0.456250 0.287500 0.287500
0.625000 0.287500 0.287500
0.793750 0.287500 0.287500
0.962500 0.287500 0.287500
1.000000 0.287500 0.287500
1.000000 0.287500 0.287500
0.000000 0.456250 0.287500
0.118750 0.456250 0.287500
0.287500 0.456250 0.287500
0.456250 0.456250 0.287500
0.625000 0.456250 0.287500
0.793750 0.456250 0.287500
0.962500 0.456250 0.287500
1.000000 0.456250 0.287500
1.000000 0.456250 0.287500
0.000000 0.625000 0.287500
0.118750 0.625000 0.287500
0.287500 0.625000 0.287500
0.456250 0.625000 0.287500
0.625000 0.625000 0.287500
0.793750 0.625000 0.287500
0.962500 0.625000 0.287500
1.000000 0.625000 0.287500
1.000000 0.625000 0.287500
0.000000 0.793750 0.287500
0.118750 0.793750 0.287500
0.287500 0.793750 0.287500
0.456250 0.793750 0.287500
0.625000 0.793750 0.287500
0.793750 0.793750 0.287500
0.962500 0.793750 0.287500
1.000000 0.793750 0.287500
1.000000 0.793750 0.287500
0.000000 0.962500 0.287500
0.118750 0.962500 0.287500
0.287500 0.962500 0.287500
0.456250 0.962500 0.287500
0.625000 0.962500 0.287500
0.793750 0.962500 0.287500
0.962500 0.962500 0.287500
1.000000 0.962500 0.287500
1.000000 0.962500 0.287500
0.000000 1.000000 0.287500
0.118750 1.000000 0.287500
0.287500 1.000000 0.287500
0.456250 1.000000 0.287500
0.625000 1.000000 0.287500
0.793750 1.000000 0.287500
0.962500 1.000000 0.287500
1.000000 1.000000 0.287500
1.000000 1.000000 0.287500
0.000000 1.000000 0.287500
0.118750 1.000000 0.287500
0.287500 1.000000 0.287500
0.456250 1.000000 0.287500
0.625000 1.000000 0.287500
0.793750 1.000000 0.287500
0.962500 1.000000 0.287500
1.000000 1.000000 0.287500
1.000000 1.000000 0.287500
0.000000 0.000000 0.456250
0.118750 0.000000 0.456250
0.287500 0.000000 0.456250
0.456250 0.000000 0.456250
0.625000 0.000000 0.456250
0.793750 0.000000 0.456250
0.962500 0.000000 0.456250
1.000000 0.000000 0.456250
1.000000 0.000000 0.456250
0.000000 0.118750 0.456250
0.118750 0.118750 0.456250
0.287500 0.118750 0.456250
0.456250 0.118750 0.456250
0.625000 0.118750 0.456250
0.793750 0.118750 0.456250
0.962500 0.118750 0.456250
1.000000 0.118750 0.456250
1.000000 0.118750 0.456250
0.000000 0.287500 0.456250
0.118750 0.287500 0.456250
0.287500 0.287500 0.456250
0.456250 0.287500 0.456250
0.625000 0.287500 0.456250
0.793750 0.287500 0.456250
0.962500 0.287500 0.456250
1.000000 0.287500 0.456250
1.000000 0.287500 0.456250
0.000000 0.456250 0.456250
0.118750 0.456250 0.456250
0.287500 0.456250 0.456250
0.456250 0.456250 0.456250
0.625000 0.456250 0.456250
0.793750 0.456250 0.456250
0.962500 0.456250 0.456250
1.000000 0.456250 0.456250
1.000000 0.456250 0.456250
0.000000 0.625000 0.456250
0.118750 0.625000 0.456250
0.287500 0.625000 0.456250
0.456250 0.625000 0.456250
0.625000 0.625000 0.456250
0.793750 0.625000 0.456250
0.962500 0.625000 0.456250
1.000000 0.625000 0.456250
1.000000 0.625000 0.456250
0.000000 0.793750 0.456250
0.118750 0.793750 0.456250
0.287500 0.793750 0.456250
0.456250 0.793750 0.456250
0.625000 0.793750 0.456250
0.793750 0.793750 0.456250
0.962500 0.793750 0.456250
1.000000 0.793750 0.456250
1.000000 0.793750 0.456250
0.000000 0.962500 0.456250
0.118750 0.962500 0.456250
0.287500 0.962500 0.456250
0.456250 0.962500 0.456250
0.625000 0.962500 0.456250
0.793750 0.962500 0.456250
0.962500 0.962500 0.456250
1.000000 0.962500 0.456250
1.000000 0.962500 0.456250
0.000000 1.000000 0.456250
0.118750 1.000000 0.456250
0.287500 1.000000 0.456250
0.456250 1.000000 0.456250
0.625000 1.000000 0.456250
0.793750 1.000000 0.456250
0.962500 1.000000 0.456250
1.000000 1.000000 0.456250
1.000000 1.000000 0.456250
0.000000 1.000000 0.456250
0.118750 1.000000 0.456250
0.287500 1.000000 0.456250
0.456250 1.000000 0.456250
0.625000 1.000000 0.456250
0.793750 1.000000 0.456250
0.962500 1.000000 0.456250
1.000000 1.000000 0.456250
1.000000 1.000000 0.456250
0.000000 0.000000 0.625000
0.118750 0.000000 0.625000
0.287500 0.000000 0.625000
0.456250 0.000000 0.625000
0.625000 0.000000 0.625000
0.793750 0.000000 0.625000
0.962500 0.000000 0.625000
1.000000 0.000000 0.625000
1.000000 0.000000 0.625000
0.000000 0.118750 0.625000
0.118750 0.118750 0.625000
0.287500 0.118750 0.625000
0.456250 0.118750 0.625000
0.625000 0.118750 0.625000
0.793750 0.118750 0.625000
0.962500 0.118750 0.625000
1.000000 0.118750 0.625000
1.000000 0.118750 0.625000
0.000000 0.287500 0.625000
0.118750 0.287500 0.625000
0.287500 0.287500 0.625000
0.456250 0.287500 0.625000
0.625000 0.287500 0.625000
0.793750 0.287500 0.625000
0.962500 0.287500 0.625000
1.000000 0.287500 0.625000
1.000000 0.287500 0.625000
0.000000 0.456250 0.625000
0.118750 0.456250 0.625000
0.287500 0.456250 0.625000
0.456250 0.456250 0.625000
0.625000 0.456250 0.625000
0.793750 0.456250 0.625000
0.962500 0.456250 0.625000
1.000000 0.456250 0.625000
1.000000 0.456250 0.625000
0.000000 0.625000 0.625000
0.118750 0.625000 0.625000
0.287500 0.625000 0.625000
0.456250 0.625000 0.625000
0.625000 0.625000 0.625000
0.793750 0.625000 0.625000
0.962500 0.625000 0.625000
1.000000 0.625000 0.625000
1.000000 0.625000 0.625000
0.000000 0.793750 0.625000
0.118750 0.793750 0.625000
0.287500 0.793750 0.625000
0.456250 0.793750 0.625000
0.625000 0.793750 0.625000
0.793750 0.793750 0.625000
0.962500 0.793750 0.625000
1.000000 0.793750 0.625000
1.000000 0.793750 0.625000
0.000000 0.962500 0.625000
0.118750 0.962500 0.625000
0.287500 0.962500 0.625000
0.456250 0.962500 0.625000
0.625000 0.962500 0.625000
0.793750 0.962500 0.625000
0.962500 0.962500 0.625000
1.000000 0.962500 0.625000
1.000000 0.962500 0.625000
0.000000 1.000000 0.625000
0.118750 1.000000 0.625000
0.287500 1.000000 0.625000
0.456250 1.000000 0.625000
0.625000 1.000000 0.625000
0.793750 1.000000 0.625000
0.962500 1.000000 0.625000
1.000000 1.000000 0.625000
1.000000 1.000000 0.625000
0.000000 1.000000 0.625000
0.118750 1.000000 0.625000
0.287500 1.000000 0.625000
0.456250 1.000000 0.625000
0.625000 1.000000 0.625000
0.793750 1.000000 0.625000
0.962500 1.000000 0.625000
1.000000 1.000000 0.625000
1.000000 1.000000 0.625000
0.000000 0.000000 0.793750
0.118750 0.000000 0.793750
0.287500 0.000000 0.793750
0.456250 0.000000 0.793750
0.625000 0.000000 0.793750
0.793750 0.000000 0.793750
0.962500 0.000000 0.793750
1.000000 0.000000 0.793750
1.000000 0.000000 0.793750
0.000000 0.118750 0.793750
0.118750 0.118750 0.793750
0.287500 0.118750 0.793750
0.456250 0.118750 0.793750
0.625000 0.118750 0.793750
0.793750 0.118750 0.793750
0.962500 0.118750 0.793750
1.000000 0.118750 0.793750
1.000000 0.118750 0.793750
0.000000 0.287500 0.793750
0.118750 0.287500 0.793750
0.287500 0.287500 0.793750
0.456250 0.287500 0.793750
0.625000 0.287500 0.793750
0.793750 0.287500 0.793750
0.962500 0.287500 0.793750
1.000000 0.287500 0.793750
1.000000 0.287500 0.793750
0.000000 0.456250 0.793750
0.118750 0.456250 0.793750
0.287500 0.456250 0.793750
0.456250 0.456250 0.793750
0.625000 0.456250 0.793750
0.793750 0.456250 0.793750
0.962500 0.456250 0.793750
1.000000 0.456250 0.793750
1.000000 0.456250 0.793750
0.000000 0.625000 0.793750
0.118750 0.625000 0.793750
0.287500 0.625000 0.793750
0.456250 0.625000 0.793750
0.625000 0.625000 0.793750
0.793750 0.625000 0.793750
0.962500 0.625000 0.793750
1.000000 0.625000 0.793750
1.000000 0.625000 0.793750
0.000000 0.793750 0.793750
0.118750 0.793750 0.793750
0.287500 0.793750 0.793750
0.456250 0.793750 0.793750
0.625000 0.793750 0.793750
0.793750 0.793750 0.793750
0.962500 0.793750 0.793750
1.000000 0.793750 0.793750
1.000000 0.793750 0.793750
0.000000 0.962500 0.793750
0.118750 0.962500 0.793750
0.287500 0.962500 0.793750
0.456250 0.962500 0.793750
0.625000 0.962500 0.793750
0.793750 0.962500 0.793750
0.962500 0.962500 0.793750
1.000000 0.962500 0.793750
1.000000 0.962500 0.793750
0.000000 1.000000 0.793750
0.118750 1.000000 0.793750
0.287500 1.000000 0.793750
0.456250 1.000000 0.793750
0.625000 1.000000 0.793750
0.793750 1.000000 0.793750
0.962500 1.000000 0.793750
1.000000 1.000000 0.793750
1.000000 1.000000 0.793750
0.000000 1.000000 0.793750
0.118750 1.000000 0.793750
0.287500 1.000000 0.793750
0.456250 1.000000 0.793750
0.625000 1.000000 0.793750
0.793750 1.000000 0.793750
0.962500 1.000000 0.793750
1.000000 1.000000 0.793750
1.000000 1.000000 0.793750
0.000000 0.000000 0.962500
0.118750 0.000000 0.962500
0.287500 0.000000 0.962500
0.456250 0.000000 0.962500
0.625000 0.000000 0.962500
0.793750 0.000000 0.962500
0.962500 0.000000 0.962500
1.000000 0.000000 0.962500
1.000000 0.000000 0.962500
0.000000 0.118750 0.962500
0.118750 0.118750 0.962500
0.287500 0.118750 0.962500
0.456250 0.118750 0.962500
0.625000 0.118750 0.962500
0.793750 0.118750 0.962500
0.962500 0.118750 0.962500
1.000000 0.118750 0.962500
1.000000 0.118750 0.962500
0.000000 0.287500 0.962500
0.118750 0.287500 0.962500
0.287500 0.287500 0.962500
0.456250 0.287500 0.962500
0.625000 0.287500 0.962500
0.793750 0.287500 0.962500
0.962500 0.287500 0.962500
1.000000 0.287500 0.962500
1.000000 0.287500 0.962500
0.000000 0.456250 0.962500
0.118750 0.456250 0.962500
0.287500 0.456250 0.962500
0.456250 0.456250 0.962500
0.625000 0.456250 0.962500
0.793750 0.456250 0.962500
0.962500 0.456250 0.962500
1.000000 0.456250 0.962500
1.000000 0.456250 0.962500
0.000000 0.625000 0.962500
0.118750 0.625000 0.962500
0.287500 0.625000 0.962500
0.456250 0.625000 0.962500
0.625000 0.625000 0.962500
0.793750 0.625000 0.962500
0.962500 0.625000 0.962500
1.000000 0.625000 0.962500
1.000000 0.625000 0.962500
0.000000 0.793750 0.962500
0.118750 0.793750 0.962500
0.287500 0.793750 0.962500
0.456250 0.793750 0.962500
0.625000 0.793750 0.962500
0.793750 0.793750 0.962500
0.962500 0.793750 0.962500
1.000000 0.793750 0.962500
1.000000 0.793750 0.962500
0.000000 0.962500 0.962500
0.118750 0.962500 0.962500
0.287500 0.962500 0.962500
0.456250 0.962500 0.962500
0.625000 0.962500 0.962500
0.793750 0.962500 0.962500
0.962500 0.962500 0.962500
1.000000 0.962500 0.962500
1.000000 0.962500 0.962500
0.000000 1.000000 0.962500
0.118750 1.000000 0.962500
0.287500 1.000000 0.962500
0.456250 1.000000 0.962500
0.625000 1.000000 0.962500
0.793750 1.000000 0.962500
0.962500 1.000000 0.962500
1.000000 1.000000 0.962500
1.000000 1.000000 0.962500
0.000000 1.000000 0.962500
0.118750 1.000000 0.962500
0.287500 1.000000 0.962500
0.456250 1.000000 0.962500
0.625000 1.000000 0.962500
0.793750 1.000000 0.962500
0.962500 1.000000 0.962500
1.000000 1.000000 0.962500
1.000000 1.000000 0.962500
0.000000 0.000000 1.000000
0.118750 0.000000 1.000000
0.287500 0.000000 1.000000
0.456250 0.000000 1.000000
0.625000 0.000000 1.000000
0.793750 0.000000 1.000000
0.962500 0.000000 1.000000
1.000000 0.000000 1.000000
1.000000 0.000000 1.000000
0.000000 0.118750 1.000000
0.118750 0.118750 1.000000
0.287500 0.118750 1.000000
0.456250 0.118750 1.000000
0.625000 0.118750 1.000000
0.793750 0.118750 1.000000
0.962500 0.118750 1.000000
1.000000 0.118750 1.000000
1.000000 0.118750 1.000000
0.000000 0.287500 1.000000
0.118750 0.287500 1.000000
0.287500 0.287500 1.000000
0.456250 0.287500 1.000000
0.625000 0.287500 1.000000
0.793750 0.287500 1.000000
0.962500 0.287500 1.000000
1.000000 0.287500 1.000000
1.000000 0.287500 1.000000
0.000000 0.456250 1.000000
0.118750 0.456250 1.000000
0.287500 0.456250 1.000000
0.456250 0.456250 1.000000
0.625000 0.456250 1.000000
0.793750 0.456250 1.000000
0.962500 0.456250 1.000000
1.000000 0.456250 1.000000
1.000000 0.456250 1.000000
0.000000 0.625000 1.000000
0.118750 0.625000 1.000000
0.287500 0.625000 1.000000
0.456250 0.625000 1.000000
0.625000 0.625000 1.000000
0.793750 0.625000 1.000000
0.962500 0.625000 1.000000
1.000000 0.625000 1.000000
1.000000 0.625000 1.000000
0.000000 0.793750 1.000000
0.118750 0.793750 1.000000
0.287500 0.793750 1.000000
0.456250 0.793750 1.000000
0.625000 0.793750 1.000000
0.793750 0.793750 1.000000
0.962500 0.793750 1.000000
1.000000 0.793750 1.000000
1.000000 0.793750 1.000000
0.000000 0.962500 1.000000
0.118750 0.962500 1.000000
0.287500 0.962500 1.000000
0.456250 0.962500 1.000000
0.625000 0.962500 1.000000
0.793750 0.962500 1.000000
0.962500 0.962500 1.000000
1.000000 0.962500 1.000000
1.000000 0.962500 1.000000
0.000000 1.000000 1.000000
0.118750 1.000000 1.000000
0.287500 1.000000 1.000000
0.456250 1.000000 1.000000
0.625000 1.000000 1.000000
0.793750 1.000000 1.000000
0.962500 1.000000 1.000000
1.000000 1.000000 1.000000
1.000000 1.000000 1.000000
0.000000 1.000000 1.000000
0.118750 1.000000 1.000000
0.287500 1.000000 1.000000
0.456250 1.000000 1.000000
0.625000 1.000000 1.000000
0.793750 1.000000 1.000000
0.962500 1.000000 1.000000
1.000000 1.000000 1.000000
1.000000 1.000000 1.000000
0.000000 0.000000 1.000000
0.118750 0.000000 1.000000
0.287500 0.000000 1.000000
0.456250 0.000000 1.000000
0.625000 0.000000 1.000000
0.793750 0.000000 1.000000
0.962500 0.000000 1.000000
1.000000 0.000000 1.000000
1.000000 0.000000 1.000000
0.000000 0.118750 1.000000
0.118750 0.118750 1.000000
0.287500 0.118750 1.000000
0.456250 0.118750 1.000000
0.625000 0.118750 1.000000
0.793750 0.118750 1.000000
0.962500 0.118750 1.000000
1.000000 0.118750 1.000000
1.000000 0.118750 1.000000
0.000000 0.287500 1.000000
0.118750 0.287500 1.000000
0.287500 0.287500 1.000000
0.456250 0.287500 1.000000
0.625000 0.287500 1.000000
0.793750 0.287500 1.000000
0.962500 0.287500 1.000000
1.000000 0.287500 1.000000
1.000000 0.287500 1.000000
0.000000 0.456250 1.000000
0.118750 0.456250 1.000000
0.287500 0.456250 1.000000
0.456250 0.456250 1.000000
0.625000 0.456250 1.000000
0.793750 0.456250 1.000000
0.962500 0.456250 1.000000
1.000000 0.456250 1.000000
1.000000 0.456250 1.000000
0.000000 0.625000 1.000000
0.118750 0.625000 1.000000
0.287500 0.625000 1.000000
0.456250 0.625000 1.000000
0.625000 0.625000 1.000000
0.793750 0.625000 1.000000
0.962500 0.625000 1.000000
1.000000 0.625000 1.000000
1.000000 0.625000 1.000000
0.000000 0.793750 1.000000
0.118750 0.793750 1.000000
0.287500 0.793750 1.000000
0.456250 0.793750 1.000000
0.625000 0.793750 1.000000
0.793750 0.793750 1.000000
0.962500 0.793750 1.000000
1.000000 0.793750 1.000000
1.000000 0.793750 1.000000
0.000000 0.962500 1.000000
0.118750 0.962500 1.000000
0.287500 0.962500 1.000000
0.456250 0.962500 1.000000
0.625000 0.962500 1.000000
0.793750 0.962500 1.000000
0.962500 0.962500 1.000000
1.000000 0.962500 1.000000
1.000000 0.962500 1.000000
0.000000 1.000000 1.000000
0.118750 1.000000 1.000000
0.287500 1.000000 1.000000
0.456250 1.000000 1.000000
0.625000 1.000000 1.000000
0.793750 1.000000 1.000000
0.962500 1.000000 1.000000
1.000000 1.000000 1.000000
1.000000 1.000000 1.000000
0.000000 1.000000 1.000000
0.118750 1.000000 1.000000
0.287500 1.000000 1.000000
0.456250 1.000000 1.000000
0.625000 1.000000 1.000000
0.793750 1.000000 1.000000
0.962500 1.000000 1.000000
1.000000 1.000000 1.000000
1.000000 1.000000 1.000000
