app/src/main/assets/luts/hdr_punch.cube
# ApexStudio filter: hdr_punch
LUT_3D_SIZE 17
DOMAIN_MIN 0.0 0.0 0.0
DOMAIN_MAX 1.0 1.0 1.0
0.000000 0.000000 0.000000
0.034375 0.000000 0.000000
0.118750 0.000000 0.000000
0.203125 0.000000 0.000000
0.287500 0.000000 0.000000
0.371875 0.000000 0.000000
0.456250 0.000000 0.000000
0.540625 0.000000 0.000000
0.625000 0.000000 0.000000
0.709375 0.000000 0.000000
0.793750 0.000000 0.000000
0.878125 0.000000 0.000000
0.962500 0.000000 0.000000
1.000000 0.000000 0.000000
1.000000 0.000000 0.000000
1.000000 0.000000 0.000000
1.000000 0.000000 0.000000
0.000000 0.034375 0.000000
0.034375 0.034375 0.000000
0.118750 0.034375 0.000000
0.203125 0.034375 0.000000
0.287500 0.034375 0.000000
0.371875 0.034375 0.000000
0.456250 0.034375 0.000000
0.540625 0.034375 0.000000
0.625000 0.034375 0.000000
0.709375 0.034375 0.000000
0.793750 0.034375 0.000000
0.878125 0.034375 0.000000
0.962500 0.034375 0.000000
1.000000 0.034375 0.000000
1.000000 0.034375 0.000000
1.000000 0.034375 0.000000
1.000000 0.034375 0.000000
0.000000 0.118750 0.000000
0.034375 0.118750 0.000000
0.118750 0.118750 0.000000
0.203125 0.118750 0.000000
0.287500 0.118750 0.000000
0.371875 0.118750 0.000000
0.456250 0.118750 0.000000
0.540625 0.118750 0.000000
0.625000 0.118750 0.000000
0.709375 0.118750 0.000000
0.793750 0.118750 0.000000
0.878125 0.118750 0.000000
0.962500 0.118750 0.000000
1.000000 0.118750 0.000000
1.000000 0.118750 0.000000
1.000000 0.118750 0.000000
1.000000 0.118750 0.000000
0.000000 0.203125 0.000000
0.034375 0.203125 0.000000
0.118750 0.203125 0.000000
0.203125 0.203125 0.000000
0.287500 0.203125 0.000000
0.371875 0.203125 0.000000
0.456250 0.203125 0.000000
0.540625 0.203125 0.000000
0.625000 0.203125 0.000000
0.709375 0.203125 0.000000
0.793750 0.203125 0.000000
0.878125 0.203125 0.000000
0.962500 0.203125 0.000000
1.000000 0.203125 0.000000
1.000000 0.203125 0.000000
1.000000 0.203125 0.000000
1.000000 0.203125 0.000000
0.000000 0.287500 0.000000
0.034375 0.287500 0.000000
0.118750 0.287500 0.000000
0.203125 0.287500 0.000000
0.287500 0.287500 0.000000
0.371875 0.287500 0.000000
0.456250 0.287500 0.000000
0.540625 0.287500 0.000000
0.625000 0.287500 0.000000
0.709375 0.287500 0.000000
0.793750 0.287500 0.000000
0.878125 0.287500 0.000000
0.962500 0.287500 0.000000
1.000000 0.287500 0.000000
1.000000 0.287500 0.000000
1.000000 0.287500 0.000000
1.000000 0.287500 0.000000
0.000000 0.371875 0.000000
0.034375 0.371875 0.000000
0.118750 0.371875 0.000000
0.203125 0.371875 0.000000
0.287500 0.371875 0.000000
0.371875 0.371875 0.000000
0.456250 0.371875 0.000000
0.540625 0.371875 0.000000
0.625000 0.371875 0.000000
0.709375 0.371875 0.000000
0.793750 0.371875 0.000000
0.878125 0.371875 0.000000
0.962500 0.371875 0.000000
1.000000 0.371875 0.000000
1.000000 0.371875 0.000000
1.000000 0.371875 0.000000
1.000000 0.371875 0.000000
0.000000 0.456250 0.000000
0.034375 0.456250 0.000000
0.118750 0.456250 0.000000
0.203125 0.456250 0.000000
0.287500 0.456250 0.000000
0.371875 0.456250 0.000000
0.456250 0.456250 0.000000
0.540625 0.456250 0.000000
0.625000 0.456250 0.000000
0.709375 0.456250 0.000000
0.793750 0.456250 0.000000
0.878125 0.456250 0.000000
0.962500 0.456250 0.000000
1.000000 0.456250 0.000000
1.000000 0.456250 0.000000
1.000000 0.456250 0.000000
1.000000 0.456250 0.000000
0.000000 0.540625 0.000000
0.034375 0.540625 0.000000
0.118750 0.540625 0.000000
0.203125 0.540625 0.000000
0.287500 0.540625 0.000000
0.371875 0.540625 0.000000
0.456250 0.540625 0.000000
0.540625 0.540625 0.000000
0.625000 0.540625 0.000000
0.709375 0.540625 0.000000
0.793750 0.540625 0.000000
0.878125 0.540625 0.000000
0.962500 0.540625 0.000000
1.000000 0.540625 0.000000
1.000000 0.540625 0.000000
1.000000 0.540625 0.000000
1.000000 0.540625 0.000000
0.000000 0.625000 0.000000
0.034375 0.625000 0.000000
0.118750 0.625000 0.000000
0.203125 0.625000 0.000000
0.287500 0.625000 0.000000
0.371875 0.625000 0.000000
0.456250 0.625000 0.000000
0.540625 0.625000 0.000000
0.625000 0.625000 0.000000
0.709375 0.625000 0.000000
0.793750 0.625000 0.000000
0.878125 0.625000 0.000000
0.962500 0.625000 0.000000
1.000000 0.625000 0.000000
1.000000 0.625000 0.000000
1.000000 0.625000 0.000000
1.000000 0.625000 0.000000
0.000000 0.709375 0.000000
0.034375 0.709375 0.000000
0.118750 0.709375 0.000000
0.203125 0.709375 0.000000
0.287500 0.709375 0.000000
0.371875 0.709375 0.000000
0.456250 0.709375 0.000000
0.540625 0.709375 0.000000
0.625000 0.709375 0.000000
0.709375 0.709375 0.000000
0.793750 0.709375 0.000000
0.878125 0.709375 0.000000
0.962500 0.709375 0.000000
1.000000 0.709375 0.000000
1.000000 0.709375 0.000000
1.000000 0.709375 0.000000
1.000000 0.709375 0.000000
0.000000 0.793750 0.000000
0.034375 0.793750 0.000000
0.118750 0.793750 0.000000
0.203125 0.793750 0.000000
0.287500 0.793750 0.000000
0.371875 0.793750 0.000000
0.456250 0.793750 0.000000
0.540625 0.793750 0.000000
0.625000 0.793750 0.000000
0.709375 0.793750 0.000000
0.793750 0.793750 0.000000
0.878125 0.793750 0.000000
0.962500 0.793750 0.000000
1.000000 0.793750 0.000000
1.000000 0.793750 0.000000
1.000000 0.793750 0.000000
1.000000 0.793750 0.000000
0.000000 0.878125 0.000000
0.034375 0.878125 0.000000
0.118750 0.878125 0.000000
0.203125 0.878125 0.000000
0.287500 0.878125 0.000000
0.371875 0.878125 0.000000
0.456250 0.878125 0.000000
0.540625 0.878125 0.000000
0.625000 0.878125 0.000000
0.709375 0.878125 0.000000
0.793750 0.878125 0.000000
0.878125 0.878125 0.000000
0.962500 0.878125 0.000000
1.000000 0.878125 0.000000
1.000000 0.878125 0.000000
1.000000 0.878125 0.000000
1.000000 0.878125 0.000000
0.000000 0.962500 0.000000
0.034375 0.962500 0.000000
0.118750 0.962500 0.000000
0.203125 0.962500 0.000000
0.287500 0.962500 0.000000
0.371875 0.962500 0.000000
0.456250 0.962500 0.000000
0.540625 0.962500 0.000000
0.625000 0.962500 0.000000
0.709375 0.962500 0.000000
0.793750 0.962500 0.000000
0.878125 0.962500 0.000000
0.962500 0.962500 0.000000
1.000000 0.962500 0.000000
1.000000 0.962500 0.000000
1.000000 0.962500 0.000000
1.000000 0.962500 0.000000
0.000000 1.000000 0.000000
0.034375 1.000000 0.000000
0.118750 1.000000 0.000000
0.203125 1.000000 0.000000
0.287500 1.000000 0.000000
0.371875 1.000000 0.000000
0.456250 1.000000 0.000000
0.540625 1.000000 0.000000
0.625000 1.000000 0.000000
0.709375 1.000000 0.000000
0.793750 1.000000 0.000000
0.878125 1.000000 0.000000
0.962500 1.000000 0.000000
1.000000 1.000000 0.000000
1.000000 1.000000 0.000000
1.000000 1.000000 0.000000
1.000000 1.000000 0.000000
0.000000 1.000000 0.000000
0.034375 1.000000 0.000000
0.118750 1.000000 0.000000
0.203125 1.000000 0.000000
0.287500 1.000000 0.000000
0.371875 1.000000 0.000000
0.456250 1.000000 0.000000
0.540625 1.000000 0.000000
0.625000 1.000000 0.000000
0.709375 1.000000 0.000000
0.793750 1.000000 0.000000
0.878125 1.000000 0.000000
0.962500 1.000000 0.000000
1.000000 1.000000 0.000000
1.000000 1.000000 0.000000
1.000000 1.000000 0.000000
1.000000 1.000000 0.000000
0.000000 1.000000 0.000000
0.034375 1.000000 0.000000
0.118750 1.000000 0.000000
0.203125 1.000000 0.000000
0.287500 1.000000 0.000000
0.371875 1.000000 0.000000
0.456250 1.000000 0.000000
0.540625 1.000000 0.000000
0.625000 1.000000 0.000000
0.709375 1.000000 0.000000
0.793750 1.000000 0.000000
0.878125 1.000000 0.000000
0.962500 1.000000 0.000000
1.000000 1.000000 0.000000
1.000000 1.000000 0.000000
1.000000 1.000000 0.000000
1.000000 1.000000 0.000000
0.000000 1.000000 0.000000
0.034375 1.000000 0.000000
0.118750 1.000000 0.000000
0.203125 1.000000 0.000000
0.287500 1.000000 0.000000
0.371875 1.000000 0.000000
0.456250 1.000000 0.000000
0.540625 1.000000 0.000000
0.625000 1.000000 0.000000
0.709375 1.000000 0.000000
0.793750 1.000000 0.000000
0.878125 1.000000 0.000000
0.962500 1.000000 0.000000
1.000000 1.000000 0.000000
1.000000 1.000000 0.000000
1.000000 1.000000 0.000000
1.000000 1.000000 0.000000
0.000000 0.000000 0.034375
0.034375 0.000000 0.034375
0.118750 0.000000 0.034375
0.203125 0.000000 0.034375
0.287500 0.000000 0.034375
0.371875 0.000000 0.034375
0.456250 0.000000 0.034375
0.540625 0.000000 0.034375
0.625000 0.000000 0.034375
0.709375 0.000000 0.034375
0.793750 0.000000 0.034375
0.878125 0.000000 0.034375
0.962500 0.000000 0.034375
1.000000 0.000000 0.034375
1.000000 0.000000 0.034375
1.000000 0.000000 0.034375
1.000000 0.000000 0.034375
0.000000 0.034375 0.034375
0.034375 0.034375 0.034375
0.118750 0.034375 0.034375
0.203125 0.034375 0.034375
0.287500 0.034375 0.034375
0.371875 0.034375 0.034375
0.456250 0.034375 0.034375
0.540625 0.034375 0.034375
0.625000 0.034375 0.034375
0.709375 0.034375 0.034375
0.793750 0.034375 0.034375
0.878125 0.034375 0.034375
0.962500 0.034375 0.034375
1.000000 0.034375 0.034375
1.000000 0.034375 0.034375
1.000000 0.034375 0.034375
1.000000 0.034375 0.034375
0.000000 0.118750 0.034375
0.034375 0.118750 0.034375
0.118750 0.118750 0.034375
0.203125 0.118750 0.034375
0.287500 0.118750 0.034375
0.371875 0.118750 0.034375
0.456250 0.118750 0.034375
0.540625 0.118750 0.034375
0.625000 0.118750 0.034375
0.709375 0.118750 0.034375
0.793750 0.118750 0.034375
0.878125 0.118750 0.034375
0.962500 0.118750 0.034375
1.000000 0.118750 0.034375
1.000000 0.118750 0.034375
1.000000 0.118750 0.034375
1.000000 0.118750 0.034375
0.000000 0.203125 0.034375
0.034375 0.203125 0.034375
0.118750 0.203125 0.034375
0.203125 0.203125 0.034375
0.287500 0.203125 0.034375
0.371875 0.203125 0.034375
0.456250 0.203125 0.034375
0.540625 0.203125 0.034375
0.625000 0.203125 0.034375
0.709375 0.203125 0.034375
0.793750 0.203125 0.034375
0.878125 0.203125 0.034375
0.962500 0.203125 0.034375
1.000000 0.203125 0.034375
1.000000 0.203125 0.034375
1.000000 0.203125 0.034375
1.000000 0.203125 0.034375
0.000000 0.287500 0.034375
0.034375 0.287500 0.034375
0.118750 0.287500 0.034375
0.203125 0.287500 0.034375
0.287500 0.287500 0.034375
0.371875 0.287500 0.034375
0.456250 0.287500 0.034375
0.540625 0.287500 0.034375
0.625000 0.287500 0.034375
0.709375 0.287500 0.034375
0.793750 0.287500 0.034375
0.878125 0.287500 0.034375
0.962500 0.287500 0.034375
1.000000 0.287500 0.034375
1.000000 0.287500 0.034375
1.000000 0.287500 0.034375
1.000000 0.287500 0.034375
0.000000 0.371875 0.034375
0.034375 0.371875 0.034375
0.118750 0.371875 0.034375
0.203125 0.371875 0.034375
0.287500 0.371875 0.034375
0.371875 0.371875 0.034375
0.456250 0.371875 0.034375
0.540625 0.371875 0.034375
0.625000 0.371875 0.034375
0.709375 0.371875 0.034375
0.793750 0.371875 0.034375
0.878125 0.371875 0.034375
0.962500 0.371875 0.034375
1.000000 0.371875 0.034375
1.000000 0.371875 0.034375
1.000000 0.371875 0.034375
1.000000 0.371875 0.034375
0.000000 0.456250 0.034375
0.034375 0.456250 0.034375
0.118750 0.456250 0.034375
0.203125 0.456250 0.034375
0.287500 0.456250 0.034375
0.371875 0.456250 0.034375
0.456250 0.456250 0.034375
0.540625 0.456250 0.034375
0.625000 0.456250 0.034375
0.709375 0.456250 0.034375
0.793750 0.456250 0.034375
0.878125 0.456250 0.034375
0.962500 0.456250 0.034375
1.000000 0.456250 0.034375
1.000000 0.456250 0.034375
1.000000 0.456250 0.034375
1.000000 0.456250 0.034375
0.000000 0.540625 0.034375
0.034375 0.540625 0.034375
0.118750 0.540625 0.034375
0.203125 0.540625 0.034375
0.287500 0.540625 0.034375
0.371875 0.540625 0.034375
0.456250 0.540625 0.034375
0.540625 0.540625 0.034375
0.625000 0.540625 0.034375
0.709375 0.540625 0.034375
0.793750 0.540625 0.034375
0.878125 0.540625 0.034375
0.962500 0.540625 0.034375
1.000000 0.540625 0.034375
1.000000 0.540625 0.034375
1.000000 0.540625 0.034375
1.000000 0.540625 0.034375
0.000000 0.625000 0.034375
0.034375 0.625000 0.034375
0.118750 0.625000 0.034375
0.203125 0.625000 0.034375
0.287500 0.625000 0.034375
0.371875 0.625000 0.034375
0.456250 0.625000 0.034375
0.540625 0.625000 0.034375
0.625000 0.625000 0.034375
0.709375 0.625000 0.034375
0.793750 0.625000 0.034375
0.878125 0.625000 0.034375
0.962500 0.625000 0.034375
1.000000 0.625000 0.034375
1.000000 0.625000 0.034375
1.000000 0.625000 0.034375
1.000000 0.625000 0.034375
0.000000 0.709375 0.034375
0.034375 0.709375 0.034375
0.118750 0.709375 0.034375
0.203125 0.709375 0.034375
0.287500 0.709375 0.034375
0.371875 0.709375 0.034375
0.456250 0.709375 0.034375
0.540625 0.709375 0.034375
0.625000 0.709375 0.034375
0.709375 0.709375 0.034375
0.793750 0.709375 0.034375
0.878125 0.709375 0.034375
0.962500 0.709375 0.034375
1.000000 0.709375 0.034375
1.000000 0.709375 0.034375
1.000000 0.709375 0.034375
1.000000 0.709375 0.034375
0.000000 0.793750 0.034375
0.034375 0.793750 0.034375
0.118750 0.793750 0.034375
0.203125 0.793750 0.034375
0.287500 0.793750 0.034375
0.371875 0.793750 0.034375
0.456250 0.793750 0.034375
0.540625 0.793750 0.034375
0.625000 0.793750 0.034375
0.709375 0.793750 0.034375
0.793750 0.793750 0.034375
0.878125 0.793750 0.034375
0.962500 0.793750 0.034375
1.000000 0.793750 0.034375
1.000000 0.793750 0.034375
1.000000 0.793750 0.034375
1.000000 0.793750 0.034375
0.000000 0.878125 0.034375
0.034375 0.878125 0.034375
0.118750 0.878125 0.034375
0.203125 0.878125 0.034375
0.287500 0.878125 0.034375
0.371875 0.878125 0.034375
0.456250 0.878125 0.034375
0.540625 0.878125 0.034375
0.625000 0.878125 0.034375
0.709375 0.878125 0.034375
0.793750 0.878125 0.034375
0.878125 0.878125 0.034375
0.962500 0.878125 0.034375
1.000000 0.878125 0.034375
1.000000 0.878125 0.034375
1.000000 0.878125 0.034375
1.000000 0.878125 0.034375
0.000000 0.962500 0.034375
0.034375 0.962500 0.034375
0.118750 0.962500 0.034375
0.203125 0.962500 0.034375
0.287500 0.962500 0.034375
0.371875 0.962500 0.034375
0.456250 0.962500 0.034375
0.540625 0.962500 0.034375
0.625000 0.962500 0.034375
0.709375 0.962500 0.034375
0.793750 0.962500 0.034375
0.878125 0.962500 0.034375
0.962500 0.962500 0.034375
1.000000 0.962500 0.034375
1.000000 0.962500 0.034375
1.000000 0.962500 0.034375
1.000000 0.962500 0.034375
0.000000 1.000000 0.034375
0.034375 1.000000 0.034375
0.118750 1.000000 0.034375
0.203125 1.000000 0.034375
0.287500 1.000000 0.034375
0.371875 1.000000 0.034375
0.456250 1.000000 0.034375
0.540625 1.000000 0.034375
0.625000 1.000000 0.034375
0.709375 1.000000 0.034375
0.793750 1.000000 0.034375
0.878125 1.000000 0.034375
0.962500 1.000000 0.034375
1.000000 1.000000 0.034375
1.000000 1.000000 0.034375
1.000000 1.000000 0.034375
1.000000 1.000000 0.034375
0.000000 1.000000 0.034375
0.034375 1.000000 0.034375
0.118750 1.000000 0.034375
0.203125 1.000000 0.034375
0.287500 1.000000 0.034375
0.371875 1.000000 0.034375
0.456250 1.000000 0.034375
0.540625 1.000000 0.034375
0.625000 1.000000 0.034375
0.709375 1.000000 0.034375
0.793750 1.000000 0.034375
0.878125 1.000000 0.034375
0.962500 1.000000 0.034375
1.000000 1.000000 0.034375
1.000000 1.000000 0.034375
1.000000 1.000000 0.034375
1.000000 1.000000 0.034375
0.000000 1.000000 0.034375
0.034375 1.000000 0.034375
0.118750 1.000000 0.034375
0.203125 1.000000 0.034375
0.287500 1.000000 0.034375
0.371875 1.000000 0.034375
0.456250 1.000000 0.034375
0.540625 1.000000 0.034375
0.625000 1.000000 0.034375
0.709375 1.000000 0.034375
0.793750 1.000000 0.034375
0.878125 1.000000 0.034375
0.962500 1.000000 0.034375
1.000000 1.000000 0.034375
1.000000 1.000000 0.034375
1.000000 1.000000 0.034375
1.000000 1.000000 0.034375
0.000000 1.000000 0.034375
0.034375 1.000000 0.034375
0.118750 1.000000 0.034375
0.203125 1.000000 0.034375
0.287500 1.000000 0.034375
0.371875 1.000000 0.034375
0.456250 1.000000 0.034375
0.540625 1.000000 0.034375
0.625000 1.000000 0.034375
0.709375 1.000000 0.034375
0.793750 1.000000 0.034375
0.878125 1.000000 0.034375
0.962500 1.000000 0.034375
1.000000 1.000000 0.034375
1.000000 1.000000 0.034375
1.000000 1.000000 0.034375
1.000000 1.000000 0.034375
0.000000 0.000000 0.118750
0.034375 0.000000 0.118750
0.118750 0.000000 0.118750
0.203125 0.000000 0.118750
0.287500 0.000000 0.118750
0.371875 0.000000 0.118750
0.456250 0.000000 0.118750
0.540625 0.000000 0.118750
0.625000 0.000000 0.118750
0.709375 0.000000 0.118750
0.793750 0.000000 0.118750
0.878125 0.000000 0.118750
0.962500 0.000000 0.118750
1.000000 0.000000 0.118750
1.000000 0.000000 0.118750
1.000000 0.000000 0.118750
1.000000 0.000000 0.118750
0.000000 0.034375 0.118750
0.034375 0.034375 0.118750
0.118750 0.034375 0.118750
0.203125 0.034375 0.118750
0.287500 0.034375 0.118750
0.371875 0.034375 0.118750
0.456250 0.034375 0.118750
0.540625 0.034375 0.118750
0.625000 0.034375 0.118750
0.709375 0.034375 0.118750
0.793750 0.034375 0.118750
0.878125 0.034375 0.118750
0.962500 0.034375 0.118750
1.000000 0.034375 0.118750
1.000000 0.034375 0.118750
1.000000 0.034375 0.118750
1.000000 0.034375 0.118750
0.000000 0.118750 0.118750
0.034375 0.118750 0.118750
0.118750 0.118750 0.118750
0.203125 0.118750 0.118750
0.287500 0.118750 0.118750
0.371875 0.118750 0.118750
0.456250 0.118750 0.118750
0.540625 0.118750 0.118750
0.625000 0.118750 0.118750
0.709375 0.118750 0.118750
0.793750 0.118750 0.118750
0.878125 0.118750 0.118750
0.962500 0.118750 0.118750
1.000000 0.118750 0.118750
1.000000 0.118750 0.118750
1.000000 0.118750 0.118750
1.000000 0.118750 0.118750
0.000000 0.203125 0.118750
0.034375 0.203125 0.118750
0.118750 0.203125 0.118750
0.203125 0.203125 0.118750
0.287500 0.203125 0.118750
0.371875 0.203125 0.118750
0.456250 0.203125 0.118750
0.540625 0.203125 0.118750
0.625000 0.203125 0.118750
0.709375 0.203125 0.118750
0.793750 0.203125 0.118750
0.878125 0.203125 0.118750
0.962500 0.203125 0.118750
1.000000 0.203125 0.118750
1.000000 0.203125 0.118750
1.000000 0.203125 0.118750
1.000000 0.203125 0.118750
0.000000 0.287500 0.118750
0.034375 0.287500 0.118750
0.118750 0.287500 0.118750
0.203125 0.287500 0.118750
0.287500 0.287500 0.118750
0.371875 0.287500 0.118750
0.456250 0.287500 0.118750
0.540625 0.287500 0.118750
0.625000 0.287500 0.118750
0.709375 0.287500 0.118750
0.793750 0.287500 0.118750
0.878125 0.287500 0.118750
0.962500 0.287500 0.118750
1.000000 0.287500 0.118750
1.000000 0.287500 0.118750
1.000000 0.287500 0.118750
1.000000 0.287500 0.118750
0.000000 0.371875 0.118750
0.034375 0.371875 0.118750
0.118750 0.371875 0.118750
0.203125 0.371875 0.118750
0.287500 0.371875 0.118750
0.371875 0.371875 0.118750
0.456250 0.371875 0.118750
0.540625 0.371875 0.118750
0.625000 0.371875 0.118750
0.709375 0.371875 0.118750
0.793750 0.371875 0.118750
0.878125 0.371875 0.118750
0.962500 0.371875 0.118750
1.000000 0.371875 0.118750
1.000000 0.371875 0.118750
1.000000 0.371875 0.118750
1.000000 0.371875 0.118750
0.000000 0.456250 0.118750
0.034375 0.456250 0.118750
0.118750 0.456250 0.118750
0.203125 0.456250 0.118750
0.287500 0.456250 0.118750
0.371875 0.456250 0.118750
0.456250 0.456250 0.118750
0.540625 0.456250 0.118750
0.625000 0.456250 0.118750
0.709375 0.456250 0.118750
0.793750 0.456250 0.118750
0.878125 0.456250 0.118750
0.962500 0.456250 0.118750
1.000000 0.456250 0.118750
1.000000 0.456250 0.118750
1.000000 0.456250 0.118750
1.000000 0.456250 0.118750
0.000000 0.540625 0.118750
0.034375 0.540625 0.118750
0.118750 0.540625 0.118750
0.203125 0.540625 0.118750
0.287500 0.540625 0.118750
0.371875 0.540625 0.118750
0.456250 0.540625 0.118750
0.540625 0.540625 0.118750
0.625000 0.540625 0.118750
0.709375 0.540625 0.118750
0.793750 0.540625 0.118750
0.878125 0.540625 0.118750
0.962500 0.540625 0.118750
1.000000 0.540625 0.118750
1.000000 0.540625 0.118750
1.000000 0.540625 0.118750
1.000000 0.540625 0.118750
0.000000 0.625000 0.118750
0.034375 0.625000 0.118750
0.118750 0.625000 0.118750
0.203125 0.625000 0.118750
0.287500 0.625000 0.118750
0.371875 0.625000 0.118750
0.456250 0.625000 0.118750
0.540625 0.625000 0.118750
0.625000 0.625000 0.118750
0.709375 0.625000 0.118750
0.793750 0.625000 0.118750
0.878125 0.625000 0.118750
0.962500 0.625000 0.118750
1.000000 0.625000 0.118750
1.000000 0.625000 0.118750
1.000000 0.625000 0.118750
1.000000 0.625000 0.118750
0.000000 0.709375 0.118750
0.034375 0.709375 0.118750
0.118750 0.709375 0.118750
0.203125 0.709375 0.118750
0.287500 0.709375 0.118750
0.371875 0.709375 0.118750
0.456250 0.709375 0.118750
0.540625 0.709375 0.118750
0.625000 0.709375 0.118750
0.709375 0.709375 0.118750
0.793750 0.709375 0.118750
0.878125 0.709375 0.118750
0.962500 0.709375 0.118750
1.000000 0.709375 0.118750
1.000000 0.709375 0.118750
1.000000 0.709375 0.118750
1.000000 0.709375 0.118750
0.000000 0.793750 0.118750
0.034375 0.793750 0.118750
0.118750 0.793750 0.118750
0.203125 0.793750 0.118750
0.287500 0.793750 0.118750
0.371875 0.793750 0.118750
0.456250 0.793750 0.118750
0.540625 0.793750 0.118750
0.625000 0.793750 0.118750
0.709375 0.793750 0.118750
0.793750 0.793750 0.118750
0.878125 0.793750 0.118750
0.962500 0.793750 0.118750
1.000000 0.793750 0.118750
1.000000 0.793750 0.118750
1.000000 0.793750 0.118750
1.000000 0.793750 0.118750
0.000000 0.878125 0.118750
0.034375 0.878125 0.118750
0.118750 0.878125 0.118750
0.203125 0.878125 0.118750
0.287500 0.878125 0.118750
0.371875 0.878125 0.118750
0.456250 0.878125 0.118750
0.540625 0.878125 0.118750
0.625000 0.878125 0.118750
0.709375 0.878125 0.118750
0.793750 0.878125 0.118750
0.878125 0.878125 0.118750
0.962500 0.878125 0.118750
1.000000 0.878125 0.118750
1.000000 0.878125 0.118750
1.000000 0.878125 0.118750
1.000000 0.878125 0.118750
0.000000 0.962500 0.118750
0.034375 0.962500 0.118750
0.118750 0.962500 0.118750
0.203125 0.962500 0.118750
0.287500 0.962500 0.118750
0.371875 0.962500 0.118750
0.456250 0.962500 0.118750
0.540625 0.962500 0.118750
0.625000 0.962500 0.118750
0.709375 0.962500 0.118750
0.793750 0.962500 0.118750
0.878125 0.962500 0.118750
0.962500 0.962500 0.118750
1.000000 0.962500 0.118750
1.000000 0.962500 0.118750
1.000000 0.962500 0.118750
1.000000 0.962500 0.118750
0.000000 1.000000 0.118750
0.034375 1.000000 0.118750
0.118750 1.000000 0.118750
0.203125 1.000000 0.118750
0.287500 1.000000 0.118750
0.371875 1.000000 0.118750
0.456250 1.000000 0.118750
0.540625 1.000000 0.118750
0.625000 1.000000 0.118750
0.709375 1.000000 0.118750
0.793750 1.000000 0.118750
0.878125 1.000000 0.118750
0.962500 1.000000 0.118750
1.000000 1.000000 0.118750
1.000000 1.000000 0.118750
1.000000 1.000000 0.118750
1.000000 1.000000 0.118750
0.000000 1.000000 0.118750
0.034375 1.000000 0.118750
0.118750 1.000000 0.118750
0.203125 1.000000 0.118750
0.287500 1.000000 0.118750
0.371875 1.000000 0.118750
0.456250 1.000000 0.118750
0.540625 1.000000 0.118750
0.625000 1.000000 0.118750
0.709375 1.000000 0.118750
0.793750 1.000000 0.118750
0.878125 1.000000 0.118750
0.962500 1.000000 0.118750
1.000000 1.000000 0.118750
1.000000 1.000000 0.118750
1.000000 1.000000 0.118750
1.000000 1.000000 0.118750
0.000000 1.000000 0.118750
0.034375 1.000000 0.118750
0.118750 1.000000 0.118750
0.203125 1.000000 0.118750
0.287500 1.000000 0.118750
0.371875 1.000000 0.118750
0.456250 1.000000 0.118750
0.540625 1.000000 0.118750
0.625000 1.000000 0.118750
0.709375 1.000000 0.118750
0.793750 1.000000 0.118750
0.878125 1.000000 0.118750
0.962500 1.000000 0.118750
1.000000 1.000000 0.118750
1.000000 1.000000 0.118750
1.000000 1.000000 0.118750
1.000000 1.000000 0.118750
0.000000 1.000000 0.118750
0.034375 1.000000 0.118750
0.118750 1.000000 0.118750
0.203125 1.000000 0.118750
0.287500 1.000000 0.118750
0.371875 1.000000 0.118750
0.456250 1.000000 0.118750
0.540625 1.000000 0.118750
0.625000 1.000000 0.118750
0.709375 1.000000 0.118750
0.793750 1.000000 0.118750
0.878125 1.000000 0.118750
0.962500 1.000000 0.118750
1.000000 1.000000 0.118750
1.000000 1.000000 0.118750
1.000000 1.000000 0.118750
1.000000 1.000000 0.118750
0.000000 0.000000 0.203125
0.034375 0.000000 0.203125
0.118750 0.000000 0.203125
0.203125 0.000000 0.203125
0.287500 0.000000 0.203125
0.371875 0.000000 0.203125
0.456250 0.000000 0.203125
0.540625 0.000000 0.203125
0.625000 0.000000 0.203125
0.709375 0.000000 0.203125
0.793750 0.000000 0.203125
0.878125 0.000000 0.203125
0.962500 0.000000 0.203125
1.000000 0.000000 0.203125
1.000000 0.000000 0.203125
1.000000 0.000000 0.203125
1.000000 0.000000 0.203125
0.000000 0.034375 0.203125
