app/src/main/assets/luts/hdr_punch.cube
# ApexStudio filter: hdr_punch
LUT_3D_SIZE 5
DOMAIN_MIN 0.0 0.0 0.0
DOMAIN_MAX 1.0 1.0 1.0
0.000000 0.000000 0.000000
0.287500 0.000000 0.000000
0.625000 0.000000 0.000000
0.962500 0.000000 0.000000
1.000000 0.000000 0.000000
0.000000 0.287500 0.000000
0.287500 0.287500 0.000000
0.625000 0.287500 0.000000
0.962500 0.287500 0.000000
1.000000 0.287500 0.000000
0.000000 0.625000 0.000000
0.287500 0.625000 0.000000
0.625000 0.625000 0.000000
0.962500 0.625000 0.000000
1.000000 0.625000 0.000000
0.000000 0.962500 0.000000
0.287500 0.962500 0.000000
0.625000 0.962500 0.000000
0.962500 0.962500 0.000000
1.000000 0.962500 0.000000
0.000000 1.000000 0.000000
0.287500 1.000000 0.000000
0.625000 1.000000 0.000000
0.962500 1.000000 0.000000
1.000000 1.000000 0.000000
0.000000 0.000000 0.287500
0.287500 0.000000 0.287500
0.625000 0.000000 0.287500
0.962500 0.000000 0.287500
1.000000 0.000000 0.287500
0.000000 0.287500 0.287500
0.287500 0.287500 0.287500
0.625000 0.287500 0.287500
0.962500 0.287500 0.287500
1.000000 0.287500 0.287500
0.000000 0.625000 0.287500
0.287500 0.625000 0.287500
0.625000 0.625000 0.287500
0.962500 0.625000 0.287500
1.000000 0.625000 0.287500
0.000000 0.962500 0.287500
0.287500 0.962500 0.287500
0.625000 0.962500 0.287500
0.962500 0.962500 0.287500
1.000000 0.962500 0.287500
0.000000 1.000000 0.287500
0.287500 1.000000 0.287500
0.625000 1.000000 0.287500
0.962500 1.000000 0.287500
1.000000 1.000000 0.287500
0.000000 0.000000 0.625000
0.287500 0.000000 0.625000
0.625000 0.000000 0.625000
0.962500 0.000000 0.625000
1.000000 0.000000 0.625000
0.000000 0.287500 0.625000
0.287500 0.287500 0.625000
0.625000 0.287500 0.625000
0.962500 0.287500 0.625000
1.000000 0.287500 0.625000
0.000000 0.625000 0.625000
0.287500 0.625000 0.625000
0.625000 0.625000 0.625000
0.962500 0.625000 0.625000
1.000000 0.625000 0.625000
0.000000 0.962500 0.625000
0.287500 0.962500 0.625000
0.625000 0.962500 0.625000
0.962500 0.962500 0.625000
1.000000 0.962500 0.625000
0.000000 1.000000 0.625000
0.287500 1.000000 0.625000
0.625000 1.000000 0.625000
0.962500 1.000000 0.625000
1.000000 1.000000 0.625000
0.000000 0.000000 0.962500
0.287500 0.000000 0.962500
0.625000 0.000000 0.962500
0.962500 0.000000 0.962500
1.000000 0.000000 0.962500
0.000000 0.287500 0.962500
0.287500 0.287500 0.962500
0.625000 0.287500 0.962500
0.962500 0.287500 0.962500
1.000000 0.287500 0.962500
0.000000 0.625000 0.962500
0.287500 0.625000 0.962500
0.625000 0.625000 0.962500
0.962500 0.625000 0.962500
1.000000 0.625000 0.962500
0.000000 0.962500 0.962500
0.287500 0.962500 0.962500
0.625000 0.962500 0.962500
0.962500 0.962500 0.962500
1.000000 0.962500 0.962500
0.000000 1.000000 0.962500
0.287500 1.000000 0.962500
0.625000 1.000000 0.962500
0.962500 1.000000 0.962500
1.000000 1.000000 0.962500
0.000000 0.000000 1.000000
0.287500 0.000000 1.000000
0.625000 0.000000 1.000000
0.962500 0.000000 1.000000
1.000000 0.000000 1.000000
0.000000 0.287500 1.000000
0.287500 0.287500 1.000000
0.625000 0.287500 1.000000
0.962500 0.287500 1.000000
1.000000 0.287500 1.000000
0.000000 0.625000 1.000000
0.287500 0.625000 1.000000
0.625000 0.625000 1.000000
0.962500 0.625000 1.000000
1.000000 0.625000 1.000000
0.000000 0.962500 1.000000
0.287500 0.962500 1.000000
0.625000 0.962500 1.000000
0.962500 0.962500 1.000000
1.000000 0.962500 1.000000
0.000000 1.000000 1.000000
0.287500 1.000000 1.000000
0.625000 1.000000 1.000000
0.962500 1.000000 1.000000
1.000000 1.000000 1.000000
