app/src/main/assets/luts/high_key_mono.cube
# ApexStudio filter: high_key_mono
LUT_3D_SIZE 17
DOMAIN_MIN 0.0 0.0 0.0
DOMAIN_MAX 1.0 1.0 1.0
0.077426 0.077426 0.077426
0.093661 0.093661 0.093661
0.110184 0.110184 0.110184
0.126959 0.126959 0.126959
0.143960 0.143960 0.143960
0.161164 0.161164 0.161164
0.178554 0.178554 0.178554
0.196115 0.196115 0.196115
0.213835 0.213835 0.213835
0.231703 0.231703 0.231703
0.249710 0.249710 0.249710
0.267848 0.267848 0.267848
0.286110 0.286110 0.286110
0.304489 0.304489 0.304489
0.322980 0.322980 0.322980
0.341578 0.341578 0.341578
0.360277 0.360277 0.360277
0.109572 0.109572 0.109572
0.126338 0.126338 0.126338
0.143331 0.143331 0.143331
0.160527 0.160527 0.160527
0.177911 0.177911 0.177911
0.195466 0.195466 0.195466
0.213180 0.213180 0.213180
0.231043 0.231043 0.231043
0.249045 0.249045 0.249045
0.267179 0.267179 0.267179
0.285436 0.285436 0.285436
0.303811 0.303811 0.303811
0.322298 0.322298 0.322298
0.340892 0.340892 0.340892
0.359587 0.359587 0.359587
0.378381 0.378381 0.378381
0.397268 0.397268 0.397268
0.142702 0.142702 0.142702
0.159891 0.159891 0.159891
0.177268 0.177268 0.177268
0.194817 0.194817 0.194817
0.212526 0.212526 0.212526
0.230383 0.230383 0.230383
0.248381 0.248381 0.248381
0.266509 0.266509 0.266509
0.284762 0.284762 0.284762
0.303133 0.303133 0.303133
0.321616 0.321616 0.321616
0.340206 0.340206 0.340206
0.358898 0.358898 0.358898
0.377688 0.377688 0.377688
0.396571 0.396571 0.396571
0.415546 0.415546 0.415546
0.434607 0.434607 0.434607
0.176626 0.176626 0.176626
0.194169 0.194169 0.194169
0.211872 0.211872 0.211872
0.229724 0.229724 0.229724
0.247716 0.247716 0.247716
0.265840 0.265840 0.265840
0.284089 0.284089 0.284089
0.302455 0.302455 0.302455
0.320934 0.320934 0.320934
0.339520 0.339520 0.339520
0.358208 0.358208 0.358208
0.376995 0.376995 0.376995
0.395875 0.395875 0.395875
0.414846 0.414846 0.414846
0.433904 0.433904 0.433904
0.453046 0.453046 0.453046
0.472270 0.472270 0.472270
0.211218 0.211218 0.211218
0.229065 0.229065 0.229065
0.247052 0.247052 0.247052
0.265171 0.265171 0.265171
0.283415 0.283415 0.283415
0.301778 0.301778 0.301778
0.320252 0.320252 0.320252
0.338834 0.338834 0.338834
0.357519 0.357519 0.357519
0.376302 0.376302 0.376302
0.395179 0.395179 0.395179
0.414146 0.414146 0.414146
0.433201 0.433201 0.433201
0.452341 0.452341 0.452341
0.471561 0.471561 0.471561
0.490860 0.490860 0.490860
0.510236 0.510236 0.510236
0.246388 0.246388 0.246388
0.264502 0.264502 0.264502
0.282742 0.282742 0.282742
0.301100 0.301100 0.301100
0.319571 0.319571 0.319571
0.338149 0.338149 0.338149
0.356830 0.356830 0.356830
0.375609 0.375609 0.375609
0.394483 0.394483 0.394483
0.413447 0.413447 0.413447
0.432499 0.432499 0.432499
0.451635 0.451635 0.451635
0.470853 0.470853 0.470853
0.490149 0.490149 0.490149
0.509522 0.509522 0.509522
0.528968 0.528968 0.528968
0.548486 0.548486 0.548486
0.282069 0.282069 0.282069
0.300423 0.300423 0.300423
0.318889 0.318889 0.318889
0.337464 0.337464 0.337464
0.356141 0.356141 0.356141
0.374917 0.374917 0.374917
0.393787 0.393787 0.393787
0.412748 0.412748 0.412748
0.431797 0.431797 0.431797
0.450930 0.450930 0.450930
0.470144 0.470144 0.470144
0.489438 0.489438 0.489438
0.508808 0.508808 0.508808
0.528251 0.528251 0.528251
0.547767 0.547767 0.547767
0.567353 0.567353 0.567353
0.587006 0.587006 0.587006
0.318208 0.318208 0.318208
0.336779 0.336779 0.336779
0.355452 0.355452 0.355452
0.374224 0.374224 0.374224
0.393091 0.393091 0.393091
0.412049 0.412049 0.412049
0.431094 0.431094 0.431094
0.450224 0.450224 0.450224
0.469436 0.469436 0.469436
0.488727 0.488727 0.488727
0.508094 0.508094 0.508094
0.527535 0.527535 0.527535
0.547048 0.547048 0.547048
0.566631 0.566631 0.566631
0.586282 0.586282 0.586282
0.605999 0.605999 0.605999
0.625780 0.625780 0.625780
0.354763 0.354763 0.354763
0.373532 0.373532 0.373532
0.392395 0.392395 0.392395
0.411350 0.411350 0.411350
0.430392 0.430392 0.430392
0.449519 0.449519 0.449519
0.468728 0.468728 0.468728
0.488015 0.488015 0.488015
0.507380 0.507380 0.507380
0.526818 0.526818 0.526818
0.546329 0.546329 0.546329
0.565909 0.565909 0.565909
0.585558 0.585558 0.585558
0.605272 0.605272 0.605272
0.625051 0.625051 0.625051
0.644893 0.644893 0.644893
0.664796 0.664796 0.664796
0.391700 0.391700 0.391700
0.410651 0.410651 0.410651
0.429690 0.429690 0.429690
0.448814 0.448814 0.448814
0.468020 0.468020 0.468020
0.487304 0.487304 0.487304
0.506666 0.506666 0.506666
0.526102 0.526102 0.526102
0.545610 0.545610 0.545610
0.565188 0.565188 0.565188
0.584834 0.584834 0.584834
0.604546 0.604546 0.604546
0.624323 0.624323 0.624323
0.644162 0.644162 0.644162
0.664063 0.664063 0.664063
0.684024 0.684024 0.684024
0.704043 0.704043 0.704043
0.428988 0.428988 0.428988
0.448109 0.448109 0.448109
0.467312 0.467312 0.467312
0.486594 0.486594 0.486594
0.505952 0.505952 0.505952
0.525386 0.525386 0.525386
0.544891 0.544891 0.544891
0.564466 0.564466 0.564466
0.584110 0.584110 0.584110
0.603820 0.603820 0.603820
0.623594 0.623594 0.623594
0.643431 0.643431 0.643431
0.663330 0.663330 0.663330
0.683288 0.683288 0.683288
0.703305 0.703305 0.703305
0.723380 0.723380 0.723380
0.743510 0.743510 0.743510
0.466604 0.466604 0.466604
0.485883 0.485883 0.485883
0.505239 0.505239 0.505239
0.524669 0.524669 0.524669
0.544172 0.544172 0.544172
0.563745 0.563745 0.563745
0.583386 0.583386 0.583386
0.603093 0.603093 0.603093
0.622865 0.622865 0.622865
0.642700 0.642700 0.642700
0.662597 0.662597 0.662597
0.682553 0.682553 0.682553
0.702568 0.702568 0.702568
0.722640 0.722640 0.722640
0.742768 0.742768 0.742768
0.762951 0.762951 0.762951
0.783187 0.783187 0.783187
0.504525 0.504525 0.504525
0.523953 0.523953 0.523953
0.543453 0.543453 0.543453
0.563024 0.563024 0.563024
0.582662 0.582662 0.582662
0.602367 0.602367 0.602367
0.622137 0.622137 0.622137
0.641970 0.641970 0.641970
0.661864 0.661864 0.661864
0.681818 0.681818 0.681818
0.701831 0.701831 0.701831
0.721901 0.721901 0.721901
0.742027 0.742027 0.742027
0.762207 0.762207 0.762207
0.782441 0.782441 0.782441
0.802728 0.802728 0.802728
0.823066 0.823066 0.823066
0.542735 0.542735 0.542735
0.562302 0.562302 0.562302
0.581938 0.581938 0.581938
0.601641 0.601641 0.601641
0.621408 0.621408 0.621408
0.641239 0.641239 0.641239
0.661131 0.661131 0.661131
0.681083 0.681083 0.681083
0.701093 0.701093 0.701093
0.721161 0.721161 0.721161
0.741285 0.741285 0.741285
0.761464 0.761464 0.761464
0.781696 0.781696 0.781696
0.801981 0.801981 0.801981
0.822317 0.822317 0.822317
0.842704 0.842704 0.842704
0.863140 0.863140 0.863140
0.581215 0.581215 0.581215
0.600915 0.600915 0.600915
0.620680 0.620680 0.620680
0.640508 0.640508 0.640508
0.660398 0.660398 0.660398
0.680348 0.680348 0.680348
0.700356 0.700356 0.700356
0.720422 0.720422 0.720422
0.740544 0.740544 0.740544
0.760721 0.760721 0.760721
0.780951 0.780951 0.780951
0.801234 0.801234 0.801234
0.821568 0.821568 0.821568
0.841953 0.841953 0.841953
0.862387 0.862387 0.862387
0.882870 0.882870 0.882870
0.903401 0.903401 0.903401
0.619952 0.619952 0.619952
0.639778 0.639778 0.639778
0.659665 0.659665 0.659665
0.679613 0.679613 0.679613
0.699619 0.699619 0.699619
0.719683 0.719683 0.719683
0.739803 0.739803 0.739803
0.759977 0.759977 0.759977
0.780206 0.780206 0.780206
0.800487 0.800487 0.800487
0.820819 0.820819 0.820819
0.841202 0.841202 0.841202
0.861635 0.861635 0.861635
0.882116 0.882116 0.882116
0.902645 0.902645 0.902645
0.923220 0.923220 0.923220
0.943842 0.943842 0.943842
0.658932 0.658932 0.658932
0.678878 0.678878 0.678878
0.698882 0.698882 0.698882
0.718944 0.718944 0.718944
0.739061 0.739061 0.739061
0.759234 0.759234 0.759234
0.779461 0.779461 0.779461
0.799740 0.799740 0.799740
0.820070 0.820070 0.820070
0.840451 0.840451 0.840451
0.860882 0.860882 0.860882
0.881361 0.881361 0.881361
0.901888 0.901888 0.901888
0.922462 0.922462 0.922462
0.943082 0.943082 0.943082
0.963747 0.963747 0.963747
0.984457 0.984457 0.984457
0.083580 0.083580 0.083580
0.099929 0.099929 0.099929
0.116552 0.116552 0.116552
0.133416 0.133416 0.133416
0.150496 0.150496 0.150496
0.167773 0.167773 0.167773
0.185230 0.185230 0.185230
0.202853 0.202853 0.202853
0.220630 0.220630 0.220630
0.238553 0.238553 0.238553
0.256611 0.256611 0.256611
0.274797 0.274797 0.274797
0.293104 0.293104 0.293104
0.311527 0.311527 0.311527
0.330059 0.330059 0.330059
0.348695 0.348695 0.348695
0.367432 0.367432 0.367432
0.115936 0.115936 0.115936
0.132792 0.132792 0.132792
0.149864 0.149864 0.149864
0.167134 0.167134 0.167134
0.184584 0.184584 0.184584
0.202202 0.202202 0.202202
0.219974 0.219974 0.219974
0.237891 0.237891 0.237891
0.255944 0.255944 0.255944
0.274126 0.274126 0.274126
0.292429 0.292429 0.292429
0.310847 0.310847 0.310847
0.329375 0.329375 0.329375
0.348008 0.348008 0.348008
0.366741 0.366741 0.366741
0.385571 0.385571 0.385571
0.404493 0.404493 0.404493
0.149233 0.149233 0.149233
0.166495 0.166495 0.166495
0.183939 0.183939 0.183939
0.201551 0.201551 0.201551
0.219317 0.219317 0.219317
0.237229 0.237229 0.237229
0.255278 0.255278 0.255278
0.273454 0.273454 0.273454
0.291753 0.291753 0.291753
0.310167 0.310167 0.310167
0.328691 0.328691 0.328691
0.347321 0.347321 0.347321
0.366050 0.366050 0.366050
0.384877 0.384877 0.384877
0.403795 0.403795 0.403795
0.422803 0.422803 0.422803
0.441897 0.441897 0.441897
0.183295 0.183295 0.183295
0.200900 0.200900 0.200900
0.218661 0.218661 0.218661
0.236568 0.236568 0.236568
0.254611 0.254611 0.254611
0.272784 0.272784 0.272784
0.291078 0.291078 0.291078
0.309488 0.309488 0.309488
0.328008 0.328008 0.328008
0.346634 0.346634 0.346634
0.365360 0.365360 0.365360
0.384182 0.384182 0.384182
0.403098 0.403098 0.403098
0.422102 0.422102 0.422102
0.441193 0.441193 0.441193
0.460366 0.460366 0.460366
0.479620 0.479620 0.479620
0.218005 0.218005 0.218005
0.235907 0.235907 0.235907
0.253945 0.253945 0.253945
0.272113 0.272113 0.272113
0.290403 0.290403 0.290403
0.308809 0.308809 0.308809
0.327325 0.327325 0.327325
0.345947 0.345947 0.345947
0.364669 0.364669 0.364669
0.383488 0.383488 0.383488
0.402400 0.402400 0.402400
0.421401 0.421401 0.421401
0.440489 0.440489 0.440489
0.459659 0.459659 0.459659
0.478910 0.478910 0.478910
0.498239 0.498239 0.498239
0.517643 0.517643 0.517643
0.253279 0.253279 0.253279
0.271442 0.271442 0.271442
0.289728 0.289728 0.289728
0.308129 0.308129 0.308129
0.326642 0.326642 0.326642
0.345260 0.345260 0.345260
0.363978 0.363978 0.363978
0.382794 0.382794 0.382794
0.401703 0.401703 0.401703
0.420701 0.420701 0.420701
0.439785 0.439785 0.439785
0.458953 0.458953 0.458953
0.478201 0.478201 0.478201
0.497526 0.497526 0.497526
0.516927 0.516927 0.516927
0.536402 0.536402 0.536402
0.555947 0.555947 0.555947
0.289053 0.289053 0.289053
0.307450 0.307450 0.307450
0.325959 0.325959 0.325959
0.344573 0.344573 0.344573
0.363288 0.363288 0.363288
0.382100 0.382100 0.382100
0.401006 0.401006 0.401006
0.420000 0.420000 0.420000
0.439082 0.439082 0.439082
0.458246 0.458246 0.458246
0.477491 0.477491 0.477491
0.496814 0.496814 0.496814
0.516212 0.516212 0.516212
0.535684 0.535684 0.535684
0.555226 0.555226 0.555226
0.574838 0.574838 0.574838
0.594517 0.594517 0.594517
0.325276 0.325276 0.325276
0.343886 0.343886 0.343886
0.362598 0.362598 0.362598
0.381407 0.381407 0.381407
0.400308 0.400308 0.400308
0.419300 0.419300 0.419300
0.438378 0.438378 0.438378
0.457540 0.457540 0.457540
0.476782 0.476782 0.476782
0.496102 0.496102 0.496102
0.515497 0.515497 0.515497
0.534966 0.534966 0.534966
0.554506 0.554506 0.554506
0.574115 0.574115 0.574115
0.593792 0.593792 0.593792
0.613533 0.613533 0.613533
0.633339 0.633339 0.633339
0.361908 0.361908 0.361908
0.380713 0.380713 0.380713
0.399611 0.399611 0.399611
0.418600 0.418600 0.418600
0.437675 0.437675 0.437675
0.456833 0.456833 0.456833
0.476072 0.476072 0.476072
0.495390 0.495390 0.495390
0.514782 0.514782 0.514782
0.534249 0.534249 0.534249
0.553786 0.553786 0.553786
0.573393 0.573393 0.573393
0.593067 0.593067 0.593067
0.612806 0.612806 0.612806
0.632609 0.632609 0.632609
0.652475 0.652475 0.652475
0.672401 0.672401 0.672401
0.398915 0.398915 0.398915
0.417900 0.417900 0.417900
0.436971 0.436971 0.436971
0.456127 0.456127 0.456127
0.475363 0.475363 0.475363
0.494678 0.494678 0.494678
0.514068 0.514068 0.514068
0.533531 0.533531 0.533531
0.553066 0.553066 0.553066
0.572670 0.572670 0.572670
0.592342 0.592342 0.592342
0.612079 0.612079 0.612079
0.631880 0.631880 0.631880
0.651743 0.651743 0.651743
0.671667 0.671667 0.671667
0.691650 0.691650 0.691650
0.711691 0.711691 0.711691
0.436268 0.436268 0.436268
0.455421 0.455421 0.455421
0.474654 0.474654 0.474654
0.493966 0.493966 0.493966
0.513353 0.513353 0.513353
0.532814 0.532814 0.532814
0.552346 0.552346 0.552346
0.571948 0.571948 0.571948
0.591617 0.591617 0.591617
0.611351 0.611351 0.611351
0.631150 0.631150 0.631150
0.651011 0.651011 0.651011
0.670932 0.670932 0.670932
0.690913 0.690913 0.690913
0.710952 0.710952 0.710952
0.731048 0.731048 0.731048
0.751199 0.751199 0.751199
0.473945 0.473945 0.473945
0.493254 0.493254 0.493254
0.512638 0.512638 0.512638
0.532097 0.532097 0.532097
0.551626 0.551626 0.551626
0.571225 0.571225 0.571225
0.590892 0.590892 0.590892
0.610624 0.610624 0.610624
0.630421 0.630421 0.630421
0.650279 0.650279 0.650279
0.670199 0.670199 0.670199
0.690177 0.690177 0.690177
0.710214 0.710214 0.710214
0.730308 0.730308 0.730308
0.750457 0.750457 0.750457
0.770660 0.770660 0.770660
0.790916 0.790916 0.790916
0.511924 0.511924 0.511924
0.531380 0.531380 0.531380
0.550907 0.550907 0.550907
0.570503 0.570503 0.570503
0.590167 0.590167 0.590167
0.609897 0.609897 0.609897
0.629691 0.629691 0.629691
0.649547 0.649547 0.649547
0.669465 0.669465 0.669465
0.689441 0.689441 0.689441
0.709476 0.709476 0.709476
0.729567 0.729567 0.729567
0.749714 0.749714 0.749714
0.769916 0.769916 0.769916
0.790170 0.790170 0.790170
0.810477 0.810477 0.810477
0.830834 0.830834 0.830834
0.550187 0.550187 0.550187
0.569781 0.569781 0.569781
0.589443 0.589443 0.589443
0.609170 0.609170 0.609170
0.628962 0.628962 0.628962
0.648816 0.648816 0.648816
0.668731 0.668731 0.668731
0.688705 0.688705 0.688705
0.708738 0.708738 0.708738
0.728827 0.728827 0.728827
0.748972 0.748972 0.748972
0.769172 0.769172 0.769172
0.789424 0.789424 0.789424
0.809729 0.809729 0.809729
0.830084 0.830084 0.830084
0.850490 0.850490 0.850490
0.870945 0.870945 0.870945
0.588718 0.588718 0.588718
0.608443 0.608443 0.608443
0.628233 0.628233 0.628233
0.648084 0.648084 0.648084
0.667997 0.667997 0.667997
0.687969 0.687969 0.687969
0.708000 0.708000 0.708000
0.728087 0.728087 0.728087
0.748230 0.748230 0.748230
0.768427 0.768427 0.768427
0.788678 0.788678 0.788678
0.808981 0.808981 0.808981
0.829334 0.829334 0.829334
0.849738 0.849738 0.849738
0.870191 0.870191 0.870191
0.890692 0.890692 0.890692
0.911241 0.911241 0.911241
0.627503 0.627503 0.627503
0.647353 0.647353 0.647353
0.667263 0.667263 0.667263
0.687234 0.687234 0.687234
0.707262 0.707262 0.707262
0.727347 0.727347 0.727347
0.747488 0.747488 0.747488
0.767683 0.767683 0.767683
0.787932 0.787932 0.787932
0.808233 0.808233 0.808233
0.828585 0.828585 0.828585
0.848987 0.848987 0.848987
0.869438 0.869438 0.869438
0.889937 0.889937 0.889937
0.910484 0.910484 0.910484
0.931077 0.931077 0.931077
0.951716 0.951716 0.951716
0.666530 0.666530 0.666530
0.686498 0.686498 0.686498
0.706524 0.706524 0.706524
0.726607 0.726607 0.726607
0.746746 0.746746 0.746746
0.766940 0.766940 0.766940
0.787186 0.787186 0.787186
0.807485 0.807485 0.807485
0.827835 0.827835 0.827835
0.848235 0.848235 0.848235
0.868685 0.868685 0.868685
0.889182 0.889182 0.889182
0.909727 0.909727 0.909727
0.930319 0.930319 0.930319
0.950956 0.950956 0.950956
0.971638 0.971638 0.971638
0.992364 0.992364 0.992364
0.089779 0.089779 0.089779
0.106237 0.106237 0.106237
0.122955 0.122955 0.122955
0.139904 0.139904 0.139904
0.157061 0.157061 0.157061
0.174408 0.174408 0.174408
0.191930 0.191930 0.191930
0.209613 0.209613 0.209613
0.227447 0.227447 0.227447
0.245422 0.245422 0.245422
0.263530 0.263530 0.263530
0.281763 0.281763 0.281763
0.300115 0.300115 0.300115
0.318580 0.318580 0.318580
0.337152 0.337152 0.337152
0.355828 0.355828 0.355828
0.374602 0.374602 0.374602
0.122335 0.122335 0.122335
0.139276 0.139276 0.139276
0.156426 0.156426 0.156426
0.173767 0.173767 0.173767
0.191282 0.191282 0.191282
0.208960 0.208960 0.208960
0.226789 0.226789 0.226789
0.244758 0.244758 0.244758
0.262861 0.262861 0.262861
0.281090 0.281090 0.281090
0.299438 0.299438 0.299438
0.317898 0.317898 0.317898
0.336467 0.336467 0.336467
0.355139 0.355139 0.355139
0.373909 0.373909 0.373909
0.392775 0.392775 0.392775
0.411731 0.411731 0.411731
0.155792 0.155792 0.155792
0.173126 0.173126 0.173126
0.190635 0.190635 0.190635
0.208307 0.208307 0.208307
0.226130 0.226130 0.226130
0.244095 0.244095 0.244095
0.262193 0.262193 0.262193
0.280417 0.280417 0.280417
0.298761 0.298761 0.298761
0.317217 0.317217 0.317217
0.335782 0.335782 0.335782
0.354450 0.354450 0.354450
0.373217 0.373217 0.373217
0.392079 0.392079 0.392079
0.411032 0.411032 0.411032
0.430073 0.430073 0.430073
0.449198 0.449198 0.449198
0.189988 0.189988 0.189988
0.207654 0.207654 0.207654
0.225472 0.225472 0.225472
0.243432 0.243432 0.243432
0.261525 0.261525 0.261525
0.279745 0.279745 0.279745
0.298084 0.298084 0.298084
0.316536 0.316536 0.316536
0.335097 0.335097 0.335097
0.353762 0.353762 0.353762
0.372525 0.372525 0.372525
0.391383 0.391383 0.391383
0.410333 0.410333 0.410333
0.429371 0.429371 0.429371
0.448493 0.448493 0.448493
0.467698 0.467698 0.467698
0.486981 0.486981 0.486981
0.224814 0.224814 0.224814
0.242768 0.242768 0.242768
0.260857 0.260857 0.260857
0.279072 0.279072 0.279072
0.297407 0.297407 0.297407
0.315856 0.315856 0.315856
0.334413 0.334413 0.334413
0.353073 0.353073 0.353073
0.371833 0.371833 0.371833
0.390688 0.390688 0.390688
0.409634 0.409634 0.409634
0.428669 0.428669 0.428669
0.447788 0.447788 0.447788
0.466990 0.466990 0.466990
0.486271 0.486271 0.486271
0.505628 0.505628 0.505628
0.525060 0.525060 0.525060
0.260189 0.260189 0.260189
0.278400 0.278400 0.278400
0.296730 0.296730 0.296730
0.315175 0.315175 0.315175
0.333728 0.333728 0.333728
0.352385 0.352385 0.352385
0.371141 0.371141 0.371141
0.389993 0.389993 0.389993
0.408936 0.408936 0.408936
0.427967 0.427967 0.427967
0.447084 0.447084 0.447084
0.466282 0.466282 0.466282
0.485560 0.485560 0.485560
0.504915 0.504915 0.504915
0.524344 0.524344 0.524344
0.543845 0.543845 0.543845
0.563417 0.563417 0.563417
0.296054 0.296054 0.296054
0.314494 0.314494 0.314494
0.333044 0.333044 0.333044
0.351697 0.351697 0.351697
0.370449 0.370449 0.370449
0.389298 0.389298 0.389298
0.408237 0.408237 0.408237
0.427265 0.427265 0.427265
0.446379 0.446379 0.446379
0.465574 0.465574 0.465574
0.484849 0.484849 0.484849
0.504201 0.504201 0.504201
0.523628 0.523628 0.523628
0.543127 0.543127 0.543127
0.562696 0.562696 0.562696
0.582333 0.582333 0.582333
0.602037 0.602037 0.602037
0.332359 0.332359 0.332359
0.351009 0.351009 0.351009
0.369758 0.369758 0.369758
0.388602 0.388602 0.388602
0.407539 0.407539 0.407539
0.426564 0.426564 0.426564
0.445674 0.445674 0.445674
0.464867 0.464867 0.464867
0.484139 0.484139 0.484139
0.503488 0.503488 0.503488
0.522912 0.522912 0.522912
0.542408 0.542408 0.542408
0.561975 0.561975 0.561975
0.581610 0.581610 0.581610
0.601311 0.601311 0.601311
0.621077 0.621077 0.621077
0.640907 0.640907 0.640907
0.369066 0.369066 0.369066
0.387908 0.387908 0.387908
0.406841 0.406841 0.406841
0.425862 0.425862 0.425862
0.444970 0.444970 0.444970
0.464159 0.464159 0.464159
0.483428 0.483428 0.483428
0.502775 0.502775 0.502775
0.522196 0.522196 0.522196
0.541689 0.541689 0.541689
0.561254 0.561254 0.561254
0.580886 0.580886 0.580886
0.600585 0.600585 0.600585
0.620349 0.620349 0.620349
0.640176 0.640176 0.640176
0.660065 0.660065 0.660065
0.680014 0.680014 0.680014
0.406143 0.406143 0.406143
0.425161 0.425161 0.425161
0.444265 0.444265 0.444265
0.463452 0.463452 0.463452
0.482718 0.482718 0.482718
0.502062 0.502062 0.502062
0.521480 0.521480 0.521480
0.540971 0.540971 0.540971
0.560533 0.560533 0.560533
0.580163 0.580163 0.580163
0.599859 0.599859 0.599859
0.619621 0.619621 0.619621
0.639446 0.639446 0.639446
0.659332 0.659332 0.659332
0.679279 0.679279 0.679279
0.699284 0.699284 0.699284
0.719347 0.719347 0.719347
0.443561 0.443561 0.443561
0.462744 0.462744 0.462744
0.482008 0.482008 0.482008
0.501349 0.501349 0.501349
0.520764 0.520764 0.520764
0.540253 0.540253 0.540253
0.559812 0.559812 0.559812
0.579439 0.579439 0.579439
0.599133 0.599133 0.599133
0.618893 0.618893 0.618893
0.638715 0.638715 0.638715
0.658599 0.658599 0.658599
0.678544 0.678544 0.678544
0.698547 0.698547 0.698547
0.718608 0.718608 0.718608
0.738725 0.738725 0.738725
0.758896 0.758896 0.758896
0.481298 0.481298 0.481298
0.500636 0.500636 0.500636
0.520049 0.520049 0.520049
0.539535 0.539535 0.539535
0.559091 0.559091 0.559091
0.578716 0.578716 0.578716
0.598408 0.598408 0.598408
0.618165 0.618165 0.618165
0.637985 0.637985 0.637985
0.657867 0.657867 0.657867
0.677809 0.677809 0.677809
0.697810 0.697810 0.697810
0.717869 0.717869 0.717869
0.737983 0.737983 0.737983
0.758153 0.758153 0.758153
0.778377 0.778377 0.778377
0.798653 0.798653 0.798653
0.519333 0.519333 0.519333
0.538816 0.538816 0.538816
0.558370 0.558370 0.558370
0.577993 0.577993 0.577993
0.597682 0.597682 0.597682
0.617437 0.617437 0.617437
0.637254 0.637254 0.637254
0.657134 0.657134 0.657134
0.677074 0.677074 0.677074
0.697073 0.697073 0.697073
0.717130 0.717130 0.717130
0.737242 0.737242 0.737242
0.757410 0.757410 0.757410
0.777632 0.777632 0.777632
0.797906 0.797906 0.797906
0.818232 0.818232 0.818232
0.838609 0.838609 0.838609
0.557650 0.557650 0.557650
0.577270 0.577270 0.577270
0.596957 0.596957 0.596957
0.616709 0.616709 0.616709
0.636524 0.636524 0.636524
0.656402 0.656402 0.656402
0.676340 0.676340 0.676340
0.696336 0.696336 0.696336
0.716391 0.716391 0.716391
0.736502 0.736502 0.736502
0.756667 0.756667 0.756667
0.776887 0.776887 0.776887
0.797159 0.797159 0.797159
0.817484 0.817484 0.817484
0.837858 0.837858 0.837858
0.858283 0.858283 0.858283
0.878756 0.878756 0.878756
0.596231 0.596231 0.596231
0.615981 0.615981 0.615981
0.635794 0.635794 0.635794
0.655669 0.655669 0.655669
0.675605 0.675605 0.675605
0.695600 0.695600 0.695600
0.715652 0.715652 0.715652
0.735761 0.735761 0.735761
0.755924 0.755924 0.755924
0.776142 0.776142 0.776142
0.796413 0.796413 0.796413
0.816735 0.816735 0.816735
0.837108 0.837108 0.837108
0.857531 0.857531 0.857531
0.878002 0.878002 0.878002
0.898521 0.898521 0.898521
0.919087 0.919087 0.919087
0.635064 0.635064 0.635064
0.654937 0.654937 0.654937
0.674871 0.674871 0.674871
0.694863 0.694863 0.694863
0.714913 0.714913 0.714913
0.735020 0.735020 0.735020
0.755182 0.755182 0.755182
0.775397 0.775397 0.775397
0.795666 0.795666 0.795666
0.815986 0.815986 0.815986
0.836358 0.836358 0.836358
0.856778 0.856778 0.856778
0.877248 0.877248 0.877248
0.897766 0.897766 0.897766
0.918330 0.918330 0.918330
0.938941 0.938941 0.938941
0.959597 0.959597 0.959597
0.674136 0.674136 0.674136
0.694127 0.694127 0.694127
0.714175 0.714175 0.714175
0.734279 0.734279 0.734279
0.754439 0.754439 0.754439
0.774653 0.774653 0.774653
0.794919 0.794919 0.794919
0.815238 0.815238 0.815238
0.835607 0.835607 0.835607
0.856026 0.856026 0.856026
0.876494 0.876494 0.876494
0.897010 0.897010 0.897010
0.917573 0.917573 0.917573
0.938182 0.938182 0.938182
0.958836 0.958836 0.958836
0.979535 0.979535 0.979535
1.000000 1.000000 1.000000
0.096021 0.096021 0.096021
0.112582 0.112582 0.112582
0.129391 0.129391 0.129391
0.146422 0.146422 0.146422
0.163654 0.163654 0.163654
0.181069 0.181069 0.181069
0.198654 0.198654 0.198654
0.216396 0.216396 0.216396
0.234284 0.234284 0.234284
0.252311 0.252311 0.252311
0.270467 0.270467 0.270467
0.288746 0.288746 0.288746
0.307142 0.307142 0.307142
0.325648 0.325648 0.325648
0.344261 0.344261 0.344261
0.362974 0.362974 0.362974
0.381785 0.381785 0.381785
0.128769 0.128769 0.128769
