app/src/main/assets/luts/high_key_mono.cube
# ApexStudio filter: high_key_mono
LUT_3D_SIZE 9
DOMAIN_MIN 0.0 0.0 0.0
DOMAIN_MAX 1.0 1.0 1.0
0.077426 0.077426 0.077426
0.110184 0.110184 0.110184
0.143960 0.143960 0.143960
0.178554 0.178554 0.178554
0.213835 0.213835 0.213835
0.249710 0.249710 0.249710
0.286110 0.286110 0.286110
0.322980 0.322980 0.322980
0.360277 0.360277 0.360277
0.142702 0.142702 0.142702
0.177268 0.177268 0.177268
0.212526 0.212526 0.212526
0.248381 0.248381 0.248381
0.284762 0.284762 0.284762
0.321616 0.321616 0.321616
0.358898 0.358898 0.358898
0.396571 0.396571 0.396571
0.434607 0.434607 0.434607
0.211218 0.211218 0.211218
0.247052 0.247052 0.247052
0.283415 0.283415 0.283415
0.320252 0.320252 0.320252
0.357519 0.357519 0.357519
0.395179 0.395179 0.395179
0.433201 0.433201 0.433201
0.471561 0.471561 0.471561
0.510236 0.510236 0.510236
0.282069 0.282069 0.282069
0.318889 0.318889 0.318889
0.356141 0.356141 0.356141
0.393787 0.393787 0.393787
0.431797 0.431797 0.431797
0.470144 0.470144 0.470144
0.508808 0.508808 0.508808
0.547767 0.547767 0.547767
0.587006 0.587006 0.587006
0.354763 0.354763 0.354763
0.392395 0.392395 0.392395
0.430392 0.430392 0.430392
0.468728 0.468728 0.468728
0.507380 0.507380 0.507380
0.546329 0.546329 0.546329
0.585558 0.585558 0.585558
0.625051 0.625051 0.625051
0.664796 0.664796 0.664796
0.428988 0.428988 0.428988
0.467312 0.467312 0.467312
0.505952 0.505952 0.505952
0.544891 0.544891 0.544891
0.584110 0.584110 0.584110
0.623594 0.623594 0.623594
0.663330 0.663330 0.663330
0.703305 0.703305 0.703305
0.743510 0.743510 0.743510
0.504525 0.504525 0.504525
0.543453 0.543453 0.543453
0.582662 0.582662 0.582662
0.622137 0.622137 0.622137
0.661864 0.661864 0.661864
0.701831 0.701831 0.701831
0.742027 0.742027 0.742027
0.782441 0.782441 0.782441
0.823066 0.823066 0.823066
0.581215 0.581215 0.581215
0.620680 0.620680 0.620680
0.660398 0.660398 0.660398
0.700356 0.700356 0.700356
0.740544 0.740544 0.740544
0.780951 0.780951 0.780951
0.821568 0.821568 0.821568
0.862387 0.862387 0.862387
0.903401 0.903401 0.903401
0.658932 0.658932 0.658932
0.698882 0.698882 0.698882
0.739061 0.739061 0.739061
0.779461 0.779461 0.779461
0.820070 0.820070 0.820070
0.860882 0.860882 0.860882
0.901888 0.901888 0.901888
0.943082 0.943082 0.943082
0.984457 0.984457 0.984457
0.089779 0.089779 0.089779
0.122955 0.122955 0.122955
0.157061 0.157061 0.157061
0.191930 0.191930 0.191930
0.227447 0.227447 0.227447
0.263530 0.263530 0.263530
0.300115 0.300115 0.300115
0.337152 0.337152 0.337152
0.374602 0.374602 0.374602
0.155792 0.155792 0.155792
0.190635 0.190635 0.190635
0.226130 0.226130 0.226130
0.262193 0.262193 0.262193
0.298761 0.298761 0.298761
0.335782 0.335782 0.335782
0.373217 0.373217 0.373217
0.411032 0.411032 0.411032
0.449198 0.449198 0.449198
0.224814 0.224814 0.224814
0.260857 0.260857 0.260857
0.297407 0.297407 0.297407
0.334413 0.334413 0.334413
0.371833 0.371833 0.371833
0.409634 0.409634 0.409634
0.447788 0.447788 0.447788
0.486271 0.486271 0.486271
0.525060 0.525060 0.525060
0.296054 0.296054 0.296054
0.333044 0.333044 0.333044
0.370449 0.370449 0.370449
0.408237 0.408237 0.408237
0.446379 0.446379 0.446379
0.484849 0.484849 0.484849
0.523628 0.523628 0.523628
0.562696 0.562696 0.562696
0.602037 0.602037 0.602037
0.369066 0.369066 0.369066
0.406841 0.406841 0.406841
0.444970 0.444970 0.444970
0.483428 0.483428 0.483428
0.522196 0.522196 0.522196
0.561254 0.561254 0.561254
0.600585 0.600585 0.600585
0.640176 0.640176 0.640176
0.680014 0.680014 0.680014
0.443561 0.443561 0.443561
0.482008 0.482008 0.482008
0.520764 0.520764 0.520764
0.559812 0.559812 0.559812
0.599133 0.599133 0.599133
0.638715 0.638715 0.638715
0.678544 0.678544 0.678544
0.718608 0.718608 0.718608
0.758896 0.758896 0.758896
0.519333 0.519333 0.519333
0.558370 0.558370 0.558370
0.597682 0.597682 0.597682
0.637254 0.637254 0.637254
0.677074 0.677074 0.677074
0.717130 0.717130 0.717130
0.757410 0.757410 0.757410
0.797906 0.797906 0.797906
0.838609 0.838609 0.838609
0.596231 0.596231 0.596231
0.635794 0.635794 0.635794
0.675605 0.675605 0.675605
0.715652 0.715652 0.715652
0.755924 0.755924 0.755924
0.796413 0.796413 0.796413
0.837108 0.837108 0.837108
0.878002 0.878002 0.878002
0.919087 0.919087 0.919087
0.674136 0.674136 0.674136
0.714175 0.714175 0.714175
0.754439 0.754439 0.754439
0.794919 0.794919 0.794919
0.835607 0.835607 0.835607
0.876494 0.876494 0.876494
0.917573 0.917573 0.917573
0.958836 0.958836 0.958836
1.000000 1.000000 1.000000
0.102304 0.102304 0.102304
0.135859 0.135859 0.135859
0.170273 0.170273 0.170273
0.205400 0.205400 0.205400
0.241142 0.241142 0.241142
0.277422 0.277422 0.277422
0.314185 0.314185 0.314185
0.351384 0.351384 0.351384
0.388982 0.388982 0.388982
0.168993 0.168993 0.168993
0.204096 0.204096 0.204096
0.239817 0.239817 0.239817
0.276079 0.276079 0.276079
0.312825 0.312825 0.312825
0.350008 0.350008 0.350008
0.387592 0.387592 0.387592
0.425544 0.425544 0.425544
0.463838 0.463838 0.463838
0.238493 0.238493 0.238493
0.274736 0.274736 0.274736
0.311465 0.311465 0.311465
0.348633 0.348633 0.348633
0.386202 0.386202 0.386202
0.424141 0.424141 0.424141
0.462423 0.462423 0.462423
0.501025 0.501025 0.501025
0.539926 0.539926 0.539926
0.310106 0.310106 0.310106
0.347258 0.347258 0.347258
0.384813 0.384813 0.384813
0.422739 0.422739 0.422739
0.461009 0.461009 0.461009
0.499599 0.499599 0.499599
0.538490 0.538490 0.538490
0.577664 0.577664 0.577664
0.617106 0.617106 0.617106
0.383425 0.383425 0.383425
0.421338 0.421338 0.421338
0.459595 0.459595 0.459595
0.498174 0.498174 0.498174
0.537054 0.537054 0.537054
0.576218 0.576218 0.576218
0.615650 0.615650 0.615650
0.655337 0.655337 0.655337
0.695265 0.695265 0.695265
0.458182 0.458182 0.458182
0.496749 0.496749 0.496749
0.535619 0.535619 0.535619
0.574772 0.574772 0.574772
0.614195 0.614195 0.614195
0.653872 0.653872 0.653872
0.693792 0.693792 0.693792
0.733943 0.733943 0.733943
0.774314 0.774314 0.774314
0.534183 0.534183 0.534183
0.573327 0.573327 0.573327
0.612740 0.612740 0.612740
0.652408 0.652408 0.652408
0.692319 0.692319 0.692319
0.732461 0.732461 0.732461
0.772825 0.772825 0.772825
0.813401 0.813401 0.813401
0.854180 0.854180 0.854180
0.611285 0.611285 0.611285
0.650944 0.650944 0.650944
0.690847 0.690847 0.690847
0.730981 0.730981 0.730981
0.771337 0.771337 0.771337
0.811905 0.811905 0.811905
0.852677 0.852677 0.852677
0.893645 0.893645 0.893645
0.934801 0.934801 0.934801
0.689374 0.689374 0.689374
0.729500 0.729500 0.729500
0.769848 0.769848 0.769848
0.810409 0.810409 0.810409
0.851173 0.851173 0.851173
0.892134 0.892134 0.892134
0.933284 0.933284 0.933284
0.974616 0.974616 0.974616
1.000000 1.000000 1.000000
0.114985 0.114985 0.114985
0.148888 0.148888 0.148888
0.183588 0.183588 0.183588
0.218959 0.218959 0.218959
0.254914 0.254914 0.254914
0.291385 0.291385 0.291385
0.328319 0.328319 0.328319
0.365674 0.365674 0.365674
0.403415 0.403415 0.403415
0.182299 0.182299 0.182299
0.217647 0.217647 0.217647
0.253582 0.253582 0.253582
0.290035 0.290035 0.290035
0.326952 0.326952 0.326952
0.364292 0.364292 0.364292
0.402020 0.402020 0.402020
0.440105 0.440105 0.440105
0.478523 0.478523 0.478523
0.252250 0.252250 0.252250
0.288685 0.288685 0.288685
0.325586 0.325586 0.325586
0.362912 0.362912 0.362912
0.400625 0.400625 0.400625
0.438698 0.438698 0.438698
0.477104 0.477104 0.477104
0.515822 0.515822 0.515822
0.554834 0.554834 0.554834
0.324221 0.324221 0.324221
0.361531 0.361531 0.361531
0.399231 0.399231 0.399231
0.437291 0.437291 0.437291
0.475686 0.475686 0.475686
0.514393 0.514393 0.514393
0.553393 0.553393 0.553393
0.592671 0.592671 0.592671
0.632211 0.632211 0.632211
0.397838 0.397838 0.397838
0.435885 0.435885 0.435885
0.474267 0.474267 0.474267
0.512963 0.512963 0.512963
0.551954 0.551954 0.551954
0.591221 0.591221 0.591221
0.630752 0.630752 0.630752
0.670532 0.670532 0.670532
0.710550 0.710550 0.710550
0.472850 0.472850 0.472850
0.511534 0.511534 0.511534
0.550514 0.550514 0.550514
0.589772 0.589772 0.589772
0.629293 0.629293 0.629293
0.669064 0.669064 0.669064
0.709073 0.709073 0.709073
0.749310 0.749310 0.749310
0.789763 0.789763 0.789763
0.549075 0.549075 0.549075
0.588323 0.588323 0.588323
0.627835 0.627835 0.627835
0.667597 0.667597 0.667597
0.707597 0.707597 0.707597
0.747825 0.747825 0.747825
0.788271 0.788271 0.788271
0.828925 0.828925 0.828925
0.869780 0.869780 0.869780
0.626377 0.626377 0.626377
0.666130 0.666130 0.666130
0.706122 0.706122 0.706122
0.746342 0.746342 0.746342
0.786779 0.786779 0.786779
0.827426 0.827426 0.827426
0.868274 0.868274 0.868274
0.909314 0.909314 0.909314
0.950541 0.950541 0.950541
0.704646 0.704646 0.704646
0.744858 0.744858 0.744858
0.785288 0.785288 0.785288
0.825927 0.825927 0.825927
0.866768 0.866768 0.866768
0.907801 0.907801 0.907801
0.949021 0.949021 0.949021
0.990421 0.990421 0.990421
1.000000 1.000000 1.000000
0.127807 0.127807 0.127807
0.162032 0.162032 0.162032
0.197000 0.197000 0.197000
0.232603 0.232603 0.232603
0.268762 0.268762 0.268762
0.305414 0.305414 0.305414
0.342513 0.342513 0.342513
0.380019 0.380019 0.380019
0.417900 0.417900 0.417900
0.195702 0.195702 0.195702
0.231283 0.231283 0.231283
0.267422 0.267422 0.267422
0.304058 0.304058 0.304058
0.341141 0.341141 0.341141
0.378633 0.378633 0.378633
0.416500 0.416500 0.416500
0.454715 0.454715 0.454715
0.493254 0.493254 0.493254
0.266084 0.266084 0.266084
0.302702 0.302702 0.302702
0.339769 0.339769 0.339769
0.377247 0.377247 0.377247
0.415100 0.415100 0.415100
0.453303 0.453303 0.453303
0.491831 0.491831 0.491831
0.530663 0.530663 0.530663
0.569781 0.569781 0.569781
0.338398 0.338398 0.338398
0.375861 0.375861 0.375861
0.413701 0.413701 0.413701
0.451892 0.451892 0.451892
0.490408 0.490408 0.490408
0.529229 0.529229 0.529229
0.568337 0.568337 0.568337
0.607716 0.607716 0.607716
0.647353 0.647353 0.647353
0.412303 0.412303 0.412303
0.450481 0.450481 0.450481
0.488985 0.488985 0.488985
0.527795 0.527795 0.527795
0.566893 0.566893 0.566893
0.606263 0.606263 0.606263
0.645890 0.645890 0.645890
0.685762 0.685762 0.685762
0.725868 0.725868 0.725868
0.487563 0.487563 0.487563
0.526362 0.526362 0.526362
0.565450 0.565450 0.565450
0.604810 0.604810 0.604810
0.644428 0.644428 0.644428
0.684291 0.684291 0.684291
0.724388 0.724388 0.724388
0.764708 0.764708 0.764708
0.805242 0.805242 0.805242
0.564007 0.564007 0.564007
0.603357 0.603357 0.603357
0.642966 0.642966 0.642966
0.682820 0.682820 0.682820
0.722909 0.722909 0.722909
0.763221 0.763221 0.763221
0.803747 0.803747 0.803747
0.844479 0.844479 0.844479
0.885408 0.885408 0.885408
0.641505 0.641505 0.641505
0.681350 0.681350 0.681350
0.721430 0.721430 0.721430
0.761734 0.761734 0.761734
0.802253 0.802253 0.802253
0.842977 0.842977 0.842977
0.883899 0.883899 0.883899
0.925011 0.925011 0.925011
0.966307 0.966307 0.966307
0.719952 0.719952 0.719952
0.760248 0.760248 0.760248
0.800758 0.800758 0.800758
0.841475 0.841475 0.841475
0.882390 0.882390 0.882390
0.923496 0.923496 0.923496
0.964785 0.964785 0.964785
1.000000 1.000000 1.000000
1.000000 1.000000 1.000000
0.140760 0.140760 0.140760
0.175283 0.175283 0.175283
0.210504 0.210504 0.210504
0.246327 0.246327 0.246327
0.282681 0.282681 0.282681
0.319509 0.319509 0.319509
0.356767 0.356767 0.356767
0.394419 0.394419 0.394419
0.432435 0.432435 0.432435
0.209197 0.209197 0.209197
0.245000 0.245000 0.245000
0.281335 0.281335 0.281335
0.318146 0.318146 0.318146
0.355389 0.355389 0.355389
0.393028 0.393028 0.393028
0.431030 0.431030 0.431030
0.469371 0.469371 0.469371
0.508029 0.508029 0.508029
0.279989 0.279989 0.279989
0.316784 0.316784 0.316784
0.354012 0.354012 0.354012
0.391636 0.391636 0.391636
0.429626 0.429626 0.429626
0.467955 0.467955 0.467955
0.506601 0.506601 0.506601
0.545544 0.545544 0.545544
0.584768 0.584768 0.584768
0.352635 0.352635 0.352635
0.390246 0.390246 0.390246
0.428222 0.428222 0.428222
0.466539 0.466539 0.466539
0.505174 0.505174 0.505174
0.544107 0.544107 0.544107
0.583320 0.583320 0.583320
0.622799 0.622799 0.622799
0.662530 0.662530 0.662530
0.426819 0.426819 0.426819
0.465124 0.465124 0.465124
0.503747 0.503747 0.503747
0.542669 0.542669 0.542669
0.581873 0.581873 0.581873
0.621342 0.621342 0.621342
0.661064 0.661064 0.661064
0.701026 0.701026 0.701026
0.741218 0.741218 0.741218
0.502321 0.502321 0.502321
0.541232 0.541232 0.541232
0.580426 0.580426 0.580426
0.619886 0.619886 0.619886
0.659598 0.659598 0.659598
0.699552 0.699552 0.699552
0.739735 0.739735 0.739735
0.780138 0.780138 0.780138
0.820751 0.820751 0.820751
0.578979 0.578979 0.578979
0.618429 0.618429 0.618429
0.658133 0.658133 0.658133
0.698078 0.698078 0.698078
0.738253 0.738253 0.738253
0.778648 0.778648 0.778648
0.819253 0.819253 0.819253
0.860061 0.860061 0.860061
0.901064 0.901064 0.901064
0.656668 0.656668 0.656668
0.696604 0.696604 0.696604
0.736771 0.736771 0.736771
0.777158 0.777158 0.777158
0.817756 0.817756 0.817756
0.858556 0.858556 0.858556
0.899552 0.899552 0.899552
0.940735 0.940735 0.940735
0.982099 0.982099 0.982099
0.735289 0.735289 0.735289
0.775668 0.775668 0.775668
0.816259 0.816259 0.816259
0.857052 0.857052 0.857052
0.898040 0.898040 0.898040
0.939217 0.939217 0.939217
0.980575 0.980575 0.980575
1.000000 1.000000 1.000000
1.000000 1.000000 1.000000
0.153833 0.153833 0.153833
0.188636 0.188636 0.188636
0.224096 0.224096 0.224096
0.260129 0.260129 0.260129
0.296669 0.296669 0.296669
0.333666 0.333666 0.333666
0.371078 0.371078 0.371078
0.408872 0.408872 0.408872
0.447019 0.447019 0.447019
0.222781 0.222781 0.222781
0.258794 0.258794 0.258794
0.295316 0.295316 0.295316
0.332297 0.332297 0.332297
0.369695 0.369695 0.369695
0.407476 0.407476 0.407476
0.445610 0.445610 0.445610
0.484074 0.484074 0.484074
0.522847 0.522847 0.522847
0.293964 0.293964 0.293964
0.330929 0.330929 0.330929
0.368312 0.368312 0.368312
0.406079 0.406079 0.406079
0.444201 0.444201 0.444201
0.482654 0.482654 0.482654
0.521415 0.521415 0.521415
0.560467 0.560467 0.560467
0.599793 0.599793 0.599793
0.366930 0.366930 0.366930
0.404683 0.404683 0.404683
0.442793 0.442793 0.442793
0.481233 0.481233 0.481233
0.519984 0.519984 0.519984
0.559025 0.559025 0.559025
0.598342 0.598342 0.598342
0.637918 0.637918 0.637918
0.677742 0.677742 0.677742
0.441385 0.441385 0.441385
0.479813 0.479813 0.479813
0.518553 0.518553 0.518553
0.557584 0.557584 0.557584
0.596891 0.596891 0.596891
0.636458 0.636458 0.636458
0.676273 0.676273 0.676273
0.716324 0.716324 0.716324
0.756600 0.756600 0.756600
0.517122 0.517122 0.517122
0.556143 0.556143 0.556143
0.595440 0.595440 0.595440
0.634998 0.634998 0.634998
0.674804 0.674804 0.674804
0.714846 0.714846 0.714846
0.755114 0.755114 0.755114
0.795598 0.795598 0.795598
0.836289 0.836289 0.836289
0.593989 0.593989 0.593989
0.633538 0.633538 0.633538
0.673335 0.673335 0.673335
0.713369 0.713369 0.713369
0.753629 0.753629 0.753629
0.794105 0.794105 0.794105
0.834789 0.834789 0.834789
0.875672 0.875672 0.875672
0.916747 0.916747 0.916747
0.671867 0.671867 0.671867
0.711892 0.711892 0.711892
0.752144 0.752144 0.752144
0.792612 0.792612 0.792612
0.833288 0.833288 0.833288
0.874164 0.874164 0.874164
0.915232 0.915232 0.915232
0.956485 0.956485 0.956485
0.997917 0.997917 0.997917
0.750659 0.750659 0.750659
0.791120 0.791120 0.791120
0.831788 0.831788 0.831788
0.872657 0.872657 0.872657
0.913718 0.913718 0.913718
0.954964 0.954964 0.954964
0.996390 0.996390 0.996390
1.000000 1.000000 1.000000
1.000000 1.000000 1.000000
0.167018 0.167018 0.167018
0.202083 0.202083 0.202083
0.237771 0.237771 0.237771
0.274004 0.274004 0.274004
0.310723 0.310723 0.310723
0.347883 0.347883 0.347883
0.385445 0.385445 0.385445
0.423376 0.423376 0.423376
0.461652 0.461652 0.461652
0.236448 0.236448 0.236448
0.272662 0.272662 0.272662
0.309364 0.309364 0.309364
0.346509 0.346509 0.346509
0.384056 0.384056 0.384056
0.421975 0.421975 0.421975
0.460238 0.460238 0.460238
0.498822 0.498822 0.498822
0.537707 0.537707 0.537707
0.308006 0.308006 0.308006
0.345135 0.345135 0.345135
0.382668 0.382668 0.382668
0.420574 0.420574 0.420574
0.458824 0.458824 0.458824
0.497397 0.497397 0.497397
0.536271 0.536271 0.536271
0.575429 0.575429 0.575429
0.614856 0.614856 0.614856
0.381280 0.381280 0.381280
0.419173 0.419173 0.419173
0.457411 0.457411 0.457411
0.495972 0.495972 0.495972
0.534836 0.534836 0.534836
0.573984 0.573984 0.573984
0.613401 0.613401 0.613401
0.653074 0.653074 0.653074
0.692988 0.692988 0.692988
0.455999 0.455999 0.455999
0.494548 0.494548 0.494548
0.533401 0.533401 0.533401
0.572539 0.572539 0.572539
0.611946 0.611946 0.611946
0.651610 0.651610 0.651610
0.691516 0.691516 0.691516
0.731654 0.731654 0.731654
0.772013 0.772013 0.772013
0.531966 0.531966 0.531966
0.571094 0.571094 0.571094
0.610492 0.610492 0.610492
0.650146 0.650146 0.650146
0.690044 0.690044 0.690044
0.730173 0.730173 0.730173
0.770525 0.770525 0.770525
0.811089 0.811089 0.811089
0.851856 0.851856 0.851856
0.609038 0.609038 0.609038
0.648683 0.648683 0.648683
0.688572 0.688572 0.688572
0.728693 0.728693 0.728693
0.769036 0.769036 0.769036
0.809593 0.809593 0.809593
0.850353 0.850353 0.850353
0.891310 0.891310 0.891310
0.932456 0.932456 0.932456
0.687100 0.687100 0.687100
0.727213 0.727213 0.727213
0.767548 0.767548 0.767548
0.808097 0.808097 0.808097
0.848850 0.848850 0.848850
0.889800 0.889800 0.889800
0.930939 0.930939 0.930939
0.972261 0.972261 0.972261
1.000000 1.000000 1.000000
0.766060 0.766060 0.766060
0.806601 0.806601 0.806601
0.847347 0.847347 0.847347
0.888290 0.888290 0.888290
0.929422 0.929422 0.929422
0.970738 0.970738 0.970738
1.000000 1.000000 1.000000
1.000000 1.000000 1.000000
1.000000 1.000000 1.000000
0.180308 0.180308 0.180308
0.215621 0.215621 0.215621
0.251524 0.251524 0.251524
0.287949 0.287949 0.287949
0.324842 0.324842 0.324842
0.362159 0.362159 0.362159
0.399865 0.399865 0.399865
0.437931 0.437931 0.437931
0.476330 0.476330 0.476330
0.250194 0.250194 0.250194
0.286600 0.286600 0.286600
0.323477 0.323477 0.323477
0.360779 0.360779 0.360779
0.398471 0.398471 0.398471
0.436524 0.436524 0.436524
0.474912 0.474912 0.474912
0.513613 0.513613 0.513613
0.552608 0.552608 0.552608
0.322112 0.322112 0.322112
0.359399 0.359399 0.359399
0.397078 0.397078 0.397078
0.435118 0.435118 0.435118
0.473494 0.473494 0.473494
0.512184 0.512184 0.512184
0.551168 0.551168 0.551168
0.590431 0.590431 0.590431
0.629956 0.629956 0.629956
0.395685 0.395685 0.395685
0.433712 0.433712 0.433712
0.472076 0.472076 0.472076
0.510755 0.510755 0.510755
0.549729 0.549729 0.549729
0.588982 0.588982 0.588982
0.628498 0.628498 0.628498
0.668264 0.668264 0.668264
0.708268 0.708268 0.708268
0.470659 0.470659 0.470659
0.509327 0.509327 0.509327
0.548290 0.548290 0.548290
0.587533 0.587533 0.587533
0.627039 0.627039 0.627039
0.666797 0.666797 0.666797
0.706792 0.706792 0.706792
0.747016 0.747016 0.747016
0.787457 0.787457 0.787457
0.546852 0.546852 0.546852
0.586084 0.586084 0.586084
0.625581 0.625581 0.625581
0.665330 0.665330 0.665330
0.705317 0.705317 0.705317
0.745532 0.745532 0.745532
0.785966 0.785966 0.785966
0.826609 0.826609 0.826609
0.867452 0.867452 0.867452
0.624124 0.624124 0.624124
0.663863 0.663863 0.663863
0.703842 0.703842 0.703842
0.744049 0.744049 0.744049
0.784475 0.784475 0.784475
0.825110 0.825110 0.825110
0.865946 0.865946 0.865946
0.906976 0.906976 0.906976
0.948192 0.948192 0.948192
0.702367 0.702367 0.702367
0.742566 0.742566 0.742566
0.782984 0.782984 0.782984
0.823611 0.823611 0.823611
0.864440 0.864440 0.864440
0.905463 0.905463 0.905463
0.946673 0.946673 0.946673
0.988063 0.988063 0.988063
1.000000 1.000000 1.000000
0.781493 0.781493 0.781493
0.822113 0.822113 0.822113
0.862935 0.862935 0.862935
0.903951 0.903951 0.903951
0.945154 0.945154 0.945154
0.986537 0.986537 0.986537
1.000000 1.000000 1.000000
1.000000 1.000000 1.000000
1.000000 1.000000 1.000000
