app/src/main/assets/luts/high_key_mono.cube
# ApexStudio filter: high_key_mono
LUT_3D_SIZE 5
DOMAIN_MIN 0.0 0.0 0.0
DOMAIN_MAX 1.0 1.0 1.0
0.077426 0.077426 0.077426
0.143960 0.143960 0.143960
0.213835 0.213835 0.213835
0.286110 0.286110 0.286110
0.360277 0.360277 0.360277
0.211218 0.211218 0.211218
0.283415 0.283415 0.283415
0.357519 0.357519 0.357519
0.433201 0.433201 0.433201
0.510236 0.510236 0.510236
0.354763 0.354763 0.354763
0.430392 0.430392 0.430392
0.507380 0.507380 0.507380
0.585558 0.585558 0.585558
0.664796 0.664796 0.664796
0.504525 0.504525 0.504525
0.582662 0.582662 0.582662
0.661864 0.661864 0.661864
0.742027 0.742027 0.742027
0.823066 0.823066 0.823066
0.658932 0.658932 0.658932
0.739061 0.739061 0.739061
0.820070 0.820070 0.820070
0.901888 0.901888 0.901888
0.984457 0.984457 0.984457
0.102304 0.102304 0.102304
0.170273 0.170273 0.170273
0.241142 0.241142 0.241142
0.314185 0.314185 0.314185
0.388982 0.388982 0.388982
0.238493 0.238493 0.238493
0.311465 0.311465 0.311465
0.386202 0.386202 0.386202
0.462423 0.462423 0.462423
0.539926 0.539926 0.539926
0.383425 0.383425 0.383425
0.459595 0.459595 0.459595
0.537054 0.537054 0.537054
0.615650 0.615650 0.615650
0.695265 0.695265 0.695265
0.534183 0.534183 0.534183
0.612740 0.612740 0.612740
0.692319 0.692319 0.692319
0.772825 0.772825 0.772825
0.854180 0.854180 0.854180
0.689374 0.689374 0.689374
0.769848 0.769848 0.769848
0.851173 0.851173 0.851173
0.933284 0.933284 0.933284
1.000000 1.000000 1.000000
0.127807 0.127807 0.127807
0.197000 0.197000 0.197000
0.268762 0.268762 0.268762
0.342513 0.342513 0.342513
0.417900 0.417900 0.417900
0.266084 0.266084 0.266084
0.339769 0.339769 0.339769
0.415100 0.415100 0.415100
0.491831 0.491831 0.491831
0.569781 0.569781 0.569781
0.412303 0.412303 0.412303
0.488985 0.488985 0.488985
0.566893 0.566893 0.566893
0.645890 0.645890 0.645890
0.725868 0.725868 0.725868
0.564007 0.564007 0.564007
0.642966 0.642966 0.642966
0.722909 0.722909 0.722909
0.803747 0.803747 0.803747
0.885408 0.885408 0.885408
0.719952 0.719952 0.719952
0.800758 0.800758 0.800758
0.882390 0.882390 0.882390
0.964785 0.964785 0.964785
1.000000 1.000000 1.000000
0.153833 0.153833 0.153833
0.224096 0.224096 0.224096
0.296669 0.296669 0.296669
0.371078 0.371078 0.371078
0.447019 0.447019 0.447019
0.293964 0.293964 0.293964
0.368312 0.368312 0.368312
0.444201 0.444201 0.444201
0.521415 0.521415 0.521415
0.599793 0.599793 0.599793
0.441385 0.441385 0.441385
0.518553 0.518553 0.518553
0.596891 0.596891 0.596891
0.676273 0.676273 0.676273
0.756600 0.756600 0.756600
0.593989 0.593989 0.593989
0.673335 0.673335 0.673335
0.753629 0.753629 0.753629
0.834789 0.834789 0.834789
0.916747 0.916747 0.916747
0.750659 0.750659 0.750659
0.831788 0.831788 0.831788
0.913718 0.913718 0.913718
0.996390 0.996390 0.996390
1.000000 1.000000 1.000000
0.180308 0.180308 0.180308
0.251524 0.251524 0.251524
0.324842 0.324842 0.324842
0.399865 0.399865 0.399865
0.476330 0.476330 0.476330
0.322112 0.322112 0.322112
0.397078 0.397078 0.397078
0.473494 0.473494 0.473494
0.551168 0.551168 0.551168
0.629956 0.629956 0.629956
0.470659 0.470659 0.470659
0.548290 0.548290 0.548290
0.627039 0.627039 0.627039
0.706792 0.706792 0.706792
0.787457 0.787457 0.787457
0.624124 0.624124 0.624124
0.703842 0.703842 0.703842
0.784475 0.784475 0.784475
0.865946 0.865946 0.865946
0.948192 0.948192 0.948192
0.781493 0.781493 0.781493
0.862935 0.862935 0.862935
0.945154 0.945154 0.945154
1.000000 1.000000 1.000000
1.000000 1.000000 1.000000
