app/src/main/assets/luts/hollywood.cube
# ApexStudio filter: hollywood
LUT_3D_SIZE 9
DOMAIN_MIN 0.0 0.0 0.0
DOMAIN_MAX 1.0 1.0 1.0
0.000000 0.000000 0.000000
0.079555 0.000000 0.000000
0.223386 0.000000 0.000000
0.372398 0.000000 0.000000
0.524535 0.000000 0.000000
0.678942 0.000000 0.000000
0.835140 0.000000 0.000000
0.992820 0.000000 0.000000
1.000000 0.000000 0.000000
0.000000 0.072971 0.000000
0.073505 0.069742 0.000000
0.217336 0.063905 0.000000
0.366347 0.057858 0.000000
0.518485 0.051683 0.000000
0.672892 0.045417 0.000000
0.829090 0.039078 0.000000
0.986770 0.032679 0.000000
1.000000 0.028121 0.000000
0.000000 0.204897 0.000000
0.062566 0.201668 0.000000
0.206397 0.195831 0.000000
0.355409 0.189784 0.000000
0.507546 0.183610 0.000000
0.661953 0.177344 0.000000
0.818151 0.171005 0.000000
0.975832 0.164606 0.000000
1.000000 0.160047 0.000000
0.000000 0.341575 0.000000
0.051234 0.338347 0.000000
0.195065 0.332510 0.000000
0.344076 0.326462 0.000000
0.496214 0.320288 0.000000
0.650621 0.314022 0.000000
0.806819 0.307683 0.000000
0.964499 0.301284 0.000000
1.000000 0.296725 0.000000
0.000000 0.481121 0.000000
0.039664 0.477892 0.000000
0.183495 0.472055 0.000000
0.332506 0.466008 0.000000
0.484644 0.459833 0.000000
0.639051 0.453567 0.000000
0.795248 0.447228 0.000000
0.952929 0.440829 0.000000
1.000000 0.436271 0.000000
0.000000 0.622748 0.000000
0.027921 0.619519 0.000000
0.171752 0.613682 0.000000
0.320763 0.607635 0.000000
0.472901 0.601461 0.000000
0.627308 0.595194 0.000000
0.783506 0.588855 0.000000
0.941186 0.582456 0.000000
1.000000 0.577898 0.000000
0.000000 0.766017 0.000000
0.016042 0.762789 0.000000
0.159873 0.756952 0.000000
0.308884 0.750905 0.000000
0.461022 0.744730 0.000000
0.615429 0.738464 0.000000
0.771627 0.732125 0.000000
0.929307 0.725726 0.000000
1.000000 0.721167 0.000000
0.000000 0.910647 0.000000
0.004050 0.907419 0.000000
0.147881 0.901582 0.000000
0.296893 0.895534 0.000000
0.449030 0.889360 0.000000
0.603437 0.883094 0.000000
0.759635 0.876755 0.000000
0.917315 0.870356 0.000000
1.000000 0.865797 0.000000
0.000000 1.000000 0.000000
0.000000 1.000000 0.000000
0.135793 1.000000 0.000000
0.284805 1.000000 0.000000
0.436942 1.000000 0.000000
0.591349 1.000000 0.000000
0.747547 1.000000 0.000000
0.905227 1.000000 0.000000
1.000000 1.000000 0.000000
0.000000 0.000000 0.113007
0.077849 0.000000 0.109778
0.221680 0.000000 0.103941
0.370692 0.000000 0.097894
0.522829 0.000000 0.091720
0.677236 0.000000 0.085453
0.833434 0.000000 0.079115
0.991115 0.000000 0.072715
1.000000 0.000000 0.068157
0.000000 0.071265 0.106957
0.071799 0.068036 0.103728
0.215630 0.062199 0.097891
0.364642 0.056152 0.091844
0.516779 0.049978 0.085669
0.671186 0.043711 0.079403
0.827384 0.037373 0.073064
0.985064 0.030973 0.066665
1.000000 0.026415 0.062107
0.000000 0.203191 0.096018
0.060861 0.199963 0.092789
0.204692 0.194126 0.086952
0.353703 0.188078 0.080905
0.505841 0.181904 0.074731
0.660248 0.175638 0.068465
0.816445 0.169299 0.062126
0.974126 0.162900 0.055727
1.000000 0.158341 0.051168
0.000000 0.339870 0.084686
0.049528 0.336641 0.081457
0.193359 0.330804 0.075620
0.342371 0.324757 0.069573
0.494508 0.318582 0.063399
0.648915 0.312316 0.057132
0.805113 0.305977 0.050793
0.962793 0.299578 0.044394
1.000000 0.295020 0.039836
0.000000 0.479415 0.073115
0.037958 0.476186 0.069887
0.181789 0.470349 0.064050
0.330801 0.464302 0.058002
0.482938 0.458128 0.051828
0.637345 0.451862 0.045562
0.793543 0.445523 0.039223
0.951223 0.439123 0.032824
1.000000 0.434565 0.028265
0.000000 0.621042 0.061373
0.026215 0.617813 0.058144
0.170046 0.611976 0.052307
0.319058 0.605929 0.046260
0.471195 0.599755 0.040086
0.625602 0.593489 0.033819
0.781800 0.587150 0.027480
0.939480 0.580751 0.021081
1.000000 0.576192 0.016523
0.000000 0.764312 0.049494
0.014336 0.761083 0.046265
0.158167 0.755246 0.040428
0.307179 0.749199 0.034381
0.459316 0.743025 0.028207
0.613723 0.736758 0.021940
0.769921 0.730419 0.015601
0.927601 0.724020 0.009202
1.000000 0.719462 0.004644
0.000000 0.908941 0.037502
0.002344 0.905713 0.034273
0.146175 0.899876 0.028436
0.295187 0.893829 0.022389
0.447324 0.887654 0.016215
0.601731 0.881388 0.009949
0.757929 0.875049 0.003610
0.915610 0.868650 0.000000
1.000000 0.864091 0.000000
0.000000 1.000000 0.025414
0.000000 1.000000 0.022185
0.134087 1.000000 0.016348
0.283099 1.000000 0.010301
0.435236 1.000000 0.004127
0.589643 1.000000 0.000000
0.745841 1.000000 0.000000
0.903522 1.000000 0.000000
1.000000 1.000000 0.000000
0.000000 0.000000 0.247539
0.075819 0.000000 0.244310
0.219650 0.000000 0.238473
0.368661 0.000000 0.232426
0.520799 0.000000 0.226252
0.675206 0.000000 0.219985
0.831404 0.000000 0.213646
0.989084 0.000000 0.207247
1.000000 0.000000 0.202689
0.000000 0.069234 0.241488
0.069768 0.066006 0.238260
0.213599 0.060169 0.232423
0.362611 0.054121 0.226375
0.514748 0.047947 0.220201
0.669155 0.041681 0.213935
0.825353 0.035342 0.207596
0.983034 0.028943 0.201197
1.000000 0.024384 0.196638
0.000000 0.201161 0.230550
0.058830 0.197932 0.227321
0.202661 0.192095 0.221484
0.351673 0.186048 0.215437
0.503810 0.179874 0.209263
0.658217 0.173607 0.202997
0.814415 0.167268 0.196658
0.972095 0.160869 0.190259
1.000000 0.156311 0.185700
0.000000 0.337839 0.219217
0.047498 0.334610 0.215989
0.191328 0.328773 0.210152
0.340340 0.322726 0.204105
0.492477 0.316552 0.197930
0.646884 0.310286 0.191664
0.803082 0.303947 0.185325
0.960763 0.297548 0.178926
1.000000 0.292989 0.174367
0.000000 0.477384 0.207647
0.035927 0.474156 0.204419
0.179758 0.468319 0.198582
0.328770 0.462271 0.192534
0.480907 0.456097 0.186360
0.635314 0.449831 0.180094
0.791512 0.443492 0.173755
0.949193 0.437093 0.167356
1.000000 0.432534 0.162797
0.000000 0.619011 0.195904
0.024185 0.615783 0.192676
0.168015 0.609946 0.186839
0.317027 0.603898 0.180792
0.469164 0.597724 0.174617
0.623571 0.591458 0.168351
0.779769 0.585119 0.162012
0.937450 0.578720 0.155613
1.000000 0.574161 0.151054
0.000000 0.762281 0.184025
0.012306 0.759053 0.180797
0.156136 0.753216 0.174960
0.305148 0.747168 0.168913
0.457285 0.740994 0.162738
0.611692 0.734728 0.156472
0.767890 0.728389 0.150133
0.925571 0.721990 0.143734
1.000000 0.717431 0.139175
0.000000 0.906911 0.172034
0.000314 0.903682 0.168805
0.144145 0.897845 0.162968
0.293156 0.891798 0.156921
0.445294 0.885624 0.150747
0.599701 0.879358 0.144480
0.755899 0.873019 0.138141
0.913579 0.866619 0.131742
1.000000 0.862061 0.127184
0.000000 1.000000 0.159946
0.000000 1.000000 0.156717
0.132057 1.000000 0.150880
0.281068 1.000000 0.144833
0.433206 1.000000 0.138659
0.587613 1.000000 0.132392
0.743810 1.000000 0.126053
0.901491 1.000000 0.119654
1.000000 1.000000 0.115096
0.000000 0.000000 0.382071
0.073788 0.000000 0.378842
0.217619 0.000000 0.373005
0.366631 0.000000 0.366958
0.518768 0.000000 0.360783
0.673175 0.000000 0.354517
0.829373 0.000000 0.348178
0.987053 0.000000 0.341779
1.000000 0.000000 0.337221
0.000000 0.067204 0.376020
0.067738 0.063975 0.372792
0.211569 0.058138 0.366955
0.360580 0.052091 0.360907
0.512718 0.045916 0.354733
0.667125 0.039650 0.348467
0.823323 0.033311 0.342128
0.981003 0.026912 0.335729
1.000000 0.022354 0.331170
0.000000 0.199130 0.365082
0.056799 0.195901 0.361853
0.200630 0.190064 0.356016
0.349642 0.184017 0.349969
0.501779 0.177843 0.343795
0.656186 0.171577 0.337528
0.812384 0.165238 0.331190
0.970065 0.158839 0.324790
1.000000 0.154280 0.320232
0.000000 0.335808 0.353749
0.045467 0.332580 0.350521
0.189298 0.326743 0.344684
0.338309 0.320695 0.338636
0.490447 0.314521 0.332462
0.644854 0.308255 0.326196
0.801052 0.301916 0.319857
0.958732 0.295517 0.313458
1.000000 0.290958 0.308899
0.000000 0.475354 0.342179
0.033897 0.472125 0.338951
0.177728 0.466288 0.333114
0.326739 0.460241 0.327066
0.478877 0.454067 0.320892
0.633284 0.447800 0.314626
0.789482 0.441461 0.308287
0.947162 0.435062 0.301888
1.000000 0.430504 0.297329
0.000000 0.616981 0.330436
0.022154 0.613752 0.327208
0.165985 0.607915 0.321371
0.314996 0.601868 0.315323
0.467134 0.595694 0.309149
0.621541 0.589427 0.302883
0.777739 0.583089 0.296544
0.935419 0.576689 0.290145
1.000000 0.572131 0.285586
0.000000 0.760250 0.318557
0.010275 0.757022 0.315329
0.154106 0.751185 0.309492
0.303117 0.745138 0.303444
0.455255 0.738963 0.297270
0.609662 0.732697 0.291004
0.765860 0.726358 0.284665
0.923540 0.719959 0.278266
1.000000 0.715400 0.273707
0.000000 0.904880 0.306566
0.000000 0.901652 0.303337
0.142114 0.895815 0.297500
0.291126 0.889767 0.291453
0.443263 0.883593 0.285279
0.597670 0.877327 0.279012
0.753868 0.870988 0.272673
0.911548 0.864589 0.266274
1.000000 0.860030 0.261716
0.000000 1.000000 0.294477
0.000000 1.000000 0.291249
0.130026 1.000000 0.285412
0.279038 1.000000 0.279365
0.431175 1.000000 0.273190
0.585582 1.000000 0.266924
0.741780 1.000000 0.260585
0.899460 1.000000 0.254186
1.000000 1.000000 0.249627
0.000000 0.000000 0.516602
0.071757 0.000000 0.513374
0.215588 0.000000 0.507537
0.364600 0.000000 0.501489
0.516737 0.000000 0.495315
0.671144 0.000000 0.489049
0.827342 0.000000 0.482710
0.985023 0.000000 0.476311
1.000000 0.000000 0.471752
0.000000 0.065173 0.510552
0.065707 0.061944 0.507324
0.209538 0.056107 0.501487
0.358550 0.050060 0.495439
0.510687 0.043886 0.489265
0.665094 0.037620 0.482999
0.821292 0.031281 0.476660
0.978973 0.024882 0.470261
1.000000 0.020323 0.465702
0.000000 0.197099 0.499614
0.054769 0.193871 0.496385
0.198600 0.188034 0.490548
0.347611 0.181986 0.484501
0.499749 0.175812 0.478327
0.654156 0.169546 0.472060
0.810354 0.163207 0.465721
0.968034 0.156808 0.459322
1.000000 0.152249 0.454764
0.000000 0.333778 0.488281
0.043436 0.330549 0.485053
0.187267 0.324712 0.479216
0.336279 0.318665 0.473168
0.488416 0.312491 0.466994
0.642823 0.306224 0.460728
0.799021 0.299885 0.454389
0.956702 0.293486 0.447990
1.000000 0.288928 0.443431
0.000000 0.473323 0.476711
0.031866 0.470094 0.473482
0.175697 0.464257 0.467645
0.324709 0.458210 0.461598
0.476846 0.452036 0.455424
0.631253 0.445770 0.449158
0.787451 0.439431 0.442819
0.945131 0.433032 0.436420
1.000000 0.428473 0.431861
0.000000 0.614950 0.464968
0.020123 0.611722 0.461740
0.163954 0.605885 0.455903
0.312966 0.599837 0.449855
0.465103 0.593663 0.443681
0.619510 0.587397 0.437415
0.775708 0.581058 0.431076
0.933389 0.574659 0.424677
1.000000 0.570100 0.420118
0.000000 0.758220 0.453089
0.008244 0.754991 0.449861
0.152075 0.749154 0.444024
0.301087 0.743107 0.437976
0.453224 0.736933 0.431802
0.607631 0.730667 0.425536
0.763829 0.724328 0.419197
0.921510 0.717929 0.412798
1.000000 0.713370 0.408239
0.000000 0.902850 0.441097
0.000000 0.899621 0.437869
0.140083 0.893784 0.432032
0.289095 0.887737 0.425985
0.441232 0.881563 0.419810
0.595639 0.875296 0.413544
0.751837 0.868957 0.407205
0.909518 0.862558 0.400806
1.000000 0.858000 0.396247
0.000000 1.000000 0.429009
0.000000 1.000000 0.425781
0.127995 1.000000 0.419944
0.277007 1.000000 0.413896
0.429144 1.000000 0.407722
0.583551 1.000000 0.401456
0.739749 1.000000 0.395117
0.897430 1.000000 0.388718
1.000000 1.000000 0.384159
0.000000 0.000000 0.651134
0.069727 0.000000 0.647906
0.213558 0.000000 0.642069
0.362569 0.000000 0.636021
0.514707 0.000000 0.629847
0.669114 0.000000 0.623581
0.825312 0.000000 0.617242
0.982992 0.000000 0.610843
1.000000 0.000000 0.606284
0.000000 0.063142 0.645084
0.063677 0.059914 0.641855
0.207508 0.054077 0.636018
0.356519 0.048029 0.629971
0.508657 0.041855 0.623797
0.663064 0.035589 0.617531
0.819261 0.029250 0.611192
0.976942 0.022851 0.604793
1.000000 0.018292 0.600234
0.000000 0.195069 0.634146
0.052738 0.191840 0.630917
0.196569 0.186003 0.625080
0.345581 0.179956 0.619033
0.497718 0.173782 0.612858
0.652125 0.167515 0.606592
0.808323 0.161176 0.600253
0.966003 0.154777 0.593854
1.000000 0.150219 0.589296
0.000000 0.331747 0.622813
0.041406 0.328518 0.619585
0.185237 0.322681 0.613747
0.334248 0.316634 0.607700
0.486386 0.310460 0.601526
0.640793 0.304194 0.595260
0.796990 0.297855 0.588921
0.954671 0.291456 0.582522
1.000000 0.286897 0.577963
0.000000 0.471292 0.611243
0.029835 0.468064 0.608014
0.173666 0.462227 0.602177
0.322678 0.456179 0.596130
0.474815 0.450005 0.589956
0.629222 0.443739 0.583690
0.785420 0.437400 0.577351
0.943101 0.431001 0.570952
1.000000 0.426442 0.566393
0.000000 0.612920 0.599500
0.018093 0.609691 0.596272
0.161924 0.603854 0.590434
0.310935 0.597807 0.584387
0.463073 0.591632 0.578213
0.617480 0.585366 0.571947
0.773677 0.579027 0.565608
0.931358 0.572628 0.559209
1.000000 0.568070 0.554650
0.000000 0.756189 0.587621
0.006214 0.752961 0.584393
0.150045 0.747124 0.578555
0.299056 0.741076 0.572508
0.451194 0.734902 0.566334
0.605601 0.728636 0.560068
0.761798 0.722297 0.553729
0.919479 0.715898 0.547330
1.000000 0.711339 0.542771
0.000000 0.900819 0.575629
0.000000 0.897590 0.572401
0.138053 0.891753 0.566564
0.287064 0.885706 0.560516
0.439202 0.879532 0.554342
0.593609 0.873266 0.548076
0.749807 0.866927 0.541737
0.907487 0.860528 0.535338
1.000000 0.855969 0.530779
0.000000 1.000000 0.563541
0.000000 1.000000 0.560313
0.125965 1.000000 0.554476
0.274976 1.000000 0.548428
0.427114 1.000000 0.542254
0.581521 1.000000 0.535988
0.737719 1.000000 0.529649
0.895399 1.000000 0.523250
1.000000 1.000000 0.518691
0.000000 0.000000 0.785666
0.067696 0.000000 0.782438
0.211527 0.000000 0.776601
0.360539 0.000000 0.770553
0.512676 0.000000 0.764379
0.667083 0.000000 0.758113
0.823281 0.000000 0.751774
0.980962 0.000000 0.745375
1.000000 0.000000 0.740816
0.000000 0.061112 0.779616
0.061646 0.057883 0.776387
0.205477 0.052046 0.770550
0.354489 0.045999 0.764503
0.506626 0.039825 0.758329
0.661033 0.033558 0.752063
0.817231 0.027219 0.745724
0.974911 0.020820 0.739325
1.000000 0.016262 0.734766
0.000000 0.193038 0.768677
0.050707 0.189810 0.765449
0.194538 0.183972 0.759612
0.343550 0.177925 0.753565
0.495687 0.171751 0.747390
0.650094 0.165485 0.741124
0.806292 0.159146 0.734785
0.963973 0.152747 0.728386
1.000000 0.148188 0.723827
0.000000 0.329716 0.757345
0.039375 0.326488 0.754116
0.183206 0.320651 0.748279
0.332218 0.314603 0.742232
0.484355 0.308429 0.736058
0.638762 0.302163 0.729792
0.794960 0.295824 0.723453
0.952640 0.289425 0.717054
1.000000 0.284866 0.712495
0.000000 0.469262 0.745775
0.027805 0.466033 0.742546
0.171636 0.460196 0.736709
0.320647 0.454149 0.730662
0.472785 0.447975 0.724488
0.627192 0.441708 0.718221
0.783390 0.435369 0.711883
0.941070 0.428970 0.705483
1.000000 0.424412 0.700925
0.000000 0.610889 0.734032
0.016062 0.607660 0.730803
0.159893 0.601823 0.724966
0.308905 0.595776 0.718919
0.461042 0.589602 0.712745
0.615449 0.583336 0.706479
0.771647 0.576997 0.700140
0.929327 0.570598 0.693741
1.000000 0.566039 0.689182
0.000000 0.754159 0.722153
0.004183 0.750930 0.718924
0.148014 0.745093 0.713087
0.297026 0.739046 0.707040
0.449163 0.732872 0.700866
0.603570 0.726605 0.694600
0.759768 0.720266 0.688261
0.917448 0.713867 0.681862
1.000000 0.709309 0.677303
0.000000 0.898788 0.710161
0.000000 0.895560 0.706933
0.136022 0.889723 0.701096
0.285034 0.883675 0.695048
0.437171 0.877501 0.688874
0.591578 0.871235 0.682608
0.747776 0.864896 0.676269
0.905457 0.858497 0.669870
1.000000 0.853938 0.665311
0.000000 1.000000 0.698073
0.000000 1.000000 0.694845
0.123934 1.000000 0.689007
0.272946 1.000000 0.682960
0.425083 1.000000 0.676786
0.579490 1.000000 0.670520
0.735688 1.000000 0.664181
0.893368 1.000000 0.657782
1.000000 0.999730 0.653223
0.000000 0.000000 0.920198
0.065666 0.000000 0.916969
0.209497 0.000000 0.911132
0.358508 0.000000 0.905085
0.510646 0.000000 0.898911
0.665053 0.000000 0.892645
0.821250 0.000000 0.886306
0.978931 0.000000 0.879907
1.000000 0.000000 0.875348
0.000000 0.059081 0.914148
0.059615 0.055852 0.910919
0.203446 0.050015 0.905082
0.352458 0.043968 0.899035
0.504595 0.037794 0.892861
0.659002 0.031528 0.886594
0.815200 0.025189 0.880256
0.972881 0.018790 0.873856
1.000000 0.014231 0.869298
0.000000 0.191007 0.903209
0.048677 0.187779 0.899981
0.192508 0.181942 0.894144
0.341519 0.175895 0.888096
0.493657 0.169720 0.881922
0.648064 0.163454 0.875656
0.804262 0.157115 0.869317
0.961942 0.150716 0.862918
1.000000 0.146157 0.858359
0.000000 0.327686 0.891877
0.037344 0.324457 0.888648
0.181175 0.318620 0.882811
0.330187 0.312573 0.876764
0.482324 0.306399 0.870590
0.636731 0.300132 0.864324
0.792929 0.293794 0.857985
0.950610 0.287394 0.851585
1.000000 0.282836 0.847027
0.000000 0.467231 0.880307
0.025774 0.464003 0.877078
0.169605 0.458165 0.871241
0.318617 0.452118 0.865194
0.470754 0.445944 0.859020
0.625161 0.439678 0.852753
0.781359 0.433339 0.846414
0.939040 0.426940 0.840015
1.000000 0.422381 0.835457
0.000000 0.608858 0.868564
0.014031 0.605630 0.865335
0.157862 0.599793 0.859498
0.306874 0.593745 0.853451
0.459011 0.587571 0.847277
0.613418 0.581305 0.841011
0.769616 0.574966 0.834672
0.927297 0.568567 0.828272
1.000000 0.564008 0.823714
0.000000 0.752128 0.856685
0.002152 0.748899 0.853456
0.145983 0.743062 0.847619
0.294995 0.737015 0.841572
0.447132 0.730841 0.835398
0.601539 0.724575 0.829132
0.757737 0.718236 0.822793
0.915418 0.711837 0.816393
1.000000 0.707278 0.811835
0.000000 0.896758 0.844693
0.000000 0.893529 0.841465
0.133992 0.887692 0.835627
0.283003 0.881645 0.829580
0.435141 0.875471 0.823406
0.589548 0.869204 0.817140
0.745745 0.862865 0.810801
0.903426 0.856466 0.804402
1.000000 0.851908 0.799843
0.000000 1.000000 0.832605
0.000000 1.000000 0.829376
0.121903 1.000000 0.823539
0.270915 1.000000 0.817492
0.423052 1.000000 0.811318
0.577459 1.000000 0.805052
0.733657 1.000000 0.798713
0.891338 1.000000 0.792314
1.000000 0.997700 0.787755
0.000000 0.000000 1.000000
0.063635 0.000000 1.000000
0.207466 0.000000 1.000000
0.356478 0.000000 1.000000
0.508615 0.000000 1.000000
0.663022 0.000000 1.000000
0.819220 0.000000 1.000000
0.976900 0.000000 1.000000
1.000000 0.000000 1.000000
0.000000 0.057050 1.000000
0.057585 0.053822 1.000000
0.201416 0.047985 1.000000
0.350427 0.041937 1.000000
0.502565 0.035763 1.000000
0.656972 0.029497 1.000000
0.813170 0.023158 1.000000
0.970850 0.016759 1.000000
1.000000 0.012200 1.000000
0.000000 0.188977 1.000000
0.046646 0.185748 1.000000
0.190477 0.179911 1.000000
0.339489 0.173864 1.000000
0.491626 0.167690 1.000000
0.646033 0.161424 1.000000
0.802231 0.155085 1.000000
0.959912 0.148685 0.997450
1.000000 0.144127 0.992891
0.000000 0.325655 1.000000
0.035314 0.322427 1.000000
0.179145 0.316590 1.000000
0.328156 0.310542 1.000000
0.480294 0.304368 1.000000
0.634701 0.298102 0.998855
0.790899 0.291763 0.992516
0.948579 0.285364 0.986117
1.000000 0.280805 0.981559
0.000000 0.465200 1.000000
0.023744 0.461972 1.000000
0.167575 0.456135 1.000000
0.316586 0.450088 0.999726
0.468723 0.443913 0.993551
0.623131 0.437647 0.987285
0.779328 0.431308 0.980946
0.937009 0.424909 0.974547
1.000000 0.420350 0.969989
0.000000 0.606828 1.000000
0.012001 0.603599 0.999867
0.155832 0.597762 0.994030
0.304843 0.591715 0.987983
0.456981 0.585541 0.981809
0.611388 0.579274 0.975542
0.767586 0.572935 0.969203
0.925266 0.566536 0.962804
1.000000 0.561978 0.958246
0.000000 0.750097 0.991217
0.000122 0.746869 0.987988
0.143953 0.741032 0.982151
0.292964 0.734984 0.976104
0.445102 0.728810 0.969930
0.599509 0.722544 0.963663
0.755707 0.716205 0.957324
0.913387 0.709806 0.950925
1.000000 0.705247 0.946367
0.000000 0.894727 0.979225
0.000000 0.891499 0.975996
0.131961 0.885661 0.970159
0.280973 0.879614 0.964112
0.433110 0.873440 0.957938
0.587517 0.867174 0.951672
0.743715 0.860835 0.945333
0.901395 0.854436 0.938934
1.000000 0.849877 0.934375
0.000000 1.000000 0.967137
0.000000 1.000000 0.963908
0.119873 1.000000 0.958071
0.268884 1.000000 0.952024
0.421022 1.000000 0.945850
0.575429 1.000000 0.939583
0.731627 1.000000 0.933245
0.889307 1.000000 0.926845
1.000000 0.995669 0.922287
