app/src/main/assets/luts/hollywood.cube
# ApexStudio filter: hollywood
LUT_3D_SIZE 17
DOMAIN_MIN 0.0 0.0 0.0
DOMAIN_MAX 1.0 1.0 1.0
0.000000 0.000000 0.000000
0.012066 0.000000 0.000000
0.079555 0.000000 0.000000
0.150579 0.000000 0.000000
0.223386 0.000000 0.000000
0.297421 0.000000 0.000000
0.372398 0.000000 0.000000
0.448142 0.000000 0.000000
0.524535 0.000000 0.000000
0.601490 0.000000 0.000000
0.678942 0.000000 0.000000
0.756839 0.000000 0.000000
0.835140 0.000000 0.000000
0.913810 0.000000 0.000000
0.992820 0.000000 0.000000
1.000000 0.000000 0.000000
1.000000 0.000000 0.000000
0.000000 0.011067 0.000000
0.011148 0.010578 0.000000
0.078637 0.007839 0.000000
0.149661 0.004956 0.000000
0.222468 0.002002 0.000000
0.296503 0.000000 0.000000
0.371480 0.000000 0.000000
0.447224 0.000000 0.000000
0.523617 0.000000 0.000000
0.600573 0.000000 0.000000
0.678024 0.000000 0.000000
0.755922 0.000000 0.000000
0.834222 0.000000 0.000000
0.912892 0.000000 0.000000
0.991903 0.000000 0.000000
1.000000 0.000000 0.000000
1.000000 0.000000 0.000000
0.000000 0.072971 0.000000
0.006016 0.072481 0.000000
0.073505 0.069742 0.000000
0.144529 0.066860 0.000000
0.217336 0.063905 0.000000
0.291370 0.060900 0.000000
0.366347 0.057858 0.000000
0.442092 0.054784 0.000000
0.518485 0.051683 0.000000
0.595440 0.048560 0.000000
0.672892 0.045417 0.000000
0.750789 0.042256 0.000000
0.829090 0.039078 0.000000
0.907760 0.035886 0.000000
0.986770 0.032679 0.000000
1.000000 0.029460 0.000000
1.000000 0.028121 0.000000
0.000000 0.138116 0.000000
0.000614 0.137626 0.000000
0.068103 0.134887 0.000000
0.139127 0.132005 0.000000
0.211934 0.129050 0.000000
0.285969 0.126046 0.000000
0.360946 0.123003 0.000000
0.436690 0.119929 0.000000
0.513083 0.116829 0.000000
0.590038 0.113706 0.000000
0.667490 0.110563 0.000000
0.745387 0.107401 0.000000
0.823688 0.104224 0.000000
0.902358 0.101031 0.000000
0.981369 0.097825 0.000000
1.000000 0.094605 0.000000
1.000000 0.093266 0.000000
0.000000 0.204897 0.000000
0.000000 0.204407 0.000000
0.062566 0.201668 0.000000
0.133590 0.198786 0.000000
0.206397 0.195831 0.000000
0.280432 0.192827 0.000000
0.355409 0.189784 0.000000
0.431153 0.186710 0.000000
0.507546 0.183610 0.000000
0.584501 0.180487 0.000000
0.661953 0.177344 0.000000
0.739850 0.174182 0.000000
0.818151 0.171005 0.000000
0.896821 0.167812 0.000000
0.975832 0.164606 0.000000
1.000000 0.161386 0.000000
1.000000 0.160047 0.000000
0.000000 0.272804 0.000000
0.000000 0.272314 0.000000
0.056936 0.269575 0.000000
0.127960 0.266693 0.000000
0.200767 0.263738 0.000000
0.274801 0.260734 0.000000
0.349779 0.257691 0.000000
0.425523 0.254617 0.000000
0.501916 0.251517 0.000000
0.578871 0.248394 0.000000
0.656323 0.245251 0.000000
0.734220 0.242089 0.000000
0.812521 0.238912 0.000000
0.891191 0.235719 0.000000
0.970201 0.232513 0.000000
1.000000 0.229293 0.000000
1.000000 0.227954 0.000000
0.000000 0.341575 0.000000
0.000000 0.341086 0.000000
0.051234 0.338347 0.000000
0.122258 0.335464 0.000000
0.195065 0.332510 0.000000
0.269099 0.329505 0.000000
0.344076 0.326462 0.000000
0.419821 0.323388 0.000000
0.496214 0.320288 0.000000
0.573169 0.317165 0.000000
0.650621 0.314022 0.000000
0.728518 0.310861 0.000000
0.806819 0.307683 0.000000
0.885489 0.304490 0.000000
0.964499 0.301284 0.000000
1.000000 0.298065 0.000000
1.000000 0.296725 0.000000
0.000000 0.411050 0.000000
0.000000 0.410561 0.000000
0.045473 0.407822 0.000000
0.116497 0.404940 0.000000
0.189304 0.401985 0.000000
0.263339 0.398980 0.000000
0.338316 0.395938 0.000000
0.414060 0.392864 0.000000
0.490453 0.389763 0.000000
0.567409 0.386640 0.000000
0.644860 0.383497 0.000000
0.722758 0.380336 0.000000
0.801058 0.377158 0.000000
0.879728 0.373966 0.000000
0.958739 0.370759 0.000000
1.000000 0.367540 0.000000
1.000000 0.366200 0.000000
0.000000 0.481121 0.000000
0.000000 0.480631 0.000000
0.039664 0.477892 0.000000
0.110688 0.475010 0.000000
0.183495 0.472055 0.000000
0.257529 0.469050 0.000000
0.332506 0.466008 0.000000
0.408251 0.462934 0.000000
0.484644 0.459833 0.000000
0.561599 0.456710 0.000000
0.639051 0.453567 0.000000
0.716948 0.450406 0.000000
0.795248 0.447228 0.000000
0.873919 0.444036 0.000000
0.952929 0.440829 0.000000
1.000000 0.437610 0.000000
1.000000 0.436271 0.000000
0.000000 0.551706 0.000000
0.000000 0.551217 0.000000
0.033811 0.548478 0.000000
0.104835 0.545595 0.000000
0.177642 0.542641 0.000000
0.251677 0.539636 0.000000
0.326654 0.536593 0.000000
0.402398 0.533520 0.000000
0.478791 0.530419 0.000000
0.555746 0.527296 0.000000
0.633198 0.524153 0.000000
0.711095 0.520992 0.000000
0.789396 0.517814 0.000000
0.868066 0.514621 0.000000
0.947077 0.511415 0.000000
1.000000 0.508196 0.000000
1.000000 0.506856 0.000000
0.000000 0.622748 0.000000
0.000000 0.622258 0.000000
0.027921 0.619519 0.000000
0.098945 0.616637 0.000000
0.171752 0.613682 0.000000
0.245786 0.610678 0.000000
0.320763 0.607635 0.000000
0.396508 0.604561 0.000000
0.472901 0.601461 0.000000
0.549856 0.598338 0.000000
0.627308 0.595194 0.000000
0.705205 0.592033 0.000000
0.783506 0.588855 0.000000
0.862176 0.585663 0.000000
0.941186 0.582456 0.000000
1.000000 0.579237 0.000000
1.000000 0.577898 0.000000
0.000000 0.694197 0.000000
0.000000 0.693708 0.000000
0.021997 0.690969 0.000000
0.093021 0.688087 0.000000
0.165828 0.685132 0.000000
0.239862 0.682127 0.000000
0.314839 0.679085 0.000000
0.390584 0.676011 0.000000
0.466977 0.672910 0.000000
0.543932 0.669787 0.000000
0.621384 0.666644 0.000000
0.699281 0.663483 0.000000
0.777582 0.660305 0.000000
0.856252 0.657113 0.000000
0.935262 0.653906 0.000000
1.000000 0.650687 0.000000
1.000000 0.649347 0.000000
0.000000 0.766017 0.000000
0.000000 0.765528 0.000000
0.016042 0.762789 0.000000
0.087066 0.759907 0.000000
0.159873 0.756952 0.000000
0.233907 0.753947 0.000000
0.308884 0.750905 0.000000
0.384629 0.747831 0.000000
0.461022 0.744730 0.000000
0.537977 0.741607 0.000000
0.615429 0.738464 0.000000
0.693326 0.735303 0.000000
0.771627 0.732125 0.000000
0.850297 0.728933 0.000000
0.929307 0.725726 0.000000
1.000000 0.722507 0.000000
1.000000 0.721167 0.000000
0.000000 0.838176 0.000000
0.000000 0.837687 0.000000
0.010059 0.834948 0.000000
0.081083 0.832065 0.000000
0.153890 0.829111 0.000000
0.227924 0.826106 0.000000
0.302902 0.823063 0.000000
0.378646 0.819989 0.000000
0.455039 0.816889 0.000000
0.531994 0.813766 0.000000
0.609446 0.810623 0.000000
0.687343 0.807462 0.000000
0.765644 0.804284 0.000000
0.844314 0.801091 0.000000
0.923324 0.797885 0.000000
1.000000 0.794666 0.000000
1.000000 0.793326 0.000000
0.000000 0.910647 0.000000
0.000000 0.910158 0.000000
0.004050 0.907419 0.000000
0.075074 0.904536 0.000000
0.147881 0.901582 0.000000
0.221916 0.898577 0.000000
0.296893 0.895534 0.000000
0.372637 0.892460 0.000000
0.449030 0.889360 0.000000
0.525985 0.886237 0.000000
0.603437 0.883094 0.000000
0.681334 0.879933 0.000000
0.759635 0.876755 0.000000
0.838305 0.873562 0.000000
0.917315 0.870356 0.000000
0.996642 0.867137 0.000000
1.000000 0.865797 0.000000
0.000000 0.983408 0.000000
0.000000 0.982918 0.000000
0.000000 0.980179 0.000000
0.069041 0.977297 0.000000
0.141848 0.974342 0.000000
0.215883 0.971338 0.000000
0.290860 0.968295 0.000000
0.366604 0.965221 0.000000
0.442997 0.962121 0.000000
0.519952 0.958998 0.000000
0.597404 0.955855 0.000000
0.675301 0.952693 0.000000
0.753602 0.949516 0.000000
0.832272 0.946323 0.000000
0.911283 0.943117 0.000000
0.990609 0.939897 0.000000
1.000000 0.938558 0.000000
0.000000 1.000000 0.000000
0.000000 1.000000 0.000000
0.000000 1.000000 0.000000
0.062986 1.000000 0.000000
0.135793 1.000000 0.000000
0.209828 1.000000 0.000000
0.284805 1.000000 0.000000
0.360549 1.000000 0.000000
0.436942 1.000000 0.000000
0.513897 1.000000 0.000000
0.591349 1.000000 0.000000
0.669246 1.000000 0.000000
0.747547 1.000000 0.000000
0.826217 1.000000 0.000000
0.905227 1.000000 0.000000
0.984554 1.000000 0.000000
1.000000 1.000000 0.000000
0.000000 0.000000 0.045741
0.011376 0.000000 0.045251
0.078865 0.000000 0.042512
0.149888 0.000000 0.039630
0.222696 0.000000 0.036675
0.296730 0.000000 0.033671
0.371707 0.000000 0.030628
0.447452 0.000000 0.027554
0.523845 0.000000 0.024454
0.600800 0.000000 0.021331
0.678252 0.000000 0.018188
0.756149 0.000000 0.015026
0.834449 0.000000 0.011849
0.913119 0.000000 0.008656
0.992130 0.000000 0.005449
1.000000 0.000000 0.002230
1.000000 0.000000 0.000891
0.000000 0.010377 0.044823
0.010458 0.009887 0.044334
0.077947 0.007148 0.041595
0.148971 0.004266 0.038712
0.221778 0.001311 0.035758
0.295813 0.000000 0.032753
0.370790 0.000000 0.029710
0.446534 0.000000 0.026636
0.522927 0.000000 0.023536
0.599882 0.000000 0.020413
0.677334 0.000000 0.017270
0.755231 0.000000 0.014109
0.833532 0.000000 0.010931
0.912202 0.000000 0.007738
0.991212 0.000000 0.004532
1.000000 0.000000 0.001313
1.000000 0.000000 0.000000
0.000000 0.072280 0.039691
0.005325 0.071790 0.039201
0.072814 0.069052 0.036462
0.143838 0.066169 0.033580
0.216645 0.063214 0.030625
0.290680 0.060210 0.027620
0.365657 0.057167 0.024578
0.441401 0.054093 0.021504
0.517794 0.050993 0.018404
0.594749 0.047870 0.015280
0.672201 0.044727 0.012137
0.750098 0.041565 0.008976
0.828399 0.038388 0.005798
0.907069 0.035195 0.002606
0.986080 0.031989 0.000000
1.000000 0.028769 0.000000
1.000000 0.027430 0.000000
0.000000 0.137425 0.034289
0.000000 0.136936 0.033799
0.067413 0.134197 0.031061
0.138437 0.131315 0.028178
0.211244 0.128360 0.025224
0.285279 0.125355 0.022219
0.360256 0.122313 0.019176
0.436000 0.119239 0.016102
0.512393 0.116138 0.013002
0.589348 0.113015 0.009879
0.666800 0.109872 0.006736
0.744697 0.106711 0.003575
0.822998 0.103533 0.000397
0.901668 0.100341 0.000000
0.980678 0.097134 0.000000
1.000000 0.093915 0.000000
1.000000 0.092575 0.000000
0.000000 0.204207 0.028752
0.000000 0.203717 0.028262
0.061876 0.200978 0.025524
0.132900 0.198096 0.022641
0.205707 0.195141 0.019686
0.279741 0.192136 0.016682
0.354719 0.189094 0.013639
0.430463 0.186020 0.010565
0.506856 0.182919 0.007465
0.583811 0.179796 0.004342
0.661263 0.176653 0.001199
0.739160 0.173492 0.000000
0.817461 0.170314 0.000000
0.896131 0.167122 0.000000
0.975141 0.163915 0.000000
1.000000 0.160696 0.000000
1.000000 0.159357 0.000000
0.000000 0.272113 0.023122
0.000000 0.271624 0.022632
0.056246 0.268885 0.019893
0.127269 0.266003 0.017011
0.200076 0.263048 0.014056
0.274111 0.260043 0.011052
0.349088 0.257001 0.008009
0.424833 0.253927 0.004935
0.501225 0.250826 0.001835
0.578181 0.247703 0.000000
0.655632 0.244560 0.000000
0.733530 0.241399 0.000000
0.811830 0.238221 0.000000
0.890500 0.235029 0.000000
0.969511 0.231822 0.000000
1.000000 0.228603 0.000000
1.000000 0.227263 0.000000
0.000000 0.340885 0.017420
0.000000 0.340395 0.016930
0.050543 0.337656 0.014191
0.121567 0.334774 0.011309
0.194374 0.331819 0.008354
0.268409 0.328815 0.005349
0.343386 0.325772 0.002307
0.419130 0.322698 0.000000
0.495523 0.319598 0.000000
0.572479 0.316475 0.000000
0.649930 0.313332 0.000000
0.727828 0.310170 0.000000
0.806128 0.306993 0.000000
0.884798 0.303800 0.000000
0.963809 0.300593 0.000000
1.000000 0.297374 0.000000
1.000000 0.296035 0.000000
0.000000 0.410360 0.011659
0.000000 0.409870 0.011170
0.044783 0.407132 0.008431
0.115807 0.404249 0.005548
0.188614 0.401294 0.002594
0.262649 0.398290 0.000000
0.337626 0.395247 0.000000
0.413370 0.392173 0.000000
0.489763 0.389073 0.000000
0.566718 0.385950 0.000000
0.644170 0.382807 0.000000
0.722067 0.379645 0.000000
0.800368 0.376468 0.000000
0.879038 0.373275 0.000000
0.958048 0.370069 0.000000
1.000000 0.366849 0.000000
1.000000 0.365510 0.000000
0.000000 0.480430 0.005849
0.000000 0.479940 0.005360
0.038973 0.477202 0.002621
0.109997 0.474319 0.000000
0.182804 0.471365 0.000000
0.256839 0.468360 0.000000
0.331816 0.465317 0.000000
0.407560 0.462243 0.000000
0.483953 0.459143 0.000000
0.560908 0.456020 0.000000
0.638360 0.452877 0.000000
0.716257 0.449716 0.000000
0.794558 0.446538 0.000000
0.873228 0.443345 0.000000
0.952239 0.440139 0.000000
1.000000 0.436919 0.000000
1.000000 0.435580 0.000000
0.000000 0.551016 0.000000
0.000000 0.550526 0.000000
0.033121 0.547787 0.000000
0.104145 0.544905 0.000000
0.176952 0.541950 0.000000
0.250986 0.538946 0.000000
0.325963 0.535903 0.000000
0.401708 0.532829 0.000000
0.478101 0.529729 0.000000
0.555056 0.526606 0.000000
0.632508 0.523463 0.000000
0.710405 0.520301 0.000000
0.788706 0.517124 0.000000
0.867376 0.513931 0.000000
0.946386 0.510725 0.000000
1.000000 0.507505 0.000000
1.000000 0.506166 0.000000
0.000000 0.622057 0.000000
0.000000 0.621568 0.000000
0.027230 0.618829 0.000000
0.098254 0.615946 0.000000
0.171061 0.612992 0.000000
0.245096 0.609987 0.000000
0.320073 0.606944 0.000000
0.395817 0.603870 0.000000
0.472210 0.600770 0.000000
0.549166 0.597647 0.000000
0.626617 0.594504 0.000000
0.704515 0.591343 0.000000
0.782815 0.588165 0.000000
0.861485 0.584972 0.000000
0.940496 0.581766 0.000000
1.000000 0.578547 0.000000
1.000000 0.577207 0.000000
0.000000 0.693507 0.000000
0.000000 0.693017 0.000000
0.021306 0.690279 0.000000
0.092330 0.687396 0.000000
0.165137 0.684441 0.000000
0.239172 0.681437 0.000000
0.314149 0.678394 0.000000
0.389893 0.675320 0.000000
0.466286 0.672220 0.000000
0.543241 0.669097 0.000000
0.620693 0.665954 0.000000
0.698590 0.662792 0.000000
0.776891 0.659615 0.000000
0.855561 0.656422 0.000000
0.934572 0.653216 0.000000
1.000000 0.649996 0.000000
1.000000 0.648657 0.000000
0.000000 0.765327 0.000000
0.000000 0.764837 0.000000
0.015351 0.762098 0.000000
0.086375 0.759216 0.000000
0.159182 0.756261 0.000000
0.233217 0.753257 0.000000
0.308194 0.750214 0.000000
0.383938 0.747140 0.000000
0.460331 0.744040 0.000000
0.537287 0.740917 0.000000
0.614738 0.737774 0.000000
0.692636 0.734612 0.000000
0.770936 0.731435 0.000000
0.849606 0.728242 0.000000
0.928617 0.725036 0.000000
1.000000 0.721816 0.000000
1.000000 0.720477 0.000000
0.000000 0.837486 0.000000
0.000000 0.836996 0.000000
0.009369 0.834257 0.000000
0.080392 0.831375 0.000000
0.153199 0.828420 0.000000
0.227234 0.825416 0.000000
0.302211 0.822373 0.000000
0.377956 0.819299 0.000000
0.454348 0.816199 0.000000
0.531304 0.813076 0.000000
0.608755 0.809932 0.000000
0.686653 0.806771 0.000000
0.764953 0.803594 0.000000
0.843623 0.800401 0.000000
0.922634 0.797194 0.000000
1.000000 0.793975 0.000000
1.000000 0.792636 0.000000
0.000000 0.909957 0.000000
0.000000 0.909467 0.000000
0.003360 0.906728 0.000000
0.074384 0.903846 0.000000
0.147191 0.900891 0.000000
0.221225 0.897887 0.000000
0.296202 0.894844 0.000000
0.371947 0.891770 0.000000
0.448340 0.888670 0.000000
0.525295 0.885547 0.000000
0.602747 0.882403 0.000000
0.680644 0.879242 0.000000
0.758945 0.876065 0.000000
0.837615 0.872872 0.000000
0.916625 0.869665 0.000000
0.995952 0.866446 0.000000
1.000000 0.865107 0.000000
0.000000 0.982718 0.000000
0.000000 0.982228 0.000000
0.000000 0.979489 0.000000
0.068351 0.976607 0.000000
0.141158 0.973652 0.000000
0.215192 0.970647 0.000000
0.290169 0.967605 0.000000
0.365914 0.964531 0.000000
0.442307 0.961431 0.000000
0.519262 0.958308 0.000000
0.596714 0.955164 0.000000
0.674611 0.952003 0.000000
0.752912 0.948825 0.000000
0.831582 0.945633 0.000000
0.910592 0.942426 0.000000
0.989919 0.939207 0.000000
1.000000 0.937868 0.000000
0.000000 1.000000 0.000000
0.000000 1.000000 0.000000
0.000000 1.000000 0.000000
0.062295 1.000000 0.000000
0.135103 1.000000 0.000000
0.209137 1.000000 0.000000
0.284114 1.000000 0.000000
0.359859 1.000000 0.000000
0.436251 1.000000 0.000000
0.513207 1.000000 0.000000
0.590659 1.000000 0.000000
0.668556 1.000000 0.000000
0.746856 1.000000 0.000000
0.825526 1.000000 0.000000
0.904537 1.000000 0.000000
0.983863 1.000000 0.000000
1.000000 1.000000 0.000000
0.000000 0.000000 0.113007
0.010360 0.000000 0.112517
0.077849 0.000000 0.109778
0.148873 0.000000 0.106896
0.221680 0.000000 0.103941
0.295715 0.000000 0.100937
0.370692 0.000000 0.097894
0.446436 0.000000 0.094820
0.522829 0.000000 0.091720
0.599784 0.000000 0.088597
0.677236 0.000000 0.085453
0.755133 0.000000 0.082292
0.833434 0.000000 0.079115
0.912104 0.000000 0.075922
0.991115 0.000000 0.072715
1.000000 0.000000 0.069496
1.000000 0.000000 0.068157
0.000000 0.009362 0.112089
0.009443 0.008872 0.111599
0.076932 0.006133 0.108861
0.147956 0.003251 0.105978
0.220763 0.000296 0.103024
0.294797 0.000000 0.100019
0.369774 0.000000 0.096976
0.445519 0.000000 0.093902
0.521912 0.000000 0.090802
0.598867 0.000000 0.087679
0.676319 0.000000 0.084536
0.754216 0.000000 0.081375
0.832517 0.000000 0.078197
0.911187 0.000000 0.075004
0.990197 0.000000 0.071798
1.000000 0.000000 0.068579
1.000000 0.000000 0.067239
0.000000 0.071265 0.106957
0.004310 0.070775 0.106467
0.071799 0.068036 0.103728
0.142823 0.065154 0.100846
0.215630 0.062199 0.097891
0.289665 0.059195 0.094886
0.364642 0.056152 0.091844
0.440386 0.053078 0.088770
0.516779 0.049978 0.085669
0.593734 0.046855 0.082546
0.671186 0.043711 0.079403
0.749083 0.040550 0.076242
0.827384 0.037373 0.073064
0.906054 0.034180 0.069872
0.985064 0.030973 0.066665
1.000000 0.027754 0.063446
1.000000 0.026415 0.062107
0.000000 0.136410 0.101555
0.000000 0.135920 0.101065
0.066398 0.133182 0.098327
0.137422 0.130299 0.095444
0.210229 0.127345 0.092489
0.284263 0.124340 0.089485
0.359240 0.121297 0.086442
0.434985 0.118223 0.083368
0.511378 0.115123 0.080268
0.588333 0.112000 0.077145
0.665785 0.108857 0.074002
0.743682 0.105696 0.070841
0.821982 0.102518 0.067663
0.900653 0.099325 0.064470
0.979663 0.096119 0.061264
1.000000 0.092899 0.058044
1.000000 0.091560 0.056705
0.000000 0.203191 0.096018
0.000000 0.202702 0.095528
0.060861 0.199963 0.092789
0.131884 0.197080 0.089907
0.204692 0.194126 0.086952
0.278726 0.191121 0.083948
0.353703 0.188078 0.080905
0.429448 0.185004 0.077831
0.505841 0.181904 0.074731
0.582796 0.178781 0.071608
0.660248 0.175638 0.068465
0.738145 0.172477 0.065303
0.816445 0.169299 0.062126
0.895115 0.166106 0.058933
0.974126 0.162900 0.055727
1.000000 0.159681 0.052507
1.000000 0.158341 0.051168
0.000000 0.271098 0.090388
0.000000 0.270608 0.089898
0.055230 0.267870 0.087159
0.126254 0.264987 0.084277
0.199061 0.262033 0.081322
0.273096 0.259028 0.078318
0.348073 0.255985 0.075275
0.423817 0.252911 0.072201
0.500210 0.249811 0.069101
0.577165 0.246688 0.065978
0.654617 0.243545 0.062834
0.732514 0.240384 0.059673
0.810815 0.237206 0.056495
0.889485 0.234013 0.053303
0.968496 0.230807 0.050096
1.000000 0.227588 0.046877
1.000000 0.226248 0.045538
0.000000 0.339870 0.084686
0.000000 0.339380 0.084196
0.049528 0.336641 0.081457
0.120552 0.333759 0.078575
0.193359 0.330804 0.075620
0.267394 0.327799 0.072615
0.342371 0.324757 0.069573
0.418115 0.321683 0.066499
0.494508 0.318582 0.063399
0.571463 0.315459 0.060275
0.648915 0.312316 0.057132
0.726812 0.309155 0.053971
0.805113 0.305977 0.050793
0.883783 0.302785 0.047601
0.962793 0.299578 0.044394
1.000000 0.296359 0.041175
1.000000 0.295020 0.039836
0.000000 0.409345 0.078925
0.000000 0.408855 0.078435
0.043768 0.406116 0.075697
0.114792 0.403234 0.072814
0.187599 0.400279 0.069860
0.261633 0.397275 0.066855
0.336610 0.394232 0.063812
0.412355 0.391158 0.060738
0.488748 0.388058 0.057638
0.565703 0.384935 0.054515
0.643155 0.381791 0.051372
0.721052 0.378630 0.048211
0.799353 0.375453 0.045033
0.878023 0.372260 0.041840
0.957033 0.369053 0.038634
1.000000 0.365834 0.035414
1.000000 0.364495 0.034075
0.000000 0.479415 0.073115
0.000000 0.478925 0.072626
0.037958 0.476186 0.069887
0.108982 0.473304 0.067004
0.181789 0.470349 0.064050
0.255824 0.467345 0.061045
0.330801 0.464302 0.058002
0.406545 0.461228 0.054929
0.482938 0.458128 0.051828
0.559893 0.455005 0.048705
0.637345 0.451862 0.045562
0.715242 0.448700 0.042401
0.793543 0.445523 0.039223
0.872213 0.442330 0.036030
0.951223 0.439123 0.032824
1.000000 0.435904 0.029605
1.000000 0.434565 0.028265
0.000000 0.550001 0.067263
0.000000 0.549511 0.066773
0.032105 0.546772 0.064034
0.103129 0.543890 0.061152
0.175936 0.540935 0.058197
0.249971 0.537930 0.055193
0.324948 0.534888 0.052150
0.400692 0.531814 0.049076
0.477085 0.528714 0.045976
0.554041 0.525590 0.042853
0.631492 0.522447 0.039710
0.709390 0.519286 0.036548
0.787690 0.516108 0.033371
0.866360 0.512916 0.030178
0.945371 0.509709 0.026972
1.000000 0.506490 0.023752
1.000000 0.505151 0.022413
0.000000 0.621042 0.061373
0.000000 0.620552 0.060883
0.026215 0.617813 0.058144
0.097239 0.614931 0.055262
0.170046 0.611976 0.052307
0.244081 0.608972 0.049302
0.319058 0.605929 0.046260
0.394802 0.602855 0.043186
0.471195 0.599755 0.040086
0.548150 0.596632 0.036962
0.625602 0.593489 0.033819
0.703499 0.590327 0.030658
0.781800 0.587150 0.027480
0.860470 0.583957 0.024288
0.939480 0.580751 0.021081
1.000000 0.577531 0.017862
1.000000 0.576192 0.016523
0.000000 0.692492 0.055448
0.000000 0.692002 0.054959
0.020291 0.689263 0.052220
0.091315 0.686381 0.049338
0.164122 0.683426 0.046383
0.238157 0.680422 0.043378
0.313134 0.677379 0.040336
0.388878 0.674305 0.037262
0.465271 0.671205 0.034161
0.542226 0.668082 0.031038
0.619678 0.664938 0.027895
0.697575 0.661777 0.024734
0.775876 0.658600 0.021556
0.854546 0.655407 0.018364
0.933556 0.652200 0.015157
1.000000 0.648981 0.011938
1.000000 0.647642 0.010598
0.000000 0.764312 0.049494
0.000000 0.763822 0.049004
0.014336 0.761083 0.046265
0.085360 0.758201 0.043383
0.158167 0.755246 0.040428
0.232202 0.752242 0.037423
0.307179 0.749199 0.034381
0.382923 0.746125 0.031307
0.459316 0.743025 0.028207
0.536271 0.739902 0.025083
0.613723 0.736758 0.021940
0.691620 0.733597 0.018779
0.769921 0.730419 0.015601
0.848591 0.727227 0.012409
0.927601 0.724020 0.009202
1.000000 0.720801 0.005983
1.000000 0.719462 0.004644
0.000000 0.836470 0.043511
0.000000 0.835981 0.043021
0.008353 0.833242 0.040282
0.079377 0.830360 0.037400
0.152184 0.827405 0.034445
0.226219 0.824400 0.031441
0.301196 0.821358 0.028398
0.376940 0.818284 0.025324
0.453333 0.815183 0.022224
0.530288 0.812060 0.019101
0.607740 0.808917 0.015957
0.685637 0.805756 0.012796
0.763938 0.802578 0.009618
0.842608 0.799386 0.006426
0.921619 0.796179 0.003219
1.000000 0.792960 0.000000
1.000000 0.791620 0.000000
0.000000 0.908941 0.037502
0.000000 0.908452 0.037012
0.002344 0.905713 0.034273
0.073368 0.902831 0.031391
0.146175 0.899876 0.028436
0.220210 0.896871 0.025432
0.295187 0.893829 0.022389
0.370931 0.890755 0.019315
0.447324 0.887654 0.016215
0.524279 0.884531 0.013092
0.601731 0.881388 0.009949
0.679628 0.878227 0.006787
0.757929 0.875049 0.003610
0.836599 0.871857 0.000417
0.915610 0.868650 0.000000
0.994936 0.865431 0.000000
1.000000 0.864091 0.000000
0.000000 0.981702 0.031469
0.000000 0.981213 0.030979
0.000000 0.978474 0.028240
0.067335 0.975591 0.025358
0.140142 0.972637 0.022403
0.214177 0.969632 0.019399
0.289154 0.966589 0.016356
0.364899 0.963515 0.013282
0.441291 0.960415 0.010182
0.518247 0.957292 0.007059
0.595698 0.954149 0.003916
0.673596 0.950988 0.000754
0.751896 0.947810 0.000000
0.830566 0.944617 0.000000
0.909577 0.941411 0.000000
0.988903 0.938192 0.000000
1.000000 0.936852 0.000000
0.000000 1.000000 0.025414
0.000000 1.000000 0.024924
0.000000 1.000000 0.022185
0.061280 1.000000 0.019303
0.134087 1.000000 0.016348
0.208122 1.000000 0.013344
0.283099 1.000000 0.010301
0.358843 1.000000 0.007227
0.435236 1.000000 0.004127
0.512191 1.000000 0.001004
0.589643 1.000000 0.000000
0.667540 1.000000 0.000000
0.745841 1.000000 0.000000
0.824511 1.000000 0.000000
0.903522 1.000000 0.000000
0.982848 1.000000 0.000000
1.000000 1.000000 0.000000
0.000000 0.000000 0.180273
0.009345 0.000000 0.179783
0.076834 0.000000 0.177044
0.147858 0.000000 0.174162
0.220665 0.000000 0.171207
0.294700 0.000000 0.168203
0.369677 0.000000 0.165160
0.445421 0.000000 0.162086
0.521814 0.000000 0.158986
0.598769 0.000000 0.155863
0.676221 0.000000 0.152719
0.754118 0.000000 0.149558
0.832419 0.000000 0.146380
0.911089 0.000000 0.143188
0.990099 0.000000 0.139981
1.000000 0.000000 0.136762
1.000000 0.000000 0.135423
0.000000 0.008346 0.179355
