app/src/main/assets/luts/hollywood.cube
# ApexStudio filter: hollywood
LUT_3D_SIZE 5
DOMAIN_MIN 0.0 0.0 0.0
DOMAIN_MAX 1.0 1.0 1.0
0.000000 0.000000 0.000000
0.223386 0.000000 0.000000
0.524535 0.000000 0.000000
0.835140 0.000000 0.000000
1.000000 0.000000 0.000000
0.000000 0.204897 0.000000
0.206397 0.195831 0.000000
0.507546 0.183610 0.000000
0.818151 0.171005 0.000000
1.000000 0.160047 0.000000
0.000000 0.481121 0.000000
0.183495 0.472055 0.000000
0.484644 0.459833 0.000000
0.795248 0.447228 0.000000
1.000000 0.436271 0.000000
0.000000 0.766017 0.000000
0.159873 0.756952 0.000000
0.461022 0.744730 0.000000
0.771627 0.732125 0.000000
1.000000 0.721167 0.000000
0.000000 1.000000 0.000000
0.135793 1.000000 0.000000
0.436942 1.000000 0.000000
0.747547 1.000000 0.000000
1.000000 1.000000 0.000000
0.000000 0.000000 0.247539
0.219650 0.000000 0.238473
0.520799 0.000000 0.226252
0.831404 0.000000 0.213646
1.000000 0.000000 0.202689
0.000000 0.201161 0.230550
0.202661 0.192095 0.221484
0.503810 0.179874 0.209263
0.814415 0.167268 0.196658
1.000000 0.156311 0.185700
0.000000 0.477384 0.207647
0.179758 0.468319 0.198582
0.480907 0.456097 0.186360
0.791512 0.443492 0.173755
1.000000 0.432534 0.162797
0.000000 0.762281 0.184025
0.156136 0.753216 0.174960
0.457285 0.740994 0.162738
0.767890 0.728389 0.150133
1.000000 0.717431 0.139175
0.000000 1.000000 0.159946
0.132057 1.000000 0.150880
0.433206 1.000000 0.138659
0.743810 1.000000 0.126053
1.000000 1.000000 0.115096
0.000000 0.000000 0.516602
0.215588 0.000000 0.507537
0.516737 0.000000 0.495315
0.827342 0.000000 0.482710
1.000000 0.000000 0.471752
0.000000 0.197099 0.499614
0.198600 0.188034 0.490548
0.499749 0.175812 0.478327
0.810354 0.163207 0.465721
1.000000 0.152249 0.454764
0.000000 0.473323 0.476711
0.175697 0.464257 0.467645
0.476846 0.452036 0.455424
0.787451 0.439431 0.442819
1.000000 0.428473 0.431861
0.000000 0.758220 0.453089
0.152075 0.749154 0.444024
0.453224 0.736933 0.431802
0.763829 0.724328 0.419197
1.000000 0.713370 0.408239
0.000000 1.000000 0.429009
0.127995 1.000000 0.419944
0.429144 1.000000 0.407722
0.739749 1.000000 0.395117
1.000000 1.000000 0.384159
0.000000 0.000000 0.785666
0.211527 0.000000 0.776601
0.512676 0.000000 0.764379
0.823281 0.000000 0.751774
1.000000 0.000000 0.740816
0.000000 0.193038 0.768677
0.194538 0.183972 0.759612
0.495687 0.171751 0.747390
0.806292 0.159146 0.734785
1.000000 0.148188 0.723827
0.000000 0.469262 0.745775
0.171636 0.460196 0.736709
0.472785 0.447975 0.724488
0.783390 0.435369 0.711883
1.000000 0.424412 0.700925
0.000000 0.754159 0.722153
0.148014 0.745093 0.713087
0.449163 0.732872 0.700866
0.759768 0.720266 0.688261
1.000000 0.709309 0.677303
0.000000 1.000000 0.698073
0.123934 1.000000 0.689007
0.425083 1.000000 0.676786
0.735688 1.000000 0.664181
1.000000 0.999730 0.653223
0.000000 0.000000 1.000000
0.207466 0.000000 1.000000
0.508615 0.000000 1.000000
0.819220 0.000000 1.000000
1.000000 0.000000 1.000000
0.000000 0.188977 1.000000
0.190477 0.179911 1.000000
0.491626 0.167690 1.000000
0.802231 0.155085 1.000000
1.000000 0.144127 0.992891
0.000000 0.465200 1.000000
0.167575 0.456135 1.000000
0.468723 0.443913 0.993551
0.779328 0.431308 0.980946
1.000000 0.420350 0.969989
0.000000 0.750097 0.991217
0.143953 0.741032 0.982151
0.445102 0.728810 0.969930
0.755707 0.716205 0.957324
1.000000 0.705247 0.946367
0.000000 1.000000 0.967137
0.119873 1.000000 0.958071
0.421022 1.000000 0.945850
0.731627 1.000000 0.933245
1.000000 0.995669 0.922287
