app/src/main/assets/luts/hyper_clarity.cube
# ApexStudio filter: hyper_clarity
LUT_3D_SIZE 9
DOMAIN_MIN 0.0 0.0 0.0
DOMAIN_MAX 1.0 1.0 1.0
0.000000 0.000000 0.000000
0.156250 0.000000 0.000000
0.312500 0.000000 0.000000
0.468750 0.000000 0.000000
0.625000 0.000000 0.000000
0.781250 0.000000 0.000000
0.937500 0.000000 0.000000
1.000000 0.000000 0.000000
1.000000 0.000000 0.000000
0.000000 0.156250 0.000000
0.156250 0.156250 0.000000
0.312500 0.156250 0.000000
0.468750 0.156250 0.000000
0.625000 0.156250 0.000000
0.781250 0.156250 0.000000
0.937500 0.156250 0.000000
1.000000 0.156250 0.000000
1.000000 0.156250 0.000000
0.000000 0.312500 0.000000
0.156250 0.312500 0.000000
0.312500 0.312500 0.000000
0.468750 0.312500 0.000000
0.625000 0.312500 0.000000
0.781250 0.312500 0.000000
0.937500 0.312500 0.000000
1.000000 0.312500 0.000000
1.000000 0.312500 0.000000
0.000000 0.468750 0.000000
0.156250 0.468750 0.000000
0.312500 0.468750 0.000000
0.468750 0.468750 0.000000
0.625000 0.468750 0.000000
0.781250 0.468750 0.000000
0.937500 0.468750 0.000000
1.000000 0.468750 0.000000
1.000000 0.468750 0.000000
0.000000 0.625000 0.000000
0.156250 0.625000 0.000000
0.312500 0.625000 0.000000
0.468750 0.625000 0.000000
0.625000 0.625000 0.000000
0.781250 0.625000 0.000000
0.937500 0.625000 0.000000
1.000000 0.625000 0.000000
1.000000 0.625000 0.000000
0.000000 0.781250 0.000000
0.156250 0.781250 0.000000
0.312500 0.781250 0.000000
0.468750 0.781250 0.000000
0.625000 0.781250 0.000000
0.781250 0.781250 0.000000
0.937500 0.781250 0.000000
1.000000 0.781250 0.000000
1.000000 0.781250 0.000000
0.000000 0.937500 0.000000
0.156250 0.937500 0.000000
0.312500 0.937500 0.000000
0.468750 0.937500 0.000000
0.625000 0.937500 0.000000
0.781250 0.937500 0.000000
0.937500 0.937500 0.000000
1.000000 0.937500 0.000000
1.000000 0.937500 0.000000
0.000000 1.000000 0.000000
0.156250 1.000000 0.000000
0.312500 1.000000 0.000000
0.468750 1.000000 0.000000
0.625000 1.000000 0.000000
0.781250 1.000000 0.000000
0.937500 1.000000 0.000000
1.000000 1.000000 0.000000
1.000000 1.000000 0.000000
0.000000 1.000000 0.000000
0.156250 1.000000 0.000000
0.312500 1.000000 0.000000
0.468750 1.000000 0.000000
0.625000 1.000000 0.000000
0.781250 1.000000 0.000000
0.937500 1.000000 0.000000
1.000000 1.000000 0.000000
1.000000 1.000000 0.000000
0.000000 0.000000 0.156250
0.156250 0.000000 0.156250
0.312500 0.000000 0.156250
0.468750 0.000000 0.156250
0.625000 0.000000 0.156250
0.781250 0.000000 0.156250
0.937500 0.000000 0.156250
1.000000 0.000000 0.156250
1.000000 0.000000 0.156250
0.000000 0.156250 0.156250
0.156250 0.156250 0.156250
0.312500 0.156250 0.156250
0.468750 0.156250 0.156250
0.625000 0.156250 0.156250
0.781250 0.156250 0.156250
0.937500 0.156250 0.156250
1.000000 0.156250 0.156250
1.000000 0.156250 0.156250
0.000000 0.312500 0.156250
0.156250 0.312500 0.156250
0.312500 0.312500 0.156250
0.468750 0.312500 0.156250
0.625000 0.312500 0.156250
0.781250 0.312500 0.156250
0.937500 0.312500 0.156250
1.000000 0.312500 0.156250
1.000000 0.312500 0.156250
0.000000 0.468750 0.156250
0.156250 0.468750 0.156250
0.312500 0.468750 0.156250
0.468750 0.468750 0.156250
0.625000 0.468750 0.156250
0.781250 0.468750 0.156250
0.937500 0.468750 0.156250
1.000000 0.468750 0.156250
1.000000 0.468750 0.156250
0.000000 0.625000 0.156250
0.156250 0.625000 0.156250
0.312500 0.625000 0.156250
0.468750 0.625000 0.156250
0.625000 0.625000 0.156250
0.781250 0.625000 0.156250
0.937500 0.625000 0.156250
1.000000 0.625000 0.156250
1.000000 0.625000 0.156250
0.000000 0.781250 0.156250
0.156250 0.781250 0.156250
0.312500 0.781250 0.156250
0.468750 0.781250 0.156250
0.625000 0.781250 0.156250
0.781250 0.781250 0.156250
0.937500 0.781250 0.156250
1.000000 0.781250 0.156250
1.000000 0.781250 0.156250
0.000000 0.937500 0.156250
0.156250 0.937500 0.156250
0.312500 0.937500 0.156250
0.468750 0.937500 0.156250
0.625000 0.937500 0.156250
0.781250 0.937500 0.156250
0.937500 0.937500 0.156250
1.000000 0.937500 0.156250
1.000000 0.937500 0.156250
0.000000 1.000000 0.156250
0.156250 1.000000 0.156250
0.312500 1.000000 0.156250
0.468750 1.000000 0.156250
0.625000 1.000000 0.156250
0.781250 1.000000 0.156250
0.937500 1.000000 0.156250
1.000000 1.000000 0.156250
1.000000 1.000000 0.156250
0.000000 1.000000 0.156250
0.156250 1.000000 0.156250
0.312500 1.000000 0.156250
0.468750 1.000000 0.156250
0.625000 1.000000 0.156250
0.781250 1.000000 0.156250
0.937500 1.000000 0.156250
1.000000 1.000000 0.156250
1.000000 1.000000 0.156250
0.000000 0.000000 0.312500
0.156250 0.000000 0.312500
0.312500 0.000000 0.312500
0.468750 0.000000 0.312500
0.625000 0.000000 0.312500
0.781250 0.000000 0.312500
0.937500 0.000000 0.312500
1.000000 0.000000 0.312500
1.000000 0.000000 0.312500
0.000000 0.156250 0.312500
0.156250 0.156250 0.312500
0.312500 0.156250 0.312500
0.468750 0.156250 0.312500
0.625000 0.156250 0.312500
0.781250 0.156250 0.312500
0.937500 0.156250 0.312500
1.000000 0.156250 0.312500
1.000000 0.156250 0.312500
0.000000 0.312500 0.312500
0.156250 0.312500 0.312500
0.312500 0.312500 0.312500
0.468750 0.312500 0.312500
0.625000 0.312500 0.312500
0.781250 0.312500 0.312500
0.937500 0.312500 0.312500
1.000000 0.312500 0.312500
1.000000 0.312500 0.312500
0.000000 0.468750 0.312500
0.156250 0.468750 0.312500
0.312500 0.468750 0.312500
0.468750 0.468750 0.312500
0.625000 0.468750 0.312500
0.781250 0.468750 0.312500
0.937500 0.468750 0.312500
1.000000 0.468750 0.312500
1.000000 0.468750 0.312500
0.000000 0.625000 0.312500
0.156250 0.625000 0.312500
0.312500 0.625000 0.312500
0.468750 0.625000 0.312500
0.625000 0.625000 0.312500
0.781250 0.625000 0.312500
0.937500 0.625000 0.312500
1.000000 0.625000 0.312500
1.000000 0.625000 0.312500
0.000000 0.781250 0.312500
0.156250 0.781250 0.312500
0.312500 0.781250 0.312500
0.468750 0.781250 0.312500
0.625000 0.781250 0.312500
0.781250 0.781250 0.312500
0.937500 0.781250 0.312500
1.000000 0.781250 0.312500
1.000000 0.781250 0.312500
0.000000 0.937500 0.312500
0.156250 0.937500 0.312500
0.312500 0.937500 0.312500
0.468750 0.937500 0.312500
0.625000 0.937500 0.312500
0.781250 0.937500 0.312500
0.937500 0.937500 0.312500
1.000000 0.937500 0.312500
1.000000 0.937500 0.312500
0.000000 1.000000 0.312500
0.156250 1.000000 0.312500
0.312500 1.000000 0.312500
0.468750 1.000000 0.312500
0.625000 1.000000 0.312500
0.781250 1.000000 0.312500
0.937500 1.000000 0.312500
1.000000 1.000000 0.312500
1.000000 1.000000 0.312500
0.000000 1.000000 0.312500
0.156250 1.000000 0.312500
0.312500 1.000000 0.312500
0.468750 1.000000 0.312500
0.625000 1.000000 0.312500
0.781250 1.000000 0.312500
0.937500 1.000000 0.312500
1.000000 1.000000 0.312500
1.000000 1.000000 0.312500
0.000000 0.000000 0.468750
0.156250 0.000000 0.468750
0.312500 0.000000 0.468750
0.468750 0.000000 0.468750
0.625000 0.000000 0.468750
0.781250 0.000000 0.468750
0.937500 0.000000 0.468750
1.000000 0.000000 0.468750
1.000000 0.000000 0.468750
0.000000 0.156250 0.468750
0.156250 0.156250 0.468750
0.312500 0.156250 0.468750
0.468750 0.156250 0.468750
0.625000 0.156250 0.468750
0.781250 0.156250 0.468750
0.937500 0.156250 0.468750
1.000000 0.156250 0.468750
1.000000 0.156250 0.468750
0.000000 0.312500 0.468750
0.156250 0.312500 0.468750
0.312500 0.312500 0.468750
0.468750 0.312500 0.468750
0.625000 0.312500 0.468750
0.781250 0.312500 0.468750
0.937500 0.312500 0.468750
1.000000 0.312500 0.468750
1.000000 0.312500 0.468750
0.000000 0.468750 0.468750
0.156250 0.468750 0.468750
0.312500 0.468750 0.468750
0.468750 0.468750 0.468750
0.625000 0.468750 0.468750
0.781250 0.468750 0.468750
0.937500 0.468750 0.468750
1.000000 0.468750 0.468750
1.000000 0.468750 0.468750
0.000000 0.625000 0.468750
0.156250 0.625000 0.468750
0.312500 0.625000 0.468750
0.468750 0.625000 0.468750
0.625000 0.625000 0.468750
0.781250 0.625000 0.468750
0.937500 0.625000 0.468750
1.000000 0.625000 0.468750
1.000000 0.625000 0.468750
0.000000 0.781250 0.468750
0.156250 0.781250 0.468750
0.312500 0.781250 0.468750
0.468750 0.781250 0.468750
0.625000 0.781250 0.468750
0.781250 0.781250 0.468750
0.937500 0.781250 0.468750
1.000000 0.781250 0.468750
1.000000 0.781250 0.468750
0.000000 0.937500 0.468750
0.156250 0.937500 0.468750
0.312500 0.937500 0.468750
0.468750 0.937500 0.468750
0.625000 0.937500 0.468750
0.781250 0.937500 0.468750
0.937500 0.937500 0.468750
1.000000 0.937500 0.468750
1.000000 0.937500 0.468750
0.000000 1.000000 0.468750
0.156250 1.000000 0.468750
0.312500 1.000000 0.468750
0.468750 1.000000 0.468750
0.625000 1.000000 0.468750
0.781250 1.000000 0.468750
0.937500 1.000000 0.468750
1.000000 1.000000 0.468750
1.000000 1.000000 0.468750
0.000000 1.000000 0.468750
0.156250 1.000000 0.468750
0.312500 1.000000 0.468750
0.468750 1.000000 0.468750
0.625000 1.000000 0.468750
0.781250 1.000000 0.468750
0.937500 1.000000 0.468750
1.000000 1.000000 0.468750
1.000000 1.000000 0.468750
0.000000 0.000000 0.625000
0.156250 0.000000 0.625000
0.312500 0.000000 0.625000
0.468750 0.000000 0.625000
0.625000 0.000000 0.625000
0.781250 0.000000 0.625000
0.937500 0.000000 0.625000
1.000000 0.000000 0.625000
1.000000 0.000000 0.625000
0.000000 0.156250 0.625000
0.156250 0.156250 0.625000
0.312500 0.156250 0.625000
0.468750 0.156250 0.625000
0.625000 0.156250 0.625000
0.781250 0.156250 0.625000
0.937500 0.156250 0.625000
1.000000 0.156250 0.625000
1.000000 0.156250 0.625000
0.000000 0.312500 0.625000
0.156250 0.312500 0.625000
0.312500 0.312500 0.625000
0.468750 0.312500 0.625000
0.625000 0.312500 0.625000
0.781250 0.312500 0.625000
0.937500 0.312500 0.625000
1.000000 0.312500 0.625000
1.000000 0.312500 0.625000
0.000000 0.468750 0.625000
0.156250 0.468750 0.625000
0.312500 0.468750 0.625000
0.468750 0.468750 0.625000
0.625000 0.468750 0.625000
0.781250 0.468750 0.625000
0.937500 0.468750 0.625000
1.000000 0.468750 0.625000
1.000000 0.468750 0.625000
0.000000 0.625000 0.625000
0.156250 0.625000 0.625000
0.312500 0.625000 0.625000
0.468750 0.625000 0.625000
0.625000 0.625000 0.625000
0.781250 0.625000 0.625000
0.937500 0.625000 0.625000
1.000000 0.625000 0.625000
1.000000 0.625000 0.625000
0.000000 0.781250 0.625000
0.156250 0.781250 0.625000
0.312500 0.781250 0.625000
0.468750 0.781250 0.625000
0.625000 0.781250 0.625000
0.781250 0.781250 0.625000
0.937500 0.781250 0.625000
1.000000 0.781250 0.625000
1.000000 0.781250 0.625000
0.000000 0.937500 0.625000
0.156250 0.937500 0.625000
0.312500 0.937500 0.625000
0.468750 0.937500 0.625000
0.625000 0.937500 0.625000
0.781250 0.937500 0.625000
0.937500 0.937500 0.625000
1.000000 0.937500 0.625000
1.000000 0.937500 0.625000
0.000000 1.000000 0.625000
0.156250 1.000000 0.625000
0.312500 1.000000 0.625000
0.468750 1.000000 0.625000
0.625000 1.000000 0.625000
0.781250 1.000000 0.625000
0.937500 1.000000 0.625000
1.000000 1.000000 0.625000
1.000000 1.000000 0.625000
0.000000 1.000000 0.625000
0.156250 1.000000 0.625000
0.312500 1.000000 0.625000
0.468750 1.000000 0.625000
0.625000 1.000000 0.625000
0.781250 1.000000 0.625000
0.937500 1.000000 0.625000
1.000000 1.000000 0.625000
1.000000 1.000000 0.625000
0.000000 0.000000 0.781250
0.156250 0.000000 0.781250
0.312500 0.000000 0.781250
0.468750 0.000000 0.781250
0.625000 0.000000 0.781250
0.781250 0.000000 0.781250
0.937500 0.000000 0.781250
1.000000 0.000000 0.781250
1.000000 0.000000 0.781250
0.000000 0.156250 0.781250
0.156250 0.156250 0.781250
0.312500 0.156250 0.781250
0.468750 0.156250 0.781250
0.625000 0.156250 0.781250
0.781250 0.156250 0.781250
0.937500 0.156250 0.781250
1.000000 0.156250 0.781250
1.000000 0.156250 0.781250
0.000000 0.312500 0.781250
0.156250 0.312500 0.781250
0.312500 0.312500 0.781250
0.468750 0.312500 0.781250
0.625000 0.312500 0.781250
0.781250 0.312500 0.781250
0.937500 0.312500 0.781250
1.000000 0.312500 0.781250
1.000000 0.312500 0.781250
0.000000 0.468750 0.781250
0.156250 0.468750 0.781250
0.312500 0.468750 0.781250
0.468750 0.468750 0.781250
0.625000 0.468750 0.781250
0.781250 0.468750 0.781250
0.937500 0.468750 0.781250
1.000000 0.468750 0.781250
1.000000 0.468750 0.781250
0.000000 0.625000 0.781250
0.156250 0.625000 0.781250
0.312500 0.625000 0.781250
0.468750 0.625000 0.781250
0.625000 0.625000 0.781250
0.781250 0.625000 0.781250
0.937500 0.625000 0.781250
1.000000 0.625000 0.781250
1.000000 0.625000 0.781250
0.000000 0.781250 0.781250
0.156250 0.781250 0.781250
0.312500 0.781250 0.781250
0.468750 0.781250 0.781250
0.625000 0.781250 0.781250
0.781250 0.781250 0.781250
0.937500 0.781250 0.781250
1.000000 0.781250 0.781250
1.000000 0.781250 0.781250
0.000000 0.937500 0.781250
0.156250 0.937500 0.781250
0.312500 0.937500 0.781250
0.468750 0.937500 0.781250
0.625000 0.937500 0.781250
0.781250 0.937500 0.781250
0.937500 0.937500 0.781250
1.000000 0.937500 0.781250
1.000000 0.937500 0.781250
0.000000 1.000000 0.781250
0.156250 1.000000 0.781250
0.312500 1.000000 0.781250
0.468750 1.000000 0.781250
0.625000 1.000000 0.781250
0.781250 1.000000 0.781250
0.937500 1.000000 0.781250
1.000000 1.000000 0.781250
1.000000 1.000000 0.781250
0.000000 1.000000 0.781250
0.156250 1.000000 0.781250
0.312500 1.000000 0.781250
0.468750 1.000000 0.781250
0.625000 1.000000 0.781250
0.781250 1.000000 0.781250
0.937500 1.000000 0.781250
1.000000 1.000000 0.781250
1.000000 1.000000 0.781250
0.000000 0.000000 0.937500
0.156250 0.000000 0.937500
0.312500 0.000000 0.937500
0.468750 0.000000 0.937500
0.625000 0.000000 0.937500
0.781250 0.000000 0.937500
0.937500 0.000000 0.937500
1.000000 0.000000 0.937500
1.000000 0.000000 0.937500
0.000000 0.156250 0.937500
0.156250 0.156250 0.937500
0.312500 0.156250 0.937500
0.468750 0.156250 0.937500
0.625000 0.156250 0.937500
0.781250 0.156250 0.937500
0.937500 0.156250 0.937500
1.000000 0.156250 0.937500
1.000000 0.156250 0.937500
0.000000 0.312500 0.937500
0.156250 0.312500 0.937500
0.312500 0.312500 0.937500
0.468750 0.312500 0.937500
0.625000 0.312500 0.937500
0.781250 0.312500 0.937500
0.937500 0.312500 0.937500
1.000000 0.312500 0.937500
1.000000 0.312500 0.937500
0.000000 0.468750 0.937500
0.156250 0.468750 0.937500
0.312500 0.468750 0.937500
0.468750 0.468750 0.937500
0.625000 0.468750 0.937500
0.781250 0.468750 0.937500
0.937500 0.468750 0.937500
1.000000 0.468750 0.937500
1.000000 0.468750 0.937500
0.000000 0.625000 0.937500
0.156250 0.625000 0.937500
0.312500 0.625000 0.937500
0.468750 0.625000 0.937500
0.625000 0.625000 0.937500
0.781250 0.625000 0.937500
0.937500 0.625000 0.937500
1.000000 0.625000 0.937500
1.000000 0.625000 0.937500
0.000000 0.781250 0.937500
0.156250 0.781250 0.937500
0.312500 0.781250 0.937500
0.468750 0.781250 0.937500
0.625000 0.781250 0.937500
0.781250 0.781250 0.937500
0.937500 0.781250 0.937500
1.000000 0.781250 0.937500
1.000000 0.781250 0.937500
0.000000 0.937500 0.937500
0.156250 0.937500 0.937500
0.312500 0.937500 0.937500
0.468750 0.937500 0.937500
0.625000 0.937500 0.937500
0.781250 0.937500 0.937500
0.937500 0.937500 0.937500
1.000000 0.937500 0.937500
1.000000 0.937500 0.937500
0.000000 1.000000 0.937500
0.156250 1.000000 0.937500
0.312500 1.000000 0.937500
0.468750 1.000000 0.937500
0.625000 1.000000 0.937500
0.781250 1.000000 0.937500
0.937500 1.000000 0.937500
1.000000 1.000000 0.937500
1.000000 1.000000 0.937500
0.000000 1.000000 0.937500
0.156250 1.000000 0.937500
0.312500 1.000000 0.937500
0.468750 1.000000 0.937500
0.625000 1.000000 0.937500
0.781250 1.000000 0.937500
0.937500 1.000000 0.937500
1.000000 1.000000 0.937500
1.000000 1.000000 0.937500
0.000000 0.000000 1.000000
0.156250 0.000000 1.000000
0.312500 0.000000 1.000000
0.468750 0.000000 1.000000
0.625000 0.000000 1.000000
0.781250 0.000000 1.000000
0.937500 0.000000 1.000000
1.000000 0.000000 1.000000
1.000000 0.000000 1.000000
0.000000 0.156250 1.000000
0.156250 0.156250 1.000000
0.312500 0.156250 1.000000
0.468750 0.156250 1.000000
0.625000 0.156250 1.000000
0.781250 0.156250 1.000000
0.937500 0.156250 1.000000
1.000000 0.156250 1.000000
1.000000 0.156250 1.000000
0.000000 0.312500 1.000000
0.156250 0.312500 1.000000
0.312500 0.312500 1.000000
0.468750 0.312500 1.000000
0.625000 0.312500 1.000000
0.781250 0.312500 1.000000
0.937500 0.312500 1.000000
1.000000 0.312500 1.000000
1.000000 0.312500 1.000000
0.000000 0.468750 1.000000
0.156250 0.468750 1.000000
0.312500 0.468750 1.000000
0.468750 0.468750 1.000000
0.625000 0.468750 1.000000
0.781250 0.468750 1.000000
0.937500 0.468750 1.000000
1.000000 0.468750 1.000000
1.000000 0.468750 1.000000
0.000000 0.625000 1.000000
0.156250 0.625000 1.000000
0.312500 0.625000 1.000000
0.468750 0.625000 1.000000
0.625000 0.625000 1.000000
0.781250 0.625000 1.000000
0.937500 0.625000 1.000000
1.000000 0.625000 1.000000
1.000000 0.625000 1.000000
0.000000 0.781250 1.000000
0.156250 0.781250 1.000000
0.312500 0.781250 1.000000
0.468750 0.781250 1.000000
0.625000 0.781250 1.000000
0.781250 0.781250 1.000000
0.937500 0.781250 1.000000
1.000000 0.781250 1.000000
1.000000 0.781250 1.000000
0.000000 0.937500 1.000000
0.156250 0.937500 1.000000
0.312500 0.937500 1.000000
0.468750 0.937500 1.000000
0.625000 0.937500 1.000000
0.781250 0.937500 1.000000
0.937500 0.937500 1.000000
1.000000 0.937500 1.000000
1.000000 0.937500 1.000000
0.000000 1.000000 1.000000
0.156250 1.000000 1.000000
0.312500 1.000000 1.000000
0.468750 1.000000 1.000000
0.625000 1.000000 1.000000
0.781250 1.000000 1.000000
0.937500 1.000000 1.000000
1.000000 1.000000 1.000000
1.000000 1.000000 1.000000
0.000000 1.000000 1.000000
0.156250 1.000000 1.000000
0.312500 1.000000 1.000000
0.468750 1.000000 1.000000
0.625000 1.000000 1.000000
0.781250 1.000000 1.000000
0.937500 1.000000 1.000000
1.000000 1.000000 1.000000
1.000000 1.000000 1.000000
0.000000 0.000000 1.000000
0.156250 0.000000 1.000000
0.312500 0.000000 1.000000
0.468750 0.000000 1.000000
0.625000 0.000000 1.000000
0.781250 0.000000 1.000000
0.937500 0.000000 1.000000
1.000000 0.000000 1.000000
1.000000 0.000000 1.000000
0.000000 0.156250 1.000000
0.156250 0.156250 1.000000
0.312500 0.156250 1.000000
0.468750 0.156250 1.000000
0.625000 0.156250 1.000000
0.781250 0.156250 1.000000
0.937500 0.156250 1.000000
1.000000 0.156250 1.000000
1.000000 0.156250 1.000000
0.000000 0.312500 1.000000
0.156250 0.312500 1.000000
0.312500 0.312500 1.000000
0.468750 0.312500 1.000000
0.625000 0.312500 1.000000
0.781250 0.312500 1.000000
0.937500 0.312500 1.000000
1.000000 0.312500 1.000000
1.000000 0.312500 1.000000
0.000000 0.468750 1.000000
0.156250 0.468750 1.000000
0.312500 0.468750 1.000000
0.468750 0.468750 1.000000
0.625000 0.468750 1.000000
0.781250 0.468750 1.000000
0.937500 0.468750 1.000000
1.000000 0.468750 1.000000
1.000000 0.468750 1.000000
0.000000 0.625000 1.000000
0.156250 0.625000 1.000000
0.312500 0.625000 1.000000
0.468750 0.625000 1.000000
0.625000 0.625000 1.000000
0.781250 0.625000 1.000000
0.937500 0.625000 1.000000
1.000000 0.625000 1.000000
1.000000 0.625000 1.000000
0.000000 0.781250 1.000000
0.156250 0.781250 1.000000
0.312500 0.781250 1.000000
0.468750 0.781250 1.000000
0.625000 0.781250 1.000000
0.781250 0.781250 1.000000
0.937500 0.781250 1.000000
1.000000 0.781250 1.000000
1.000000 0.781250 1.000000
0.000000 0.937500 1.000000
0.156250 0.937500 1.000000
0.312500 0.937500 1.000000
0.468750 0.937500 1.000000
0.625000 0.937500 1.000000
0.781250 0.937500 1.000000
0.937500 0.937500 1.000000
1.000000 0.937500 1.000000
1.000000 0.937500 1.000000
0.000000 1.000000 1.000000
0.156250 1.000000 1.000000
0.312500 1.000000 1.000000
0.468750 1.000000 1.000000
0.625000 1.000000 1.000000
0.781250 1.000000 1.000000
0.937500 1.000000 1.000000
1.000000 1.000000 1.000000
1.000000 1.000000 1.000000
0.000000 1.000000 1.000000
0.156250 1.000000 1.000000
0.312500 1.000000 1.000000
0.468750 1.000000 1.000000
0.625000 1.000000 1.000000
0.781250 1.000000 1.000000
0.937500 1.000000 1.000000
1.000000 1.000000 1.000000
1.000000 1.000000 1.000000
