app/src/main/assets/luts/hyper_clarity.cube
# ApexStudio filter: hyper_clarity
LUT_3D_SIZE 17
DOMAIN_MIN 0.0 0.0 0.0
DOMAIN_MAX 1.0 1.0 1.0
0.000000 0.000000 0.000000
0.078125 0.000000 0.000000
0.156250 0.000000 0.000000
0.234375 0.000000 0.000000
0.312500 0.000000 0.000000
0.390625 0.000000 0.000000
0.468750 0.000000 0.000000
0.546875 0.000000 0.000000
0.625000 0.000000 0.000000
0.703125 0.000000 0.000000
0.781250 0.000000 0.000000
0.859375 0.000000 0.000000
0.937500 0.000000 0.000000
1.000000 0.000000 0.000000
1.000000 0.000000 0.000000
1.000000 0.000000 0.000000
1.000000 0.000000 0.000000
0.000000 0.078125 0.000000
0.078125 0.078125 0.000000
0.156250 0.078125 0.000000
0.234375 0.078125 0.000000
0.312500 0.078125 0.000000
0.390625 0.078125 0.000000
0.468750 0.078125 0.000000
0.546875 0.078125 0.000000
0.625000 0.078125 0.000000
0.703125 0.078125 0.000000
0.781250 0.078125 0.000000
0.859375 0.078125 0.000000
0.937500 0.078125 0.000000
1.000000 0.078125 0.000000
1.000000 0.078125 0.000000
1.000000 0.078125 0.000000
1.000000 0.078125 0.000000
0.000000 0.156250 0.000000
0.078125 0.156250 0.000000
0.156250 0.156250 0.000000
0.234375 0.156250 0.000000
0.312500 0.156250 0.000000
0.390625 0.156250 0.000000
0.468750 0.156250 0.000000
0.546875 0.156250 0.000000
0.625000 0.156250 0.000000
0.703125 0.156250 0.000000
0.781250 0.156250 0.000000
0.859375 0.156250 0.000000
0.937500 0.156250 0.000000
1.000000 0.156250 0.000000
1.000000 0.156250 0.000000
1.000000 0.156250 0.000000
1.000000 0.156250 0.000000
0.000000 0.234375 0.000000
0.078125 0.234375 0.000000
0.156250 0.234375 0.000000
0.234375 0.234375 0.000000
0.312500 0.234375 0.000000
0.390625 0.234375 0.000000
0.468750 0.234375 0.000000
0.546875 0.234375 0.000000
0.625000 0.234375 0.000000
0.703125 0.234375 0.000000
0.781250 0.234375 0.000000
0.859375 0.234375 0.000000
0.937500 0.234375 0.000000
1.000000 0.234375 0.000000
1.000000 0.234375 0.000000
1.000000 0.234375 0.000000
1.000000 0.234375 0.000000
0.000000 0.312500 0.000000
0.078125 0.312500 0.000000
0.156250 0.312500 0.000000
0.234375 0.312500 0.000000
0.312500 0.312500 0.000000
0.390625 0.312500 0.000000
0.468750 0.312500 0.000000
0.546875 0.312500 0.000000
0.625000 0.312500 0.000000
0.703125 0.312500 0.000000
0.781250 0.312500 0.000000
0.859375 0.312500 0.000000
0.937500 0.312500 0.000000
1.000000 0.312500 0.000000
1.000000 0.312500 0.000000
1.000000 0.312500 0.000000
1.000000 0.312500 0.000000
0.000000 0.390625 0.000000
0.078125 0.390625 0.000000
0.156250 0.390625 0.000000
0.234375 0.390625 0.000000
0.312500 0.390625 0.000000
0.390625 0.390625 0.000000
0.468750 0.390625 0.000000
0.546875 0.390625 0.000000
0.625000 0.390625 0.000000
0.703125 0.390625 0.000000
0.781250 0.390625 0.000000
0.859375 0.390625 0.000000
0.937500 0.390625 0.000000
1.000000 0.390625 0.000000
1.000000 0.390625 0.000000
1.000000 0.390625 0.000000
1.000000 0.390625 0.000000
0.000000 0.468750 0.000000
0.078125 0.468750 0.000000
0.156250 0.468750 0.000000
0.234375 0.468750 0.000000
0.312500 0.468750 0.000000
0.390625 0.468750 0.000000
0.468750 0.468750 0.000000
0.546875 0.468750 0.000000
0.625000 0.468750 0.000000
0.703125 0.468750 0.000000
0.781250 0.468750 0.000000
0.859375 0.468750 0.000000
0.937500 0.468750 0.000000
1.000000 0.468750 0.000000
1.000000 0.468750 0.000000
1.000000 0.468750 0.000000
1.000000 0.468750 0.000000
0.000000 0.546875 0.000000
0.078125 0.546875 0.000000
0.156250 0.546875 0.000000
0.234375 0.546875 0.000000
0.312500 0.546875 0.000000
0.390625 0.546875 0.000000
0.468750 0.546875 0.000000
0.546875 0.546875 0.000000
0.625000 0.546875 0.000000
0.703125 0.546875 0.000000
0.781250 0.546875 0.000000
0.859375 0.546875 0.000000
0.937500 0.546875 0.000000
1.000000 0.546875 0.000000
1.000000 0.546875 0.000000
1.000000 0.546875 0.000000
1.000000 0.546875 0.000000
0.000000 0.625000 0.000000
0.078125 0.625000 0.000000
0.156250 0.625000 0.000000
0.234375 0.625000 0.000000
0.312500 0.625000 0.000000
0.390625 0.625000 0.000000
0.468750 0.625000 0.000000
0.546875 0.625000 0.000000
0.625000 0.625000 0.000000
0.703125 0.625000 0.000000
0.781250 0.625000 0.000000
0.859375 0.625000 0.000000
0.937500 0.625000 0.000000
1.000000 0.625000 0.000000
1.000000 0.625000 0.000000
1.000000 0.625000 0.000000
1.000000 0.625000 0.000000
0.000000 0.703125 0.000000
0.078125 0.703125 0.000000
0.156250 0.703125 0.000000
0.234375 0.703125 0.000000
0.312500 0.703125 0.000000
0.390625 0.703125 0.000000
0.468750 0.703125 0.000000
0.546875 0.703125 0.000000
0.625000 0.703125 0.000000
0.703125 0.703125 0.000000
0.781250 0.703125 0.000000
0.859375 0.703125 0.000000
0.937500 0.703125 0.000000
1.000000 0.703125 0.000000
1.000000 0.703125 0.000000
1.000000 0.703125 0.000000
1.000000 0.703125 0.000000
0.000000 0.781250 0.000000
0.078125 0.781250 0.000000
0.156250 0.781250 0.000000
0.234375 0.781250 0.000000
0.312500 0.781250 0.000000
0.390625 0.781250 0.000000
0.468750 0.781250 0.000000
0.546875 0.781250 0.000000
0.625000 0.781250 0.000000
0.703125 0.781250 0.000000
0.781250 0.781250 0.000000
0.859375 0.781250 0.000000
0.937500 0.781250 0.000000
1.000000 0.781250 0.000000
1.000000 0.781250 0.000000
1.000000 0.781250 0.000000
1.000000 0.781250 0.000000
0.000000 0.859375 0.000000
0.078125 0.859375 0.000000
0.156250 0.859375 0.000000
0.234375 0.859375 0.000000
0.312500 0.859375 0.000000
0.390625 0.859375 0.000000
0.468750 0.859375 0.000000
0.546875 0.859375 0.000000
0.625000 0.859375 0.000000
0.703125 0.859375 0.000000
0.781250 0.859375 0.000000
0.859375 0.859375 0.000000
0.937500 0.859375 0.000000
1.000000 0.859375 0.000000
1.000000 0.859375 0.000000
1.000000 0.859375 0.000000
1.000000 0.859375 0.000000
0.000000 0.937500 0.000000
0.078125 0.937500 0.000000
0.156250 0.937500 0.000000
0.234375 0.937500 0.000000
0.312500 0.937500 0.000000
0.390625 0.937500 0.000000
0.468750 0.937500 0.000000
0.546875 0.937500 0.000000
0.625000 0.937500 0.000000
0.703125 0.937500 0.000000
0.781250 0.937500 0.000000
0.859375 0.937500 0.000000
0.937500 0.937500 0.000000
1.000000 0.937500 0.000000
1.000000 0.937500 0.000000
1.000000 0.937500 0.000000
1.000000 0.937500 0.000000
0.000000 1.000000 0.000000
0.078125 1.000000 0.000000
0.156250 1.000000 0.000000
0.234375 1.000000 0.000000
0.312500 1.000000 0.000000
0.390625 1.000000 0.000000
0.468750 1.000000 0.000000
0.546875 1.000000 0.000000
0.625000 1.000000 0.000000
0.703125 1.000000 0.000000
0.781250 1.000000 0.000000
0.859375 1.000000 0.000000
0.937500 1.000000 0.000000
1.000000 1.000000 0.000000
1.000000 1.000000 0.000000
1.000000 1.000000 0.000000
1.000000 1.000000 0.000000
0.000000 1.000000 0.000000
0.078125 1.000000 0.000000
0.156250 1.000000 0.000000
0.234375 1.000000 0.000000
0.312500 1.000000 0.000000
0.390625 1.000000 0.000000
0.468750 1.000000 0.000000
0.546875 1.000000 0.000000
0.625000 1.000000 0.000000
0.703125 1.000000 0.000000
0.781250 1.000000 0.000000
0.859375 1.000000 0.000000
0.937500 1.000000 0.000000
1.000000 1.000000 0.000000
1.000000 1.000000 0.000000
1.000000 1.000000 0.000000
1.000000 1.000000 0.000000
0.000000 1.000000 0.000000
0.078125 1.000000 0.000000
0.156250 1.000000 0.000000
0.234375 1.000000 0.000000
0.312500 1.000000 0.000000
0.390625 1.000000 0.000000
0.468750 1.000000 0.000000
0.546875 1.000000 0.000000
0.625000 1.000000 0.000000
0.703125 1.000000 0.000000
0.781250 1.000000 0.000000
0.859375 1.000000 0.000000
0.937500 1.000000 0.000000
1.000000 1.000000 0.000000
1.000000 1.000000 0.000000
1.000000 1.000000 0.000000
1.000000 1.000000 0.000000
0.000000 1.000000 0.000000
0.078125 1.000000 0.000000
0.156250 1.000000 0.000000
0.234375 1.000000 0.000000
0.312500 1.000000 0.000000
0.390625 1.000000 0.000000
0.468750 1.000000 0.000000
0.546875 1.000000 0.000000
0.625000 1.000000 0.000000
0.703125 1.000000 0.000000
0.781250 1.000000 0.000000
0.859375 1.000000 0.000000
0.937500 1.000000 0.000000
1.000000 1.000000 0.000000
1.000000 1.000000 0.000000
1.000000 1.000000 0.000000
1.000000 1.000000 0.000000
0.000000 0.000000 0.078125
0.078125 0.000000 0.078125
0.156250 0.000000 0.078125
0.234375 0.000000 0.078125
0.312500 0.000000 0.078125
0.390625 0.000000 0.078125
0.468750 0.000000 0.078125
0.546875 0.000000 0.078125
0.625000 0.000000 0.078125
0.703125 0.000000 0.078125
0.781250 0.000000 0.078125
0.859375 0.000000 0.078125
0.937500 0.000000 0.078125
1.000000 0.000000 0.078125
1.000000 0.000000 0.078125
1.000000 0.000000 0.078125
1.000000 0.000000 0.078125
0.000000 0.078125 0.078125
0.078125 0.078125 0.078125
0.156250 0.078125 0.078125
0.234375 0.078125 0.078125
0.312500 0.078125 0.078125
0.390625 0.078125 0.078125
0.468750 0.078125 0.078125
0.546875 0.078125 0.078125
0.625000 0.078125 0.078125
0.703125 0.078125 0.078125
0.781250 0.078125 0.078125
0.859375 0.078125 0.078125
0.937500 0.078125 0.078125
1.000000 0.078125 0.078125
1.000000 0.078125 0.078125
1.000000 0.078125 0.078125
1.000000 0.078125 0.078125
0.000000 0.156250 0.078125
0.078125 0.156250 0.078125
0.156250 0.156250 0.078125
0.234375 0.156250 0.078125
0.312500 0.156250 0.078125
0.390625 0.156250 0.078125
0.468750 0.156250 0.078125
0.546875 0.156250 0.078125
0.625000 0.156250 0.078125
0.703125 0.156250 0.078125
0.781250 0.156250 0.078125
0.859375 0.156250 0.078125
0.937500 0.156250 0.078125
1.000000 0.156250 0.078125
1.000000 0.156250 0.078125
1.000000 0.156250 0.078125
1.000000 0.156250 0.078125
0.000000 0.234375 0.078125
0.078125 0.234375 0.078125
0.156250 0.234375 0.078125
0.234375 0.234375 0.078125
0.312500 0.234375 0.078125
0.390625 0.234375 0.078125
0.468750 0.234375 0.078125
0.546875 0.234375 0.078125
0.625000 0.234375 0.078125
0.703125 0.234375 0.078125
0.781250 0.234375 0.078125
0.859375 0.234375 0.078125
0.937500 0.234375 0.078125
1.000000 0.234375 0.078125
1.000000 0.234375 0.078125
1.000000 0.234375 0.078125
1.000000 0.234375 0.078125
0.000000 0.312500 0.078125
0.078125 0.312500 0.078125
0.156250 0.312500 0.078125
0.234375 0.312500 0.078125
0.312500 0.312500 0.078125
0.390625 0.312500 0.078125
0.468750 0.312500 0.078125
0.546875 0.312500 0.078125
0.625000 0.312500 0.078125
0.703125 0.312500 0.078125
0.781250 0.312500 0.078125
0.859375 0.312500 0.078125
0.937500 0.312500 0.078125
1.000000 0.312500 0.078125
1.000000 0.312500 0.078125
1.000000 0.312500 0.078125
1.000000 0.312500 0.078125
0.000000 0.390625 0.078125
0.078125 0.390625 0.078125
0.156250 0.390625 0.078125
0.234375 0.390625 0.078125
0.312500 0.390625 0.078125
0.390625 0.390625 0.078125
0.468750 0.390625 0.078125
0.546875 0.390625 0.078125
0.625000 0.390625 0.078125
0.703125 0.390625 0.078125
0.781250 0.390625 0.078125
0.859375 0.390625 0.078125
0.937500 0.390625 0.078125
1.000000 0.390625 0.078125
1.000000 0.390625 0.078125
1.000000 0.390625 0.078125
1.000000 0.390625 0.078125
0.000000 0.468750 0.078125
0.078125 0.468750 0.078125
0.156250 0.468750 0.078125
0.234375 0.468750 0.078125
0.312500 0.468750 0.078125
0.390625 0.468750 0.078125
0.468750 0.468750 0.078125
0.546875 0.468750 0.078125
0.625000 0.468750 0.078125
0.703125 0.468750 0.078125
0.781250 0.468750 0.078125
0.859375 0.468750 0.078125
0.937500 0.468750 0.078125
1.000000 0.468750 0.078125
1.000000 0.468750 0.078125
1.000000 0.468750 0.078125
1.000000 0.468750 0.078125
0.000000 0.546875 0.078125
0.078125 0.546875 0.078125
0.156250 0.546875 0.078125
0.234375 0.546875 0.078125
0.312500 0.546875 0.078125
0.390625 0.546875 0.078125
0.468750 0.546875 0.078125
0.546875 0.546875 0.078125
0.625000 0.546875 0.078125
0.703125 0.546875 0.078125
0.781250 0.546875 0.078125
0.859375 0.546875 0.078125
0.937500 0.546875 0.078125
1.000000 0.546875 0.078125
1.000000 0.546875 0.078125
1.000000 0.546875 0.078125
1.000000 0.546875 0.078125
0.000000 0.625000 0.078125
0.078125 0.625000 0.078125
0.156250 0.625000 0.078125
0.234375 0.625000 0.078125
0.312500 0.625000 0.078125
0.390625 0.625000 0.078125
0.468750 0.625000 0.078125
0.546875 0.625000 0.078125
0.625000 0.625000 0.078125
0.703125 0.625000 0.078125
0.781250 0.625000 0.078125
0.859375 0.625000 0.078125
0.937500 0.625000 0.078125
1.000000 0.625000 0.078125
1.000000 0.625000 0.078125
1.000000 0.625000 0.078125
1.000000 0.625000 0.078125
0.000000 0.703125 0.078125
0.078125 0.703125 0.078125
0.156250 0.703125 0.078125
0.234375 0.703125 0.078125
0.312500 0.703125 0.078125
0.390625 0.703125 0.078125
0.468750 0.703125 0.078125
0.546875 0.703125 0.078125
0.625000 0.703125 0.078125
0.703125 0.703125 0.078125
0.781250 0.703125 0.078125
0.859375 0.703125 0.078125
0.937500 0.703125 0.078125
1.000000 0.703125 0.078125
1.000000 0.703125 0.078125
1.000000 0.703125 0.078125
1.000000 0.703125 0.078125
0.000000 0.781250 0.078125
0.078125 0.781250 0.078125
0.156250 0.781250 0.078125
0.234375 0.781250 0.078125
0.312500 0.781250 0.078125
0.390625 0.781250 0.078125
0.468750 0.781250 0.078125
0.546875 0.781250 0.078125
0.625000 0.781250 0.078125
0.703125 0.781250 0.078125
0.781250 0.781250 0.078125
0.859375 0.781250 0.078125
0.937500 0.781250 0.078125
1.000000 0.781250 0.078125
1.000000 0.781250 0.078125
1.000000 0.781250 0.078125
1.000000 0.781250 0.078125
0.000000 0.859375 0.078125
0.078125 0.859375 0.078125
0.156250 0.859375 0.078125
0.234375 0.859375 0.078125
0.312500 0.859375 0.078125
0.390625 0.859375 0.078125
0.468750 0.859375 0.078125
0.546875 0.859375 0.078125
0.625000 0.859375 0.078125
0.703125 0.859375 0.078125
0.781250 0.859375 0.078125
0.859375 0.859375 0.078125
0.937500 0.859375 0.078125
1.000000 0.859375 0.078125
1.000000 0.859375 0.078125
1.000000 0.859375 0.078125
1.000000 0.859375 0.078125
0.000000 0.937500 0.078125
0.078125 0.937500 0.078125
0.156250 0.937500 0.078125
0.234375 0.937500 0.078125
0.312500 0.937500 0.078125
0.390625 0.937500 0.078125
0.468750 0.937500 0.078125
0.546875 0.937500 0.078125
0.625000 0.937500 0.078125
0.703125 0.937500 0.078125
0.781250 0.937500 0.078125
0.859375 0.937500 0.078125
0.937500 0.937500 0.078125
1.000000 0.937500 0.078125
1.000000 0.937500 0.078125
1.000000 0.937500 0.078125
1.000000 0.937500 0.078125
0.000000 1.000000 0.078125
0.078125 1.000000 0.078125
0.156250 1.000000 0.078125
0.234375 1.000000 0.078125
0.312500 1.000000 0.078125
0.390625 1.000000 0.078125
0.468750 1.000000 0.078125
0.546875 1.000000 0.078125
0.625000 1.000000 0.078125
0.703125 1.000000 0.078125
0.781250 1.000000 0.078125
0.859375 1.000000 0.078125
0.937500 1.000000 0.078125
1.000000 1.000000 0.078125
1.000000 1.000000 0.078125
1.000000 1.000000 0.078125
1.000000 1.000000 0.078125
0.000000 1.000000 0.078125
0.078125 1.000000 0.078125
0.156250 1.000000 0.078125
0.234375 1.000000 0.078125
0.312500 1.000000 0.078125
0.390625 1.000000 0.078125
0.468750 1.000000 0.078125
0.546875 1.000000 0.078125
0.625000 1.000000 0.078125
0.703125 1.000000 0.078125
0.781250 1.000000 0.078125
0.859375 1.000000 0.078125
0.937500 1.000000 0.078125
1.000000 1.000000 0.078125
1.000000 1.000000 0.078125
1.000000 1.000000 0.078125
1.000000 1.000000 0.078125
0.000000 1.000000 0.078125
0.078125 1.000000 0.078125
0.156250 1.000000 0.078125
0.234375 1.000000 0.078125
0.312500 1.000000 0.078125
0.390625 1.000000 0.078125
0.468750 1.000000 0.078125
0.546875 1.000000 0.078125
0.625000 1.000000 0.078125
0.703125 1.000000 0.078125
0.781250 1.000000 0.078125
0.859375 1.000000 0.078125
0.937500 1.000000 0.078125
1.000000 1.000000 0.078125
1.000000 1.000000 0.078125
1.000000 1.000000 0.078125
1.000000 1.000000 0.078125
0.000000 1.000000 0.078125
0.078125 1.000000 0.078125
0.156250 1.000000 0.078125
0.234375 1.000000 0.078125
0.312500 1.000000 0.078125
0.390625 1.000000 0.078125
0.468750 1.000000 0.078125
0.546875 1.000000 0.078125
0.625000 1.000000 0.078125
0.703125 1.000000 0.078125
0.781250 1.000000 0.078125
0.859375 1.000000 0.078125
0.937500 1.000000 0.078125
1.000000 1.000000 0.078125
1.000000 1.000000 0.078125
1.000000 1.000000 0.078125
1.000000 1.000000 0.078125
0.000000 0.000000 0.156250
0.078125 0.000000 0.156250
0.156250 0.000000 0.156250
0.234375 0.000000 0.156250
0.312500 0.000000 0.156250
0.390625 0.000000 0.156250
0.468750 0.000000 0.156250
0.546875 0.000000 0.156250
0.625000 0.000000 0.156250
0.703125 0.000000 0.156250
0.781250 0.000000 0.156250
0.859375 0.000000 0.156250
0.937500 0.000000 0.156250
1.000000 0.000000 0.156250
1.000000 0.000000 0.156250
1.000000 0.000000 0.156250
1.000000 0.000000 0.156250
0.000000 0.078125 0.156250
0.078125 0.078125 0.156250
0.156250 0.078125 0.156250
0.234375 0.078125 0.156250
0.312500 0.078125 0.156250
0.390625 0.078125 0.156250
0.468750 0.078125 0.156250
0.546875 0.078125 0.156250
0.625000 0.078125 0.156250
0.703125 0.078125 0.156250
0.781250 0.078125 0.156250
0.859375 0.078125 0.156250
0.937500 0.078125 0.156250
1.000000 0.078125 0.156250
1.000000 0.078125 0.156250
1.000000 0.078125 0.156250
1.000000 0.078125 0.156250
0.000000 0.156250 0.156250
0.078125 0.156250 0.156250
0.156250 0.156250 0.156250
0.234375 0.156250 0.156250
0.312500 0.156250 0.156250
0.390625 0.156250 0.156250
0.468750 0.156250 0.156250
0.546875 0.156250 0.156250
0.625000 0.156250 0.156250
0.703125 0.156250 0.156250
0.781250 0.156250 0.156250
0.859375 0.156250 0.156250
0.937500 0.156250 0.156250
1.000000 0.156250 0.156250
1.000000 0.156250 0.156250
1.000000 0.156250 0.156250
1.000000 0.156250 0.156250
0.000000 0.234375 0.156250
0.078125 0.234375 0.156250
0.156250 0.234375 0.156250
0.234375 0.234375 0.156250
0.312500 0.234375 0.156250
0.390625 0.234375 0.156250
0.468750 0.234375 0.156250
0.546875 0.234375 0.156250
0.625000 0.234375 0.156250
0.703125 0.234375 0.156250
0.781250 0.234375 0.156250
0.859375 0.234375 0.156250
0.937500 0.234375 0.156250
1.000000 0.234375 0.156250
1.000000 0.234375 0.156250
1.000000 0.234375 0.156250
1.000000 0.234375 0.156250
0.000000 0.312500 0.156250
0.078125 0.312500 0.156250
0.156250 0.312500 0.156250
0.234375 0.312500 0.156250
0.312500 0.312500 0.156250
0.390625 0.312500 0.156250
0.468750 0.312500 0.156250
0.546875 0.312500 0.156250
0.625000 0.312500 0.156250
0.703125 0.312500 0.156250
0.781250 0.312500 0.156250
0.859375 0.312500 0.156250
0.937500 0.312500 0.156250
1.000000 0.312500 0.156250
1.000000 0.312500 0.156250
1.000000 0.312500 0.156250
1.000000 0.312500 0.156250
0.000000 0.390625 0.156250
0.078125 0.390625 0.156250
0.156250 0.390625 0.156250
0.234375 0.390625 0.156250
0.312500 0.390625 0.156250
0.390625 0.390625 0.156250
0.468750 0.390625 0.156250
0.546875 0.390625 0.156250
0.625000 0.390625 0.156250
0.703125 0.390625 0.156250
0.781250 0.390625 0.156250
0.859375 0.390625 0.156250
0.937500 0.390625 0.156250
1.000000 0.390625 0.156250
1.000000 0.390625 0.156250
1.000000 0.390625 0.156250
1.000000 0.390625 0.156250
0.000000 0.468750 0.156250
0.078125 0.468750 0.156250
0.156250 0.468750 0.156250
0.234375 0.468750 0.156250
0.312500 0.468750 0.156250
0.390625 0.468750 0.156250
0.468750 0.468750 0.156250
0.546875 0.468750 0.156250
0.625000 0.468750 0.156250
0.703125 0.468750 0.156250
0.781250 0.468750 0.156250
0.859375 0.468750 0.156250
0.937500 0.468750 0.156250
1.000000 0.468750 0.156250
1.000000 0.468750 0.156250
1.000000 0.468750 0.156250
1.000000 0.468750 0.156250
0.000000 0.546875 0.156250
0.078125 0.546875 0.156250
0.156250 0.546875 0.156250
0.234375 0.546875 0.156250
0.312500 0.546875 0.156250
0.390625 0.546875 0.156250
0.468750 0.546875 0.156250
0.546875 0.546875 0.156250
0.625000 0.546875 0.156250
0.703125 0.546875 0.156250
0.781250 0.546875 0.156250
0.859375 0.546875 0.156250
0.937500 0.546875 0.156250
1.000000 0.546875 0.156250
1.000000 0.546875 0.156250
1.000000 0.546875 0.156250
1.000000 0.546875 0.156250
0.000000 0.625000 0.156250
0.078125 0.625000 0.156250
0.156250 0.625000 0.156250
0.234375 0.625000 0.156250
0.312500 0.625000 0.156250
0.390625 0.625000 0.156250
0.468750 0.625000 0.156250
0.546875 0.625000 0.156250
0.625000 0.625000 0.156250
0.703125 0.625000 0.156250
0.781250 0.625000 0.156250
0.859375 0.625000 0.156250
0.937500 0.625000 0.156250
1.000000 0.625000 0.156250
1.000000 0.625000 0.156250
1.000000 0.625000 0.156250
1.000000 0.625000 0.156250
0.000000 0.703125 0.156250
0.078125 0.703125 0.156250
0.156250 0.703125 0.156250
0.234375 0.703125 0.156250
0.312500 0.703125 0.156250
0.390625 0.703125 0.156250
0.468750 0.703125 0.156250
0.546875 0.703125 0.156250
0.625000 0.703125 0.156250
0.703125 0.703125 0.156250
0.781250 0.703125 0.156250
0.859375 0.703125 0.156250
0.937500 0.703125 0.156250
1.000000 0.703125 0.156250
1.000000 0.703125 0.156250
1.000000 0.703125 0.156250
1.000000 0.703125 0.156250
0.000000 0.781250 0.156250
0.078125 0.781250 0.156250
0.156250 0.781250 0.156250
0.234375 0.781250 0.156250
0.312500 0.781250 0.156250
0.390625 0.781250 0.156250
0.468750 0.781250 0.156250
0.546875 0.781250 0.156250
0.625000 0.781250 0.156250
0.703125 0.781250 0.156250
0.781250 0.781250 0.156250
0.859375 0.781250 0.156250
0.937500 0.781250 0.156250
1.000000 0.781250 0.156250
1.000000 0.781250 0.156250
1.000000 0.781250 0.156250
1.000000 0.781250 0.156250
0.000000 0.859375 0.156250
0.078125 0.859375 0.156250
0.156250 0.859375 0.156250
0.234375 0.859375 0.156250
0.312500 0.859375 0.156250
0.390625 0.859375 0.156250
0.468750 0.859375 0.156250
0.546875 0.859375 0.156250
0.625000 0.859375 0.156250
0.703125 0.859375 0.156250
0.781250 0.859375 0.156250
0.859375 0.859375 0.156250
0.937500 0.859375 0.156250
1.000000 0.859375 0.156250
1.000000 0.859375 0.156250
1.000000 0.859375 0.156250
1.000000 0.859375 0.156250
0.000000 0.937500 0.156250
0.078125 0.937500 0.156250
0.156250 0.937500 0.156250
0.234375 0.937500 0.156250
0.312500 0.937500 0.156250
0.390625 0.937500 0.156250
0.468750 0.937500 0.156250
0.546875 0.937500 0.156250
0.625000 0.937500 0.156250
0.703125 0.937500 0.156250
0.781250 0.937500 0.156250
0.859375 0.937500 0.156250
0.937500 0.937500 0.156250
1.000000 0.937500 0.156250
1.000000 0.937500 0.156250
1.000000 0.937500 0.156250
1.000000 0.937500 0.156250
0.000000 1.000000 0.156250
0.078125 1.000000 0.156250
0.156250 1.000000 0.156250
0.234375 1.000000 0.156250
0.312500 1.000000 0.156250
0.390625 1.000000 0.156250
0.468750 1.000000 0.156250
0.546875 1.000000 0.156250
0.625000 1.000000 0.156250
0.703125 1.000000 0.156250
0.781250 1.000000 0.156250
0.859375 1.000000 0.156250
0.937500 1.000000 0.156250
1.000000 1.000000 0.156250
1.000000 1.000000 0.156250
1.000000 1.000000 0.156250
1.000000 1.000000 0.156250
0.000000 1.000000 0.156250
0.078125 1.000000 0.156250
0.156250 1.000000 0.156250
0.234375 1.000000 0.156250
0.312500 1.000000 0.156250
0.390625 1.000000 0.156250
0.468750 1.000000 0.156250
0.546875 1.000000 0.156250
0.625000 1.000000 0.156250
0.703125 1.000000 0.156250
0.781250 1.000000 0.156250
0.859375 1.000000 0.156250
0.937500 1.000000 0.156250
1.000000 1.000000 0.156250
1.000000 1.000000 0.156250
1.000000 1.000000 0.156250
1.000000 1.000000 0.156250
0.000000 1.000000 0.156250
0.078125 1.000000 0.156250
0.156250 1.000000 0.156250
0.234375 1.000000 0.156250
0.312500 1.000000 0.156250
0.390625 1.000000 0.156250
0.468750 1.000000 0.156250
0.546875 1.000000 0.156250
0.625000 1.000000 0.156250
0.703125 1.000000 0.156250
0.781250 1.000000 0.156250
0.859375 1.000000 0.156250
0.937500 1.000000 0.156250
1.000000 1.000000 0.156250
1.000000 1.000000 0.156250
1.000000 1.000000 0.156250
1.000000 1.000000 0.156250
0.000000 1.000000 0.156250
0.078125 1.000000 0.156250
0.156250 1.000000 0.156250
0.234375 1.000000 0.156250
0.312500 1.000000 0.156250
0.390625 1.000000 0.156250
0.468750 1.000000 0.156250
0.546875 1.000000 0.156250
0.625000 1.000000 0.156250
0.703125 1.000000 0.156250
0.781250 1.000000 0.156250
0.859375 1.000000 0.156250
0.937500 1.000000 0.156250
1.000000 1.000000 0.156250
1.000000 1.000000 0.156250
1.000000 1.000000 0.156250
1.000000 1.000000 0.156250
0.000000 0.000000 0.234375
0.078125 0.000000 0.234375
0.156250 0.000000 0.234375
0.234375 0.000000 0.234375
0.312500 0.000000 0.234375
0.390625 0.000000 0.234375
0.468750 0.000000 0.234375
0.546875 0.000000 0.234375
0.625000 0.000000 0.234375
0.703125 0.000000 0.234375
0.781250 0.000000 0.234375
0.859375 0.000000 0.234375
0.937500 0.000000 0.234375
1.000000 0.000000 0.234375
1.000000 0.000000 0.234375
1.000000 0.000000 0.234375
1.000000 0.000000 0.234375
0.000000 0.078125 0.234375
