app/src/main/assets/luts/indie_disposable.cube
# ApexStudio filter: indie_disposable
LUT_3D_SIZE 9
DOMAIN_MIN 0.0 0.0 0.0
DOMAIN_MAX 1.0 1.0 1.0
0.060000 0.040000 0.000000
0.203750 0.040000 0.000000
0.347500 0.040000 0.000000
0.491250 0.040000 0.000000
0.635000 0.040000 0.000000
0.778750 0.040000 0.000000
0.922500 0.040000 0.000000
1.000000 0.040000 0.000000
1.000000 0.040000 0.000000
0.060000 0.171250 0.000000
0.203750 0.171250 0.000000
0.347500 0.171250 0.000000
0.491250 0.171250 0.000000
0.635000 0.171250 0.000000
0.778750 0.171250 0.000000
0.922500 0.171250 0.000000
1.000000 0.171250 0.000000
1.000000 0.171250 0.000000
0.060000 0.302500 0.000000
0.203750 0.302500 0.000000
0.347500 0.302500 0.000000
0.491250 0.302500 0.000000
0.635000 0.302500 0.000000
0.778750 0.302500 0.000000
0.922500 0.302500 0.000000
1.000000 0.302500 0.000000
1.000000 0.302500 0.000000
0.060000 0.433750 0.000000
0.203750 0.433750 0.000000
0.347500 0.433750 0.000000
0.491250 0.433750 0.000000
0.635000 0.433750 0.000000
0.778750 0.433750 0.000000
0.922500 0.433750 0.000000
1.000000 0.433750 0.000000
1.000000 0.433750 0.000000
0.060000 0.565000 0.000000
0.203750 0.565000 0.000000
0.347500 0.565000 0.000000
0.491250 0.565000 0.000000
0.635000 0.565000 0.000000
0.778750 0.565000 0.000000
0.922500 0.565000 0.000000
1.000000 0.565000 0.000000
1.000000 0.565000 0.000000
0.060000 0.696250 0.000000
0.203750 0.696250 0.000000
0.347500 0.696250 0.000000
0.491250 0.696250 0.000000
0.635000 0.696250 0.000000
0.778750 0.696250 0.000000
0.922500 0.696250 0.000000
1.000000 0.696250 0.000000
1.000000 0.696250 0.000000
0.060000 0.827500 0.000000
0.203750 0.827500 0.000000
0.347500 0.827500 0.000000
0.491250 0.827500 0.000000
0.635000 0.827500 0.000000
0.778750 0.827500 0.000000
0.922500 0.827500 0.000000
1.000000 0.827500 0.000000
1.000000 0.827500 0.000000
0.060000 0.958750 0.000000
0.203750 0.958750 0.000000
0.347500 0.958750 0.000000
0.491250 0.958750 0.000000
0.635000 0.958750 0.000000
0.778750 0.958750 0.000000
0.922500 0.958750 0.000000
1.000000 0.958750 0.000000
1.000000 0.958750 0.000000
0.060000 1.000000 0.000000
0.203750 1.000000 0.000000
0.347500 1.000000 0.000000
0.491250 1.000000 0.000000
0.635000 1.000000 0.000000
0.778750 1.000000 0.000000
0.922500 1.000000 0.000000
1.000000 1.000000 0.000000
1.000000 1.000000 0.000000
0.060000 0.040000 0.082500
0.203750 0.040000 0.082500
0.347500 0.040000 0.082500
0.491250 0.040000 0.082500
0.635000 0.040000 0.082500
0.778750 0.040000 0.082500
0.922500 0.040000 0.082500
1.000000 0.040000 0.082500
1.000000 0.040000 0.082500
0.060000 0.171250 0.082500
0.203750 0.171250 0.082500
0.347500 0.171250 0.082500
0.491250 0.171250 0.082500
0.635000 0.171250 0.082500
0.778750 0.171250 0.082500
0.922500 0.171250 0.082500
1.000000 0.171250 0.082500
1.000000 0.171250 0.082500
0.060000 0.302500 0.082500
0.203750 0.302500 0.082500
0.347500 0.302500 0.082500
0.491250 0.302500 0.082500
0.635000 0.302500 0.082500
0.778750 0.302500 0.082500
0.922500 0.302500 0.082500
1.000000 0.302500 0.082500
1.000000 0.302500 0.082500
0.060000 0.433750 0.082500
0.203750 0.433750 0.082500
0.347500 0.433750 0.082500
0.491250 0.433750 0.082500
0.635000 0.433750 0.082500
0.778750 0.433750 0.082500
0.922500 0.433750 0.082500
1.000000 0.433750 0.082500
1.000000 0.433750 0.082500
0.060000 0.565000 0.082500
0.203750 0.565000 0.082500
0.347500 0.565000 0.082500
0.491250 0.565000 0.082500
0.635000 0.565000 0.082500
0.778750 0.565000 0.082500
0.922500 0.565000 0.082500
1.000000 0.565000 0.082500
1.000000 0.565000 0.082500
0.060000 0.696250 0.082500
0.203750 0.696250 0.082500
0.347500 0.696250 0.082500
0.491250 0.696250 0.082500
0.635000 0.696250 0.082500
0.778750 0.696250 0.082500
0.922500 0.696250 0.082500
1.000000 0.696250 0.082500
1.000000 0.696250 0.082500
0.060000 0.827500 0.082500
0.203750 0.827500 0.082500
0.347500 0.827500 0.082500
0.491250 0.827500 0.082500
0.635000 0.827500 0.082500
0.778750 0.827500 0.082500
0.922500 0.827500 0.082500
1.000000 0.827500 0.082500
1.000000 0.827500 0.082500
0.060000 0.958750 0.082500
0.203750 0.958750 0.082500
0.347500 0.958750 0.082500
0.491250 0.958750 0.082500
0.635000 0.958750 0.082500
0.778750 0.958750 0.082500
0.922500 0.958750 0.082500
1.000000 0.958750 0.082500
1.000000 0.958750 0.082500
0.060000 1.000000 0.082500
0.203750 1.000000 0.082500
0.347500 1.000000 0.082500
0.491250 1.000000 0.082500
0.635000 1.000000 0.082500
0.778750 1.000000 0.082500
0.922500 1.000000 0.082500
1.000000 1.000000 0.082500
1.000000 1.000000 0.082500
0.060000 0.040000 0.195000
0.203750 0.040000 0.195000
0.347500 0.040000 0.195000
0.491250 0.040000 0.195000
0.635000 0.040000 0.195000
0.778750 0.040000 0.195000
0.922500 0.040000 0.195000
1.000000 0.040000 0.195000
1.000000 0.040000 0.195000
0.060000 0.171250 0.195000
0.203750 0.171250 0.195000
0.347500 0.171250 0.195000
0.491250 0.171250 0.195000
0.635000 0.171250 0.195000
0.778750 0.171250 0.195000
0.922500 0.171250 0.195000
1.000000 0.171250 0.195000
1.000000 0.171250 0.195000
0.060000 0.302500 0.195000
0.203750 0.302500 0.195000
0.347500 0.302500 0.195000
0.491250 0.302500 0.195000
0.635000 0.302500 0.195000
0.778750 0.302500 0.195000
0.922500 0.302500 0.195000
1.000000 0.302500 0.195000
1.000000 0.302500 0.195000
0.060000 0.433750 0.195000
0.203750 0.433750 0.195000
0.347500 0.433750 0.195000
0.491250 0.433750 0.195000
0.635000 0.433750 0.195000
0.778750 0.433750 0.195000
0.922500 0.433750 0.195000
1.000000 0.433750 0.195000
1.000000 0.433750 0.195000
0.060000 0.565000 0.195000
0.203750 0.565000 0.195000
0.347500 0.565000 0.195000
0.491250 0.565000 0.195000
0.635000 0.565000 0.195000
0.778750 0.565000 0.195000
0.922500 0.565000 0.195000
1.000000 0.565000 0.195000
1.000000 0.565000 0.195000
0.060000 0.696250 0.195000
0.203750 0.696250 0.195000
0.347500 0.696250 0.195000
0.491250 0.696250 0.195000
0.635000 0.696250 0.195000
0.778750 0.696250 0.195000
0.922500 0.696250 0.195000
1.000000 0.696250 0.195000
1.000000 0.696250 0.195000
0.060000 0.827500 0.195000
0.203750 0.827500 0.195000
0.347500 0.827500 0.195000
0.491250 0.827500 0.195000
0.635000 0.827500 0.195000
0.778750 0.827500 0.195000
0.922500 0.827500 0.195000
1.000000 0.827500 0.195000
1.000000 0.827500 0.195000
0.060000 0.958750 0.195000
0.203750 0.958750 0.195000
0.347500 0.958750 0.195000
0.491250 0.958750 0.195000
0.635000 0.958750 0.195000
0.778750 0.958750 0.195000
0.922500 0.958750 0.195000
1.000000 0.958750 0.195000
1.000000 0.958750 0.195000
0.060000 1.000000 0.195000
0.203750 1.000000 0.195000
0.347500 1.000000 0.195000
0.491250 1.000000 0.195000
0.635000 1.000000 0.195000
0.778750 1.000000 0.195000
0.922500 1.000000 0.195000
1.000000 1.000000 0.195000
1.000000 1.000000 0.195000
0.060000 0.040000 0.307500
0.203750 0.040000 0.307500
0.347500 0.040000 0.307500
0.491250 0.040000 0.307500
0.635000 0.040000 0.307500
0.778750 0.040000 0.307500
0.922500 0.040000 0.307500
1.000000 0.040000 0.307500
1.000000 0.040000 0.307500
0.060000 0.171250 0.307500
0.203750 0.171250 0.307500
0.347500 0.171250 0.307500
0.491250 0.171250 0.307500
0.635000 0.171250 0.307500
0.778750 0.171250 0.307500
0.922500 0.171250 0.307500
1.000000 0.171250 0.307500
1.000000 0.171250 0.307500
0.060000 0.302500 0.307500
0.203750 0.302500 0.307500
0.347500 0.302500 0.307500
0.491250 0.302500 0.307500
0.635000 0.302500 0.307500
0.778750 0.302500 0.307500
0.922500 0.302500 0.307500
1.000000 0.302500 0.307500
1.000000 0.302500 0.307500
0.060000 0.433750 0.307500
0.203750 0.433750 0.307500
0.347500 0.433750 0.307500
0.491250 0.433750 0.307500
0.635000 0.433750 0.307500
0.778750 0.433750 0.307500
0.922500 0.433750 0.307500
1.000000 0.433750 0.307500
1.000000 0.433750 0.307500
0.060000 0.565000 0.307500
0.203750 0.565000 0.307500
0.347500 0.565000 0.307500
0.491250 0.565000 0.307500
0.635000 0.565000 0.307500
0.778750 0.565000 0.307500
0.922500 0.565000 0.307500
1.000000 0.565000 0.307500
1.000000 0.565000 0.307500
0.060000 0.696250 0.307500
0.203750 0.696250 0.307500
0.347500 0.696250 0.307500
0.491250 0.696250 0.307500
0.635000 0.696250 0.307500
0.778750 0.696250 0.307500
0.922500 0.696250 0.307500
1.000000 0.696250 0.307500
1.000000 0.696250 0.307500
0.060000 0.827500 0.307500
0.203750 0.827500 0.307500
0.347500 0.827500 0.307500
0.491250 0.827500 0.307500
0.635000 0.827500 0.307500
0.778750 0.827500 0.307500
0.922500 0.827500 0.307500
1.000000 0.827500 0.307500
1.000000 0.827500 0.307500
0.060000 0.958750 0.307500
0.203750 0.958750 0.307500
0.347500 0.958750 0.307500
0.491250 0.958750 0.307500
0.635000 0.958750 0.307500
0.778750 0.958750 0.307500
0.922500 0.958750 0.307500
1.000000 0.958750 0.307500
1.000000 0.958750 0.307500
0.060000 1.000000 0.307500
0.203750 1.000000 0.307500
0.347500 1.000000 0.307500
0.491250 1.000000 0.307500
0.635000 1.000000 0.307500
0.778750 1.000000 0.307500
0.922500 1.000000 0.307500
1.000000 1.000000 0.307500
1.000000 1.000000 0.307500
0.060000 0.040000 0.420000
0.203750 0.040000 0.420000
0.347500 0.040000 0.420000
0.491250 0.040000 0.420000
0.635000 0.040000 0.420000
0.778750 0.040000 0.420000
0.922500 0.040000 0.420000
1.000000 0.040000 0.420000
1.000000 0.040000 0.420000
0.060000 0.171250 0.420000
0.203750 0.171250 0.420000
0.347500 0.171250 0.420000
0.491250 0.171250 0.420000
0.635000 0.171250 0.420000
0.778750 0.171250 0.420000
0.922500 0.171250 0.420000
1.000000 0.171250 0.420000
1.000000 0.171250 0.420000
0.060000 0.302500 0.420000
0.203750 0.302500 0.420000
0.347500 0.302500 0.420000
0.491250 0.302500 0.420000
0.635000 0.302500 0.420000
0.778750 0.302500 0.420000
0.922500 0.302500 0.420000
1.000000 0.302500 0.420000
1.000000 0.302500 0.420000
0.060000 0.433750 0.420000
0.203750 0.433750 0.420000
0.347500 0.433750 0.420000
0.491250 0.433750 0.420000
0.635000 0.433750 0.420000
0.778750 0.433750 0.420000
0.922500 0.433750 0.420000
1.000000 0.433750 0.420000
1.000000 0.433750 0.420000
0.060000 0.565000 0.420000
0.203750 0.565000 0.420000
0.347500 0.565000 0.420000
0.491250 0.565000 0.420000
0.635000 0.565000 0.420000
0.778750 0.565000 0.420000
0.922500 0.565000 0.420000
1.000000 0.565000 0.420000
1.000000 0.565000 0.420000
0.060000 0.696250 0.420000
0.203750 0.696250 0.420000
0.347500 0.696250 0.420000
0.491250 0.696250 0.420000
0.635000 0.696250 0.420000
0.778750 0.696250 0.420000
0.922500 0.696250 0.420000
1.000000 0.696250 0.420000
1.000000 0.696250 0.420000
0.060000 0.827500 0.420000
0.203750 0.827500 0.420000
0.347500 0.827500 0.420000
0.491250 0.827500 0.420000
0.635000 0.827500 0.420000
0.778750 0.827500 0.420000
0.922500 0.827500 0.420000
1.000000 0.827500 0.420000
1.000000 0.827500 0.420000
0.060000 0.958750 0.420000
0.203750 0.958750 0.420000
0.347500 0.958750 0.420000
0.491250 0.958750 0.420000
0.635000 0.958750 0.420000
0.778750 0.958750 0.420000
0.922500 0.958750 0.420000
1.000000 0.958750 0.420000
1.000000 0.958750 0.420000
0.060000 1.000000 0.420000
0.203750 1.000000 0.420000
0.347500 1.000000 0.420000
0.491250 1.000000 0.420000
0.635000 1.000000 0.420000
0.778750 1.000000 0.420000
0.922500 1.000000 0.420000
1.000000 1.000000 0.420000
1.000000 1.000000 0.420000
0.060000 0.040000 0.532500
0.203750 0.040000 0.532500
0.347500 0.040000 0.532500
0.491250 0.040000 0.532500
0.635000 0.040000 0.532500
0.778750 0.040000 0.532500
0.922500 0.040000 0.532500
1.000000 0.040000 0.532500
1.000000 0.040000 0.532500
0.060000 0.171250 0.532500
0.203750 0.171250 0.532500
0.347500 0.171250 0.532500
0.491250 0.171250 0.532500
0.635000 0.171250 0.532500
0.778750 0.171250 0.532500
0.922500 0.171250 0.532500
1.000000 0.171250 0.532500
1.000000 0.171250 0.532500
0.060000 0.302500 0.532500
0.203750 0.302500 0.532500
0.347500 0.302500 0.532500
0.491250 0.302500 0.532500
0.635000 0.302500 0.532500
0.778750 0.302500 0.532500
0.922500 0.302500 0.532500
1.000000 0.302500 0.532500
1.000000 0.302500 0.532500
0.060000 0.433750 0.532500
0.203750 0.433750 0.532500
0.347500 0.433750 0.532500
0.491250 0.433750 0.532500
0.635000 0.433750 0.532500
0.778750 0.433750 0.532500
0.922500 0.433750 0.532500
1.000000 0.433750 0.532500
1.000000 0.433750 0.532500
0.060000 0.565000 0.532500
0.203750 0.565000 0.532500
0.347500 0.565000 0.532500
0.491250 0.565000 0.532500
0.635000 0.565000 0.532500
0.778750 0.565000 0.532500
0.922500 0.565000 0.532500
1.000000 0.565000 0.532500
1.000000 0.565000 0.532500
0.060000 0.696250 0.532500
0.203750 0.696250 0.532500
0.347500 0.696250 0.532500
0.491250 0.696250 0.532500
0.635000 0.696250 0.532500
0.778750 0.696250 0.532500
0.922500 0.696250 0.532500
1.000000 0.696250 0.532500
1.000000 0.696250 0.532500
0.060000 0.827500 0.532500
0.203750 0.827500 0.532500
0.347500 0.827500 0.532500
0.491250 0.827500 0.532500
0.635000 0.827500 0.532500
0.778750 0.827500 0.532500
0.922500 0.827500 0.532500
1.000000 0.827500 0.532500
1.000000 0.827500 0.532500
0.060000 0.958750 0.532500
0.203750 0.958750 0.532500
0.347500 0.958750 0.532500
0.491250 0.958750 0.532500
0.635000 0.958750 0.532500
0.778750 0.958750 0.532500
0.922500 0.958750 0.532500
1.000000 0.958750 0.532500
1.000000 0.958750 0.532500
0.060000 1.000000 0.532500
0.203750 1.000000 0.532500
0.347500 1.000000 0.532500
0.491250 1.000000 0.532500
0.635000 1.000000 0.532500
0.778750 1.000000 0.532500
0.922500 1.000000 0.532500
1.000000 1.000000 0.532500
1.000000 1.000000 0.532500
0.060000 0.040000 0.645000
0.203750 0.040000 0.645000
0.347500 0.040000 0.645000
0.491250 0.040000 0.645000
0.635000 0.040000 0.645000
0.778750 0.040000 0.645000
0.922500 0.040000 0.645000
1.000000 0.040000 0.645000
1.000000 0.040000 0.645000
0.060000 0.171250 0.645000
0.203750 0.171250 0.645000
0.347500 0.171250 0.645000
0.491250 0.171250 0.645000
0.635000 0.171250 0.645000
0.778750 0.171250 0.645000
0.922500 0.171250 0.645000
1.000000 0.171250 0.645000
1.000000 0.171250 0.645000
0.060000 0.302500 0.645000
0.203750 0.302500 0.645000
0.347500 0.302500 0.645000
0.491250 0.302500 0.645000
0.635000 0.302500 0.645000
0.778750 0.302500 0.645000
0.922500 0.302500 0.645000
1.000000 0.302500 0.645000
1.000000 0.302500 0.645000
0.060000 0.433750 0.645000
0.203750 0.433750 0.645000
0.347500 0.433750 0.645000
0.491250 0.433750 0.645000
0.635000 0.433750 0.645000
0.778750 0.433750 0.645000
0.922500 0.433750 0.645000
1.000000 0.433750 0.645000
1.000000 0.433750 0.645000
0.060000 0.565000 0.645000
0.203750 0.565000 0.645000
0.347500 0.565000 0.645000
0.491250 0.565000 0.645000
0.635000 0.565000 0.645000
0.778750 0.565000 0.645000
0.922500 0.565000 0.645000
1.000000 0.565000 0.645000
1.000000 0.565000 0.645000
0.060000 0.696250 0.645000
0.203750 0.696250 0.645000
0.347500 0.696250 0.645000
0.491250 0.696250 0.645000
0.635000 0.696250 0.645000
0.778750 0.696250 0.645000
0.922500 0.696250 0.645000
1.000000 0.696250 0.645000
1.000000 0.696250 0.645000
0.060000 0.827500 0.645000
0.203750 0.827500 0.645000
0.347500 0.827500 0.645000
0.491250 0.827500 0.645000
0.635000 0.827500 0.645000
0.778750 0.827500 0.645000
0.922500 0.827500 0.645000
1.000000 0.827500 0.645000
1.000000 0.827500 0.645000
0.060000 0.958750 0.645000
0.203750 0.958750 0.645000
0.347500 0.958750 0.645000
0.491250 0.958750 0.645000
0.635000 0.958750 0.645000
0.778750 0.958750 0.645000
0.922500 0.958750 0.645000
1.000000 0.958750 0.645000
1.000000 0.958750 0.645000
0.060000 1.000000 0.645000
0.203750 1.000000 0.645000
0.347500 1.000000 0.645000
0.491250 1.000000 0.645000
0.635000 1.000000 0.645000
0.778750 1.000000 0.645000
0.922500 1.000000 0.645000
1.000000 1.000000 0.645000
1.000000 1.000000 0.645000
0.060000 0.040000 0.757500
0.203750 0.040000 0.757500
0.347500 0.040000 0.757500
0.491250 0.040000 0.757500
0.635000 0.040000 0.757500
0.778750 0.040000 0.757500
0.922500 0.040000 0.757500
1.000000 0.040000 0.757500
1.000000 0.040000 0.757500
0.060000 0.171250 0.757500
0.203750 0.171250 0.757500
0.347500 0.171250 0.757500
0.491250 0.171250 0.757500
0.635000 0.171250 0.757500
0.778750 0.171250 0.757500
0.922500 0.171250 0.757500
1.000000 0.171250 0.757500
1.000000 0.171250 0.757500
0.060000 0.302500 0.757500
0.203750 0.302500 0.757500
0.347500 0.302500 0.757500
0.491250 0.302500 0.757500
0.635000 0.302500 0.757500
0.778750 0.302500 0.757500
0.922500 0.302500 0.757500
1.000000 0.302500 0.757500
1.000000 0.302500 0.757500
0.060000 0.433750 0.757500
0.203750 0.433750 0.757500
0.347500 0.433750 0.757500
0.491250 0.433750 0.757500
0.635000 0.433750 0.757500
0.778750 0.433750 0.757500
0.922500 0.433750 0.757500
1.000000 0.433750 0.757500
1.000000 0.433750 0.757500
0.060000 0.565000 0.757500
0.203750 0.565000 0.757500
0.347500 0.565000 0.757500
0.491250 0.565000 0.757500
0.635000 0.565000 0.757500
0.778750 0.565000 0.757500
0.922500 0.565000 0.757500
1.000000 0.565000 0.757500
1.000000 0.565000 0.757500
0.060000 0.696250 0.757500
0.203750 0.696250 0.757500
0.347500 0.696250 0.757500
0.491250 0.696250 0.757500
0.635000 0.696250 0.757500
0.778750 0.696250 0.757500
0.922500 0.696250 0.757500
1.000000 0.696250 0.757500
1.000000 0.696250 0.757500
0.060000 0.827500 0.757500
0.203750 0.827500 0.757500
0.347500 0.827500 0.757500
0.491250 0.827500 0.757500
0.635000 0.827500 0.757500
0.778750 0.827500 0.757500
0.922500 0.827500 0.757500
1.000000 0.827500 0.757500
1.000000 0.827500 0.757500
0.060000 0.958750 0.757500
0.203750 0.958750 0.757500
0.347500 0.958750 0.757500
0.491250 0.958750 0.757500
0.635000 0.958750 0.757500
0.778750 0.958750 0.757500
0.922500 0.958750 0.757500
1.000000 0.958750 0.757500
1.000000 0.958750 0.757500
0.060000 1.000000 0.757500
0.203750 1.000000 0.757500
0.347500 1.000000 0.757500
0.491250 1.000000 0.757500
0.635000 1.000000 0.757500
0.778750 1.000000 0.757500
0.922500 1.000000 0.757500
1.000000 1.000000 0.757500
1.000000 1.000000 0.757500
0.060000 0.040000 0.870000
0.203750 0.040000 0.870000
0.347500 0.040000 0.870000
0.491250 0.040000 0.870000
0.635000 0.040000 0.870000
0.778750 0.040000 0.870000
0.922500 0.040000 0.870000
1.000000 0.040000 0.870000
1.000000 0.040000 0.870000
0.060000 0.171250 0.870000
0.203750 0.171250 0.870000
0.347500 0.171250 0.870000
0.491250 0.171250 0.870000
0.635000 0.171250 0.870000
0.778750 0.171250 0.870000
0.922500 0.171250 0.870000
1.000000 0.171250 0.870000
1.000000 0.171250 0.870000
0.060000 0.302500 0.870000
0.203750 0.302500 0.870000
0.347500 0.302500 0.870000
0.491250 0.302500 0.870000
0.635000 0.302500 0.870000
0.778750 0.302500 0.870000
0.922500 0.302500 0.870000
1.000000 0.302500 0.870000
1.000000 0.302500 0.870000
0.060000 0.433750 0.870000
0.203750 0.433750 0.870000
0.347500 0.433750 0.870000
0.491250 0.433750 0.870000
0.635000 0.433750 0.870000
0.778750 0.433750 0.870000
0.922500 0.433750 0.870000
1.000000 0.433750 0.870000
1.000000 0.433750 0.870000
0.060000 0.565000 0.870000
0.203750 0.565000 0.870000
0.347500 0.565000 0.870000
0.491250 0.565000 0.870000
0.635000 0.565000 0.870000
0.778750 0.565000 0.870000
0.922500 0.565000 0.870000
1.000000 0.565000 0.870000
1.000000 0.565000 0.870000
0.060000 0.696250 0.870000
0.203750 0.696250 0.870000
0.347500 0.696250 0.870000
0.491250 0.696250 0.870000
0.635000 0.696250 0.870000
0.778750 0.696250 0.870000
0.922500 0.696250 0.870000
1.000000 0.696250 0.870000
1.000000 0.696250 0.870000
0.060000 0.827500 0.870000
0.203750 0.827500 0.870000
0.347500 0.827500 0.870000
0.491250 0.827500 0.870000
0.635000 0.827500 0.870000
0.778750 0.827500 0.870000
0.922500 0.827500 0.870000
1.000000 0.827500 0.870000
1.000000 0.827500 0.870000
0.060000 0.958750 0.870000
0.203750 0.958750 0.870000
0.347500 0.958750 0.870000
0.491250 0.958750 0.870000
0.635000 0.958750 0.870000
0.778750 0.958750 0.870000
0.922500 0.958750 0.870000
1.000000 0.958750 0.870000
1.000000 0.958750 0.870000
0.060000 1.000000 0.870000
0.203750 1.000000 0.870000
0.347500 1.000000 0.870000
0.491250 1.000000 0.870000
0.635000 1.000000 0.870000
0.778750 1.000000 0.870000
0.922500 1.000000 0.870000
1.000000 1.000000 0.870000
1.000000 1.000000 0.870000
