app/src/main/assets/luts/indie_disposable.cube
# ApexStudio filter: indie_disposable
LUT_3D_SIZE 5
DOMAIN_MIN 0.0 0.0 0.0
DOMAIN_MAX 1.0 1.0 1.0
0.060000 0.040000 0.000000
0.347500 0.040000 0.000000
0.635000 0.040000 0.000000
0.922500 0.040000 0.000000
1.000000 0.040000 0.000000
0.060000 0.302500 0.000000
0.347500 0.302500 0.000000
0.635000 0.302500 0.000000
0.922500 0.302500 0.000000
1.000000 0.302500 0.000000
0.060000 0.565000 0.000000
0.347500 0.565000 0.000000
0.635000 0.565000 0.000000
0.922500 0.565000 0.000000
1.000000 0.565000 0.000000
0.060000 0.827500 0.000000
0.347500 0.827500 0.000000
0.635000 0.827500 0.000000
0.922500 0.827500 0.000000
1.000000 0.827500 0.000000
0.060000 1.000000 0.000000
0.347500 1.000000 0.000000
0.635000 1.000000 0.000000
0.922500 1.000000 0.000000
1.000000 1.000000 0.000000
0.060000 0.040000 0.195000
0.347500 0.040000 0.195000
0.635000 0.040000 0.195000
0.922500 0.040000 0.195000
1.000000 0.040000 0.195000
0.060000 0.302500 0.195000
0.347500 0.302500 0.195000
0.635000 0.302500 0.195000
0.922500 0.302500 0.195000
1.000000 0.302500 0.195000
0.060000 0.565000 0.195000
0.347500 0.565000 0.195000
0.635000 0.565000 0.195000
0.922500 0.565000 0.195000
1.000000 0.565000 0.195000
0.060000 0.827500 0.195000
0.347500 0.827500 0.195000
0.635000 0.827500 0.195000
0.922500 0.827500 0.195000
1.000000 0.827500 0.195000
0.060000 1.000000 0.195000
0.347500 1.000000 0.195000
0.635000 1.000000 0.195000
0.922500 1.000000 0.195000
1.000000 1.000000 0.195000
0.060000 0.040000 0.420000
0.347500 0.040000 0.420000
0.635000 0.040000 0.420000
0.922500 0.040000 0.420000
1.000000 0.040000 0.420000
0.060000 0.302500 0.420000
0.347500 0.302500 0.420000
0.635000 0.302500 0.420000
0.922500 0.302500 0.420000
1.000000 0.302500 0.420000
0.060000 0.565000 0.420000
0.347500 0.565000 0.420000
0.635000 0.565000 0.420000
0.922500 0.565000 0.420000
1.000000 0.565000 0.420000
0.060000 0.827500 0.420000
0.347500 0.827500 0.420000
0.635000 0.827500 0.420000
0.922500 0.827500 0.420000
1.000000 0.827500 0.420000
0.060000 1.000000 0.420000
0.347500 1.000000 0.420000
0.635000 1.000000 0.420000
0.922500 1.000000 0.420000
1.000000 1.000000 0.420000
0.060000 0.040000 0.645000
0.347500 0.040000 0.645000
0.635000 0.040000 0.645000
0.922500 0.040000 0.645000
1.000000 0.040000 0.645000
0.060000 0.302500 0.645000
0.347500 0.302500 0.645000
0.635000 0.302500 0.645000
0.922500 0.302500 0.645000
1.000000 0.302500 0.645000
0.060000 0.565000 0.645000
0.347500 0.565000 0.645000
0.635000 0.565000 0.645000
0.922500 0.565000 0.645000
1.000000 0.565000 0.645000
0.060000 0.827500 0.645000
0.347500 0.827500 0.645000
0.635000 0.827500 0.645000
0.922500 0.827500 0.645000
1.000000 0.827500 0.645000
0.060000 1.000000 0.645000
0.347500 1.000000 0.645000
0.635000 1.000000 0.645000
0.922500 1.000000 0.645000
1.000000 1.000000 0.645000
0.060000 0.040000 0.870000
0.347500 0.040000 0.870000
0.635000 0.040000 0.870000
0.922500 0.040000 0.870000
1.000000 0.040000 0.870000
0.060000 0.302500 0.870000
0.347500 0.302500 0.870000
0.635000 0.302500 0.870000
0.922500 0.302500 0.870000
1.000000 0.302500 0.870000
0.060000 0.565000 0.870000
0.347500 0.565000 0.870000
0.635000 0.565000 0.870000
0.922500 0.565000 0.870000
1.000000 0.565000 0.870000
0.060000 0.827500 0.870000
0.347500 0.827500 0.870000
0.635000 0.827500 0.870000
0.922500 0.827500 0.870000
1.000000 0.827500 0.870000
0.060000 1.000000 0.870000
0.347500 1.000000 0.870000
0.635000 1.000000 0.870000
0.922500 1.000000 0.870000
1.000000 1.000000 0.870000
