app/src/main/assets/luts/indie_disposable.cube
# ApexStudio filter: indie_disposable
LUT_3D_SIZE 17
DOMAIN_MIN 0.0 0.0 0.0
DOMAIN_MAX 1.0 1.0 1.0
0.060000 0.040000 0.000000
0.131875 0.040000 0.000000
0.203750 0.040000 0.000000
0.275625 0.040000 0.000000
0.347500 0.040000 0.000000
0.419375 0.040000 0.000000
0.491250 0.040000 0.000000
0.563125 0.040000 0.000000
0.635000 0.040000 0.000000
0.706875 0.040000 0.000000
0.778750 0.040000 0.000000
0.850625 0.040000 0.000000
0.922500 0.040000 0.000000
0.994375 0.040000 0.000000
1.000000 0.040000 0.000000
1.000000 0.040000 0.000000
1.000000 0.040000 0.000000
0.060000 0.105625 0.000000
0.131875 0.105625 0.000000
0.203750 0.105625 0.000000
0.275625 0.105625 0.000000
0.347500 0.105625 0.000000
0.419375 0.105625 0.000000
0.491250 0.105625 0.000000
0.563125 0.105625 0.000000
0.635000 0.105625 0.000000
0.706875 0.105625 0.000000
0.778750 0.105625 0.000000
0.850625 0.105625 0.000000
0.922500 0.105625 0.000000
0.994375 0.105625 0.000000
1.000000 0.105625 0.000000
1.000000 0.105625 0.000000
1.000000 0.105625 0.000000
0.060000 0.171250 0.000000
0.131875 0.171250 0.000000
0.203750 0.171250 0.000000
0.275625 0.171250 0.000000
0.347500 0.171250 0.000000
0.419375 0.171250 0.000000
0.491250 0.171250 0.000000
0.563125 0.171250 0.000000
0.635000 0.171250 0.000000
0.706875 0.171250 0.000000
0.778750 0.171250 0.000000
0.850625 0.171250 0.000000
0.922500 0.171250 0.000000
0.994375 0.171250 0.000000
1.000000 0.171250 0.000000
1.000000 0.171250 0.000000
1.000000 0.171250 0.000000
0.060000 0.236875 0.000000
0.131875 0.236875 0.000000
0.203750 0.236875 0.000000
0.275625 0.236875 0.000000
0.347500 0.236875 0.000000
0.419375 0.236875 0.000000
0.491250 0.236875 0.000000
0.563125 0.236875 0.000000
0.635000 0.236875 0.000000
0.706875 0.236875 0.000000
0.778750 0.236875 0.000000
0.850625 0.236875 0.000000
0.922500 0.236875 0.000000
0.994375 0.236875 0.000000
1.000000 0.236875 0.000000
1.000000 0.236875 0.000000
1.000000 0.236875 0.000000
0.060000 0.302500 0.000000
0.131875 0.302500 0.000000
0.203750 0.302500 0.000000
0.275625 0.302500 0.000000
0.347500 0.302500 0.000000
0.419375 0.302500 0.000000
0.491250 0.302500 0.000000
0.563125 0.302500 0.000000
0.635000 0.302500 0.000000
0.706875 0.302500 0.000000
0.778750 0.302500 0.000000
0.850625 0.302500 0.000000
0.922500 0.302500 0.000000
0.994375 0.302500 0.000000
1.000000 0.302500 0.000000
1.000000 0.302500 0.000000
1.000000 0.302500 0.000000
0.060000 0.368125 0.000000
0.131875 0.368125 0.000000
0.203750 0.368125 0.000000
0.275625 0.368125 0.000000
0.347500 0.368125 0.000000
0.419375 0.368125 0.000000
0.491250 0.368125 0.000000
0.563125 0.368125 0.000000
0.635000 0.368125 0.000000
0.706875 0.368125 0.000000
0.778750 0.368125 0.000000
0.850625 0.368125 0.000000
0.922500 0.368125 0.000000
0.994375 0.368125 0.000000
1.000000 0.368125 0.000000
1.000000 0.368125 0.000000
1.000000 0.368125 0.000000
0.060000 0.433750 0.000000
0.131875 0.433750 0.000000
0.203750 0.433750 0.000000
0.275625 0.433750 0.000000
0.347500 0.433750 0.000000
0.419375 0.433750 0.000000
0.491250 0.433750 0.000000
0.563125 0.433750 0.000000
0.635000 0.433750 0.000000
0.706875 0.433750 0.000000
0.778750 0.433750 0.000000
0.850625 0.433750 0.000000
0.922500 0.433750 0.000000
0.994375 0.433750 0.000000
1.000000 0.433750 0.000000
1.000000 0.433750 0.000000
1.000000 0.433750 0.000000
0.060000 0.499375 0.000000
0.131875 0.499375 0.000000
0.203750 0.499375 0.000000
0.275625 0.499375 0.000000
0.347500 0.499375 0.000000
0.419375 0.499375 0.000000
0.491250 0.499375 0.000000
0.563125 0.499375 0.000000
0.635000 0.499375 0.000000
0.706875 0.499375 0.000000
0.778750 0.499375 0.000000
0.850625 0.499375 0.000000
0.922500 0.499375 0.000000
0.994375 0.499375 0.000000
1.000000 0.499375 0.000000
1.000000 0.499375 0.000000
1.000000 0.499375 0.000000
0.060000 0.565000 0.000000
0.131875 0.565000 0.000000
0.203750 0.565000 0.000000
0.275625 0.565000 0.000000
0.347500 0.565000 0.000000
0.419375 0.565000 0.000000
0.491250 0.565000 0.000000
0.563125 0.565000 0.000000
0.635000 0.565000 0.000000
0.706875 0.565000 0.000000
0.778750 0.565000 0.000000
0.850625 0.565000 0.000000
0.922500 0.565000 0.000000
0.994375 0.565000 0.000000
1.000000 0.565000 0.000000
1.000000 0.565000 0.000000
1.000000 0.565000 0.000000
0.060000 0.630625 0.000000
0.131875 0.630625 0.000000
0.203750 0.630625 0.000000
0.275625 0.630625 0.000000
0.347500 0.630625 0.000000
0.419375 0.630625 0.000000
0.491250 0.630625 0.000000
0.563125 0.630625 0.000000
0.635000 0.630625 0.000000
0.706875 0.630625 0.000000
0.778750 0.630625 0.000000
0.850625 0.630625 0.000000
0.922500 0.630625 0.000000
0.994375 0.630625 0.000000
1.000000 0.630625 0.000000
1.000000 0.630625 0.000000
1.000000 0.630625 0.000000
0.060000 0.696250 0.000000
0.131875 0.696250 0.000000
0.203750 0.696250 0.000000
0.275625 0.696250 0.000000
0.347500 0.696250 0.000000
0.419375 0.696250 0.000000
0.491250 0.696250 0.000000
0.563125 0.696250 0.000000
0.635000 0.696250 0.000000
0.706875 0.696250 0.000000
0.778750 0.696250 0.000000
0.850625 0.696250 0.000000
0.922500 0.696250 0.000000
0.994375 0.696250 0.000000
1.000000 0.696250 0.000000
1.000000 0.696250 0.000000
1.000000 0.696250 0.000000
0.060000 0.761875 0.000000
0.131875 0.761875 0.000000
0.203750 0.761875 0.000000
0.275625 0.761875 0.000000
0.347500 0.761875 0.000000
0.419375 0.761875 0.000000
0.491250 0.761875 0.000000
0.563125 0.761875 0.000000
0.635000 0.761875 0.000000
0.706875 0.761875 0.000000
0.778750 0.761875 0.000000
0.850625 0.761875 0.000000
0.922500 0.761875 0.000000
0.994375 0.761875 0.000000
1.000000 0.761875 0.000000
1.000000 0.761875 0.000000
1.000000 0.761875 0.000000
0.060000 0.827500 0.000000
0.131875 0.827500 0.000000
0.203750 0.827500 0.000000
0.275625 0.827500 0.000000
0.347500 0.827500 0.000000
0.419375 0.827500 0.000000
0.491250 0.827500 0.000000
0.563125 0.827500 0.000000
0.635000 0.827500 0.000000
0.706875 0.827500 0.000000
0.778750 0.827500 0.000000
0.850625 0.827500 0.000000
0.922500 0.827500 0.000000
0.994375 0.827500 0.000000
1.000000 0.827500 0.000000
1.000000 0.827500 0.000000
1.000000 0.827500 0.000000
0.060000 0.893125 0.000000
0.131875 0.893125 0.000000
0.203750 0.893125 0.000000
0.275625 0.893125 0.000000
0.347500 0.893125 0.000000
0.419375 0.893125 0.000000
0.491250 0.893125 0.000000
0.563125 0.893125 0.000000
0.635000 0.893125 0.000000
0.706875 0.893125 0.000000
0.778750 0.893125 0.000000
0.850625 0.893125 0.000000
0.922500 0.893125 0.000000
0.994375 0.893125 0.000000
1.000000 0.893125 0.000000
1.000000 0.893125 0.000000
1.000000 0.893125 0.000000
0.060000 0.958750 0.000000
0.131875 0.958750 0.000000
0.203750 0.958750 0.000000
0.275625 0.958750 0.000000
0.347500 0.958750 0.000000
0.419375 0.958750 0.000000
0.491250 0.958750 0.000000
0.563125 0.958750 0.000000
0.635000 0.958750 0.000000
0.706875 0.958750 0.000000
0.778750 0.958750 0.000000
0.850625 0.958750 0.000000
0.922500 0.958750 0.000000
0.994375 0.958750 0.000000
1.000000 0.958750 0.000000
1.000000 0.958750 0.000000
1.000000 0.958750 0.000000
0.060000 1.000000 0.000000
0.131875 1.000000 0.000000
0.203750 1.000000 0.000000
0.275625 1.000000 0.000000
0.347500 1.000000 0.000000
0.419375 1.000000 0.000000
0.491250 1.000000 0.000000
0.563125 1.000000 0.000000
0.635000 1.000000 0.000000
0.706875 1.000000 0.000000
0.778750 1.000000 0.000000
0.850625 1.000000 0.000000
0.922500 1.000000 0.000000
0.994375 1.000000 0.000000
1.000000 1.000000 0.000000
1.000000 1.000000 0.000000
1.000000 1.000000 0.000000
0.060000 1.000000 0.000000
0.131875 1.000000 0.000000
0.203750 1.000000 0.000000
0.275625 1.000000 0.000000
0.347500 1.000000 0.000000
0.419375 1.000000 0.000000
0.491250 1.000000 0.000000
0.563125 1.000000 0.000000
0.635000 1.000000 0.000000
0.706875 1.000000 0.000000
0.778750 1.000000 0.000000
0.850625 1.000000 0.000000
0.922500 1.000000 0.000000
0.994375 1.000000 0.000000
1.000000 1.000000 0.000000
1.000000 1.000000 0.000000
1.000000 1.000000 0.000000
0.060000 0.040000 0.026250
0.131875 0.040000 0.026250
0.203750 0.040000 0.026250
0.275625 0.040000 0.026250
0.347500 0.040000 0.026250
0.419375 0.040000 0.026250
0.491250 0.040000 0.026250
0.563125 0.040000 0.026250
0.635000 0.040000 0.026250
0.706875 0.040000 0.026250
0.778750 0.040000 0.026250
0.850625 0.040000 0.026250
0.922500 0.040000 0.026250
0.994375 0.040000 0.026250
1.000000 0.040000 0.026250
1.000000 0.040000 0.026250
1.000000 0.040000 0.026250
0.060000 0.105625 0.026250
0.131875 0.105625 0.026250
0.203750 0.105625 0.026250
0.275625 0.105625 0.026250
0.347500 0.105625 0.026250
0.419375 0.105625 0.026250
0.491250 0.105625 0.026250
0.563125 0.105625 0.026250
0.635000 0.105625 0.026250
0.706875 0.105625 0.026250
0.778750 0.105625 0.026250
0.850625 0.105625 0.026250
0.922500 0.105625 0.026250
0.994375 0.105625 0.026250
1.000000 0.105625 0.026250
1.000000 0.105625 0.026250
1.000000 0.105625 0.026250
0.060000 0.171250 0.026250
0.131875 0.171250 0.026250
0.203750 0.171250 0.026250
0.275625 0.171250 0.026250
0.347500 0.171250 0.026250
0.419375 0.171250 0.026250
0.491250 0.171250 0.026250
0.563125 0.171250 0.026250
0.635000 0.171250 0.026250
0.706875 0.171250 0.026250
0.778750 0.171250 0.026250
0.850625 0.171250 0.026250
0.922500 0.171250 0.026250
0.994375 0.171250 0.026250
1.000000 0.171250 0.026250
1.000000 0.171250 0.026250
1.000000 0.171250 0.026250
0.060000 0.236875 0.026250
0.131875 0.236875 0.026250
0.203750 0.236875 0.026250
0.275625 0.236875 0.026250
0.347500 0.236875 0.026250
0.419375 0.236875 0.026250
0.491250 0.236875 0.026250
0.563125 0.236875 0.026250
0.635000 0.236875 0.026250
0.706875 0.236875 0.026250
0.778750 0.236875 0.026250
0.850625 0.236875 0.026250
0.922500 0.236875 0.026250
0.994375 0.236875 0.026250
1.000000 0.236875 0.026250
1.000000 0.236875 0.026250
1.000000 0.236875 0.026250
0.060000 0.302500 0.026250
0.131875 0.302500 0.026250
0.203750 0.302500 0.026250
0.275625 0.302500 0.026250
0.347500 0.302500 0.026250
0.419375 0.302500 0.026250
0.491250 0.302500 0.026250
0.563125 0.302500 0.026250
0.635000 0.302500 0.026250
0.706875 0.302500 0.026250
0.778750 0.302500 0.026250
0.850625 0.302500 0.026250
0.922500 0.302500 0.026250
0.994375 0.302500 0.026250
1.000000 0.302500 0.026250
1.000000 0.302500 0.026250
1.000000 0.302500 0.026250
0.060000 0.368125 0.026250
0.131875 0.368125 0.026250
0.203750 0.368125 0.026250
0.275625 0.368125 0.026250
0.347500 0.368125 0.026250
0.419375 0.368125 0.026250
0.491250 0.368125 0.026250
0.563125 0.368125 0.026250
0.635000 0.368125 0.026250
0.706875 0.368125 0.026250
0.778750 0.368125 0.026250
0.850625 0.368125 0.026250
0.922500 0.368125 0.026250
0.994375 0.368125 0.026250
1.000000 0.368125 0.026250
1.000000 0.368125 0.026250
1.000000 0.368125 0.026250
0.060000 0.433750 0.026250
0.131875 0.433750 0.026250
0.203750 0.433750 0.026250
0.275625 0.433750 0.026250
0.347500 0.433750 0.026250
0.419375 0.433750 0.026250
0.491250 0.433750 0.026250
0.563125 0.433750 0.026250
0.635000 0.433750 0.026250
0.706875 0.433750 0.026250
0.778750 0.433750 0.026250
0.850625 0.433750 0.026250
0.922500 0.433750 0.026250
0.994375 0.433750 0.026250
1.000000 0.433750 0.026250
1.000000 0.433750 0.026250
1.000000 0.433750 0.026250
0.060000 0.499375 0.026250
0.131875 0.499375 0.026250
0.203750 0.499375 0.026250
0.275625 0.499375 0.026250
0.347500 0.499375 0.026250
0.419375 0.499375 0.026250
0.491250 0.499375 0.026250
0.563125 0.499375 0.026250
0.635000 0.499375 0.026250
0.706875 0.499375 0.026250
0.778750 0.499375 0.026250
0.850625 0.499375 0.026250
0.922500 0.499375 0.026250
0.994375 0.499375 0.026250
1.000000 0.499375 0.026250
1.000000 0.499375 0.026250
1.000000 0.499375 0.026250
0.060000 0.565000 0.026250
0.131875 0.565000 0.026250
0.203750 0.565000 0.026250
0.275625 0.565000 0.026250
0.347500 0.565000 0.026250
0.419375 0.565000 0.026250
0.491250 0.565000 0.026250
0.563125 0.565000 0.026250
0.635000 0.565000 0.026250
0.706875 0.565000 0.026250
0.778750 0.565000 0.026250
0.850625 0.565000 0.026250
0.922500 0.565000 0.026250
0.994375 0.565000 0.026250
1.000000 0.565000 0.026250
1.000000 0.565000 0.026250
1.000000 0.565000 0.026250
0.060000 0.630625 0.026250
0.131875 0.630625 0.026250
0.203750 0.630625 0.026250
0.275625 0.630625 0.026250
0.347500 0.630625 0.026250
0.419375 0.630625 0.026250
0.491250 0.630625 0.026250
0.563125 0.630625 0.026250
0.635000 0.630625 0.026250
0.706875 0.630625 0.026250
0.778750 0.630625 0.026250
0.850625 0.630625 0.026250
0.922500 0.630625 0.026250
0.994375 0.630625 0.026250
1.000000 0.630625 0.026250
1.000000 0.630625 0.026250
1.000000 0.630625 0.026250
0.060000 0.696250 0.026250
0.131875 0.696250 0.026250
0.203750 0.696250 0.026250
0.275625 0.696250 0.026250
0.347500 0.696250 0.026250
0.419375 0.696250 0.026250
0.491250 0.696250 0.026250
0.563125 0.696250 0.026250
0.635000 0.696250 0.026250
0.706875 0.696250 0.026250
0.778750 0.696250 0.026250
0.850625 0.696250 0.026250
0.922500 0.696250 0.026250
0.994375 0.696250 0.026250
1.000000 0.696250 0.026250
1.000000 0.696250 0.026250
1.000000 0.696250 0.026250
0.060000 0.761875 0.026250
0.131875 0.761875 0.026250
0.203750 0.761875 0.026250
0.275625 0.761875 0.026250
0.347500 0.761875 0.026250
0.419375 0.761875 0.026250
0.491250 0.761875 0.026250
0.563125 0.761875 0.026250
0.635000 0.761875 0.026250
0.706875 0.761875 0.026250
0.778750 0.761875 0.026250
0.850625 0.761875 0.026250
0.922500 0.761875 0.026250
0.994375 0.761875 0.026250
1.000000 0.761875 0.026250
1.000000 0.761875 0.026250
1.000000 0.761875 0.026250
0.060000 0.827500 0.026250
0.131875 0.827500 0.026250
0.203750 0.827500 0.026250
0.275625 0.827500 0.026250
0.347500 0.827500 0.026250
0.419375 0.827500 0.026250
0.491250 0.827500 0.026250
0.563125 0.827500 0.026250
0.635000 0.827500 0.026250
0.706875 0.827500 0.026250
0.778750 0.827500 0.026250
0.850625 0.827500 0.026250
0.922500 0.827500 0.026250
0.994375 0.827500 0.026250
1.000000 0.827500 0.026250
1.000000 0.827500 0.026250
1.000000 0.827500 0.026250
0.060000 0.893125 0.026250
0.131875 0.893125 0.026250
0.203750 0.893125 0.026250
0.275625 0.893125 0.026250
0.347500 0.893125 0.026250
0.419375 0.893125 0.026250
0.491250 0.893125 0.026250
0.563125 0.893125 0.026250
0.635000 0.893125 0.026250
0.706875 0.893125 0.026250
0.778750 0.893125 0.026250
0.850625 0.893125 0.026250
0.922500 0.893125 0.026250
0.994375 0.893125 0.026250
1.000000 0.893125 0.026250
1.000000 0.893125 0.026250
1.000000 0.893125 0.026250
0.060000 0.958750 0.026250
0.131875 0.958750 0.026250
0.203750 0.958750 0.026250
0.275625 0.958750 0.026250
0.347500 0.958750 0.026250
0.419375 0.958750 0.026250
0.491250 0.958750 0.026250
0.563125 0.958750 0.026250
0.635000 0.958750 0.026250
0.706875 0.958750 0.026250
0.778750 0.958750 0.026250
0.850625 0.958750 0.026250
0.922500 0.958750 0.026250
0.994375 0.958750 0.026250
1.000000 0.958750 0.026250
1.000000 0.958750 0.026250
1.000000 0.958750 0.026250
0.060000 1.000000 0.026250
0.131875 1.000000 0.026250
0.203750 1.000000 0.026250
0.275625 1.000000 0.026250
0.347500 1.000000 0.026250
0.419375 1.000000 0.026250
0.491250 1.000000 0.026250
0.563125 1.000000 0.026250
0.635000 1.000000 0.026250
0.706875 1.000000 0.026250
0.778750 1.000000 0.026250
0.850625 1.000000 0.026250
0.922500 1.000000 0.026250
0.994375 1.000000 0.026250
1.000000 1.000000 0.026250
1.000000 1.000000 0.026250
1.000000 1.000000 0.026250
0.060000 1.000000 0.026250
0.131875 1.000000 0.026250
0.203750 1.000000 0.026250
0.275625 1.000000 0.026250
0.347500 1.000000 0.026250
0.419375 1.000000 0.026250
0.491250 1.000000 0.026250
0.563125 1.000000 0.026250
0.635000 1.000000 0.026250
0.706875 1.000000 0.026250
0.778750 1.000000 0.026250
0.850625 1.000000 0.026250
0.922500 1.000000 0.026250
0.994375 1.000000 0.026250
1.000000 1.000000 0.026250
1.000000 1.000000 0.026250
1.000000 1.000000 0.026250
0.060000 0.040000 0.082500
0.131875 0.040000 0.082500
0.203750 0.040000 0.082500
0.275625 0.040000 0.082500
0.347500 0.040000 0.082500
0.419375 0.040000 0.082500
0.491250 0.040000 0.082500
0.563125 0.040000 0.082500
0.635000 0.040000 0.082500
0.706875 0.040000 0.082500
0.778750 0.040000 0.082500
0.850625 0.040000 0.082500
0.922500 0.040000 0.082500
0.994375 0.040000 0.082500
1.000000 0.040000 0.082500
1.000000 0.040000 0.082500
1.000000 0.040000 0.082500
0.060000 0.105625 0.082500
0.131875 0.105625 0.082500
0.203750 0.105625 0.082500
0.275625 0.105625 0.082500
0.347500 0.105625 0.082500
0.419375 0.105625 0.082500
0.491250 0.105625 0.082500
0.563125 0.105625 0.082500
0.635000 0.105625 0.082500
0.706875 0.105625 0.082500
0.778750 0.105625 0.082500
0.850625 0.105625 0.082500
0.922500 0.105625 0.082500
0.994375 0.105625 0.082500
1.000000 0.105625 0.082500
1.000000 0.105625 0.082500
1.000000 0.105625 0.082500
0.060000 0.171250 0.082500
0.131875 0.171250 0.082500
0.203750 0.171250 0.082500
0.275625 0.171250 0.082500
0.347500 0.171250 0.082500
0.419375 0.171250 0.082500
0.491250 0.171250 0.082500
0.563125 0.171250 0.082500
0.635000 0.171250 0.082500
0.706875 0.171250 0.082500
0.778750 0.171250 0.082500
0.850625 0.171250 0.082500
0.922500 0.171250 0.082500
0.994375 0.171250 0.082500
1.000000 0.171250 0.082500
1.000000 0.171250 0.082500
1.000000 0.171250 0.082500
0.060000 0.236875 0.082500
0.131875 0.236875 0.082500
0.203750 0.236875 0.082500
0.275625 0.236875 0.082500
0.347500 0.236875 0.082500
0.419375 0.236875 0.082500
0.491250 0.236875 0.082500
0.563125 0.236875 0.082500
0.635000 0.236875 0.082500
0.706875 0.236875 0.082500
0.778750 0.236875 0.082500
0.850625 0.236875 0.082500
0.922500 0.236875 0.082500
0.994375 0.236875 0.082500
1.000000 0.236875 0.082500
1.000000 0.236875 0.082500
1.000000 0.236875 0.082500
0.060000 0.302500 0.082500
0.131875 0.302500 0.082500
0.203750 0.302500 0.082500
0.275625 0.302500 0.082500
0.347500 0.302500 0.082500
0.419375 0.302500 0.082500
0.491250 0.302500 0.082500
0.563125 0.302500 0.082500
0.635000 0.302500 0.082500
0.706875 0.302500 0.082500
0.778750 0.302500 0.082500
0.850625 0.302500 0.082500
0.922500 0.302500 0.082500
0.994375 0.302500 0.082500
1.000000 0.302500 0.082500
1.000000 0.302500 0.082500
1.000000 0.302500 0.082500
0.060000 0.368125 0.082500
0.131875 0.368125 0.082500
0.203750 0.368125 0.082500
0.275625 0.368125 0.082500
0.347500 0.368125 0.082500
0.419375 0.368125 0.082500
0.491250 0.368125 0.082500
0.563125 0.368125 0.082500
0.635000 0.368125 0.082500
0.706875 0.368125 0.082500
0.778750 0.368125 0.082500
0.850625 0.368125 0.082500
0.922500 0.368125 0.082500
0.994375 0.368125 0.082500
1.000000 0.368125 0.082500
1.000000 0.368125 0.082500
1.000000 0.368125 0.082500
0.060000 0.433750 0.082500
0.131875 0.433750 0.082500
0.203750 0.433750 0.082500
0.275625 0.433750 0.082500
0.347500 0.433750 0.082500
0.419375 0.433750 0.082500
0.491250 0.433750 0.082500
0.563125 0.433750 0.082500
0.635000 0.433750 0.082500
0.706875 0.433750 0.082500
0.778750 0.433750 0.082500
0.850625 0.433750 0.082500
0.922500 0.433750 0.082500
0.994375 0.433750 0.082500
1.000000 0.433750 0.082500
1.000000 0.433750 0.082500
1.000000 0.433750 0.082500
0.060000 0.499375 0.082500
0.131875 0.499375 0.082500
0.203750 0.499375 0.082500
0.275625 0.499375 0.082500
0.347500 0.499375 0.082500
0.419375 0.499375 0.082500
0.491250 0.499375 0.082500
0.563125 0.499375 0.082500
0.635000 0.499375 0.082500
0.706875 0.499375 0.082500
0.778750 0.499375 0.082500
0.850625 0.499375 0.082500
0.922500 0.499375 0.082500
0.994375 0.499375 0.082500
1.000000 0.499375 0.082500
1.000000 0.499375 0.082500
1.000000 0.499375 0.082500
0.060000 0.565000 0.082500
0.131875 0.565000 0.082500
0.203750 0.565000 0.082500
0.275625 0.565000 0.082500
0.347500 0.565000 0.082500
0.419375 0.565000 0.082500
0.491250 0.565000 0.082500
0.563125 0.565000 0.082500
0.635000 0.565000 0.082500
0.706875 0.565000 0.082500
0.778750 0.565000 0.082500
0.850625 0.565000 0.082500
0.922500 0.565000 0.082500
0.994375 0.565000 0.082500
1.000000 0.565000 0.082500
1.000000 0.565000 0.082500
1.000000 0.565000 0.082500
0.060000 0.630625 0.082500
0.131875 0.630625 0.082500
0.203750 0.630625 0.082500
0.275625 0.630625 0.082500
0.347500 0.630625 0.082500
0.419375 0.630625 0.082500
0.491250 0.630625 0.082500
0.563125 0.630625 0.082500
0.635000 0.630625 0.082500
0.706875 0.630625 0.082500
0.778750 0.630625 0.082500
0.850625 0.630625 0.082500
0.922500 0.630625 0.082500
0.994375 0.630625 0.082500
1.000000 0.630625 0.082500
1.000000 0.630625 0.082500
1.000000 0.630625 0.082500
0.060000 0.696250 0.082500
0.131875 0.696250 0.082500
0.203750 0.696250 0.082500
0.275625 0.696250 0.082500
0.347500 0.696250 0.082500
0.419375 0.696250 0.082500
0.491250 0.696250 0.082500
0.563125 0.696250 0.082500
0.635000 0.696250 0.082500
0.706875 0.696250 0.082500
0.778750 0.696250 0.082500
0.850625 0.696250 0.082500
0.922500 0.696250 0.082500
0.994375 0.696250 0.082500
1.000000 0.696250 0.082500
1.000000 0.696250 0.082500
1.000000 0.696250 0.082500
0.060000 0.761875 0.082500
0.131875 0.761875 0.082500
0.203750 0.761875 0.082500
0.275625 0.761875 0.082500
0.347500 0.761875 0.082500
0.419375 0.761875 0.082500
0.491250 0.761875 0.082500
0.563125 0.761875 0.082500
0.635000 0.761875 0.082500
0.706875 0.761875 0.082500
0.778750 0.761875 0.082500
0.850625 0.761875 0.082500
0.922500 0.761875 0.082500
0.994375 0.761875 0.082500
1.000000 0.761875 0.082500
1.000000 0.761875 0.082500
1.000000 0.761875 0.082500
0.060000 0.827500 0.082500
0.131875 0.827500 0.082500
0.203750 0.827500 0.082500
0.275625 0.827500 0.082500
0.347500 0.827500 0.082500
0.419375 0.827500 0.082500
0.491250 0.827500 0.082500
0.563125 0.827500 0.082500
0.635000 0.827500 0.082500
0.706875 0.827500 0.082500
0.778750 0.827500 0.082500
0.850625 0.827500 0.082500
0.922500 0.827500 0.082500
0.994375 0.827500 0.082500
1.000000 0.827500 0.082500
1.000000 0.827500 0.082500
1.000000 0.827500 0.082500
0.060000 0.893125 0.082500
0.131875 0.893125 0.082500
0.203750 0.893125 0.082500
0.275625 0.893125 0.082500
0.347500 0.893125 0.082500
0.419375 0.893125 0.082500
0.491250 0.893125 0.082500
0.563125 0.893125 0.082500
0.635000 0.893125 0.082500
0.706875 0.893125 0.082500
0.778750 0.893125 0.082500
0.850625 0.893125 0.082500
0.922500 0.893125 0.082500
0.994375 0.893125 0.082500
1.000000 0.893125 0.082500
1.000000 0.893125 0.082500
1.000000 0.893125 0.082500
0.060000 0.958750 0.082500
0.131875 0.958750 0.082500
0.203750 0.958750 0.082500
0.275625 0.958750 0.082500
0.347500 0.958750 0.082500
0.419375 0.958750 0.082500
0.491250 0.958750 0.082500
0.563125 0.958750 0.082500
0.635000 0.958750 0.082500
0.706875 0.958750 0.082500
0.778750 0.958750 0.082500
0.850625 0.958750 0.082500
0.922500 0.958750 0.082500
0.994375 0.958750 0.082500
1.000000 0.958750 0.082500
1.000000 0.958750 0.082500
1.000000 0.958750 0.082500
0.060000 1.000000 0.082500
0.131875 1.000000 0.082500
0.203750 1.000000 0.082500
0.275625 1.000000 0.082500
0.347500 1.000000 0.082500
0.419375 1.000000 0.082500
0.491250 1.000000 0.082500
0.563125 1.000000 0.082500
0.635000 1.000000 0.082500
0.706875 1.000000 0.082500
0.778750 1.000000 0.082500
0.850625 1.000000 0.082500
0.922500 1.000000 0.082500
0.994375 1.000000 0.082500
1.000000 1.000000 0.082500
1.000000 1.000000 0.082500
1.000000 1.000000 0.082500
0.060000 1.000000 0.082500
0.131875 1.000000 0.082500
0.203750 1.000000 0.082500
0.275625 1.000000 0.082500
0.347500 1.000000 0.082500
0.419375 1.000000 0.082500
0.491250 1.000000 0.082500
0.563125 1.000000 0.082500
0.635000 1.000000 0.082500
0.706875 1.000000 0.082500
0.778750 1.000000 0.082500
0.850625 1.000000 0.082500
0.922500 1.000000 0.082500
0.994375 1.000000 0.082500
1.000000 1.000000 0.082500
1.000000 1.000000 0.082500
1.000000 1.000000 0.082500
0.060000 0.040000 0.138750
0.131875 0.040000 0.138750
0.203750 0.040000 0.138750
0.275625 0.040000 0.138750
0.347500 0.040000 0.138750
0.419375 0.040000 0.138750
0.491250 0.040000 0.138750
0.563125 0.040000 0.138750
0.635000 0.040000 0.138750
0.706875 0.040000 0.138750
0.778750 0.040000 0.138750
0.850625 0.040000 0.138750
0.922500 0.040000 0.138750
0.994375 0.040000 0.138750
1.000000 0.040000 0.138750
1.000000 0.040000 0.138750
1.000000 0.040000 0.138750
0.060000 0.105625 0.138750
