app/src/main/assets/luts/industrial.cube
# ApexStudio filter: industrial
LUT_3D_SIZE 9
DOMAIN_MIN 0.0 0.0 0.0
DOMAIN_MAX 1.0 1.0 1.0
0.000000 0.000000 0.000000
0.065183 0.022425 0.020183
0.130365 0.044850 0.040365
0.195548 0.067275 0.060548
0.260730 0.089700 0.080730
0.325913 0.112125 0.100912
0.391095 0.134550 0.121095
0.456277 0.156975 0.141277
0.521460 0.179400 0.161460
0.039622 0.094025 0.039622
0.104805 0.116450 0.059805
0.169988 0.138875 0.079988
0.235170 0.161300 0.100170
0.300353 0.183725 0.120352
0.365535 0.206150 0.140535
0.430718 0.228575 0.160718
0.495900 0.251000 0.180900
0.561083 0.273425 0.201083
0.079245 0.188050 0.079245
0.144427 0.210475 0.099427
0.209610 0.232900 0.119610
0.274792 0.255325 0.139792
0.339975 0.277750 0.159975
0.405158 0.300175 0.180157
0.470340 0.322600 0.200340
0.535523 0.345025 0.220523
0.600705 0.367450 0.240705
0.118868 0.282075 0.118868
0.184050 0.304500 0.139050
0.249232 0.326925 0.159232
0.314415 0.349350 0.179415
0.379598 0.371775 0.199597
0.444780 0.394200 0.219780
0.509962 0.416625 0.239962
0.575145 0.439050 0.260145
0.640327 0.461475 0.280327
0.158490 0.376100 0.158490
0.223672 0.398525 0.178672
0.288855 0.420950 0.198855
0.354038 0.443375 0.219038
0.419220 0.465800 0.239220
0.484402 0.488225 0.259402
0.549585 0.510650 0.279585
0.614768 0.533075 0.299768
0.679950 0.555500 0.319950
0.198112 0.470125 0.198112
0.263295 0.492550 0.218295
0.328477 0.514975 0.238477
0.393660 0.537400 0.258660
0.458842 0.559825 0.278842
0.524025 0.582250 0.299025
0.589207 0.604675 0.319207
0.654390 0.627100 0.339390
0.719573 0.649525 0.359572
0.237735 0.564150 0.237735
0.302917 0.586575 0.257917
0.368100 0.609000 0.278100
0.433283 0.631425 0.298283
0.498465 0.653850 0.318465
0.563647 0.676275 0.338647
0.628830 0.698700 0.358830
0.694013 0.721125 0.379013
0.759195 0.743550 0.399195
0.277357 0.658175 0.277357
0.342540 0.680600 0.297540
0.407723 0.703025 0.317722
0.472905 0.725450 0.337905
0.538087 0.747875 0.358088
0.603270 0.770300 0.378270
0.668453 0.792725 0.398453
0.733635 0.815150 0.418635
0.798818 0.837575 0.438817
0.316980 0.752200 0.316980
0.382163 0.774625 0.337162
0.447345 0.797050 0.357345
0.512528 0.819475 0.377528
0.577710 0.841900 0.397710
0.642892 0.864325 0.417893
0.708075 0.886750 0.438075
0.773258 0.909175 0.458257
0.838440 0.931600 0.478440
0.007695 0.008550 0.052695
0.072877 0.030975 0.072877
0.138060 0.053400 0.093060
0.203242 0.075825 0.113243
0.268425 0.098250 0.133425
0.333608 0.120675 0.153608
0.398790 0.143100 0.173790
0.463973 0.165525 0.193972
0.529155 0.187950 0.214155
0.047317 0.102575 0.092317
0.112500 0.125000 0.112500
0.177683 0.147425 0.132683
0.242865 0.169850 0.152865
0.308048 0.192275 0.173047
0.373230 0.214700 0.193230
0.438413 0.237125 0.213413
0.503595 0.259550 0.233595
0.568777 0.281975 0.253777
0.086940 0.196600 0.131940
0.152122 0.219025 0.152122
0.217305 0.241450 0.172305
0.282487 0.263875 0.192487
0.347670 0.286300 0.212670
0.412852 0.308725 0.232852
0.478035 0.331150 0.253035
0.543218 0.353575 0.273218
0.608400 0.376000 0.293400
0.126562 0.290625 0.171563
0.191745 0.313050 0.191745
0.256927 0.335475 0.211927
0.322110 0.357900 0.232110
0.387292 0.380325 0.252292
0.452475 0.402750 0.272475
0.517657 0.425175 0.292658
0.582840 0.447600 0.312840
0.648022 0.470025 0.333022
0.166185 0.384650 0.211185
0.231367 0.407075 0.231367
0.296550 0.429500 0.251550
0.361733 0.451925 0.271732
0.426915 0.474350 0.291915
0.492098 0.496775 0.312097
0.557280 0.519200 0.332280
0.622462 0.541625 0.352463
0.687645 0.564050 0.372645
0.205807 0.478675 0.250807
0.270990 0.501100 0.270990
0.336172 0.523525 0.291172
0.401355 0.545950 0.311355
0.466537 0.568375 0.331537
0.531720 0.590800 0.351720
0.596903 0.613225 0.371902
0.662085 0.635650 0.392085
0.727267 0.658075 0.412268
0.245430 0.572700 0.290430
0.310612 0.595125 0.310612
0.375795 0.617550 0.330795
0.440977 0.639975 0.350977
0.506160 0.662400 0.371160
0.571342 0.684825 0.391342
0.636525 0.707250 0.411525
0.701708 0.729675 0.431707
0.766890 0.752100 0.451890
0.285052 0.666725 0.330052
0.350235 0.689150 0.350235
0.415417 0.711575 0.370417
0.480600 0.734000 0.390600
0.545783 0.756425 0.410782
0.610965 0.778850 0.430965
0.676148 0.801275 0.451148
0.741330 0.823700 0.471330
0.806512 0.846125 0.491512
0.324675 0.760750 0.369675
0.389857 0.783175 0.389857
0.455040 0.805600 0.410040
0.520223 0.828025 0.430223
0.585405 0.850450 0.450405
0.650587 0.872875 0.470587
0.715770 0.895300 0.490770
0.780952 0.917725 0.510953
0.846135 0.940150 0.531135
0.015390 0.017100 0.105390
0.080573 0.039525 0.125573
0.145755 0.061950 0.145755
0.210938 0.084375 0.165938
0.276120 0.106800 0.186120
0.341303 0.129225 0.206302
0.406485 0.151650 0.226485
0.471668 0.174075 0.246668
0.536850 0.196500 0.266850
0.055012 0.111125 0.145012
0.120195 0.133550 0.165195
0.185378 0.155975 0.185378
0.250560 0.178400 0.205560
0.315742 0.200825 0.225743
0.380925 0.223250 0.245925
0.446108 0.245675 0.266108
0.511290 0.268100 0.286290
0.576473 0.290525 0.306473
0.094635 0.205150 0.184635
0.159818 0.227575 0.204818
0.225000 0.250000 0.225000
0.290183 0.272425 0.245182
0.355365 0.294850 0.265365
0.420548 0.317275 0.285548
0.485730 0.339700 0.305730
0.550913 0.362125 0.325913
0.616095 0.384550 0.346095
0.134258 0.299175 0.224257
0.199440 0.321600 0.244440
0.264623 0.344025 0.264623
0.329805 0.366450 0.284805
0.394988 0.388875 0.304987
0.460170 0.411300 0.325170
0.525353 0.433725 0.345353
0.590535 0.456150 0.365535
0.655717 0.478575 0.385717
0.173880 0.393200 0.263880
0.239063 0.415625 0.284062
0.304245 0.438050 0.304245
0.369428 0.460475 0.324427
0.434610 0.482900 0.344610
0.499792 0.505325 0.364793
0.564975 0.527750 0.384975
0.630158 0.550175 0.405158
0.695340 0.572600 0.425340
0.213502 0.487225 0.303503
0.278685 0.509650 0.323685
0.343867 0.532075 0.343867
0.409050 0.554500 0.364050
0.474233 0.576925 0.384232
0.539415 0.599350 0.404415
0.604597 0.621775 0.424597
0.669780 0.644200 0.444780
0.734962 0.666625 0.464963
0.253125 0.581250 0.343125
0.318307 0.603675 0.363307
0.383490 0.626100 0.383490
0.448672 0.648525 0.403672
0.513855 0.670950 0.423855
0.579037 0.693375 0.444037
0.644220 0.715800 0.464220
0.709402 0.738225 0.484402
0.774585 0.760650 0.504585
0.292747 0.675275 0.382747
0.357930 0.697700 0.402930
0.423112 0.720125 0.423112
0.488295 0.742550 0.443295
0.553477 0.764975 0.463477
0.618660 0.787400 0.483660
0.683843 0.809825 0.503843
0.749025 0.832250 0.524025
0.814207 0.854675 0.544207
0.332370 0.769300 0.422370
0.397552 0.791725 0.442552
0.462735 0.814150 0.462735
0.527917 0.836575 0.482918
0.593100 0.859000 0.503100
0.658282 0.881425 0.523282
0.723465 0.903850 0.543465
0.788647 0.926275 0.563647
0.853830 0.948700 0.583830
0.023085 0.025650 0.158085
0.088267 0.048075 0.178267
0.153450 0.070500 0.198450
0.218633 0.092925 0.218633
0.283815 0.115350 0.238815
0.348998 0.137775 0.258997
0.414180 0.160200 0.279180
0.479363 0.182625 0.299363
0.544545 0.205050 0.319545
0.062707 0.119675 0.197708
0.127890 0.142100 0.217890
0.193073 0.164525 0.238073
0.258255 0.186950 0.258255
0.323437 0.209375 0.278438
0.388620 0.231800 0.298620
0.453803 0.254225 0.318803
0.518985 0.276650 0.338985
0.584168 0.299075 0.359168
0.102330 0.213700 0.237330
0.167512 0.236125 0.257513
0.232695 0.258550 0.277695
0.297877 0.280975 0.297877
0.363060 0.303400 0.318060
0.428243 0.325825 0.338243
0.493425 0.348250 0.358425
0.558608 0.370675 0.378608
0.623790 0.393100 0.398790
0.141952 0.307725 0.276952
0.207135 0.330150 0.297135
0.272317 0.352575 0.317318
0.337500 0.375000 0.337500
0.402682 0.397425 0.357682
0.467865 0.419850 0.377865
0.533048 0.442275 0.398047
0.598230 0.464700 0.418230
0.663412 0.487125 0.438412
0.181575 0.401750 0.316575
0.246758 0.424175 0.336757
0.311940 0.446600 0.356940
0.377123 0.469025 0.377123
0.442305 0.491450 0.397305
0.507487 0.513875 0.417488
0.572670 0.536300 0.437670
0.637852 0.558725 0.457852
0.703035 0.581150 0.478035
0.221197 0.495775 0.356198
0.286380 0.518200 0.376380
0.351562 0.540625 0.396562
0.416745 0.563050 0.416745
0.481927 0.585475 0.436927
0.547110 0.607900 0.457110
0.612293 0.630325 0.477292
0.677475 0.652750 0.497475
0.742657 0.675175 0.517657
0.260820 0.589800 0.395820
0.326002 0.612225 0.416002
0.391185 0.634650 0.436185
0.456367 0.657075 0.456367
0.521550 0.679500 0.476550
0.586732 0.701925 0.496732
0.651915 0.724350 0.516915
0.717098 0.746775 0.537098
0.782280 0.769200 0.557280
0.300442 0.683825 0.435442
0.365625 0.706250 0.455625
0.430807 0.728675 0.475807
0.495990 0.751100 0.495990
0.561172 0.773525 0.516172
0.626355 0.795950 0.536355
0.691538 0.818375 0.556538
0.756720 0.840800 0.576720
0.821902 0.863225 0.596903
0.340065 0.777850 0.475065
0.405247 0.800275 0.495247
0.470430 0.822700 0.515430
0.535612 0.845125 0.535612
0.600795 0.867550 0.555795
0.665978 0.889975 0.575978
0.731160 0.912400 0.596160
0.796342 0.934825 0.616342
0.861525 0.957250 0.636525
0.030780 0.034200 0.210780
0.095963 0.056625 0.230962
0.161145 0.079050 0.251145
0.226328 0.101475 0.271328
0.291510 0.123900 0.291510
0.356693 0.146325 0.311692
0.421875 0.168750 0.331875
0.487057 0.191175 0.352058
0.552240 0.213600 0.372240
0.070402 0.128225 0.250403
0.135585 0.150650 0.270585
0.200767 0.173075 0.290768
0.265950 0.195500 0.310950
0.331132 0.217925 0.331132
0.396315 0.240350 0.351315
0.461498 0.262775 0.371498
0.526680 0.285200 0.391680
0.591863 0.307625 0.411863
0.110025 0.222250 0.290025
0.175207 0.244675 0.310208
0.240390 0.267100 0.330390
0.305572 0.289525 0.350573
0.370755 0.311950 0.370755
0.435938 0.334375 0.390937
0.501120 0.356800 0.411120
0.566303 0.379225 0.431303
0.631485 0.401650 0.451485
0.149648 0.316275 0.329648
0.214830 0.338700 0.349830
0.280012 0.361125 0.370013
0.345195 0.383550 0.390195
0.410377 0.405975 0.410377
0.475560 0.428400 0.430560
0.540743 0.450825 0.450742
0.605925 0.473250 0.470925
0.671107 0.495675 0.491108
0.189270 0.410300 0.369270
0.254453 0.432725 0.389452
0.319635 0.455150 0.409635
0.384817 0.477575 0.429818
0.450000 0.500000 0.450000
0.515183 0.522425 0.470183
0.580365 0.544850 0.490365
0.645548 0.567275 0.510548
0.710730 0.589700 0.530730
0.228892 0.504325 0.408892
0.294075 0.526750 0.429075
0.359257 0.549175 0.449257
0.424440 0.571600 0.469440
0.489623 0.594025 0.489623
0.554805 0.616450 0.509805
0.619988 0.638875 0.529987
0.685170 0.661300 0.550170
0.750353 0.683725 0.570353
0.268515 0.598350 0.448515
0.333697 0.620775 0.468697
0.398880 0.643200 0.488880
0.464062 0.665625 0.509063
0.529245 0.688050 0.529245
0.594427 0.710475 0.549427
0.659610 0.732900 0.569610
0.724793 0.755325 0.589793
0.789975 0.777750 0.609975
0.308138 0.692375 0.488138
0.373320 0.714800 0.508320
0.438503 0.737225 0.528502
0.503685 0.759650 0.548685
0.568867 0.782075 0.568867
0.634050 0.804500 0.589050
0.699233 0.826925 0.609233
0.764415 0.849350 0.629415
0.829597 0.871775 0.649597
0.347760 0.786400 0.527760
0.412943 0.808825 0.547943
0.478125 0.831250 0.568125
0.543307 0.853675 0.588307
0.608490 0.876100 0.608490
0.673673 0.898525 0.628673
0.738855 0.920950 0.648855
0.804038 0.943375 0.669038
0.869220 0.965800 0.689220
0.038475 0.042750 0.263475
0.103657 0.065175 0.283658
0.168840 0.087600 0.303840
0.234023 0.110025 0.324023
0.299205 0.132450 0.344205
0.364387 0.154875 0.364387
0.429570 0.177300 0.384570
0.494753 0.199725 0.404753
0.559935 0.222150 0.424935
0.078098 0.136775 0.303098
0.143280 0.159200 0.323280
0.208462 0.181625 0.343463
0.273645 0.204050 0.363645
0.338828 0.226475 0.383827
0.404010 0.248900 0.404010
0.469193 0.271325 0.424193
0.534375 0.293750 0.444375
0.599558 0.316175 0.464558
0.117720 0.230800 0.342720
0.182903 0.253225 0.362903
0.248085 0.275650 0.383085
0.313268 0.298075 0.403268
0.378450 0.320500 0.423450
0.443632 0.342925 0.443632
0.508815 0.365350 0.463815
0.573998 0.387775 0.483998
0.639180 0.410200 0.504180
0.157343 0.324825 0.382343
0.222525 0.347250 0.402525
0.287708 0.369675 0.422708
0.352890 0.392100 0.442890
0.418073 0.414525 0.463072
0.483255 0.436950 0.483255
0.548438 0.459375 0.503437
0.613620 0.481800 0.523620
0.678803 0.504225 0.543803
0.196965 0.418850 0.421965
0.262147 0.441275 0.442147
0.327330 0.463700 0.462330
0.392513 0.486125 0.482513
0.457695 0.508550 0.502695
0.522877 0.530975 0.522877
0.588060 0.553400 0.543060
0.653243 0.575825 0.563242
0.718425 0.598250 0.583425
0.236587 0.512875 0.461587
0.301770 0.535300 0.481770
0.366953 0.557725 0.501953
0.432135 0.580150 0.522135
0.497317 0.602575 0.542318
0.562500 0.625000 0.562500
0.627683 0.647425 0.582682
0.692865 0.669850 0.602865
0.758047 0.692275 0.623047
0.276210 0.606900 0.501210
0.341393 0.629325 0.521393
0.406575 0.651750 0.541575
0.471757 0.674175 0.561758
0.536940 0.696600 0.581940
0.602123 0.719025 0.602123
0.667305 0.741450 0.622305
0.732488 0.763875 0.642488
0.797670 0.786300 0.662670
0.315833 0.700925 0.540833
0.381015 0.723350 0.561015
0.446197 0.745775 0.581198
0.511380 0.768200 0.601380
0.576562 0.790625 0.621563
0.641745 0.813050 0.641745
0.706928 0.835475 0.661928
0.772110 0.857900 0.682110
0.837292 0.880325 0.702292
0.355455 0.794950 0.580455
0.420637 0.817375 0.600638
0.485820 0.839800 0.620820
0.551003 0.862225 0.641003
0.616185 0.884650 0.661185
0.681368 0.907075 0.681368
0.746550 0.929500 0.701550
0.811732 0.951925 0.721732
0.876915 0.974350 0.741915
0.046170 0.051300 0.316170
0.111353 0.073725 0.336352
0.176535 0.096150 0.356535
0.241718 0.118575 0.376718
0.306900 0.141000 0.396900
0.372082 0.163425 0.417082
0.437265 0.185850 0.437265
0.502448 0.208275 0.457448
0.567630 0.230700 0.477630
0.085792 0.145325 0.355793
0.150975 0.167750 0.375975
0.216158 0.190175 0.396158
0.281340 0.212600 0.416340
0.346523 0.235025 0.436523
0.411705 0.257450 0.456705
0.476888 0.279875 0.476888
0.542070 0.302300 0.497070
0.607253 0.324725 0.517253
0.125415 0.239350 0.395415
0.190598 0.261775 0.415598
0.255780 0.284200 0.435780
0.320962 0.306625 0.455962
0.386145 0.329050 0.476145
0.451327 0.351475 0.496327
0.516510 0.373900 0.516510
0.581693 0.396325 0.536693
0.646875 0.418750 0.556875
0.165037 0.333375 0.435038
0.230220 0.355800 0.455220
0.295403 0.378225 0.475403
0.360585 0.400650 0.495585
0.425768 0.423075 0.515768
0.490950 0.445500 0.535950
0.556133 0.467925 0.556133
0.621315 0.490350 0.576315
0.686497 0.512775 0.596498
0.204660 0.427400 0.474660
0.269843 0.449825 0.494843
0.335025 0.472250 0.515025
0.400208 0.494675 0.535208
0.465390 0.517100 0.555390
0.530573 0.539525 0.575573
0.595755 0.561950 0.595755
0.660938 0.584375 0.615938
0.726120 0.606800 0.636120
0.244282 0.521425 0.514282
0.309465 0.543850 0.534465
0.374647 0.566275 0.554648
0.439830 0.588700 0.574830
0.505012 0.611125 0.595012
0.570195 0.633550 0.615195
0.635377 0.655975 0.635377
0.700560 0.678400 0.655560
0.765743 0.700825 0.675743
0.283905 0.615450 0.553905
0.349087 0.637875 0.574087
0.414270 0.660300 0.594270
0.479453 0.682725 0.614453
0.544635 0.705150 0.634635
0.609817 0.727575 0.654817
0.675000 0.750000 0.675000
0.740183 0.772425 0.695183
0.805365 0.794850 0.715365
0.323528 0.709475 0.593528
0.388710 0.731900 0.613710
0.453893 0.754325 0.633892
0.519075 0.776750 0.654075
0.584257 0.799175 0.674258
0.649440 0.821600 0.694440
0.714623 0.844025 0.714623
0.779805 0.866450 0.734805
0.844988 0.888875 0.754987
0.363150 0.803500 0.633150
0.428333 0.825925 0.653333
0.493515 0.848350 0.673515
0.558697 0.870775 0.693697
0.623880 0.893200 0.713880
0.689063 0.915625 0.734063
0.754245 0.938050 0.754245
0.819428 0.960475 0.774428
0.884610 0.982900 0.794610
0.053865 0.059850 0.368865
0.119048 0.082275 0.389048
0.184230 0.104700 0.409230
0.249413 0.127125 0.429413
0.314595 0.149550 0.449595
0.379777 0.171975 0.469778
0.444960 0.194400 0.489960
0.510143 0.216825 0.510143
0.575325 0.239250 0.530325
0.093488 0.153875 0.408488
0.158670 0.176300 0.428670
0.223853 0.198725 0.448852
0.289035 0.221150 0.469035
0.354218 0.243575 0.489218
0.419400 0.266000 0.509400
0.484583 0.288425 0.529582
0.549765 0.310850 0.549765
0.614948 0.333275 0.569948
0.133110 0.247900 0.448110
0.198293 0.270325 0.468293
0.263475 0.292750 0.488475
0.328657 0.315175 0.508657
0.393840 0.337600 0.528840
0.459022 0.360025 0.549023
0.524205 0.382450 0.569205
0.589387 0.404875 0.589387
0.654570 0.427300 0.609570
0.172733 0.341925 0.487733
0.237915 0.364350 0.507915
0.303098 0.386775 0.528098
0.368280 0.409200 0.548280
0.433462 0.431625 0.568462
0.498645 0.454050 0.588645
0.563828 0.476475 0.608827
0.629010 0.498900 0.629010
0.694193 0.521325 0.649193
0.212355 0.435950 0.527355
0.277537 0.458375 0.547538
0.342720 0.480800 0.567720
0.407903 0.503225 0.587903
0.473085 0.525650 0.608085
0.538268 0.548075 0.628267
0.603450 0.570500 0.648450
0.668633 0.592925 0.668633
0.733815 0.615350 0.688815
0.251977 0.529975 0.566978
0.317160 0.552400 0.587160
0.382342 0.574825 0.607343
0.447525 0.597250 0.627525
0.512707 0.619675 0.647707
0.577890 0.642100 0.667890
0.643072 0.664525 0.688072
0.708255 0.686950 0.708255
0.773438 0.709375 0.728437
0.291600 0.624000 0.606600
0.356783 0.646425 0.626783
0.421965 0.668850 0.646965
0.487147 0.691275 0.667148
0.552330 0.713700 0.687330
0.617513 0.736125 0.707512
0.682695 0.758550 0.727695
0.747878 0.780975 0.747878
0.813060 0.803400 0.768060
0.331222 0.718025 0.646223
0.396405 0.740450 0.666405
0.461587 0.762875 0.686588
0.526770 0.785300 0.706770
0.591952 0.807725 0.726953
0.657135 0.830150 0.747135
0.722318 0.852575 0.767318
0.787500 0.875000 0.787500
0.852683 0.897425 0.807682
0.370845 0.812050 0.685845
0.436028 0.834475 0.706028
0.501210 0.856900 0.726210
0.566393 0.879325 0.746393
0.631575 0.901750 0.766575
0.696757 0.924175 0.786757
0.761940 0.946600 0.806940
0.827122 0.969025 0.827122
0.892305 0.991450 0.847305
0.061560 0.068400 0.421560
0.126743 0.090825 0.441743
0.191925 0.113250 0.461925
0.257108 0.135675 0.482108
0.322290 0.158100 0.502290
0.387473 0.180525 0.522473
0.452655 0.202950 0.542655
0.517837 0.225375 0.562837
0.583020 0.247800 0.583020
0.101183 0.162425 0.461183
0.166365 0.184850 0.481365
0.231547 0.207275 0.501548
0.296730 0.229700 0.521730
0.361913 0.252125 0.541913
0.427095 0.274550 0.562095
0.492277 0.296975 0.582278
0.557460 0.319400 0.602460
0.622642 0.341825 0.622642
0.140805 0.256450 0.500805
0.205987 0.278875 0.520988
0.271170 0.301300 0.541170
0.336352 0.323725 0.561353
0.401535 0.346150 0.581535
0.466718 0.368575 0.601717
0.531900 0.391000 0.621900
0.597083 0.413425 0.642083
0.662265 0.435850 0.662265
0.180427 0.350475 0.540428
0.245610 0.372900 0.560610
0.310793 0.395325 0.580793
0.375975 0.417750 0.600975
0.441157 0.440175 0.621158
0.506340 0.462600 0.641340
0.571522 0.485025 0.661523
0.636705 0.507450 0.681705
0.701887 0.529875 0.701887
0.220050 0.444500 0.580050
0.285232 0.466925 0.600233
0.350415 0.489350 0.620415
0.415598 0.511775 0.640598
0.480780 0.534200 0.660780
0.545963 0.556625 0.680963
0.611145 0.579050 0.701145
0.676327 0.601475 0.721328
0.741510 0.623900 0.741510
0.259672 0.538525 0.619672
0.324855 0.560950 0.639855
0.390037 0.583375 0.660038
0.455220 0.605800 0.680220
0.520402 0.628225 0.700402
0.585585 0.650650 0.720585
0.650767 0.673075 0.740768
0.715950 0.695500 0.760950
0.781133 0.717925 0.781133
0.299295 0.632550 0.659295
0.364478 0.654975 0.679477
0.429660 0.677400 0.699660
0.494843 0.699825 0.719843
0.560025 0.722250 0.740025
0.625207 0.744675 0.760207
0.690390 0.767100 0.780390
0.755572 0.789525 0.800573
0.820755 0.811950 0.820755
0.338917 0.726575 0.698918
0.404100 0.749000 0.719100
0.469283 0.771425 0.739282
0.534465 0.793850 0.759465
0.599647 0.816275 0.779648
0.664830 0.838700 0.799830
0.730012 0.861125 0.820013
0.795195 0.883550 0.840195
0.860377 0.905975 0.860377
0.378540 0.820600 0.738540
0.443723 0.843025 0.758723
0.508905 0.865450 0.778905
0.574087 0.887875 0.799087
0.639270 0.910300 0.819270
0.704453 0.932725 0.839453
0.769635 0.955150 0.859635
0.834817 0.977575 0.879818
0.900000 1.000000 0.900000
