app/src/main/assets/luts/industrial.cube
# ApexStudio filter: industrial
LUT_3D_SIZE 17
DOMAIN_MIN 0.0 0.0 0.0
DOMAIN_MAX 1.0 1.0 1.0
0.000000 0.000000 0.000000
0.032591 0.011213 0.010091
0.065183 0.022425 0.020183
0.097774 0.033638 0.030274
0.130365 0.044850 0.040365
0.162956 0.056062 0.050456
0.195548 0.067275 0.060548
0.228139 0.078487 0.070639
0.260730 0.089700 0.080730
0.293321 0.100912 0.090821
0.325913 0.112125 0.100912
0.358504 0.123337 0.111004
0.391095 0.134550 0.121095
0.423686 0.145762 0.131186
0.456277 0.156975 0.141277
0.488869 0.168187 0.151369
0.521460 0.179400 0.161460
0.019811 0.047012 0.019811
0.052402 0.058225 0.029902
0.084994 0.069437 0.039994
0.117585 0.080650 0.050085
0.150176 0.091862 0.060176
0.182767 0.103075 0.070267
0.215359 0.114288 0.080359
0.247950 0.125500 0.090450
0.280541 0.136713 0.100541
0.313132 0.147925 0.110632
0.345724 0.159137 0.120724
0.378315 0.170350 0.130815
0.410906 0.181562 0.140906
0.443498 0.192775 0.150998
0.476089 0.203987 0.161089
0.508680 0.215200 0.171180
0.541271 0.226412 0.181271
0.039622 0.094025 0.039622
0.072214 0.105237 0.049714
0.104805 0.116450 0.059805
0.137396 0.127662 0.069896
0.169988 0.138875 0.079988
0.202579 0.150087 0.090079
0.235170 0.161300 0.100170
0.267761 0.172512 0.110261
0.300353 0.183725 0.120352
0.332944 0.194937 0.130444
0.365535 0.206150 0.140535
0.398126 0.217362 0.150626
0.430718 0.228575 0.160718
0.463309 0.239787 0.170809
0.495900 0.251000 0.180900
0.528491 0.262212 0.190991
0.561083 0.273425 0.201083
0.059434 0.141037 0.059434
0.092025 0.152250 0.069525
0.124616 0.163463 0.079616
0.157208 0.174675 0.089707
0.189799 0.185887 0.099799
0.222390 0.197100 0.109890
0.254981 0.208312 0.119981
0.287573 0.219525 0.130073
0.320164 0.230737 0.140164
0.352755 0.241950 0.150255
0.385346 0.253162 0.160346
0.417938 0.264375 0.170437
0.450529 0.275587 0.180529
0.483120 0.286800 0.190620
0.515711 0.298013 0.200711
0.548303 0.309225 0.210802
0.580894 0.320437 0.220894
0.079245 0.188050 0.079245
0.111836 0.199263 0.089336
0.144427 0.210475 0.099427
0.177019 0.221688 0.109519
0.209610 0.232900 0.119610
0.242201 0.244113 0.129701
0.274792 0.255325 0.139792
0.307384 0.266537 0.149884
0.339975 0.277750 0.159975
0.372566 0.288963 0.170066
0.405158 0.300175 0.180157
0.437749 0.311387 0.190249
0.470340 0.322600 0.200340
0.502931 0.333812 0.210431
0.535523 0.345025 0.220523
0.568114 0.356237 0.230614
0.600705 0.367450 0.240705
0.099056 0.235062 0.099056
0.131648 0.246275 0.109147
0.164239 0.257487 0.119239
0.196830 0.268700 0.129330
0.229421 0.279912 0.139421
0.262012 0.291125 0.149512
0.294604 0.302337 0.159604
0.327195 0.313550 0.169695
0.359786 0.324763 0.179786
0.392377 0.335975 0.189877
0.424969 0.347187 0.199969
0.457560 0.358400 0.210060
0.490151 0.369613 0.220151
0.522742 0.380825 0.230242
0.555334 0.392037 0.240334
0.587925 0.403250 0.250425
0.620516 0.414462 0.260516
0.118868 0.282075 0.118868
0.151459 0.293287 0.128959
0.184050 0.304500 0.139050
0.216641 0.315713 0.149141
0.249232 0.326925 0.159232
0.281824 0.338137 0.169324
0.314415 0.349350 0.179415
0.347006 0.360563 0.189506
0.379598 0.371775 0.199597
0.412189 0.382987 0.209689
0.444780 0.394200 0.219780
0.477371 0.405413 0.229871
0.509962 0.416625 0.239962
0.542554 0.427837 0.250054
0.575145 0.439050 0.260145
0.607736 0.450263 0.270236
0.640327 0.461475 0.280327
0.138679 0.329087 0.138679
0.171270 0.340300 0.148770
0.203861 0.351513 0.158861
0.236452 0.362725 0.168953
0.269044 0.373937 0.179044
0.301635 0.385150 0.189135
0.334226 0.396363 0.199226
0.366818 0.407575 0.209317
0.399409 0.418787 0.219409
0.432000 0.430000 0.229500
0.464591 0.441213 0.239591
0.497182 0.452425 0.249682
0.529774 0.463637 0.259774
0.562365 0.474850 0.269865
0.594956 0.486063 0.279956
0.627548 0.497275 0.290048
0.660139 0.508487 0.300139
0.158490 0.376100 0.158490
0.191081 0.387313 0.168581
0.223672 0.398525 0.178672
0.256264 0.409737 0.188764
0.288855 0.420950 0.198855
0.321446 0.432163 0.208946
0.354038 0.443375 0.219038
0.386629 0.454587 0.229129
0.419220 0.465800 0.239220
0.451811 0.477013 0.249311
0.484402 0.488225 0.259402
0.516994 0.499437 0.269494
0.549585 0.510650 0.279585
0.582176 0.521863 0.289676
0.614768 0.533075 0.299768
0.647359 0.544287 0.309859
0.679950 0.555500 0.319950
0.178301 0.423113 0.178301
0.210893 0.434325 0.188392
0.243484 0.445537 0.198484
0.276075 0.456750 0.208575
0.308666 0.467962 0.218666
0.341257 0.479175 0.228758
0.373849 0.490387 0.238849
0.406440 0.501600 0.248940
0.439031 0.512813 0.259031
0.471623 0.524025 0.269122
0.504214 0.535238 0.279214
0.536805 0.546450 0.289305
0.569396 0.557662 0.299396
0.601988 0.568875 0.309487
0.634579 0.580087 0.319579
0.667170 0.591300 0.329670
0.699761 0.602513 0.339761
0.198112 0.470125 0.198112
0.230704 0.481337 0.208204
0.263295 0.492550 0.218295
0.295886 0.503763 0.228386
0.328477 0.514975 0.238477
0.361069 0.526188 0.248569
0.393660 0.537400 0.258660
0.426251 0.548612 0.268751
0.458842 0.559825 0.278842
0.491434 0.571037 0.288934
0.524025 0.582250 0.299025
0.556616 0.593463 0.309116
0.589207 0.604675 0.319207
0.621799 0.615888 0.329299
0.654390 0.627100 0.339390
0.686981 0.638312 0.349481
0.719573 0.649525 0.359572
0.217924 0.517138 0.217924
0.250515 0.528350 0.228015
0.283106 0.539562 0.238106
0.315698 0.550775 0.248197
0.348289 0.561987 0.258289
0.380880 0.573200 0.268380
0.413471 0.584413 0.278471
0.446063 0.595625 0.288563
0.478654 0.606838 0.298654
0.511245 0.618050 0.308745
0.543836 0.629262 0.318836
0.576427 0.640475 0.328927
0.609019 0.651687 0.339019
0.641610 0.662900 0.349110
0.674201 0.674113 0.359201
0.706793 0.685325 0.369293
0.739384 0.696538 0.379384
0.237735 0.564150 0.237735
0.270326 0.575362 0.247826
0.302917 0.586575 0.257917
0.335509 0.597788 0.268009
0.368100 0.609000 0.278100
0.400691 0.620213 0.288191
0.433283 0.631425 0.298283
0.465874 0.642637 0.308374
0.498465 0.653850 0.318465
0.531056 0.665063 0.328556
0.563647 0.676275 0.338647
0.596239 0.687487 0.348739
0.628830 0.698700 0.358830
0.661421 0.709912 0.368921
0.694013 0.721125 0.379013
0.726604 0.732337 0.389104
0.759195 0.743550 0.399195
0.257546 0.611162 0.257546
0.290137 0.622375 0.267637
0.322729 0.633587 0.277729
0.355320 0.644800 0.287820
0.387911 0.656012 0.297911
0.420503 0.667225 0.308003
0.453094 0.678438 0.318094
0.485685 0.689650 0.328185
0.518276 0.700862 0.338276
0.550867 0.712075 0.348367
0.583459 0.723287 0.358459
0.616050 0.734500 0.368550
0.648641 0.745713 0.378641
0.681233 0.756925 0.388732
0.713824 0.768138 0.398824
0.746415 0.779350 0.408915
0.779006 0.790562 0.419006
0.277357 0.658175 0.277357
0.309949 0.669388 0.287449
0.342540 0.680600 0.297540
0.375131 0.691813 0.307631
0.407723 0.703025 0.317722
0.440314 0.714237 0.327814
0.472905 0.725450 0.337905
0.505496 0.736662 0.347996
0.538087 0.747875 0.358088
0.570679 0.759087 0.368179
0.603270 0.770300 0.378270
0.635861 0.781512 0.388361
0.668453 0.792725 0.398453
0.701044 0.803937 0.408544
0.733635 0.815150 0.418635
0.766226 0.826362 0.428726
0.798818 0.837575 0.438817
0.297169 0.705187 0.297169
0.329760 0.716400 0.307260
0.362351 0.727612 0.317351
0.394943 0.738825 0.327442
0.427534 0.750038 0.337534
0.460125 0.761250 0.347625
0.492716 0.772463 0.357716
0.525307 0.783675 0.367807
0.557899 0.794887 0.377899
0.590490 0.806100 0.387990
0.623081 0.817312 0.398081
0.655672 0.828525 0.408172
0.688264 0.839738 0.418264
0.720855 0.850950 0.428355
0.753446 0.862162 0.438446
0.786038 0.873375 0.448537
0.818629 0.884587 0.458629
0.316980 0.752200 0.316980
0.349571 0.763412 0.327071
0.382163 0.774625 0.337162
0.414754 0.785837 0.347254
0.447345 0.797050 0.357345
0.479936 0.808262 0.367436
0.512528 0.819475 0.377528
0.545119 0.830688 0.387619
0.577710 0.841900 0.397710
0.610301 0.853112 0.407801
0.642892 0.864325 0.417893
0.675484 0.875537 0.427984
0.708075 0.886750 0.438075
0.740666 0.897962 0.448166
0.773258 0.909175 0.458257
0.805849 0.920387 0.468349
0.838440 0.931600 0.478440
0.003848 0.004275 0.026348
0.036439 0.015487 0.036439
0.069030 0.026700 0.046530
0.101621 0.037913 0.056621
0.134213 0.049125 0.066712
0.166804 0.060337 0.076804
0.199395 0.071550 0.086895
0.231986 0.082762 0.096986
0.264578 0.093975 0.107078
0.297169 0.105187 0.117169
0.329760 0.116400 0.127260
0.362351 0.127612 0.137351
0.394943 0.138825 0.147443
0.427534 0.150037 0.157534
0.460125 0.161250 0.167625
0.492716 0.172462 0.177716
0.525307 0.183675 0.187808
0.023659 0.051287 0.046159
0.056250 0.062500 0.056250
0.088841 0.073713 0.066341
0.121433 0.084925 0.076433
0.154024 0.096138 0.086524
0.186615 0.107350 0.096615
0.219206 0.118563 0.106706
0.251798 0.129775 0.116797
0.284389 0.140987 0.126889
0.316980 0.152200 0.136980
0.349571 0.163412 0.147071
0.382162 0.174625 0.157162
0.414754 0.185837 0.167254
0.447345 0.197050 0.177345
0.479936 0.208262 0.187436
0.512528 0.219475 0.197527
0.545119 0.230687 0.207619
0.043470 0.098300 0.065970
0.076061 0.109512 0.076061
0.108652 0.120725 0.086152
0.141244 0.131937 0.096244
0.173835 0.143150 0.106335
0.206426 0.154362 0.116426
0.239018 0.165575 0.126518
0.271609 0.176787 0.136609
0.304200 0.188000 0.146700
0.336791 0.199212 0.156791
0.369383 0.210425 0.166882
0.401974 0.221637 0.176974
0.434565 0.232850 0.187065
0.467156 0.244062 0.197156
0.499747 0.255275 0.207247
0.532339 0.266487 0.217339
0.564930 0.277700 0.227430
0.063281 0.145313 0.085781
0.095872 0.156525 0.095872
0.128464 0.167737 0.105964
0.161055 0.178950 0.116055
0.193646 0.190162 0.126146
0.226238 0.201375 0.136237
0.258829 0.212587 0.146329
0.291420 0.223800 0.156420
0.324011 0.235012 0.166511
0.356602 0.246225 0.176602
0.389194 0.257437 0.186694
0.421785 0.268650 0.196785
0.454376 0.279863 0.206876
0.486967 0.291075 0.216967
0.519559 0.302287 0.227059
0.552150 0.313500 0.237150
0.584741 0.324712 0.247241
0.083092 0.192325 0.105592
0.115684 0.203537 0.115684
0.148275 0.214750 0.125775
0.180866 0.225963 0.135866
0.213457 0.237175 0.145957
0.246049 0.248387 0.156049
0.278640 0.259600 0.166140
0.311231 0.270813 0.176231
0.343823 0.282025 0.186323
0.376414 0.293237 0.196414
0.409005 0.304450 0.206505
0.441596 0.315662 0.216596
0.474187 0.326875 0.226687
0.506779 0.338087 0.236779
0.539370 0.349300 0.246870
0.571961 0.360512 0.256961
0.604553 0.371725 0.267052
0.102904 0.239337 0.125404
0.135495 0.250550 0.135495
0.168086 0.261762 0.145586
0.200677 0.272975 0.155677
0.233269 0.284187 0.165769
0.265860 0.295400 0.175860
0.298451 0.306612 0.185951
0.331042 0.317825 0.196043
0.363634 0.329037 0.206134
0.396225 0.340250 0.216225
0.428816 0.351462 0.226316
0.461408 0.362675 0.236407
0.493999 0.373887 0.246499
0.526590 0.385100 0.256590
0.559181 0.396312 0.266681
0.591772 0.407525 0.276772
0.624364 0.418737 0.286864
0.122715 0.286350 0.145215
0.155306 0.297563 0.155306
0.187897 0.308775 0.165398
0.220489 0.319987 0.175489
0.253080 0.331200 0.185580
0.285671 0.342412 0.195671
0.318263 0.353625 0.205762
0.350854 0.364837 0.215854
0.383445 0.376050 0.225945
0.416036 0.387262 0.236036
0.448628 0.398475 0.246127
0.481219 0.409687 0.256219
0.513810 0.420900 0.266310
0.546401 0.432113 0.276401
0.578993 0.443325 0.286492
0.611584 0.454538 0.296584
0.644175 0.465750 0.306675
0.142526 0.333363 0.165026
0.175118 0.344575 0.175118
0.207709 0.355787 0.185209
0.240300 0.367000 0.195300
0.272891 0.378213 0.205391
0.305482 0.389425 0.215482
0.338074 0.400638 0.225574
0.370665 0.411850 0.235665
0.403256 0.423062 0.245756
0.435847 0.434275 0.255847
0.468439 0.445487 0.265939
0.501030 0.456700 0.276030
0.533621 0.467913 0.286121
0.566213 0.479125 0.296212
0.598804 0.490338 0.306304
0.631395 0.501550 0.316395
0.663986 0.512763 0.326486
0.162337 0.380375 0.184837
0.194929 0.391587 0.194929
0.227520 0.402800 0.205020
0.260111 0.414013 0.215111
0.292702 0.425225 0.225202
0.325294 0.436437 0.235294
0.357885 0.447650 0.245385
0.390476 0.458863 0.255476
0.423067 0.470075 0.265568
0.455659 0.481287 0.275659
0.488250 0.492500 0.285750
0.520841 0.503713 0.295841
0.553432 0.514925 0.305932
0.586024 0.526138 0.316024
0.618615 0.537350 0.326115
0.651206 0.548562 0.336206
0.683798 0.559775 0.346298
0.182149 0.427387 0.204649
0.214740 0.438600 0.214740
0.247331 0.449812 0.224831
0.279923 0.461025 0.234922
0.312514 0.472237 0.245014
0.345105 0.483450 0.255105
0.377696 0.494663 0.265196
0.410287 0.505875 0.275287
0.442879 0.517087 0.285379
0.475470 0.528300 0.295470
0.508061 0.539513 0.305561
0.540652 0.550725 0.315652
0.573244 0.561937 0.325744
0.605835 0.573150 0.335835
0.638426 0.584363 0.345926
0.671018 0.595575 0.356018
0.703609 0.606788 0.366109
0.201960 0.474400 0.224460
0.234551 0.485613 0.234551
0.267142 0.496825 0.244642
0.299734 0.508037 0.254734
0.332325 0.519250 0.264825
0.364916 0.530462 0.274916
0.397508 0.541675 0.285007
0.430099 0.552887 0.295099
0.462690 0.564100 0.305190
0.495281 0.575313 0.315281
0.527872 0.586525 0.325373
0.560464 0.597738 0.335464
0.593055 0.608950 0.345555
0.625646 0.620163 0.355646
0.658238 0.631375 0.365737
0.690829 0.642587 0.375829
0.723420 0.653800 0.385920
0.221771 0.521413 0.244271
0.254363 0.532625 0.254363
0.286954 0.543837 0.264454
0.319545 0.555050 0.274545
0.352136 0.566263 0.284636
0.384728 0.577475 0.294728
0.417319 0.588688 0.304819
0.449910 0.599900 0.314910
0.482501 0.611113 0.325001
0.515092 0.622325 0.335093
0.547684 0.633537 0.345184
0.580275 0.644750 0.355275
0.612866 0.655963 0.365366
0.645458 0.667175 0.375457
0.678049 0.678388 0.385549
0.710640 0.689600 0.395640
0.743231 0.700813 0.405731
0.241582 0.568425 0.264082
0.274174 0.579638 0.274174
0.306765 0.590850 0.284265
0.339356 0.602062 0.294356
0.371948 0.613275 0.304447
0.404539 0.624488 0.314539
0.437130 0.635700 0.324630
0.469721 0.646913 0.334721
0.502313 0.658125 0.344813
0.534904 0.669338 0.354904
0.567495 0.680550 0.364995
0.600086 0.691762 0.375086
0.632678 0.702975 0.385178
0.665269 0.714187 0.395269
0.697860 0.725400 0.405360
0.730451 0.736613 0.415451
0.763043 0.747825 0.425542
0.261394 0.615437 0.283894
0.293985 0.626650 0.293985
0.326576 0.637862 0.304076
0.359167 0.649075 0.314167
0.391759 0.660288 0.324259
0.424350 0.671500 0.334350
0.456941 0.682713 0.344441
0.489532 0.693925 0.354533
0.522124 0.705137 0.364624
0.554715 0.716350 0.374715
0.587306 0.727563 0.384806
0.619897 0.738775 0.394897
0.652489 0.749988 0.404989
0.685080 0.761200 0.415080
0.717671 0.772413 0.425171
0.750263 0.783625 0.435263
0.782854 0.794837 0.445354
0.281205 0.662450 0.303705
0.313796 0.673663 0.313796
0.346388 0.684875 0.323888
0.378979 0.696088 0.333979
0.411570 0.707300 0.344070
0.444161 0.718512 0.354161
0.476753 0.729725 0.364253
0.509344 0.740938 0.374344
0.541935 0.752150 0.384435
0.574526 0.763362 0.394526
0.607118 0.774575 0.404618
0.639709 0.785787 0.414709
0.672300 0.797000 0.424800
0.704891 0.808213 0.434891
0.737483 0.819425 0.444983
0.770074 0.830638 0.455074
0.802665 0.841850 0.465165
0.301016 0.709462 0.323516
0.333608 0.720675 0.333608
0.366199 0.731888 0.343699
0.398790 0.743100 0.353790
0.431381 0.754313 0.363881
0.463973 0.765525 0.373972
0.496564 0.776738 0.384064
0.529155 0.787950 0.394155
0.561746 0.799162 0.404246
0.594337 0.810375 0.414337
0.626929 0.821588 0.424429
0.659520 0.832800 0.434520
0.692111 0.844013 0.444611
0.724703 0.855225 0.454703
0.757294 0.866437 0.464794
0.789885 0.877650 0.474885
0.822476 0.888862 0.484976
0.320827 0.756475 0.343328
0.353419 0.767687 0.353419
0.386010 0.778900 0.363510
0.418601 0.790112 0.373601
0.451193 0.801325 0.383692
0.483784 0.812538 0.393784
0.516375 0.823750 0.403875
0.548966 0.834963 0.413966
0.581557 0.846175 0.424057
0.614149 0.857387 0.434149
0.646740 0.868600 0.444240
0.679331 0.879812 0.454331
0.711923 0.891025 0.464422
0.744514 0.902238 0.474514
0.777105 0.913450 0.484605
0.809696 0.924662 0.494696
0.842288 0.935875 0.504788
0.007695 0.008550 0.052695
0.040286 0.019763 0.062786
0.072877 0.030975 0.072877
0.105469 0.042188 0.082969
0.138060 0.053400 0.093060
0.170651 0.064612 0.103151
0.203242 0.075825 0.113243
0.235834 0.087038 0.123334
0.268425 0.098250 0.133425
0.301016 0.109463 0.143516
0.333608 0.120675 0.153608
0.366199 0.131887 0.163699
0.398790 0.143100 0.173790
0.431381 0.154313 0.183881
0.463973 0.165525 0.193972
0.496564 0.176737 0.204064
0.529155 0.187950 0.214155
0.027506 0.055563 0.072506
0.060098 0.066775 0.082598
0.092689 0.077988 0.092689
0.125280 0.089200 0.102780
0.157871 0.100413 0.112871
0.190463 0.111625 0.122963
0.223054 0.122838 0.133054
0.255645 0.134050 0.143145
0.288236 0.145263 0.153236
0.320827 0.156475 0.163328
0.353419 0.167687 0.173419
0.386010 0.178900 0.183510
0.418601 0.190112 0.193601
0.451193 0.201325 0.203692
0.483784 0.212537 0.213784
0.516375 0.223750 0.223875
0.548966 0.234962 0.233966
0.047317 0.102575 0.092317
0.079909 0.113787 0.102409
0.112500 0.125000 0.112500
0.145091 0.136212 0.122591
0.177683 0.147425 0.132683
0.210274 0.158637 0.142774
0.242865 0.169850 0.152865
0.275456 0.181063 0.162956
0.308048 0.192275 0.173047
0.340639 0.203487 0.183139
0.373230 0.214700 0.193230
0.405821 0.225912 0.203321
0.438413 0.237125 0.213413
0.471004 0.248337 0.223504
0.503595 0.259550 0.233595
0.536186 0.270762 0.243686
0.568777 0.281975 0.253777
0.067129 0.149587 0.112129
0.099720 0.160800 0.122220
0.132311 0.172013 0.132311
0.164903 0.183225 0.142403
0.197494 0.194438 0.152494
0.230085 0.205650 0.162585
0.262676 0.216862 0.172676
0.295268 0.228075 0.182767
0.327859 0.239287 0.192859
0.360450 0.250500 0.202950
0.393041 0.261712 0.213041
0.425632 0.272925 0.223132
0.458224 0.284137 0.233224
0.490815 0.295350 0.243315
0.523406 0.306562 0.253406
0.555998 0.317775 0.263497
0.588589 0.328987 0.273589
0.086940 0.196600 0.131940
0.119531 0.207813 0.142031
0.152122 0.219025 0.152122
0.184714 0.230238 0.162214
0.217305 0.241450 0.172305
0.249896 0.252663 0.182396
0.282487 0.263875 0.192487
0.315079 0.275087 0.202579
0.347670 0.286300 0.212670
0.380261 0.297512 0.222761
0.412852 0.308725 0.232852
0.445444 0.319937 0.242944
0.478035 0.331150 0.253035
0.510626 0.342362 0.263126
0.543218 0.353575 0.273218
0.575809 0.364787 0.283309
0.608400 0.376000 0.293400
0.106751 0.243613 0.151751
0.139343 0.254825 0.161843
0.171934 0.266037 0.171934
0.204525 0.277250 0.182025
0.237116 0.288462 0.192116
0.269707 0.299675 0.202207
0.302299 0.310887 0.212299
0.334890 0.322100 0.222390
0.367481 0.333313 0.232481
0.400072 0.344525 0.242572
0.432664 0.355737 0.252664
0.465255 0.366950 0.262755
0.497846 0.378162 0.272846
0.530438 0.389375 0.282937
0.563029 0.400587 0.293029
0.595620 0.411800 0.303120
0.628211 0.423012 0.313211
0.126562 0.290625 0.171563
0.159154 0.301837 0.181654
0.191745 0.313050 0.191745
0.224336 0.324262 0.201836
0.256927 0.335475 0.211927
0.289519 0.346687 0.222019
0.322110 0.357900 0.232110
0.354701 0.369113 0.242201
0.387292 0.380325 0.252292
0.419884 0.391537 0.262384
0.452475 0.402750 0.272475
0.485066 0.413963 0.282566
0.517657 0.425175 0.292658
0.550249 0.436387 0.302749
0.582840 0.447600 0.312840
0.615431 0.458812 0.322931
0.648022 0.470025 0.333022
0.146374 0.337637 0.191374
0.178965 0.348850 0.201465
0.211556 0.360063 0.211556
0.244147 0.371275 0.221647
0.276739 0.382487 0.231739
0.309330 0.393700 0.241830
0.341921 0.404913 0.251921
0.374512 0.416125 0.262012
0.407104 0.427337 0.272104
0.439695 0.438550 0.282195
0.472286 0.449763 0.292286
0.504877 0.460975 0.302377
0.537469 0.472187 0.312469
0.570060 0.483400 0.322560
0.602651 0.494613 0.332651
0.635242 0.505825 0.342743
0.667834 0.517038 0.352834
0.166185 0.384650 0.211185
0.198776 0.395863 0.221276
0.231367 0.407075 0.231367
0.263959 0.418287 0.241459
0.296550 0.429500 0.251550
0.329141 0.440713 0.261641
0.361733 0.451925 0.271732
0.394324 0.463137 0.281824
0.426915 0.474350 0.291915
0.459506 0.485562 0.302006
0.492098 0.496775 0.312097
0.524689 0.507987 0.322189
0.557280 0.519200 0.332280
0.589871 0.530412 0.342371
0.622462 0.541625 0.352463
0.655054 0.552837 0.362554
0.687645 0.564050 0.372645
0.185996 0.431662 0.230996
0.218587 0.442875 0.241087
0.251179 0.454087 0.251179
0.283770 0.465300 0.261270
0.316361 0.476512 0.271361
0.348952 0.487725 0.281452
0.381544 0.498937 0.291544
0.414135 0.510150 0.301635
0.446726 0.521362 0.311726
0.479318 0.532575 0.321817
0.511909 0.543787 0.331909
0.544500 0.555000 0.342000
0.577091 0.566212 0.352091
0.609683 0.577425 0.362182
0.642274 0.588637 0.372274
0.674865 0.599850 0.382365
0.707456 0.611062 0.392456
0.205807 0.478675 0.250807
0.238399 0.489887 0.260899
0.270990 0.501100 0.270990
0.303581 0.512312 0.281081
0.336172 0.523525 0.291172
0.368764 0.534737 0.301264
0.401355 0.545950 0.311355
0.433946 0.557163 0.321446
0.466537 0.568375 0.331537
0.499129 0.579588 0.341629
0.531720 0.590800 0.351720
0.564311 0.602012 0.361811
0.596903 0.613225 0.371902
0.629494 0.624437 0.381994
0.662085 0.635650 0.392085
0.694676 0.646862 0.402176
0.727267 0.658075 0.412268
0.225619 0.525687 0.270619
0.258210 0.536900 0.280710
0.290801 0.548113 0.290801
0.323393 0.559325 0.300893
0.355984 0.570537 0.310984
0.388575 0.581750 0.321075
0.421166 0.592962 0.331166
0.453758 0.604175 0.341258
0.486349 0.615387 0.351349
0.518940 0.626600 0.361440
0.551531 0.637813 0.371531
0.584122 0.649025 0.381622
0.616714 0.660238 0.391714
0.649305 0.671450 0.401805
0.681896 0.682663 0.411896
0.714488 0.693875 0.421988
0.747079 0.705087 0.432079
0.245430 0.572700 0.290430
0.278021 0.583913 0.300521
0.310612 0.595125 0.310612
0.343204 0.606337 0.320704
0.375795 0.617550 0.330795
0.408386 0.628763 0.340886
0.440977 0.639975 0.350977
0.473569 0.651188 0.361069
0.506160 0.662400 0.371160
0.538751 0.673612 0.381251
0.571342 0.684825 0.391342
0.603934 0.696037 0.401434
0.636525 0.707250 0.411525
0.669116 0.718463 0.421616
0.701708 0.729675 0.431707
0.734299 0.740888 0.441799
0.766890 0.752100 0.451890
0.265241 0.619712 0.310241
0.297833 0.630925 0.320332
0.330424 0.642138 0.330424
0.363015 0.653350 0.340515
0.395606 0.664562 0.350606
0.428197 0.675775 0.360698
0.460789 0.686987 0.370789
0.493380 0.698200 0.380880
0.525971 0.709413 0.390971
0.558562 0.720625 0.401062
0.591154 0.731837 0.411154
0.623745 0.743050 0.421245
0.656336 0.754262 0.431336
0.688927 0.765475 0.441427
0.721519 0.776687 0.451519
0.754110 0.787900 0.461610
0.786701 0.799113 0.471701
0.285052 0.666725 0.330052
0.317644 0.677937 0.340144
0.350235 0.689150 0.350235
0.382826 0.700362 0.360326
0.415417 0.711575 0.370417
0.448009 0.722787 0.380509
0.480600 0.734000 0.390600
0.513191 0.745213 0.400691
0.545783 0.756425 0.410782
0.578374 0.767637 0.420874
0.610965 0.778850 0.430965
0.643556 0.790063 0.441056
0.676148 0.801275 0.451148
0.708739 0.812488 0.461239
0.741330 0.823700 0.471330
0.773921 0.834912 0.481421
0.806512 0.846125 0.491512
0.304864 0.713738 0.349864
0.337455 0.724950 0.359955
0.370046 0.736163 0.370046
0.402637 0.747375 0.380137
0.435229 0.758587 0.390229
0.467820 0.769800 0.400320
0.500411 0.781012 0.410411
0.533003 0.792225 0.420503
0.565594 0.803438 0.430594
0.598185 0.814650 0.440685
0.630776 0.825862 0.450776
0.663367 0.837075 0.460867
0.695959 0.848287 0.470959
0.728550 0.859500 0.481050
0.761141 0.870713 0.491141
0.793732 0.881925 0.501232
0.826324 0.893137 0.511324
0.324675 0.760750 0.369675
0.357266 0.771962 0.379766
0.389857 0.783175 0.389857
0.422449 0.794388 0.399949
0.455040 0.805600 0.410040
0.487631 0.816812 0.420131
0.520223 0.828025 0.430223
0.552814 0.839237 0.440314
0.585405 0.850450 0.450405
0.617996 0.861662 0.460496
0.650587 0.872875 0.470587
0.683179 0.884087 0.480679
0.715770 0.895300 0.490770
0.748361 0.906512 0.500861
0.780952 0.917725 0.510953
0.813544 0.928937 0.521044
0.846135 0.940150 0.531135
0.011543 0.012825 0.079043
0.044134 0.024037 0.089134
0.076725 0.035250 0.099225
0.109316 0.046463 0.109316
0.141908 0.057675 0.119407
0.174499 0.068887 0.129499
0.207090 0.080100 0.139590
0.239681 0.091312 0.149681
0.272273 0.102525 0.159772
0.304864 0.113737 0.169864
0.337455 0.124950 0.179955
0.370046 0.136162 0.190046
0.402638 0.147375 0.200137
0.435229 0.158587 0.210229
0.467820 0.169800 0.220320
0.500411 0.181012 0.230411
0.533003 0.192225 0.240503
0.031354 0.059838 0.098854
