app/src/main/assets/luts/industrial.cube
# ApexStudio filter: industrial
LUT_3D_SIZE 5
DOMAIN_MIN 0.0 0.0 0.0
DOMAIN_MAX 1.0 1.0 1.0
0.000000 0.000000 0.000000
0.130365 0.044850 0.040365
0.260730 0.089700 0.080730
0.391095 0.134550 0.121095
0.521460 0.179400 0.161460
0.079245 0.188050 0.079245
0.209610 0.232900 0.119610
0.339975 0.277750 0.159975
0.470340 0.322600 0.200340
0.600705 0.367450 0.240705
0.158490 0.376100 0.158490
0.288855 0.420950 0.198855
0.419220 0.465800 0.239220
0.549585 0.510650 0.279585
0.679950 0.555500 0.319950
0.237735 0.564150 0.237735
0.368100 0.609000 0.278100
0.498465 0.653850 0.318465
0.628830 0.698700 0.358830
0.759195 0.743550 0.399195
0.316980 0.752200 0.316980
0.447345 0.797050 0.357345
0.577710 0.841900 0.397710
0.708075 0.886750 0.438075
0.838440 0.931600 0.478440
0.015390 0.017100 0.105390
0.145755 0.061950 0.145755
0.276120 0.106800 0.186120
0.406485 0.151650 0.226485
0.536850 0.196500 0.266850
0.094635 0.205150 0.184635
0.225000 0.250000 0.225000
0.355365 0.294850 0.265365
0.485730 0.339700 0.305730
0.616095 0.384550 0.346095
0.173880 0.393200 0.263880
0.304245 0.438050 0.304245
0.434610 0.482900 0.344610
0.564975 0.527750 0.384975
0.695340 0.572600 0.425340
0.253125 0.581250 0.343125
0.383490 0.626100 0.383490
0.513855 0.670950 0.423855
0.644220 0.715800 0.464220
0.774585 0.760650 0.504585
0.332370 0.769300 0.422370
0.462735 0.814150 0.462735
0.593100 0.859000 0.503100
0.723465 0.903850 0.543465
0.853830 0.948700 0.583830
0.030780 0.034200 0.210780
0.161145 0.079050 0.251145
0.291510 0.123900 0.291510
0.421875 0.168750 0.331875
0.552240 0.213600 0.372240
0.110025 0.222250 0.290025
0.240390 0.267100 0.330390
0.370755 0.311950 0.370755
0.501120 0.356800 0.411120
0.631485 0.401650 0.451485
0.189270 0.410300 0.369270
0.319635 0.455150 0.409635
0.450000 0.500000 0.450000
0.580365 0.544850 0.490365
0.710730 0.589700 0.530730
0.268515 0.598350 0.448515
0.398880 0.643200 0.488880
0.529245 0.688050 0.529245
0.659610 0.732900 0.569610
0.789975 0.777750 0.609975
0.347760 0.786400 0.527760
0.478125 0.831250 0.568125
0.608490 0.876100 0.608490
0.738855 0.920950 0.648855
0.869220 0.965800 0.689220
0.046170 0.051300 0.316170
0.176535 0.096150 0.356535
0.306900 0.141000 0.396900
0.437265 0.185850 0.437265
0.567630 0.230700 0.477630
0.125415 0.239350 0.395415
0.255780 0.284200 0.435780
0.386145 0.329050 0.476145
0.516510 0.373900 0.516510
0.646875 0.418750 0.556875
0.204660 0.427400 0.474660
0.335025 0.472250 0.515025
0.465390 0.517100 0.555390
0.595755 0.561950 0.595755
0.726120 0.606800 0.636120
0.283905 0.615450 0.553905
0.414270 0.660300 0.594270
0.544635 0.705150 0.634635
0.675000 0.750000 0.675000
0.805365 0.794850 0.715365
0.363150 0.803500 0.633150
0.493515 0.848350 0.673515
0.623880 0.893200 0.713880
0.754245 0.938050 0.754245
0.884610 0.982900 0.794610
0.061560 0.068400 0.421560
0.191925 0.113250 0.461925
0.322290 0.158100 0.502290
0.452655 0.202950 0.542655
0.583020 0.247800 0.583020
0.140805 0.256450 0.500805
0.271170 0.301300 0.541170
0.401535 0.346150 0.581535
0.531900 0.391000 0.621900
0.662265 0.435850 0.662265
0.220050 0.444500 0.580050
0.350415 0.489350 0.620415
0.480780 0.534200 0.660780
0.611145 0.579050 0.701145
0.741510 0.623900 0.741510
0.299295 0.632550 0.659295
0.429660 0.677400 0.699660
0.560025 0.722250 0.740025
0.690390 0.767100 0.780390
0.820755 0.811950 0.820755
0.378540 0.820600 0.738540
0.508905 0.865450 0.778905
0.639270 0.910300 0.819270
0.769635 0.955150 0.859635
0.900000 1.000000 0.900000
