app/src/main/assets/luts/ink_wash.cube
# ApexStudio filter: ink_wash
LUT_3D_SIZE 17
DOMAIN_MIN 0.0 0.0 0.0
DOMAIN_MAX 1.0 1.0 1.0
0.000000 0.000000 0.000000
0.000000 0.000000 0.000000
0.000000 0.000000 0.000000
0.000000 0.000000 0.000000
0.000000 0.000000 0.000000
0.000000 0.000000 0.000000
0.000000 0.000000 0.000000
0.000000 0.000000 0.000000
0.000000 0.000000 0.000000
0.000000 0.000000 0.000000
0.000000 0.000000 0.000000
0.000000 0.000000 0.000000
0.003650 0.003650 0.003650
0.037288 0.037288 0.037288
0.070925 0.070925 0.070925
0.104562 0.104562 0.104562
0.138200 0.138200 0.138200
0.000000 0.000000 0.000000
0.000000 0.000000 0.000000
0.000000 0.000000 0.000000
0.000000 0.000000 0.000000
0.000000 0.000000 0.000000
0.000000 0.000000 0.000000
0.000000 0.000000 0.000000
0.000000 0.000000 0.000000
0.000000 0.000000 0.000000
0.000000 0.000000 0.000000
0.002412 0.002412 0.002412
0.036050 0.036050 0.036050
0.069687 0.069687 0.069687
0.103325 0.103325 0.103325
0.136962 0.136962 0.136962
0.170600 0.170600 0.170600
0.204237 0.204237 0.204237
0.000000 0.000000 0.000000
0.000000 0.000000 0.000000
0.000000 0.000000 0.000000
0.000000 0.000000 0.000000
0.000000 0.000000 0.000000
0.000000 0.000000 0.000000
0.000000 0.000000 0.000000
0.000000 0.000000 0.000000
0.001175 0.001175 0.001175
0.034813 0.034813 0.034813
0.068450 0.068450 0.068450
0.102087 0.102087 0.102087
0.135725 0.135725 0.135725
0.169362 0.169362 0.169362
0.203000 0.203000 0.203000
0.236637 0.236637 0.236637
0.270275 0.270275 0.270275
0.000000 0.000000 0.000000
0.000000 0.000000 0.000000
0.000000 0.000000 0.000000
0.000000 0.000000 0.000000
0.000000 0.000000 0.000000
0.000000 0.000000 0.000000
0.000000 0.000000 0.000000
0.033575 0.033575 0.033575
0.067212 0.067212 0.067212
0.100850 0.100850 0.100850
0.134487 0.134487 0.134487
0.168125 0.168125 0.168125
0.201763 0.201763 0.201763
0.235400 0.235400 0.235400
0.269038 0.269038 0.269038
0.302675 0.302675 0.302675
0.336313 0.336313 0.336313
0.000000 0.000000 0.000000
0.000000 0.000000 0.000000
0.000000 0.000000 0.000000
0.000000 0.000000 0.000000
0.000000 0.000000 0.000000
0.032337 0.032337 0.032337
0.065975 0.065975 0.065975
0.099612 0.099612 0.099612
0.133250 0.133250 0.133250
0.166887 0.166887 0.166887
0.200525 0.200525 0.200525
0.234162 0.234162 0.234162
0.267800 0.267800 0.267800
0.301437 0.301437 0.301437
0.335075 0.335075 0.335075
0.368712 0.368712 0.368712
0.402350 0.402350 0.402350
0.000000 0.000000 0.000000
0.000000 0.000000 0.000000
0.000000 0.000000 0.000000
0.031100 0.031100 0.031100
0.064737 0.064737 0.064737
0.098375 0.098375 0.098375
0.132012 0.132012 0.132012
0.165650 0.165650 0.165650
0.199288 0.199288 0.199288
0.232925 0.232925 0.232925
0.266562 0.266562 0.266562
0.300200 0.300200 0.300200
0.333837 0.333837 0.333837
0.367475 0.367475 0.367475
0.401112 0.401112 0.401112
0.434750 0.434750 0.434750
0.468387 0.468387 0.468387
0.000000 0.000000 0.000000
0.029862 0.029862 0.029862
0.063500 0.063500 0.063500
0.097137 0.097137 0.097137
0.130775 0.130775 0.130775
0.164412 0.164412 0.164412
0.198050 0.198050 0.198050
0.231687 0.231687 0.231687
0.265325 0.265325 0.265325
0.298962 0.298962 0.298962
0.332600 0.332600 0.332600
0.366237 0.366237 0.366237
0.399875 0.399875 0.399875
0.433512 0.433512 0.433512
0.467150 0.467150 0.467150
0.500787 0.500787 0.500787
0.534425 0.534425 0.534425
0.062262 0.062262 0.062262
0.095900 0.095900 0.095900
0.129537 0.129537 0.129537
0.163175 0.163175 0.163175
0.196812 0.196812 0.196812
0.230450 0.230450 0.230450
0.264088 0.264088 0.264088
0.297725 0.297725 0.297725
0.331362 0.331362 0.331362
0.365000 0.365000 0.365000
0.398638 0.398638 0.398638
0.432275 0.432275 0.432275
0.465913 0.465913 0.465913
0.499550 0.499550 0.499550
0.533188 0.533188 0.533188
0.566825 0.566825 0.566825
0.600463 0.600463 0.600463
0.128300 0.128300 0.128300
0.161938 0.161938 0.161938
0.195575 0.195575 0.195575
0.229212 0.229212 0.229212
0.262850 0.262850 0.262850
0.296488 0.296488 0.296488
0.330125 0.330125 0.330125
0.363762 0.363762 0.363762
0.397400 0.397400 0.397400
0.431037 0.431037 0.431037
0.464675 0.464675 0.464675
0.498312 0.498312 0.498312
0.531950 0.531950 0.531950
0.565588 0.565588 0.565588
0.599225 0.599225 0.599225
0.632862 0.632862 0.632862
0.666500 0.666500 0.666500
0.194337 0.194337 0.194337
0.227975 0.227975 0.227975
0.261612 0.261612 0.261612
0.295250 0.295250 0.295250
0.328887 0.328887 0.328887
0.362525 0.362525 0.362525
0.396162 0.396162 0.396162
0.429800 0.429800 0.429800
0.463437 0.463437 0.463437
0.497075 0.497075 0.497075
0.530712 0.530712 0.530712
0.564350 0.564350 0.564350
0.597987 0.597987 0.597987
0.631625 0.631625 0.631625
0.665262 0.665262 0.665262
0.698900 0.698900 0.698900
0.732538 0.732538 0.732538
0.260375 0.260375 0.260375
0.294012 0.294012 0.294012
0.327650 0.327650 0.327650
0.361287 0.361287 0.361287
0.394925 0.394925 0.394925
0.428562 0.428562 0.428562
0.462200 0.462200 0.462200
0.495837 0.495837 0.495837
0.529475 0.529475 0.529475
0.563113 0.563113 0.563113
0.596750 0.596750 0.596750
0.630387 0.630387 0.630387
0.664025 0.664025 0.664025
0.697662 0.697662 0.697662
0.731300 0.731300 0.731300
0.764937 0.764937 0.764937
0.798575 0.798575 0.798575
0.326412 0.326412 0.326412
0.360050 0.360050 0.360050
0.393687 0.393687 0.393687
0.427325 0.427325 0.427325
0.460962 0.460962 0.460962
0.494600 0.494600 0.494600
0.528237 0.528237 0.528237
0.561875 0.561875 0.561875
0.595513 0.595513 0.595513
0.629150 0.629150 0.629150
0.662787 0.662787 0.662787
0.696425 0.696425 0.696425
0.730063 0.730063 0.730063
0.763700 0.763700 0.763700
0.797338 0.797338 0.797338
0.830975 0.830975 0.830975
0.864613 0.864613 0.864613
0.392450 0.392450 0.392450
0.426088 0.426088 0.426088
0.459725 0.459725 0.459725
0.493362 0.493362 0.493362
0.527000 0.527000 0.527000
0.560638 0.560638 0.560638
0.594275 0.594275 0.594275
0.627913 0.627913 0.627913
0.661550 0.661550 0.661550
0.695187 0.695187 0.695187
0.728825 0.728825 0.728825
0.762462 0.762462 0.762462
0.796100 0.796100 0.796100
0.829737 0.829737 0.829737
0.863375 0.863375 0.863375
0.897012 0.897012 0.897012
0.930650 0.930650 0.930650
0.458487 0.458487 0.458487
0.492125 0.492125 0.492125
0.525762 0.525762 0.525762
0.559400 0.559400 0.559400
0.593037 0.593037 0.593037
0.626675 0.626675 0.626675
0.660312 0.660312 0.660312
0.693950 0.693950 0.693950
0.727587 0.727587 0.727587
0.761225 0.761225 0.761225
0.794862 0.794862 0.794862
0.828500 0.828500 0.828500
0.862138 0.862138 0.862138
0.895775 0.895775 0.895775
0.929412 0.929412 0.929412
0.963050 0.963050 0.963050
0.996687 0.996687 0.996687
0.524525 0.524525 0.524525
0.558162 0.558162 0.558162
0.591800 0.591800 0.591800
0.625438 0.625438 0.625438
0.659075 0.659075 0.659075
0.692712 0.692712 0.692712
0.726350 0.726350 0.726350
0.759988 0.759988 0.759988
0.793625 0.793625 0.793625
0.827262 0.827262 0.827262
0.860900 0.860900 0.860900
0.894537 0.894537 0.894537
0.928175 0.928175 0.928175
0.961813 0.961813 0.961813
0.995450 0.995450 0.995450
1.000000 1.000000 1.000000
1.000000 1.000000 1.000000
0.590562 0.590562 0.590562
0.624200 0.624200 0.624200
0.657838 0.657838 0.657838
0.691475 0.691475 0.691475
0.725112 0.725112 0.725112
0.758750 0.758750 0.758750
0.792388 0.792388 0.792388
0.826025 0.826025 0.826025
0.859662 0.859662 0.859662
0.893300 0.893300 0.893300
0.926937 0.926937 0.926937
0.960575 0.960575 0.960575
0.994213 0.994213 0.994213
1.000000 1.000000 1.000000
1.000000 1.000000 1.000000
1.000000 1.000000 1.000000
1.000000 1.000000 1.000000
0.656600 0.656600 0.656600
0.690237 0.690237 0.690237
0.723875 0.723875 0.723875
0.757513 0.757513 0.757513
0.791150 0.791150 0.791150
0.824787 0.824787 0.824787
0.858425 0.858425 0.858425
0.892062 0.892062 0.892062
0.925700 0.925700 0.925700
0.959337 0.959337 0.959337
0.992975 0.992975 0.992975
1.000000 1.000000 1.000000
1.000000 1.000000 1.000000
1.000000 1.000000 1.000000
1.000000 1.000000 1.000000
1.000000 1.000000 1.000000
1.000000 1.000000 1.000000
0.000000 0.000000 0.000000
0.000000 0.000000 0.000000
0.000000 0.000000 0.000000
0.000000 0.000000 0.000000
0.000000 0.000000 0.000000
0.000000 0.000000 0.000000
0.000000 0.000000 0.000000
0.000000 0.000000 0.000000
0.000000 0.000000 0.000000
0.000000 0.000000 0.000000
0.000000 0.000000 0.000000
0.000000 0.000000 0.000000
0.016475 0.016475 0.016475
0.050113 0.050113 0.050113
0.083750 0.083750 0.083750
0.117387 0.117387 0.117387
0.151025 0.151025 0.151025
0.000000 0.000000 0.000000
0.000000 0.000000 0.000000
0.000000 0.000000 0.000000
0.000000 0.000000 0.000000
0.000000 0.000000 0.000000
0.000000 0.000000 0.000000
0.000000 0.000000 0.000000
0.000000 0.000000 0.000000
0.000000 0.000000 0.000000
0.000000 0.000000 0.000000
0.015237 0.015237 0.015237
0.048875 0.048875 0.048875
0.082512 0.082512 0.082512
0.116150 0.116150 0.116150
0.149787 0.149787 0.149787
0.183425 0.183425 0.183425
0.217062 0.217062 0.217062
0.000000 0.000000 0.000000
0.000000 0.000000 0.000000
0.000000 0.000000 0.000000
0.000000 0.000000 0.000000
0.000000 0.000000 0.000000
0.000000 0.000000 0.000000
0.000000 0.000000 0.000000
0.000000 0.000000 0.000000
0.014000 0.014000 0.014000
0.047637 0.047637 0.047637
0.081275 0.081275 0.081275
0.114912 0.114912 0.114912
0.148550 0.148550 0.148550
0.182187 0.182187 0.182187
0.215825 0.215825 0.215825
0.249462 0.249462 0.249462
0.283100 0.283100 0.283100
0.000000 0.000000 0.000000
0.000000 0.000000 0.000000
0.000000 0.000000 0.000000
0.000000 0.000000 0.000000
0.000000 0.000000 0.000000
0.000000 0.000000 0.000000
0.012762 0.012762 0.012762
0.046400 0.046400 0.046400
0.080037 0.080037 0.080037
0.113675 0.113675 0.113675
0.147312 0.147312 0.147312
0.180950 0.180950 0.180950
0.214587 0.214587 0.214587
0.248225 0.248225 0.248225
0.281863 0.281863 0.281863
0.315500 0.315500 0.315500
0.349137 0.349137 0.349137
0.000000 0.000000 0.000000
0.000000 0.000000 0.000000
0.000000 0.000000 0.000000
0.000000 0.000000 0.000000
0.011525 0.011525 0.011525
0.045162 0.045162 0.045162
0.078800 0.078800 0.078800
0.112437 0.112437 0.112437
0.146075 0.146075 0.146075
0.179712 0.179712 0.179712
0.213350 0.213350 0.213350
0.246987 0.246987 0.246987
0.280625 0.280625 0.280625
0.314262 0.314262 0.314262
0.347900 0.347900 0.347900
0.381537 0.381537 0.381537
0.415175 0.415175 0.415175
0.000000 0.000000 0.000000
0.000000 0.000000 0.000000
0.010287 0.010287 0.010287
0.043925 0.043925 0.043925
0.077562 0.077562 0.077562
0.111200 0.111200 0.111200
0.144837 0.144837 0.144837
0.178475 0.178475 0.178475
0.212112 0.212112 0.212112
0.245750 0.245750 0.245750
0.279387 0.279387 0.279387
0.313025 0.313025 0.313025
0.346662 0.346662 0.346662
0.380300 0.380300 0.380300
0.413937 0.413937 0.413937
0.447575 0.447575 0.447575
0.481212 0.481212 0.481212
0.009050 0.009050 0.009050
0.042687 0.042687 0.042687
0.076325 0.076325 0.076325
0.109962 0.109962 0.109962
0.143600 0.143600 0.143600
0.177237 0.177237 0.177237
0.210875 0.210875 0.210875
0.244513 0.244513 0.244513
0.278150 0.278150 0.278150
0.311787 0.311787 0.311787
0.345425 0.345425 0.345425
0.379062 0.379062 0.379062
0.412700 0.412700 0.412700
0.446337 0.446337 0.446337
0.479975 0.479975 0.479975
0.513613 0.513613 0.513613
0.547250 0.547250 0.547250
0.075087 0.075087 0.075087
0.108725 0.108725 0.108725
0.142362 0.142362 0.142362
0.176000 0.176000 0.176000
0.209637 0.209637 0.209637
0.243275 0.243275 0.243275
0.276913 0.276913 0.276913
0.310550 0.310550 0.310550
0.344187 0.344187 0.344187
0.377825 0.377825 0.377825
0.411463 0.411463 0.411463
0.445100 0.445100 0.445100
0.478737 0.478737 0.478737
0.512375 0.512375 0.512375
0.546013 0.546013 0.546013
0.579650 0.579650 0.579650
0.613288 0.613288 0.613288
0.141125 0.141125 0.141125
0.174762 0.174762 0.174762
0.208400 0.208400 0.208400
0.242037 0.242037 0.242037
0.275675 0.275675 0.275675
0.309312 0.309312 0.309312
0.342950 0.342950 0.342950
0.376587 0.376587 0.376587
0.410225 0.410225 0.410225
0.443862 0.443862 0.443862
0.477500 0.477500 0.477500
0.511138 0.511138 0.511138
0.544775 0.544775 0.544775
0.578413 0.578413 0.578413
0.612050 0.612050 0.612050
0.645687 0.645687 0.645687
0.679325 0.679325 0.679325
0.207162 0.207162 0.207162
0.240800 0.240800 0.240800
0.274437 0.274437 0.274437
0.308075 0.308075 0.308075
0.341712 0.341712 0.341712
0.375350 0.375350 0.375350
0.408987 0.408987 0.408987
0.442625 0.442625 0.442625
0.476262 0.476262 0.476262
0.509900 0.509900 0.509900
0.543538 0.543538 0.543538
0.577175 0.577175 0.577175
0.610812 0.610812 0.610812
0.644450 0.644450 0.644450
0.678088 0.678088 0.678088
0.711725 0.711725 0.711725
0.745363 0.745363 0.745363
0.273200 0.273200 0.273200
0.306837 0.306837 0.306837
0.340475 0.340475 0.340475
0.374112 0.374112 0.374112
0.407750 0.407750 0.407750
0.441387 0.441387 0.441387
0.475025 0.475025 0.475025
0.508663 0.508663 0.508663
0.542300 0.542300 0.542300
0.575938 0.575938 0.575938
0.609575 0.609575 0.609575
0.643212 0.643212 0.643212
0.676850 0.676850 0.676850
0.710488 0.710488 0.710488
0.744125 0.744125 0.744125
0.777762 0.777762 0.777762
0.811400 0.811400 0.811400
0.339237 0.339237 0.339237
0.372875 0.372875 0.372875
0.406512 0.406512 0.406512
0.440150 0.440150 0.440150
0.473787 0.473787 0.473787
0.507425 0.507425 0.507425
0.541063 0.541063 0.541063
0.574700 0.574700 0.574700
0.608338 0.608338 0.608338
0.641975 0.641975 0.641975
0.675612 0.675612 0.675612
0.709250 0.709250 0.709250
0.742888 0.742888 0.742888
0.776525 0.776525 0.776525
0.810163 0.810163 0.810163
0.843800 0.843800 0.843800
0.877438 0.877438 0.877438
0.405275 0.405275 0.405275
0.438912 0.438912 0.438912
0.472550 0.472550 0.472550
0.506188 0.506188 0.506188
0.539825 0.539825 0.539825
0.573463 0.573463 0.573463
0.607100 0.607100 0.607100
0.640738 0.640738 0.640738
0.674375 0.674375 0.674375
0.708013 0.708013 0.708013
0.741650 0.741650 0.741650
0.775287 0.775287 0.775287
0.808925 0.808925 0.808925
0.842562 0.842562 0.842562
0.876200 0.876200 0.876200
0.909838 0.909838 0.909838
0.943475 0.943475 0.943475
0.471312 0.471312 0.471312
0.504950 0.504950 0.504950
0.538587 0.538587 0.538587
0.572225 0.572225 0.572225
0.605863 0.605863 0.605863
0.639500 0.639500 0.639500
0.673137 0.673137 0.673137
0.706775 0.706775 0.706775
0.740413 0.740413 0.740413
0.774050 0.774050 0.774050
0.807687 0.807687 0.807687
0.841325 0.841325 0.841325
0.874963 0.874963 0.874963
0.908600 0.908600 0.908600
0.942238 0.942238 0.942238
0.975875 0.975875 0.975875
1.000000 1.000000 1.000000
0.537350 0.537350 0.537350
0.570987 0.570987 0.570987
0.604625 0.604625 0.604625
0.638263 0.638263 0.638263
0.671900 0.671900 0.671900
0.705538 0.705538 0.705538
0.739175 0.739175 0.739175
0.772813 0.772813 0.772813
0.806450 0.806450 0.806450
0.840087 0.840087 0.840087
0.873725 0.873725 0.873725
0.907363 0.907363 0.907363
0.941000 0.941000 0.941000
0.974638 0.974638 0.974638
1.000000 1.000000 1.000000
1.000000 1.000000 1.000000
1.000000 1.000000 1.000000
0.603388 0.603388 0.603388
0.637025 0.637025 0.637025
0.670663 0.670663 0.670663
0.704300 0.704300 0.704300
0.737938 0.737938 0.737938
0.771575 0.771575 0.771575
0.805213 0.805213 0.805213
0.838850 0.838850 0.838850
0.872488 0.872488 0.872488
0.906125 0.906125 0.906125
0.939763 0.939763 0.939763
0.973400 0.973400 0.973400
1.000000 1.000000 1.000000
1.000000 1.000000 1.000000
1.000000 1.000000 1.000000
1.000000 1.000000 1.000000
1.000000 1.000000 1.000000
0.669425 0.669425 0.669425
0.703062 0.703062 0.703062
0.736700 0.736700 0.736700
0.770338 0.770338 0.770338
0.803975 0.803975 0.803975
0.837612 0.837612 0.837612
0.871250 0.871250 0.871250
0.904888 0.904888 0.904888
0.938525 0.938525 0.938525
0.972162 0.972162 0.972162
1.000000 1.000000 1.000000
1.000000 1.000000 1.000000
1.000000 1.000000 1.000000
1.000000 1.000000 1.000000
1.000000 1.000000 1.000000
1.000000 1.000000 1.000000
1.000000 1.000000 1.000000
0.000000 0.000000 0.000000
0.000000 0.000000 0.000000
0.000000 0.000000 0.000000
0.000000 0.000000 0.000000
0.000000 0.000000 0.000000
0.000000 0.000000 0.000000
0.000000 0.000000 0.000000
0.000000 0.000000 0.000000
0.000000 0.000000 0.000000
0.000000 0.000000 0.000000
0.000000 0.000000 0.000000
0.000000 0.000000 0.000000
0.029300 0.029300 0.029300
0.062938 0.062938 0.062938
0.096575 0.096575 0.096575
0.130212 0.130212 0.130212
0.163850 0.163850 0.163850
0.000000 0.000000 0.000000
0.000000 0.000000 0.000000
0.000000 0.000000 0.000000
0.000000 0.000000 0.000000
0.000000 0.000000 0.000000
0.000000 0.000000 0.000000
0.000000 0.000000 0.000000
0.000000 0.000000 0.000000
0.000000 0.000000 0.000000
0.000000 0.000000 0.000000
0.028062 0.028062 0.028062
0.061700 0.061700 0.061700
0.095337 0.095337 0.095337
0.128975 0.128975 0.128975
0.162612 0.162612 0.162612
0.196250 0.196250 0.196250
0.229887 0.229887 0.229887
0.000000 0.000000 0.000000
0.000000 0.000000 0.000000
0.000000 0.000000 0.000000
0.000000 0.000000 0.000000
0.000000 0.000000 0.000000
0.000000 0.000000 0.000000
0.000000 0.000000 0.000000
0.000000 0.000000 0.000000
0.026825 0.026825 0.026825
0.060462 0.060462 0.060462
0.094100 0.094100 0.094100
0.127737 0.127737 0.127737
0.161375 0.161375 0.161375
0.195012 0.195012 0.195012
0.228650 0.228650 0.228650
0.262287 0.262287 0.262287
0.295925 0.295925 0.295925
0.000000 0.000000 0.000000
0.000000 0.000000 0.000000
0.000000 0.000000 0.000000
0.000000 0.000000 0.000000
0.000000 0.000000 0.000000
0.000000 0.000000 0.000000
0.025587 0.025587 0.025587
0.059225 0.059225 0.059225
0.092862 0.092862 0.092862
0.126500 0.126500 0.126500
0.160137 0.160137 0.160137
0.193775 0.193775 0.193775
0.227412 0.227412 0.227412
0.261050 0.261050 0.261050
0.294687 0.294687 0.294687
0.328325 0.328325 0.328325
0.361962 0.361962 0.361962
0.000000 0.000000 0.000000
0.000000 0.000000 0.000000
0.000000 0.000000 0.000000
0.000000 0.000000 0.000000
0.024350 0.024350 0.024350
0.057987 0.057987 0.057987
0.091625 0.091625 0.091625
0.125262 0.125262 0.125262
0.158900 0.158900 0.158900
0.192537 0.192537 0.192537
0.226175 0.226175 0.226175
0.259812 0.259812 0.259812
0.293450 0.293450 0.293450
0.327087 0.327087 0.327087
0.360725 0.360725 0.360725
0.394362 0.394362 0.394362
0.428000 0.428000 0.428000
0.000000 0.000000 0.000000
0.000000 0.000000 0.000000
0.023112 0.023112 0.023112
0.056750 0.056750 0.056750
0.090387 0.090387 0.090387
0.124025 0.124025 0.124025
0.157662 0.157662 0.157662
0.191300 0.191300 0.191300
0.224937 0.224937 0.224937
0.258575 0.258575 0.258575
0.292212 0.292212 0.292212
0.325850 0.325850 0.325850
0.359487 0.359487 0.359487
0.393125 0.393125 0.393125
0.426762 0.426762 0.426762
0.460400 0.460400 0.460400
0.494037 0.494037 0.494037
0.021875 0.021875 0.021875
0.055512 0.055512 0.055512
0.089150 0.089150 0.089150
0.122787 0.122787 0.122787
0.156425 0.156425 0.156425
0.190062 0.190062 0.190062
0.223700 0.223700 0.223700
0.257337 0.257337 0.257337
0.290975 0.290975 0.290975
0.324612 0.324612 0.324612
0.358250 0.358250 0.358250
0.391887 0.391887 0.391887
0.425525 0.425525 0.425525
0.459162 0.459162 0.459162
0.492800 0.492800 0.492800
0.526437 0.526437 0.526437
0.560075 0.560075 0.560075
0.087912 0.087912 0.087912
0.121550 0.121550 0.121550
0.155187 0.155187 0.155187
0.188825 0.188825 0.188825
0.222462 0.222462 0.222462
0.256100 0.256100 0.256100
0.289737 0.289737 0.289737
0.323375 0.323375 0.323375
0.357012 0.357012 0.357012
0.390650 0.390650 0.390650
0.424287 0.424287 0.424287
0.457925 0.457925 0.457925
0.491562 0.491562 0.491562
0.525200 0.525200 0.525200
0.558837 0.558837 0.558837
0.592475 0.592475 0.592475
0.626113 0.626113 0.626113
0.153950 0.153950 0.153950
0.187587 0.187587 0.187587
0.221225 0.221225 0.221225
0.254862 0.254862 0.254862
0.288500 0.288500 0.288500
0.322137 0.322137 0.322137
0.355775 0.355775 0.355775
0.389412 0.389412 0.389412
0.423050 0.423050 0.423050
0.456687 0.456687 0.456687
0.490325 0.490325 0.490325
0.523962 0.523962 0.523962
0.557600 0.557600 0.557600
0.591237 0.591237 0.591237
0.624875 0.624875 0.624875
0.658512 0.658512 0.658512
0.692150 0.692150 0.692150
0.219987 0.219987 0.219987
0.253625 0.253625 0.253625
0.287262 0.287262 0.287262
0.320900 0.320900 0.320900
0.354537 0.354537 0.354537
0.388175 0.388175 0.388175
0.421812 0.421812 0.421812
0.455450 0.455450 0.455450
0.489087 0.489087 0.489087
0.522725 0.522725 0.522725
0.556362 0.556362 0.556362
0.590000 0.590000 0.590000
0.623637 0.623637 0.623637
0.657275 0.657275 0.657275
0.690912 0.690912 0.690912
0.724550 0.724550 0.724550
0.758188 0.758188 0.758188
0.286025 0.286025 0.286025
0.319662 0.319662 0.319662
0.353300 0.353300 0.353300
0.386937 0.386937 0.386937
0.420575 0.420575 0.420575
0.454212 0.454212 0.454212
0.487850 0.487850 0.487850
0.521487 0.521487 0.521487
0.555125 0.555125 0.555125
0.588762 0.588762 0.588762
0.622400 0.622400 0.622400
0.656037 0.656037 0.656037
0.689675 0.689675 0.689675
0.723312 0.723312 0.723312
0.756950 0.756950 0.756950
0.790587 0.790587 0.790587
0.824225 0.824225 0.824225
0.352062 0.352062 0.352062
0.385700 0.385700 0.385700
0.419337 0.419337 0.419337
0.452975 0.452975 0.452975
0.486612 0.486612 0.486612
0.520250 0.520250 0.520250
0.553887 0.553887 0.553887
0.587525 0.587525 0.587525
0.621162 0.621162 0.621162
0.654800 0.654800 0.654800
0.688437 0.688437 0.688437
0.722075 0.722075 0.722075
0.755713 0.755713 0.755713
0.789350 0.789350 0.789350
0.822987 0.822987 0.822987
0.856625 0.856625 0.856625
0.890262 0.890262 0.890262
0.418100 0.418100 0.418100
0.451737 0.451737 0.451737
0.485375 0.485375 0.485375
0.519013 0.519013 0.519013
0.552650 0.552650 0.552650
0.586287 0.586287 0.586287
0.619925 0.619925 0.619925
0.653563 0.653563 0.653563
0.687200 0.687200 0.687200
0.720837 0.720837 0.720837
0.754475 0.754475 0.754475
0.788112 0.788112 0.788112
0.821750 0.821750 0.821750
0.855387 0.855387 0.855387
0.889025 0.889025 0.889025
0.922662 0.922662 0.922662
0.956300 0.956300 0.956300
0.484137 0.484137 0.484137
0.517775 0.517775 0.517775
0.551412 0.551412 0.551412
0.585050 0.585050 0.585050
0.618687 0.618687 0.618687
0.652325 0.652325 0.652325
0.685962 0.685962 0.685962
0.719600 0.719600 0.719600
0.753238 0.753238 0.753238
0.786875 0.786875 0.786875
0.820512 0.820512 0.820512
0.854150 0.854150 0.854150
0.887787 0.887787 0.887787
0.921425 0.921425 0.921425
0.955062 0.955062 0.955062
0.988700 0.988700 0.988700
1.000000 1.000000 1.000000
0.550175 0.550175 0.550175
0.583812 0.583812 0.583812
0.617450 0.617450 0.617450
0.651088 0.651088 0.651088
0.684725 0.684725 0.684725
0.718362 0.718362 0.718362
0.752000 0.752000 0.752000
0.785637 0.785637 0.785637
0.819275 0.819275 0.819275
0.852912 0.852912 0.852912
0.886550 0.886550 0.886550
0.920187 0.920187 0.920187
0.953825 0.953825 0.953825
0.987463 0.987463 0.987463
1.000000 1.000000 1.000000
1.000000 1.000000 1.000000
1.000000 1.000000 1.000000
0.616212 0.616212 0.616212
0.649850 0.649850 0.649850
0.683488 0.683488 0.683488
0.717125 0.717125 0.717125
0.750762 0.750762 0.750762
0.784400 0.784400 0.784400
0.818037 0.818037 0.818037
0.851675 0.851675 0.851675
0.885312 0.885312 0.885312
0.918950 0.918950 0.918950
0.952587 0.952587 0.952587
0.986225 0.986225 0.986225
1.000000 1.000000 1.000000
1.000000 1.000000 1.000000
1.000000 1.000000 1.000000
1.000000 1.000000 1.000000
1.000000 1.000000 1.000000
0.682250 0.682250 0.682250
0.715887 0.715887 0.715887
0.749525 0.749525 0.749525
0.783162 0.783162 0.783162
0.816800 0.816800 0.816800
0.850437 0.850437 0.850437
0.884075 0.884075 0.884075
0.917712 0.917712 0.917712
0.951350 0.951350 0.951350
0.984987 0.984987 0.984987
1.000000 1.000000 1.000000
1.000000 1.000000 1.000000
1.000000 1.000000 1.000000
1.000000 1.000000 1.000000
1.000000 1.000000 1.000000
1.000000 1.000000 1.000000
1.000000 1.000000 1.000000
0.000000 0.000000 0.000000
0.000000 0.000000 0.000000
0.000000 0.000000 0.000000
0.000000 0.000000 0.000000
0.000000 0.000000 0.000000
0.000000 0.000000 0.000000
0.000000 0.000000 0.000000
0.000000 0.000000 0.000000
0.000000 0.000000 0.000000
0.000000 0.000000 0.000000
0.000000 0.000000 0.000000
0.008488 0.008488 0.008488
0.042125 0.042125 0.042125
0.075763 0.075763 0.075763
0.109400 0.109400 0.109400
0.143037 0.143037 0.143037
0.176675 0.176675 0.176675
0.000000 0.000000 0.000000
