app/src/main/assets/luts/ink_wash.cube
# ApexStudio filter: ink_wash
LUT_3D_SIZE 9
DOMAIN_MIN 0.0 0.0 0.0
DOMAIN_MAX 1.0 1.0 1.0
0.000000 0.000000 0.000000
0.000000 0.000000 0.000000
0.000000 0.000000 0.000000
0.000000 0.000000 0.000000
0.000000 0.000000 0.000000
0.000000 0.000000 0.000000
0.003650 0.003650 0.003650
0.070925 0.070925 0.070925
0.138200 0.138200 0.138200
0.000000 0.000000 0.000000
0.000000 0.000000 0.000000
0.000000 0.000000 0.000000
0.000000 0.000000 0.000000
0.001175 0.001175 0.001175
0.068450 0.068450 0.068450
0.135725 0.135725 0.135725
0.203000 0.203000 0.203000
0.270275 0.270275 0.270275
0.000000 0.000000 0.000000
0.000000 0.000000 0.000000
0.000000 0.000000 0.000000
0.065975 0.065975 0.065975
0.133250 0.133250 0.133250
0.200525 0.200525 0.200525
0.267800 0.267800 0.267800
0.335075 0.335075 0.335075
0.402350 0.402350 0.402350
0.000000 0.000000 0.000000
0.063500 0.063500 0.063500
0.130775 0.130775 0.130775
0.198050 0.198050 0.198050
0.265325 0.265325 0.265325
0.332600 0.332600 0.332600
0.399875 0.399875 0.399875
0.467150 0.467150 0.467150
0.534425 0.534425 0.534425
0.128300 0.128300 0.128300
0.195575 0.195575 0.195575
0.262850 0.262850 0.262850
0.330125 0.330125 0.330125
0.397400 0.397400 0.397400
0.464675 0.464675 0.464675
0.531950 0.531950 0.531950
0.599225 0.599225 0.599225
0.666500 0.666500 0.666500
0.260375 0.260375 0.260375
0.327650 0.327650 0.327650
0.394925 0.394925 0.394925
0.462200 0.462200 0.462200
0.529475 0.529475 0.529475
0.596750 0.596750 0.596750
0.664025 0.664025 0.664025
0.731300 0.731300 0.731300
0.798575 0.798575 0.798575
0.392450 0.392450 0.392450
0.459725 0.459725 0.459725
0.527000 0.527000 0.527000
0.594275 0.594275 0.594275
0.661550 0.661550 0.661550
0.728825 0.728825 0.728825
0.796100 0.796100 0.796100
0.863375 0.863375 0.863375
0.930650 0.930650 0.930650
0.524525 0.524525 0.524525
0.591800 0.591800 0.591800
0.659075 0.659075 0.659075
0.726350 0.726350 0.726350
0.793625 0.793625 0.793625
0.860900 0.860900 0.860900
0.928175 0.928175 0.928175
0.995450 0.995450 0.995450
1.000000 1.000000 1.000000
0.656600 0.656600 0.656600
0.723875 0.723875 0.723875
0.791150 0.791150 0.791150
0.858425 0.858425 0.858425
0.925700 0.925700 0.925700
0.992975 0.992975 0.992975
1.000000 1.000000 1.000000
1.000000 1.000000 1.000000
1.000000 1.000000 1.000000
0.000000 0.000000 0.000000
0.000000 0.000000 0.000000
0.000000 0.000000 0.000000
0.000000 0.000000 0.000000
0.000000 0.000000 0.000000
0.000000 0.000000 0.000000
0.029300 0.029300 0.029300
0.096575 0.096575 0.096575
0.163850 0.163850 0.163850
0.000000 0.000000 0.000000
0.000000 0.000000 0.000000
0.000000 0.000000 0.000000
0.000000 0.000000 0.000000
0.026825 0.026825 0.026825
0.094100 0.094100 0.094100
0.161375 0.161375 0.161375
0.228650 0.228650 0.228650
0.295925 0.295925 0.295925
0.000000 0.000000 0.000000
0.000000 0.000000 0.000000
0.024350 0.024350 0.024350
0.091625 0.091625 0.091625
0.158900 0.158900 0.158900
0.226175 0.226175 0.226175
0.293450 0.293450 0.293450
0.360725 0.360725 0.360725
0.428000 0.428000 0.428000
0.021875 0.021875 0.021875
0.089150 0.089150 0.089150
0.156425 0.156425 0.156425
0.223700 0.223700 0.223700
0.290975 0.290975 0.290975
0.358250 0.358250 0.358250
0.425525 0.425525 0.425525
0.492800 0.492800 0.492800
0.560075 0.560075 0.560075
0.153950 0.153950 0.153950
0.221225 0.221225 0.221225
0.288500 0.288500 0.288500
0.355775 0.355775 0.355775
0.423050 0.423050 0.423050
0.490325 0.490325 0.490325
0.557600 0.557600 0.557600
0.624875 0.624875 0.624875
0.692150 0.692150 0.692150
0.286025 0.286025 0.286025
0.353300 0.353300 0.353300
0.420575 0.420575 0.420575
0.487850 0.487850 0.487850
0.555125 0.555125 0.555125
0.622400 0.622400 0.622400
0.689675 0.689675 0.689675
0.756950 0.756950 0.756950
0.824225 0.824225 0.824225
0.418100 0.418100 0.418100
0.485375 0.485375 0.485375
0.552650 0.552650 0.552650
0.619925 0.619925 0.619925
0.687200 0.687200 0.687200
0.754475 0.754475 0.754475
0.821750 0.821750 0.821750
0.889025 0.889025 0.889025
0.956300 0.956300 0.956300
0.550175 0.550175 0.550175
0.617450 0.617450 0.617450
0.684725 0.684725 0.684725
0.752000 0.752000 0.752000
0.819275 0.819275 0.819275
0.886550 0.886550 0.886550
0.953825 0.953825 0.953825
1.000000 1.000000 1.000000
1.000000 1.000000 1.000000
0.682250 0.682250 0.682250
0.749525 0.749525 0.749525
0.816800 0.816800 0.816800
0.884075 0.884075 0.884075
0.951350 0.951350 0.951350
1.000000 1.000000 1.000000
1.000000 1.000000 1.000000
1.000000 1.000000 1.000000
1.000000 1.000000 1.000000
0.000000 0.000000 0.000000
0.000000 0.000000 0.000000
0.000000 0.000000 0.000000
0.000000 0.000000 0.000000
0.000000 0.000000 0.000000
0.000000 0.000000 0.000000
0.054950 0.054950 0.054950
0.122225 0.122225 0.122225
0.189500 0.189500 0.189500
0.000000 0.000000 0.000000
0.000000 0.000000 0.000000
0.000000 0.000000 0.000000
0.000000 0.000000 0.000000
0.052475 0.052475 0.052475
0.119750 0.119750 0.119750
0.187025 0.187025 0.187025
0.254300 0.254300 0.254300
0.321575 0.321575 0.321575
0.000000 0.000000 0.000000
0.000000 0.000000 0.000000
0.050000 0.050000 0.050000
0.117275 0.117275 0.117275
0.184550 0.184550 0.184550
0.251825 0.251825 0.251825
0.319100 0.319100 0.319100
0.386375 0.386375 0.386375
0.453650 0.453650 0.453650
0.047525 0.047525 0.047525
0.114800 0.114800 0.114800
0.182075 0.182075 0.182075
0.249350 0.249350 0.249350
0.316625 0.316625 0.316625
0.383900 0.383900 0.383900
0.451175 0.451175 0.451175
0.518450 0.518450 0.518450
0.585725 0.585725 0.585725
0.179600 0.179600 0.179600
0.246875 0.246875 0.246875
0.314150 0.314150 0.314150
0.381425 0.381425 0.381425
0.448700 0.448700 0.448700
0.515975 0.515975 0.515975
0.583250 0.583250 0.583250
0.650525 0.650525 0.650525
0.717800 0.717800 0.717800
0.311675 0.311675 0.311675
0.378950 0.378950 0.378950
0.446225 0.446225 0.446225
0.513500 0.513500 0.513500
0.580775 0.580775 0.580775
0.648050 0.648050 0.648050
0.715325 0.715325 0.715325
0.782600 0.782600 0.782600
0.849875 0.849875 0.849875
0.443750 0.443750 0.443750
0.511025 0.511025 0.511025
0.578300 0.578300 0.578300
0.645575 0.645575 0.645575
0.712850 0.712850 0.712850
0.780125 0.780125 0.780125
0.847400 0.847400 0.847400
0.914675 0.914675 0.914675
0.981950 0.981950 0.981950
0.575825 0.575825 0.575825
0.643100 0.643100 0.643100
0.710375 0.710375 0.710375
0.777650 0.777650 0.777650
0.844925 0.844925 0.844925
0.912200 0.912200 0.912200
0.979475 0.979475 0.979475
1.000000 1.000000 1.000000
1.000000 1.000000 1.000000
0.707900 0.707900 0.707900
0.775175 0.775175 0.775175
0.842450 0.842450 0.842450
0.909725 0.909725 0.909725
0.977000 0.977000 0.977000
1.000000 1.000000 1.000000
1.000000 1.000000 1.000000
1.000000 1.000000 1.000000
1.000000 1.000000 1.000000
0.000000 0.000000 0.000000
0.000000 0.000000 0.000000
0.000000 0.000000 0.000000
0.000000 0.000000 0.000000
0.000000 0.000000 0.000000
0.013325 0.013325 0.013325
0.080600 0.080600 0.080600
0.147875 0.147875 0.147875
0.215150 0.215150 0.215150
0.000000 0.000000 0.000000
0.000000 0.000000 0.000000
0.000000 0.000000 0.000000
0.010850 0.010850 0.010850
0.078125 0.078125 0.078125
0.145400 0.145400 0.145400
0.212675 0.212675 0.212675
0.279950 0.279950 0.279950
0.347225 0.347225 0.347225
0.000000 0.000000 0.000000
0.008375 0.008375 0.008375
0.075650 0.075650 0.075650
0.142925 0.142925 0.142925
0.210200 0.210200 0.210200
0.277475 0.277475 0.277475
0.344750 0.344750 0.344750
0.412025 0.412025 0.412025
0.479300 0.479300 0.479300
0.073175 0.073175 0.073175
0.140450 0.140450 0.140450
0.207725 0.207725 0.207725
0.275000 0.275000 0.275000
0.342275 0.342275 0.342275
0.409550 0.409550 0.409550
0.476825 0.476825 0.476825
0.544100 0.544100 0.544100
0.611375 0.611375 0.611375
0.205250 0.205250 0.205250
0.272525 0.272525 0.272525
0.339800 0.339800 0.339800
0.407075 0.407075 0.407075
0.474350 0.474350 0.474350
0.541625 0.541625 0.541625
0.608900 0.608900 0.608900
0.676175 0.676175 0.676175
0.743450 0.743450 0.743450
0.337325 0.337325 0.337325
0.404600 0.404600 0.404600
0.471875 0.471875 0.471875
0.539150 0.539150 0.539150
0.606425 0.606425 0.606425
0.673700 0.673700 0.673700
0.740975 0.740975 0.740975
0.808250 0.808250 0.808250
0.875525 0.875525 0.875525
0.469400 0.469400 0.469400
0.536675 0.536675 0.536675
0.603950 0.603950 0.603950
0.671225 0.671225 0.671225
0.738500 0.738500 0.738500
0.805775 0.805775 0.805775
0.873050 0.873050 0.873050
0.940325 0.940325 0.940325
1.000000 1.000000 1.000000
0.601475 0.601475 0.601475
0.668750 0.668750 0.668750
0.736025 0.736025 0.736025
0.803300 0.803300 0.803300
0.870575 0.870575 0.870575
0.937850 0.937850 0.937850
1.000000 1.000000 1.000000
1.000000 1.000000 1.000000
1.000000 1.000000 1.000000
0.733550 0.733550 0.733550
0.800825 0.800825 0.800825
0.868100 0.868100 0.868100
0.935375 0.935375 0.935375
1.000000 1.000000 1.000000
1.000000 1.000000 1.000000
1.000000 1.000000 1.000000
1.000000 1.000000 1.000000
1.000000 1.000000 1.000000
0.000000 0.000000 0.000000
0.000000 0.000000 0.000000
0.000000 0.000000 0.000000
0.000000 0.000000 0.000000
0.000000 0.000000 0.000000
0.038975 0.038975 0.038975
0.106250 0.106250 0.106250
0.173525 0.173525 0.173525
0.240800 0.240800 0.240800
0.000000 0.000000 0.000000
0.000000 0.000000 0.000000
0.000000 0.000000 0.000000
0.036500 0.036500 0.036500
0.103775 0.103775 0.103775
0.171050 0.171050 0.171050
0.238325 0.238325 0.238325
0.305600 0.305600 0.305600
0.372875 0.372875 0.372875
0.000000 0.000000 0.000000
0.034025 0.034025 0.034025
0.101300 0.101300 0.101300
0.168575 0.168575 0.168575
0.235850 0.235850 0.235850
0.303125 0.303125 0.303125
0.370400 0.370400 0.370400
0.437675 0.437675 0.437675
0.504950 0.504950 0.504950
0.098825 0.098825 0.098825
0.166100 0.166100 0.166100
0.233375 0.233375 0.233375
0.300650 0.300650 0.300650
0.367925 0.367925 0.367925
0.435200 0.435200 0.435200
0.502475 0.502475 0.502475
0.569750 0.569750 0.569750
0.637025 0.637025 0.637025
0.230900 0.230900 0.230900
0.298175 0.298175 0.298175
0.365450 0.365450 0.365450
0.432725 0.432725 0.432725
0.500000 0.500000 0.500000
0.567275 0.567275 0.567275
0.634550 0.634550 0.634550
0.701825 0.701825 0.701825
0.769100 0.769100 0.769100
0.362975 0.362975 0.362975
0.430250 0.430250 0.430250
0.497525 0.497525 0.497525
0.564800 0.564800 0.564800
0.632075 0.632075 0.632075
0.699350 0.699350 0.699350
0.766625 0.766625 0.766625
0.833900 0.833900 0.833900
0.901175 0.901175 0.901175
0.495050 0.495050 0.495050
0.562325 0.562325 0.562325
0.629600 0.629600 0.629600
0.696875 0.696875 0.696875
0.764150 0.764150 0.764150
0.831425 0.831425 0.831425
0.898700 0.898700 0.898700
0.965975 0.965975 0.965975
1.000000 1.000000 1.000000
0.627125 0.627125 0.627125
0.694400 0.694400 0.694400
0.761675 0.761675 0.761675
0.828950 0.828950 0.828950
0.896225 0.896225 0.896225
0.963500 0.963500 0.963500
1.000000 1.000000 1.000000
1.000000 1.000000 1.000000
1.000000 1.000000 1.000000
0.759200 0.759200 0.759200
0.826475 0.826475 0.826475
0.893750 0.893750 0.893750
0.961025 0.961025 0.961025
1.000000 1.000000 1.000000
1.000000 1.000000 1.000000
1.000000 1.000000 1.000000
1.000000 1.000000 1.000000
1.000000 1.000000 1.000000
0.000000 0.000000 0.000000
0.000000 0.000000 0.000000
0.000000 0.000000 0.000000
0.000000 0.000000 0.000000
0.000000 0.000000 0.000000
0.064625 0.064625 0.064625
0.131900 0.131900 0.131900
0.199175 0.199175 0.199175
0.266450 0.266450 0.266450
0.000000 0.000000 0.000000
0.000000 0.000000 0.000000
0.000000 0.000000 0.000000
0.062150 0.062150 0.062150
0.129425 0.129425 0.129425
0.196700 0.196700 0.196700
0.263975 0.263975 0.263975
0.331250 0.331250 0.331250
0.398525 0.398525 0.398525
0.000000 0.000000 0.000000
0.059675 0.059675 0.059675
0.126950 0.126950 0.126950
0.194225 0.194225 0.194225
0.261500 0.261500 0.261500
0.328775 0.328775 0.328775
0.396050 0.396050 0.396050
0.463325 0.463325 0.463325
0.530600 0.530600 0.530600
0.124475 0.124475 0.124475
0.191750 0.191750 0.191750
0.259025 0.259025 0.259025
0.326300 0.326300 0.326300
0.393575 0.393575 0.393575
0.460850 0.460850 0.460850
0.528125 0.528125 0.528125
0.595400 0.595400 0.595400
0.662675 0.662675 0.662675
0.256550 0.256550 0.256550
0.323825 0.323825 0.323825
0.391100 0.391100 0.391100
0.458375 0.458375 0.458375
0.525650 0.525650 0.525650
0.592925 0.592925 0.592925
0.660200 0.660200 0.660200
0.727475 0.727475 0.727475
0.794750 0.794750 0.794750
0.388625 0.388625 0.388625
0.455900 0.455900 0.455900
0.523175 0.523175 0.523175
0.590450 0.590450 0.590450
0.657725 0.657725 0.657725
0.725000 0.725000 0.725000
0.792275 0.792275 0.792275
0.859550 0.859550 0.859550
0.926825 0.926825 0.926825
0.520700 0.520700 0.520700
0.587975 0.587975 0.587975
0.655250 0.655250 0.655250
0.722525 0.722525 0.722525
0.789800 0.789800 0.789800
0.857075 0.857075 0.857075
0.924350 0.924350 0.924350
0.991625 0.991625 0.991625
1.000000 1.000000 1.000000
0.652775 0.652775 0.652775
0.720050 0.720050 0.720050
0.787325 0.787325 0.787325
0.854600 0.854600 0.854600
0.921875 0.921875 0.921875
0.989150 0.989150 0.989150
1.000000 1.000000 1.000000
1.000000 1.000000 1.000000
1.000000 1.000000 1.000000
0.784850 0.784850 0.784850
0.852125 0.852125 0.852125
0.919400 0.919400 0.919400
0.986675 0.986675 0.986675
1.000000 1.000000 1.000000
1.000000 1.000000 1.000000
1.000000 1.000000 1.000000
1.000000 1.000000 1.000000
1.000000 1.000000 1.000000
0.000000 0.000000 0.000000
0.000000 0.000000 0.000000
0.000000 0.000000 0.000000
0.000000 0.000000 0.000000
0.023000 0.023000 0.023000
0.090275 0.090275 0.090275
0.157550 0.157550 0.157550
0.224825 0.224825 0.224825
0.292100 0.292100 0.292100
0.000000 0.000000 0.000000
0.000000 0.000000 0.000000
0.020525 0.020525 0.020525
0.087800 0.087800 0.087800
0.155075 0.155075 0.155075
0.222350 0.222350 0.222350
0.289625 0.289625 0.289625
0.356900 0.356900 0.356900
0.424175 0.424175 0.424175
0.018050 0.018050 0.018050
0.085325 0.085325 0.085325
0.152600 0.152600 0.152600
0.219875 0.219875 0.219875
0.287150 0.287150 0.287150
0.354425 0.354425 0.354425
0.421700 0.421700 0.421700
0.488975 0.488975 0.488975
0.556250 0.556250 0.556250
0.150125 0.150125 0.150125
0.217400 0.217400 0.217400
0.284675 0.284675 0.284675
0.351950 0.351950 0.351950
0.419225 0.419225 0.419225
0.486500 0.486500 0.486500
0.553775 0.553775 0.553775
0.621050 0.621050 0.621050
0.688325 0.688325 0.688325
0.282200 0.282200 0.282200
0.349475 0.349475 0.349475
0.416750 0.416750 0.416750
0.484025 0.484025 0.484025
0.551300 0.551300 0.551300
0.618575 0.618575 0.618575
0.685850 0.685850 0.685850
0.753125 0.753125 0.753125
0.820400 0.820400 0.820400
0.414275 0.414275 0.414275
0.481550 0.481550 0.481550
0.548825 0.548825 0.548825
0.616100 0.616100 0.616100
0.683375 0.683375 0.683375
0.750650 0.750650 0.750650
0.817925 0.817925 0.817925
0.885200 0.885200 0.885200
0.952475 0.952475 0.952475
0.546350 0.546350 0.546350
0.613625 0.613625 0.613625
0.680900 0.680900 0.680900
0.748175 0.748175 0.748175
0.815450 0.815450 0.815450
0.882725 0.882725 0.882725
0.950000 0.950000 0.950000
1.000000 1.000000 1.000000
1.000000 1.000000 1.000000
0.678425 0.678425 0.678425
0.745700 0.745700 0.745700
0.812975 0.812975 0.812975
0.880250 0.880250 0.880250
0.947525 0.947525 0.947525
1.000000 1.000000 1.000000
1.000000 1.000000 1.000000
1.000000 1.000000 1.000000
1.000000 1.000000 1.000000
0.810500 0.810500 0.810500
0.877775 0.877775 0.877775
0.945050 0.945050 0.945050
1.000000 1.000000 1.000000
1.000000 1.000000 1.000000
1.000000 1.000000 1.000000
1.000000 1.000000 1.000000
1.000000 1.000000 1.000000
1.000000 1.000000 1.000000
0.000000 0.000000 0.000000
0.000000 0.000000 0.000000
0.000000 0.000000 0.000000
0.000000 0.000000 0.000000
0.048650 0.048650 0.048650
0.115925 0.115925 0.115925
0.183200 0.183200 0.183200
0.250475 0.250475 0.250475
0.317750 0.317750 0.317750
0.000000 0.000000 0.000000
0.000000 0.000000 0.000000
0.046175 0.046175 0.046175
0.113450 0.113450 0.113450
0.180725 0.180725 0.180725
0.248000 0.248000 0.248000
0.315275 0.315275 0.315275
0.382550 0.382550 0.382550
0.449825 0.449825 0.449825
0.043700 0.043700 0.043700
0.110975 0.110975 0.110975
0.178250 0.178250 0.178250
0.245525 0.245525 0.245525
0.312800 0.312800 0.312800
0.380075 0.380075 0.380075
0.447350 0.447350 0.447350
0.514625 0.514625 0.514625
0.581900 0.581900 0.581900
0.175775 0.175775 0.175775
0.243050 0.243050 0.243050
0.310325 0.310325 0.310325
0.377600 0.377600 0.377600
0.444875 0.444875 0.444875
0.512150 0.512150 0.512150
0.579425 0.579425 0.579425
0.646700 0.646700 0.646700
0.713975 0.713975 0.713975
0.307850 0.307850 0.307850
0.375125 0.375125 0.375125
0.442400 0.442400 0.442400
0.509675 0.509675 0.509675
0.576950 0.576950 0.576950
0.644225 0.644225 0.644225
0.711500 0.711500 0.711500
0.778775 0.778775 0.778775
0.846050 0.846050 0.846050
0.439925 0.439925 0.439925
0.507200 0.507200 0.507200
0.574475 0.574475 0.574475
0.641750 0.641750 0.641750
0.709025 0.709025 0.709025
0.776300 0.776300 0.776300
0.843575 0.843575 0.843575
0.910850 0.910850 0.910850
0.978125 0.978125 0.978125
0.572000 0.572000 0.572000
0.639275 0.639275 0.639275
0.706550 0.706550 0.706550
0.773825 0.773825 0.773825
0.841100 0.841100 0.841100
0.908375 0.908375 0.908375
0.975650 0.975650 0.975650
1.000000 1.000000 1.000000
1.000000 1.000000 1.000000
0.704075 0.704075 0.704075
0.771350 0.771350 0.771350
0.838625 0.838625 0.838625
0.905900 0.905900 0.905900
0.973175 0.973175 0.973175
1.000000 1.000000 1.000000
1.000000 1.000000 1.000000
1.000000 1.000000 1.000000
1.000000 1.000000 1.000000
0.836150 0.836150 0.836150
0.903425 0.903425 0.903425
0.970700 0.970700 0.970700
1.000000 1.000000 1.000000
1.000000 1.000000 1.000000
1.000000 1.000000 1.000000
1.000000 1.000000 1.000000
1.000000 1.000000 1.000000
1.000000 1.000000 1.000000
0.000000 0.000000 0.000000
0.000000 0.000000 0.000000
0.000000 0.000000 0.000000
0.007025 0.007025 0.007025
0.074300 0.074300 0.074300
0.141575 0.141575 0.141575
0.208850 0.208850 0.208850
0.276125 0.276125 0.276125
0.343400 0.343400 0.343400
0.000000 0.000000 0.000000
0.004550 0.004550 0.004550
0.071825 0.071825 0.071825
0.139100 0.139100 0.139100
0.206375 0.206375 0.206375
0.273650 0.273650 0.273650
0.340925 0.340925 0.340925
0.408200 0.408200 0.408200
0.475475 0.475475 0.475475
0.069350 0.069350 0.069350
0.136625 0.136625 0.136625
0.203900 0.203900 0.203900
0.271175 0.271175 0.271175
0.338450 0.338450 0.338450
0.405725 0.405725 0.405725
0.473000 0.473000 0.473000
0.540275 0.540275 0.540275
0.607550 0.607550 0.607550
0.201425 0.201425 0.201425
0.268700 0.268700 0.268700
0.335975 0.335975 0.335975
0.403250 0.403250 0.403250
0.470525 0.470525 0.470525
0.537800 0.537800 0.537800
0.605075 0.605075 0.605075
0.672350 0.672350 0.672350
0.739625 0.739625 0.739625
0.333500 0.333500 0.333500
0.400775 0.400775 0.400775
0.468050 0.468050 0.468050
0.535325 0.535325 0.535325
0.602600 0.602600 0.602600
0.669875 0.669875 0.669875
0.737150 0.737150 0.737150
0.804425 0.804425 0.804425
0.871700 0.871700 0.871700
0.465575 0.465575 0.465575
0.532850 0.532850 0.532850
0.600125 0.600125 0.600125
0.667400 0.667400 0.667400
0.734675 0.734675 0.734675
0.801950 0.801950 0.801950
0.869225 0.869225 0.869225
0.936500 0.936500 0.936500
1.000000 1.000000 1.000000
0.597650 0.597650 0.597650
0.664925 0.664925 0.664925
0.732200 0.732200 0.732200
0.799475 0.799475 0.799475
0.866750 0.866750 0.866750
0.934025 0.934025 0.934025
1.000000 1.000000 1.000000
1.000000 1.000000 1.000000
1.000000 1.000000 1.000000
0.729725 0.729725 0.729725
0.797000 0.797000 0.797000
0.864275 0.864275 0.864275
0.931550 0.931550 0.931550
0.998825 0.998825 0.998825
1.000000 1.000000 1.000000
1.000000 1.000000 1.000000
1.000000 1.000000 1.000000
1.000000 1.000000 1.000000
0.861800 0.861800 0.861800
0.929075 0.929075 0.929075
0.996350 0.996350 0.996350
1.000000 1.000000 1.000000
1.000000 1.000000 1.000000
1.000000 1.000000 1.000000
1.000000 1.000000 1.000000
1.000000 1.000000 1.000000
1.000000 1.000000 1.000000
