app/src/main/assets/luts/ink_wash.cube
# ApexStudio filter: ink_wash
LUT_3D_SIZE 5
DOMAIN_MIN 0.0 0.0 0.0
DOMAIN_MAX 1.0 1.0 1.0
0.000000 0.000000 0.000000
0.000000 0.000000 0.000000
0.000000 0.000000 0.000000
0.003650 0.003650 0.003650
0.138200 0.138200 0.138200
0.000000 0.000000 0.000000
0.000000 0.000000 0.000000
0.133250 0.133250 0.133250
0.267800 0.267800 0.267800
0.402350 0.402350 0.402350
0.128300 0.128300 0.128300
0.262850 0.262850 0.262850
0.397400 0.397400 0.397400
0.531950 0.531950 0.531950
0.666500 0.666500 0.666500
0.392450 0.392450 0.392450
0.527000 0.527000 0.527000
0.661550 0.661550 0.661550
0.796100 0.796100 0.796100
0.930650 0.930650 0.930650
0.656600 0.656600 0.656600
0.791150 0.791150 0.791150
0.925700 0.925700 0.925700
1.000000 1.000000 1.000000
1.000000 1.000000 1.000000
0.000000 0.000000 0.000000
0.000000 0.000000 0.000000
0.000000 0.000000 0.000000
0.054950 0.054950 0.054950
0.189500 0.189500 0.189500
0.000000 0.000000 0.000000
0.050000 0.050000 0.050000
0.184550 0.184550 0.184550
0.319100 0.319100 0.319100
0.453650 0.453650 0.453650
0.179600 0.179600 0.179600
0.314150 0.314150 0.314150
0.448700 0.448700 0.448700
0.583250 0.583250 0.583250
0.717800 0.717800 0.717800
0.443750 0.443750 0.443750
0.578300 0.578300 0.578300
0.712850 0.712850 0.712850
0.847400 0.847400 0.847400
0.981950 0.981950 0.981950
0.707900 0.707900 0.707900
0.842450 0.842450 0.842450
0.977000 0.977000 0.977000
1.000000 1.000000 1.000000
1.000000 1.000000 1.000000
0.000000 0.000000 0.000000
0.000000 0.000000 0.000000
0.000000 0.000000 0.000000
0.106250 0.106250 0.106250
0.240800 0.240800 0.240800
0.000000 0.000000 0.000000
0.101300 0.101300 0.101300
0.235850 0.235850 0.235850
0.370400 0.370400 0.370400
0.504950 0.504950 0.504950
0.230900 0.230900 0.230900
0.365450 0.365450 0.365450
0.500000 0.500000 0.500000
0.634550 0.634550 0.634550
0.769100 0.769100 0.769100
0.495050 0.495050 0.495050
0.629600 0.629600 0.629600
0.764150 0.764150 0.764150
0.898700 0.898700 0.898700
1.000000 1.000000 1.000000
0.759200 0.759200 0.759200
0.893750 0.893750 0.893750
1.000000 1.000000 1.000000
1.000000 1.000000 1.000000
1.000000 1.000000 1.000000
0.000000 0.000000 0.000000
0.000000 0.000000 0.000000
0.023000 0.023000 0.023000
0.157550 0.157550 0.157550
0.292100 0.292100 0.292100
0.018050 0.018050 0.018050
0.152600 0.152600 0.152600
0.287150 0.287150 0.287150
0.421700 0.421700 0.421700
0.556250 0.556250 0.556250
0.282200 0.282200 0.282200
0.416750 0.416750 0.416750
0.551300 0.551300 0.551300
0.685850 0.685850 0.685850
0.820400 0.820400 0.820400
0.546350 0.546350 0.546350
0.680900 0.680900 0.680900
0.815450 0.815450 0.815450
0.950000 0.950000 0.950000
1.000000 1.000000 1.000000
0.810500 0.810500 0.810500
0.945050 0.945050 0.945050
1.000000 1.000000 1.000000
1.000000 1.000000 1.000000
1.000000 1.000000 1.000000
0.000000 0.000000 0.000000
0.000000 0.000000 0.000000
0.074300 0.074300 0.074300
0.208850 0.208850 0.208850
0.343400 0.343400 0.343400
0.069350 0.069350 0.069350
0.203900 0.203900 0.203900
0.338450 0.338450 0.338450
0.473000 0.473000 0.473000
0.607550 0.607550 0.607550
0.333500 0.333500 0.333500
0.468050 0.468050 0.468050
0.602600 0.602600 0.602600
0.737150 0.737150 0.737150
0.871700 0.871700 0.871700
0.597650 0.597650 0.597650
0.732200 0.732200 0.732200
0.866750 0.866750 0.866750
1.000000 1.000000 1.000000
1.000000 1.000000 1.000000
0.861800 0.861800 0.861800
0.996350 0.996350 0.996350
1.000000 1.000000 1.000000
1.000000 1.000000 1.000000
1.000000 1.000000 1.000000
