app/src/main/assets/luts/kodachrome_64.cube
# ApexStudio filter: kodachrome_64
LUT_3D_SIZE 17
DOMAIN_MIN 0.0 0.0 0.0
DOMAIN_MAX 1.0 1.0 1.0
0.060000 0.040000 0.000000
0.138125 0.040000 0.000000
0.216250 0.040000 0.000000
0.294375 0.040000 0.000000
0.372500 0.040000 0.000000
0.450625 0.040000 0.000000
0.528750 0.040000 0.000000
0.606875 0.040000 0.000000
0.685000 0.040000 0.000000
0.763125 0.040000 0.000000
0.841250 0.040000 0.000000
0.919375 0.040000 0.000000
0.997500 0.040000 0.000000
1.000000 0.040000 0.000000
1.000000 0.040000 0.000000
1.000000 0.040000 0.000000
1.000000 0.040000 0.000000
0.060000 0.108750 0.000000
0.138125 0.108750 0.000000
0.216250 0.108750 0.000000
0.294375 0.108750 0.000000
0.372500 0.108750 0.000000
0.450625 0.108750 0.000000
0.528750 0.108750 0.000000
0.606875 0.108750 0.000000
0.685000 0.108750 0.000000
0.763125 0.108750 0.000000
0.841250 0.108750 0.000000
0.919375 0.108750 0.000000
0.997500 0.108750 0.000000
1.000000 0.108750 0.000000
1.000000 0.108750 0.000000
1.000000 0.108750 0.000000
1.000000 0.108750 0.000000
0.060000 0.177500 0.000000
0.138125 0.177500 0.000000
0.216250 0.177500 0.000000
0.294375 0.177500 0.000000
0.372500 0.177500 0.000000
0.450625 0.177500 0.000000
0.528750 0.177500 0.000000
0.606875 0.177500 0.000000
0.685000 0.177500 0.000000
0.763125 0.177500 0.000000
0.841250 0.177500 0.000000
0.919375 0.177500 0.000000
0.997500 0.177500 0.000000
1.000000 0.177500 0.000000
1.000000 0.177500 0.000000
1.000000 0.177500 0.000000
1.000000 0.177500 0.000000
0.060000 0.246250 0.000000
0.138125 0.246250 0.000000
0.216250 0.246250 0.000000
0.294375 0.246250 0.000000
0.372500 0.246250 0.000000
0.450625 0.246250 0.000000
0.528750 0.246250 0.000000
0.606875 0.246250 0.000000
0.685000 0.246250 0.000000
0.763125 0.246250 0.000000
0.841250 0.246250 0.000000
0.919375 0.246250 0.000000
0.997500 0.246250 0.000000
1.000000 0.246250 0.000000
1.000000 0.246250 0.000000
1.000000 0.246250 0.000000
1.000000 0.246250 0.000000
0.060000 0.315000 0.000000
0.138125 0.315000 0.000000
0.216250 0.315000 0.000000
0.294375 0.315000 0.000000
0.372500 0.315000 0.000000
0.450625 0.315000 0.000000
0.528750 0.315000 0.000000
0.606875 0.315000 0.000000
0.685000 0.315000 0.000000
0.763125 0.315000 0.000000
0.841250 0.315000 0.000000
0.919375 0.315000 0.000000
0.997500 0.315000 0.000000
1.000000 0.315000 0.000000
1.000000 0.315000 0.000000
1.000000 0.315000 0.000000
1.000000 0.315000 0.000000
0.060000 0.383750 0.000000
0.138125 0.383750 0.000000
0.216250 0.383750 0.000000
0.294375 0.383750 0.000000
0.372500 0.383750 0.000000
0.450625 0.383750 0.000000
0.528750 0.383750 0.000000
0.606875 0.383750 0.000000
0.685000 0.383750 0.000000
0.763125 0.383750 0.000000
0.841250 0.383750 0.000000
0.919375 0.383750 0.000000
0.997500 0.383750 0.000000
1.000000 0.383750 0.000000
1.000000 0.383750 0.000000
1.000000 0.383750 0.000000
1.000000 0.383750 0.000000
0.060000 0.452500 0.000000
0.138125 0.452500 0.000000
0.216250 0.452500 0.000000
0.294375 0.452500 0.000000
0.372500 0.452500 0.000000
0.450625 0.452500 0.000000
0.528750 0.452500 0.000000
0.606875 0.452500 0.000000
0.685000 0.452500 0.000000
0.763125 0.452500 0.000000
0.841250 0.452500 0.000000
0.919375 0.452500 0.000000
0.997500 0.452500 0.000000
1.000000 0.452500 0.000000
1.000000 0.452500 0.000000
1.000000 0.452500 0.000000
1.000000 0.452500 0.000000
0.060000 0.521250 0.000000
0.138125 0.521250 0.000000
0.216250 0.521250 0.000000
0.294375 0.521250 0.000000
0.372500 0.521250 0.000000
0.450625 0.521250 0.000000
0.528750 0.521250 0.000000
0.606875 0.521250 0.000000
0.685000 0.521250 0.000000
0.763125 0.521250 0.000000
0.841250 0.521250 0.000000
0.919375 0.521250 0.000000
0.997500 0.521250 0.000000
1.000000 0.521250 0.000000
1.000000 0.521250 0.000000
1.000000 0.521250 0.000000
1.000000 0.521250 0.000000
0.060000 0.590000 0.000000
0.138125 0.590000 0.000000
0.216250 0.590000 0.000000
0.294375 0.590000 0.000000
0.372500 0.590000 0.000000
0.450625 0.590000 0.000000
0.528750 0.590000 0.000000
0.606875 0.590000 0.000000
0.685000 0.590000 0.000000
0.763125 0.590000 0.000000
0.841250 0.590000 0.000000
0.919375 0.590000 0.000000
0.997500 0.590000 0.000000
1.000000 0.590000 0.000000
1.000000 0.590000 0.000000
1.000000 0.590000 0.000000
1.000000 0.590000 0.000000
0.060000 0.658750 0.000000
0.138125 0.658750 0.000000
0.216250 0.658750 0.000000
0.294375 0.658750 0.000000
0.372500 0.658750 0.000000
0.450625 0.658750 0.000000
0.528750 0.658750 0.000000
0.606875 0.658750 0.000000
0.685000 0.658750 0.000000
0.763125 0.658750 0.000000
0.841250 0.658750 0.000000
0.919375 0.658750 0.000000
0.997500 0.658750 0.000000
1.000000 0.658750 0.000000
1.000000 0.658750 0.000000
1.000000 0.658750 0.000000
1.000000 0.658750 0.000000
0.060000 0.727500 0.000000
0.138125 0.727500 0.000000
0.216250 0.727500 0.000000
0.294375 0.727500 0.000000
0.372500 0.727500 0.000000
0.450625 0.727500 0.000000
0.528750 0.727500 0.000000
0.606875 0.727500 0.000000
0.685000 0.727500 0.000000
0.763125 0.727500 0.000000
0.841250 0.727500 0.000000
0.919375 0.727500 0.000000
0.997500 0.727500 0.000000
1.000000 0.727500 0.000000
1.000000 0.727500 0.000000
1.000000 0.727500 0.000000
1.000000 0.727500 0.000000
0.060000 0.796250 0.000000
0.138125 0.796250 0.000000
0.216250 0.796250 0.000000
0.294375 0.796250 0.000000
0.372500 0.796250 0.000000
0.450625 0.796250 0.000000
0.528750 0.796250 0.000000
0.606875 0.796250 0.000000
0.685000 0.796250 0.000000
0.763125 0.796250 0.000000
0.841250 0.796250 0.000000
0.919375 0.796250 0.000000
0.997500 0.796250 0.000000
1.000000 0.796250 0.000000
1.000000 0.796250 0.000000
1.000000 0.796250 0.000000
1.000000 0.796250 0.000000
0.060000 0.865000 0.000000
0.138125 0.865000 0.000000
0.216250 0.865000 0.000000
0.294375 0.865000 0.000000
0.372500 0.865000 0.000000
0.450625 0.865000 0.000000
0.528750 0.865000 0.000000
0.606875 0.865000 0.000000
0.685000 0.865000 0.000000
0.763125 0.865000 0.000000
0.841250 0.865000 0.000000
0.919375 0.865000 0.000000
0.997500 0.865000 0.000000
1.000000 0.865000 0.000000
1.000000 0.865000 0.000000
1.000000 0.865000 0.000000
1.000000 0.865000 0.000000
0.060000 0.933750 0.000000
0.138125 0.933750 0.000000
0.216250 0.933750 0.000000
0.294375 0.933750 0.000000
0.372500 0.933750 0.000000
0.450625 0.933750 0.000000
0.528750 0.933750 0.000000
0.606875 0.933750 0.000000
0.685000 0.933750 0.000000
0.763125 0.933750 0.000000
0.841250 0.933750 0.000000
0.919375 0.933750 0.000000
0.997500 0.933750 0.000000
1.000000 0.933750 0.000000
1.000000 0.933750 0.000000
1.000000 0.933750 0.000000
1.000000 0.933750 0.000000
0.060000 1.000000 0.000000
0.138125 1.000000 0.000000
0.216250 1.000000 0.000000
0.294375 1.000000 0.000000
0.372500 1.000000 0.000000
0.450625 1.000000 0.000000
0.528750 1.000000 0.000000
0.606875 1.000000 0.000000
0.685000 1.000000 0.000000
0.763125 1.000000 0.000000
0.841250 1.000000 0.000000
0.919375 1.000000 0.000000
0.997500 1.000000 0.000000
1.000000 1.000000 0.000000
1.000000 1.000000 0.000000
1.000000 1.000000 0.000000
1.000000 1.000000 0.000000
0.060000 1.000000 0.000000
0.138125 1.000000 0.000000
0.216250 1.000000 0.000000
0.294375 1.000000 0.000000
0.372500 1.000000 0.000000
0.450625 1.000000 0.000000
0.528750 1.000000 0.000000
0.606875 1.000000 0.000000
0.685000 1.000000 0.000000
0.763125 1.000000 0.000000
0.841250 1.000000 0.000000
0.919375 1.000000 0.000000
0.997500 1.000000 0.000000
1.000000 1.000000 0.000000
1.000000 1.000000 0.000000
1.000000 1.000000 0.000000
1.000000 1.000000 0.000000
0.060000 1.000000 0.000000
0.138125 1.000000 0.000000
0.216250 1.000000 0.000000
0.294375 1.000000 0.000000
0.372500 1.000000 0.000000
0.450625 1.000000 0.000000
0.528750 1.000000 0.000000
0.606875 1.000000 0.000000
0.685000 1.000000 0.000000
0.763125 1.000000 0.000000
0.841250 1.000000 0.000000
0.919375 1.000000 0.000000
0.997500 1.000000 0.000000
1.000000 1.000000 0.000000
1.000000 1.000000 0.000000
1.000000 1.000000 0.000000
1.000000 1.000000 0.000000
0.060000 0.040000 0.006250
0.138125 0.040000 0.006250
0.216250 0.040000 0.006250
0.294375 0.040000 0.006250
0.372500 0.040000 0.006250
0.450625 0.040000 0.006250
0.528750 0.040000 0.006250
0.606875 0.040000 0.006250
0.685000 0.040000 0.006250
0.763125 0.040000 0.006250
0.841250 0.040000 0.006250
0.919375 0.040000 0.006250
0.997500 0.040000 0.006250
1.000000 0.040000 0.006250
1.000000 0.040000 0.006250
1.000000 0.040000 0.006250
1.000000 0.040000 0.006250
0.060000 0.108750 0.006250
0.138125 0.108750 0.006250
0.216250 0.108750 0.006250
0.294375 0.108750 0.006250
0.372500 0.108750 0.006250
0.450625 0.108750 0.006250
0.528750 0.108750 0.006250
0.606875 0.108750 0.006250
0.685000 0.108750 0.006250
0.763125 0.108750 0.006250
0.841250 0.108750 0.006250
0.919375 0.108750 0.006250
0.997500 0.108750 0.006250
1.000000 0.108750 0.006250
1.000000 0.108750 0.006250
1.000000 0.108750 0.006250
1.000000 0.108750 0.006250
0.060000 0.177500 0.006250
0.138125 0.177500 0.006250
0.216250 0.177500 0.006250
0.294375 0.177500 0.006250
0.372500 0.177500 0.006250
0.450625 0.177500 0.006250
0.528750 0.177500 0.006250
0.606875 0.177500 0.006250
0.685000 0.177500 0.006250
0.763125 0.177500 0.006250
0.841250 0.177500 0.006250
0.919375 0.177500 0.006250
0.997500 0.177500 0.006250
1.000000 0.177500 0.006250
1.000000 0.177500 0.006250
1.000000 0.177500 0.006250
1.000000 0.177500 0.006250
0.060000 0.246250 0.006250
0.138125 0.246250 0.006250
0.216250 0.246250 0.006250
0.294375 0.246250 0.006250
0.372500 0.246250 0.006250
0.450625 0.246250 0.006250
0.528750 0.246250 0.006250
0.606875 0.246250 0.006250
0.685000 0.246250 0.006250
0.763125 0.246250 0.006250
0.841250 0.246250 0.006250
0.919375 0.246250 0.006250
0.997500 0.246250 0.006250
1.000000 0.246250 0.006250
1.000000 0.246250 0.006250
1.000000 0.246250 0.006250
1.000000 0.246250 0.006250
0.060000 0.315000 0.006250
0.138125 0.315000 0.006250
0.216250 0.315000 0.006250
0.294375 0.315000 0.006250
0.372500 0.315000 0.006250
0.450625 0.315000 0.006250
0.528750 0.315000 0.006250
0.606875 0.315000 0.006250
0.685000 0.315000 0.006250
0.763125 0.315000 0.006250
0.841250 0.315000 0.006250
0.919375 0.315000 0.006250
0.997500 0.315000 0.006250
1.000000 0.315000 0.006250
1.000000 0.315000 0.006250
1.000000 0.315000 0.006250
1.000000 0.315000 0.006250
0.060000 0.383750 0.006250
0.138125 0.383750 0.006250
0.216250 0.383750 0.006250
0.294375 0.383750 0.006250
0.372500 0.383750 0.006250
0.450625 0.383750 0.006250
0.528750 0.383750 0.006250
0.606875 0.383750 0.006250
0.685000 0.383750 0.006250
0.763125 0.383750 0.006250
0.841250 0.383750 0.006250
0.919375 0.383750 0.006250
0.997500 0.383750 0.006250
1.000000 0.383750 0.006250
1.000000 0.383750 0.006250
1.000000 0.383750 0.006250
1.000000 0.383750 0.006250
0.060000 0.452500 0.006250
0.138125 0.452500 0.006250
0.216250 0.452500 0.006250
0.294375 0.452500 0.006250
0.372500 0.452500 0.006250
0.450625 0.452500 0.006250
0.528750 0.452500 0.006250
0.606875 0.452500 0.006250
0.685000 0.452500 0.006250
0.763125 0.452500 0.006250
0.841250 0.452500 0.006250
0.919375 0.452500 0.006250
0.997500 0.452500 0.006250
1.000000 0.452500 0.006250
1.000000 0.452500 0.006250
1.000000 0.452500 0.006250
1.000000 0.452500 0.006250
0.060000 0.521250 0.006250
0.138125 0.521250 0.006250
0.216250 0.521250 0.006250
0.294375 0.521250 0.006250
0.372500 0.521250 0.006250
0.450625 0.521250 0.006250
0.528750 0.521250 0.006250
0.606875 0.521250 0.006250
0.685000 0.521250 0.006250
0.763125 0.521250 0.006250
0.841250 0.521250 0.006250
0.919375 0.521250 0.006250
0.997500 0.521250 0.006250
1.000000 0.521250 0.006250
1.000000 0.521250 0.006250
1.000000 0.521250 0.006250
1.000000 0.521250 0.006250
0.060000 0.590000 0.006250
0.138125 0.590000 0.006250
0.216250 0.590000 0.006250
0.294375 0.590000 0.006250
0.372500 0.590000 0.006250
0.450625 0.590000 0.006250
0.528750 0.590000 0.006250
0.606875 0.590000 0.006250
0.685000 0.590000 0.006250
0.763125 0.590000 0.006250
0.841250 0.590000 0.006250
0.919375 0.590000 0.006250
0.997500 0.590000 0.006250
1.000000 0.590000 0.006250
1.000000 0.590000 0.006250
1.000000 0.590000 0.006250
1.000000 0.590000 0.006250
0.060000 0.658750 0.006250
0.138125 0.658750 0.006250
0.216250 0.658750 0.006250
0.294375 0.658750 0.006250
0.372500 0.658750 0.006250
0.450625 0.658750 0.006250
0.528750 0.658750 0.006250
0.606875 0.658750 0.006250
0.685000 0.658750 0.006250
0.763125 0.658750 0.006250
0.841250 0.658750 0.006250
0.919375 0.658750 0.006250
0.997500 0.658750 0.006250
1.000000 0.658750 0.006250
1.000000 0.658750 0.006250
1.000000 0.658750 0.006250
1.000000 0.658750 0.006250
0.060000 0.727500 0.006250
0.138125 0.727500 0.006250
0.216250 0.727500 0.006250
0.294375 0.727500 0.006250
0.372500 0.727500 0.006250
0.450625 0.727500 0.006250
0.528750 0.727500 0.006250
0.606875 0.727500 0.006250
0.685000 0.727500 0.006250
0.763125 0.727500 0.006250
0.841250 0.727500 0.006250
0.919375 0.727500 0.006250
0.997500 0.727500 0.006250
1.000000 0.727500 0.006250
1.000000 0.727500 0.006250
1.000000 0.727500 0.006250
1.000000 0.727500 0.006250
0.060000 0.796250 0.006250
0.138125 0.796250 0.006250
0.216250 0.796250 0.006250
0.294375 0.796250 0.006250
0.372500 0.796250 0.006250
0.450625 0.796250 0.006250
0.528750 0.796250 0.006250
0.606875 0.796250 0.006250
0.685000 0.796250 0.006250
0.763125 0.796250 0.006250
0.841250 0.796250 0.006250
0.919375 0.796250 0.006250
0.997500 0.796250 0.006250
1.000000 0.796250 0.006250
1.000000 0.796250 0.006250
1.000000 0.796250 0.006250
1.000000 0.796250 0.006250
0.060000 0.865000 0.006250
0.138125 0.865000 0.006250
0.216250 0.865000 0.006250
0.294375 0.865000 0.006250
0.372500 0.865000 0.006250
0.450625 0.865000 0.006250
0.528750 0.865000 0.006250
0.606875 0.865000 0.006250
0.685000 0.865000 0.006250
0.763125 0.865000 0.006250
0.841250 0.865000 0.006250
0.919375 0.865000 0.006250
0.997500 0.865000 0.006250
1.000000 0.865000 0.006250
1.000000 0.865000 0.006250
1.000000 0.865000 0.006250
1.000000 0.865000 0.006250
0.060000 0.933750 0.006250
0.138125 0.933750 0.006250
0.216250 0.933750 0.006250
0.294375 0.933750 0.006250
0.372500 0.933750 0.006250
0.450625 0.933750 0.006250
0.528750 0.933750 0.006250
0.606875 0.933750 0.006250
0.685000 0.933750 0.006250
0.763125 0.933750 0.006250
0.841250 0.933750 0.006250
0.919375 0.933750 0.006250
0.997500 0.933750 0.006250
1.000000 0.933750 0.006250
1.000000 0.933750 0.006250
1.000000 0.933750 0.006250
1.000000 0.933750 0.006250
0.060000 1.000000 0.006250
0.138125 1.000000 0.006250
0.216250 1.000000 0.006250
0.294375 1.000000 0.006250
0.372500 1.000000 0.006250
0.450625 1.000000 0.006250
0.528750 1.000000 0.006250
0.606875 1.000000 0.006250
0.685000 1.000000 0.006250
0.763125 1.000000 0.006250
0.841250 1.000000 0.006250
0.919375 1.000000 0.006250
0.997500 1.000000 0.006250
1.000000 1.000000 0.006250
1.000000 1.000000 0.006250
1.000000 1.000000 0.006250
1.000000 1.000000 0.006250
0.060000 1.000000 0.006250
0.138125 1.000000 0.006250
0.216250 1.000000 0.006250
0.294375 1.000000 0.006250
0.372500 1.000000 0.006250
0.450625 1.000000 0.006250
0.528750 1.000000 0.006250
0.606875 1.000000 0.006250
0.685000 1.000000 0.006250
0.763125 1.000000 0.006250
0.841250 1.000000 0.006250
0.919375 1.000000 0.006250
0.997500 1.000000 0.006250
1.000000 1.000000 0.006250
1.000000 1.000000 0.006250
1.000000 1.000000 0.006250
1.000000 1.000000 0.006250
0.060000 1.000000 0.006250
0.138125 1.000000 0.006250
0.216250 1.000000 0.006250
0.294375 1.000000 0.006250
0.372500 1.000000 0.006250
0.450625 1.000000 0.006250
0.528750 1.000000 0.006250
0.606875 1.000000 0.006250
0.685000 1.000000 0.006250
0.763125 1.000000 0.006250
0.841250 1.000000 0.006250
0.919375 1.000000 0.006250
0.997500 1.000000 0.006250
1.000000 1.000000 0.006250
1.000000 1.000000 0.006250
1.000000 1.000000 0.006250
1.000000 1.000000 0.006250
0.060000 0.040000 0.062500
0.138125 0.040000 0.062500
0.216250 0.040000 0.062500
0.294375 0.040000 0.062500
0.372500 0.040000 0.062500
0.450625 0.040000 0.062500
0.528750 0.040000 0.062500
0.606875 0.040000 0.062500
0.685000 0.040000 0.062500
0.763125 0.040000 0.062500
0.841250 0.040000 0.062500
0.919375 0.040000 0.062500
0.997500 0.040000 0.062500
1.000000 0.040000 0.062500
1.000000 0.040000 0.062500
1.000000 0.040000 0.062500
1.000000 0.040000 0.062500
0.060000 0.108750 0.062500
0.138125 0.108750 0.062500
0.216250 0.108750 0.062500
0.294375 0.108750 0.062500
0.372500 0.108750 0.062500
0.450625 0.108750 0.062500
0.528750 0.108750 0.062500
0.606875 0.108750 0.062500
0.685000 0.108750 0.062500
0.763125 0.108750 0.062500
0.841250 0.108750 0.062500
0.919375 0.108750 0.062500
0.997500 0.108750 0.062500
1.000000 0.108750 0.062500
1.000000 0.108750 0.062500
1.000000 0.108750 0.062500
1.000000 0.108750 0.062500
0.060000 0.177500 0.062500
0.138125 0.177500 0.062500
0.216250 0.177500 0.062500
0.294375 0.177500 0.062500
0.372500 0.177500 0.062500
0.450625 0.177500 0.062500
0.528750 0.177500 0.062500
0.606875 0.177500 0.062500
0.685000 0.177500 0.062500
0.763125 0.177500 0.062500
0.841250 0.177500 0.062500
0.919375 0.177500 0.062500
0.997500 0.177500 0.062500
1.000000 0.177500 0.062500
1.000000 0.177500 0.062500
1.000000 0.177500 0.062500
1.000000 0.177500 0.062500
0.060000 0.246250 0.062500
0.138125 0.246250 0.062500
0.216250 0.246250 0.062500
0.294375 0.246250 0.062500
0.372500 0.246250 0.062500
0.450625 0.246250 0.062500
0.528750 0.246250 0.062500
0.606875 0.246250 0.062500
0.685000 0.246250 0.062500
0.763125 0.246250 0.062500
0.841250 0.246250 0.062500
0.919375 0.246250 0.062500
0.997500 0.246250 0.062500
1.000000 0.246250 0.062500
1.000000 0.246250 0.062500
1.000000 0.246250 0.062500
1.000000 0.246250 0.062500
0.060000 0.315000 0.062500
0.138125 0.315000 0.062500
0.216250 0.315000 0.062500
0.294375 0.315000 0.062500
0.372500 0.315000 0.062500
0.450625 0.315000 0.062500
0.528750 0.315000 0.062500
0.606875 0.315000 0.062500
0.685000 0.315000 0.062500
0.763125 0.315000 0.062500
0.841250 0.315000 0.062500
0.919375 0.315000 0.062500
0.997500 0.315000 0.062500
1.000000 0.315000 0.062500
1.000000 0.315000 0.062500
1.000000 0.315000 0.062500
1.000000 0.315000 0.062500
0.060000 0.383750 0.062500
0.138125 0.383750 0.062500
0.216250 0.383750 0.062500
0.294375 0.383750 0.062500
0.372500 0.383750 0.062500
0.450625 0.383750 0.062500
0.528750 0.383750 0.062500
0.606875 0.383750 0.062500
0.685000 0.383750 0.062500
0.763125 0.383750 0.062500
0.841250 0.383750 0.062500
0.919375 0.383750 0.062500
0.997500 0.383750 0.062500
1.000000 0.383750 0.062500
1.000000 0.383750 0.062500
1.000000 0.383750 0.062500
1.000000 0.383750 0.062500
0.060000 0.452500 0.062500
0.138125 0.452500 0.062500
0.216250 0.452500 0.062500
0.294375 0.452500 0.062500
0.372500 0.452500 0.062500
0.450625 0.452500 0.062500
0.528750 0.452500 0.062500
0.606875 0.452500 0.062500
0.685000 0.452500 0.062500
0.763125 0.452500 0.062500
0.841250 0.452500 0.062500
0.919375 0.452500 0.062500
0.997500 0.452500 0.062500
1.000000 0.452500 0.062500
1.000000 0.452500 0.062500
1.000000 0.452500 0.062500
1.000000 0.452500 0.062500
0.060000 0.521250 0.062500
0.138125 0.521250 0.062500
0.216250 0.521250 0.062500
0.294375 0.521250 0.062500
0.372500 0.521250 0.062500
0.450625 0.521250 0.062500
0.528750 0.521250 0.062500
0.606875 0.521250 0.062500
0.685000 0.521250 0.062500
0.763125 0.521250 0.062500
0.841250 0.521250 0.062500
0.919375 0.521250 0.062500
0.997500 0.521250 0.062500
1.000000 0.521250 0.062500
1.000000 0.521250 0.062500
1.000000 0.521250 0.062500
1.000000 0.521250 0.062500
0.060000 0.590000 0.062500
0.138125 0.590000 0.062500
0.216250 0.590000 0.062500
0.294375 0.590000 0.062500
0.372500 0.590000 0.062500
0.450625 0.590000 0.062500
0.528750 0.590000 0.062500
0.606875 0.590000 0.062500
0.685000 0.590000 0.062500
0.763125 0.590000 0.062500
0.841250 0.590000 0.062500
0.919375 0.590000 0.062500
0.997500 0.590000 0.062500
1.000000 0.590000 0.062500
1.000000 0.590000 0.062500
1.000000 0.590000 0.062500
1.000000 0.590000 0.062500
0.060000 0.658750 0.062500
0.138125 0.658750 0.062500
0.216250 0.658750 0.062500
0.294375 0.658750 0.062500
0.372500 0.658750 0.062500
0.450625 0.658750 0.062500
0.528750 0.658750 0.062500
0.606875 0.658750 0.062500
0.685000 0.658750 0.062500
0.763125 0.658750 0.062500
0.841250 0.658750 0.062500
0.919375 0.658750 0.062500
0.997500 0.658750 0.062500
1.000000 0.658750 0.062500
1.000000 0.658750 0.062500
1.000000 0.658750 0.062500
1.000000 0.658750 0.062500
0.060000 0.727500 0.062500
0.138125 0.727500 0.062500
0.216250 0.727500 0.062500
0.294375 0.727500 0.062500
0.372500 0.727500 0.062500
0.450625 0.727500 0.062500
0.528750 0.727500 0.062500
0.606875 0.727500 0.062500
0.685000 0.727500 0.062500
0.763125 0.727500 0.062500
0.841250 0.727500 0.062500
0.919375 0.727500 0.062500
0.997500 0.727500 0.062500
1.000000 0.727500 0.062500
1.000000 0.727500 0.062500
1.000000 0.727500 0.062500
1.000000 0.727500 0.062500
0.060000 0.796250 0.062500
0.138125 0.796250 0.062500
0.216250 0.796250 0.062500
0.294375 0.796250 0.062500
0.372500 0.796250 0.062500
0.450625 0.796250 0.062500
0.528750 0.796250 0.062500
0.606875 0.796250 0.062500
0.685000 0.796250 0.062500
0.763125 0.796250 0.062500
0.841250 0.796250 0.062500
0.919375 0.796250 0.062500
0.997500 0.796250 0.062500
1.000000 0.796250 0.062500
1.000000 0.796250 0.062500
1.000000 0.796250 0.062500
1.000000 0.796250 0.062500
0.060000 0.865000 0.062500
0.138125 0.865000 0.062500
0.216250 0.865000 0.062500
0.294375 0.865000 0.062500
0.372500 0.865000 0.062500
0.450625 0.865000 0.062500
0.528750 0.865000 0.062500
0.606875 0.865000 0.062500
0.685000 0.865000 0.062500
0.763125 0.865000 0.062500
0.841250 0.865000 0.062500
0.919375 0.865000 0.062500
0.997500 0.865000 0.062500
1.000000 0.865000 0.062500
1.000000 0.865000 0.062500
1.000000 0.865000 0.062500
1.000000 0.865000 0.062500
0.060000 0.933750 0.062500
0.138125 0.933750 0.062500
0.216250 0.933750 0.062500
0.294375 0.933750 0.062500
0.372500 0.933750 0.062500
0.450625 0.933750 0.062500
0.528750 0.933750 0.062500
0.606875 0.933750 0.062500
0.685000 0.933750 0.062500
0.763125 0.933750 0.062500
0.841250 0.933750 0.062500
0.919375 0.933750 0.062500
0.997500 0.933750 0.062500
1.000000 0.933750 0.062500
1.000000 0.933750 0.062500
1.000000 0.933750 0.062500
1.000000 0.933750 0.062500
0.060000 1.000000 0.062500
0.138125 1.000000 0.062500
0.216250 1.000000 0.062500
0.294375 1.000000 0.062500
0.372500 1.000000 0.062500
0.450625 1.000000 0.062500
0.528750 1.000000 0.062500
0.606875 1.000000 0.062500
0.685000 1.000000 0.062500
0.763125 1.000000 0.062500
0.841250 1.000000 0.062500
0.919375 1.000000 0.062500
0.997500 1.000000 0.062500
1.000000 1.000000 0.062500
1.000000 1.000000 0.062500
1.000000 1.000000 0.062500
1.000000 1.000000 0.062500
0.060000 1.000000 0.062500
0.138125 1.000000 0.062500
0.216250 1.000000 0.062500
0.294375 1.000000 0.062500
0.372500 1.000000 0.062500
0.450625 1.000000 0.062500
0.528750 1.000000 0.062500
0.606875 1.000000 0.062500
0.685000 1.000000 0.062500
0.763125 1.000000 0.062500
0.841250 1.000000 0.062500
0.919375 1.000000 0.062500
0.997500 1.000000 0.062500
1.000000 1.000000 0.062500
1.000000 1.000000 0.062500
1.000000 1.000000 0.062500
1.000000 1.000000 0.062500
0.060000 1.000000 0.062500
0.138125 1.000000 0.062500
0.216250 1.000000 0.062500
0.294375 1.000000 0.062500
0.372500 1.000000 0.062500
0.450625 1.000000 0.062500
0.528750 1.000000 0.062500
0.606875 1.000000 0.062500
0.685000 1.000000 0.062500
0.763125 1.000000 0.062500
0.841250 1.000000 0.062500
0.919375 1.000000 0.062500
0.997500 1.000000 0.062500
1.000000 1.000000 0.062500
1.000000 1.000000 0.062500
1.000000 1.000000 0.062500
1.000000 1.000000 0.062500
0.060000 0.040000 0.118750
0.138125 0.040000 0.118750
0.216250 0.040000 0.118750
0.294375 0.040000 0.118750
0.372500 0.040000 0.118750
0.450625 0.040000 0.118750
0.528750 0.040000 0.118750
0.606875 0.040000 0.118750
0.685000 0.040000 0.118750
0.763125 0.040000 0.118750
0.841250 0.040000 0.118750
0.919375 0.040000 0.118750
0.997500 0.040000 0.118750
1.000000 0.040000 0.118750
1.000000 0.040000 0.118750
1.000000 0.040000 0.118750
1.000000 0.040000 0.118750
0.060000 0.108750 0.118750
