app/src/main/assets/luts/kodachrome_64.cube
# ApexStudio filter: kodachrome_64
LUT_3D_SIZE 5
DOMAIN_MIN 0.0 0.0 0.0
DOMAIN_MAX 1.0 1.0 1.0
0.060000 0.040000 0.000000
0.372500 0.040000 0.000000
0.685000 0.040000 0.000000
0.997500 0.040000 0.000000
1.000000 0.040000 0.000000
0.060000 0.315000 0.000000
0.372500 0.315000 0.000000
0.685000 0.315000 0.000000
0.997500 0.315000 0.000000
1.000000 0.315000 0.000000
0.060000 0.590000 0.000000
0.372500 0.590000 0.000000
0.685000 0.590000 0.000000
0.997500 0.590000 0.000000
1.000000 0.590000 0.000000
0.060000 0.865000 0.000000
0.372500 0.865000 0.000000
0.685000 0.865000 0.000000
0.997500 0.865000 0.000000
1.000000 0.865000 0.000000
0.060000 1.000000 0.000000
0.372500 1.000000 0.000000
0.685000 1.000000 0.000000
0.997500 1.000000 0.000000
1.000000 1.000000 0.000000
0.060000 0.040000 0.175000
0.372500 0.040000 0.175000
0.685000 0.040000 0.175000
0.997500 0.040000 0.175000
1.000000 0.040000 0.175000
0.060000 0.315000 0.175000
0.372500 0.315000 0.175000
0.685000 0.315000 0.175000
0.997500 0.315000 0.175000
1.000000 0.315000 0.175000
0.060000 0.590000 0.175000
0.372500 0.590000 0.175000
0.685000 0.590000 0.175000
0.997500 0.590000 0.175000
1.000000 0.590000 0.175000
0.060000 0.865000 0.175000
0.372500 0.865000 0.175000
0.685000 0.865000 0.175000
0.997500 0.865000 0.175000
1.000000 0.865000 0.175000
0.060000 1.000000 0.175000
0.372500 1.000000 0.175000
0.685000 1.000000 0.175000
0.997500 1.000000 0.175000
1.000000 1.000000 0.175000
0.060000 0.040000 0.400000
0.372500 0.040000 0.400000
0.685000 0.040000 0.400000
0.997500 0.040000 0.400000
1.000000 0.040000 0.400000
0.060000 0.315000 0.400000
0.372500 0.315000 0.400000
0.685000 0.315000 0.400000
0.997500 0.315000 0.400000
1.000000 0.315000 0.400000
0.060000 0.590000 0.400000
0.372500 0.590000 0.400000
0.685000 0.590000 0.400000
0.997500 0.590000 0.400000
1.000000 0.590000 0.400000
0.060000 0.865000 0.400000
0.372500 0.865000 0.400000
0.685000 0.865000 0.400000
0.997500 0.865000 0.400000
1.000000 0.865000 0.400000
0.060000 1.000000 0.400000
0.372500 1.000000 0.400000
0.685000 1.000000 0.400000
0.997500 1.000000 0.400000
1.000000 1.000000 0.400000
0.060000 0.040000 0.625000
0.372500 0.040000 0.625000
0.685000 0.040000 0.625000
0.997500 0.040000 0.625000
1.000000 0.040000 0.625000
0.060000 0.315000 0.625000
0.372500 0.315000 0.625000
0.685000 0.315000 0.625000
0.997500 0.315000 0.625000
1.000000 0.315000 0.625000
0.060000 0.590000 0.625000
0.372500 0.590000 0.625000
0.685000 0.590000 0.625000
0.997500 0.590000 0.625000
1.000000 0.590000 0.625000
0.060000 0.865000 0.625000
0.372500 0.865000 0.625000
0.685000 0.865000 0.625000
0.997500 0.865000 0.625000
1.000000 0.865000 0.625000
0.060000 1.000000 0.625000
0.372500 1.000000 0.625000
0.685000 1.000000 0.625000
0.997500 1.000000 0.625000
1.000000 1.000000 0.625000
0.060000 0.040000 0.850000
0.372500 0.040000 0.850000
0.685000 0.040000 0.850000
0.997500 0.040000 0.850000
1.000000 0.040000 0.850000
0.060000 0.315000 0.850000
0.372500 0.315000 0.850000
0.685000 0.315000 0.850000
0.997500 0.315000 0.850000
1.000000 0.315000 0.850000
0.060000 0.590000 0.850000
0.372500 0.590000 0.850000
0.685000 0.590000 0.850000
0.997500 0.590000 0.850000
1.000000 0.590000 0.850000
0.060000 0.865000 0.850000
0.372500 0.865000 0.850000
0.685000 0.865000 0.850000
0.997500 0.865000 0.850000
1.000000 0.865000 0.850000
0.060000 1.000000 0.850000
0.372500 1.000000 0.850000
0.685000 1.000000 0.850000
0.997500 1.000000 0.850000
1.000000 1.000000 0.850000
