app/src/main/assets/luts/laser_grid.cube
# ApexStudio filter: laser_grid
LUT_3D_SIZE 17
DOMAIN_MIN 0.0 0.0 0.0
DOMAIN_MAX 1.0 1.0 1.0
0.000000 0.000000 0.000000
0.097550 0.000000 0.000000
0.195100 0.000000 0.000000
0.292650 0.000000 0.000000
0.390200 0.000000 0.000000
0.487750 0.000000 0.000000
0.585300 0.000000 0.000000
0.682850 0.000000 0.000000
0.780400 0.000000 0.000000
0.877950 0.000000 0.000000
0.975500 0.000000 0.000000
1.000000 0.000000 0.000000
1.000000 0.000000 0.000000
1.000000 0.000000 0.000000
1.000000 0.000000 0.000000
1.000000 0.000000 0.000000
1.000000 0.000000 0.000000
0.000000 0.083150 0.000000
0.068200 0.068200 0.000000
0.165750 0.053250 0.000000
0.263300 0.038300 0.000000
0.360850 0.023350 0.000000
0.458400 0.008400 0.000000
0.555950 0.000000 0.000000
0.653500 0.000000 0.000000
0.751050 0.000000 0.000000
0.848600 0.000000 0.000000
0.946150 0.000000 0.000000
1.000000 0.000000 0.000000
1.000000 0.000000 0.000000
1.000000 0.000000 0.000000
1.000000 0.000000 0.000000
1.000000 0.000000 0.000000
1.000000 0.000000 0.000000
0.000000 0.166300 0.000000
0.038850 0.151350 0.000000
0.136400 0.136400 0.000000
0.233950 0.121450 0.000000
0.331500 0.106500 0.000000
0.429050 0.091550 0.000000
0.526600 0.076600 0.000000
0.624150 0.061650 0.000000
0.721700 0.046700 0.000000
0.819250 0.031750 0.000000
0.916800 0.016800 0.000000
1.000000 0.001850 0.000000
1.000000 0.000000 0.000000
1.000000 0.000000 0.000000
1.000000 0.000000 0.000000
1.000000 0.000000 0.000000
1.000000 0.000000 0.000000
0.000000 0.249450 0.000000
0.009500 0.234500 0.000000
0.107050 0.219550 0.000000
0.204600 0.204600 0.000000
0.302150 0.189650 0.000000
0.399700 0.174700 0.000000
0.497250 0.159750 0.000000
0.594800 0.144800 0.000000
0.692350 0.129850 0.000000
0.789900 0.114900 0.000000
0.887450 0.099950 0.000000
0.985000 0.085000 0.000000
1.000000 0.070050 0.000000
1.000000 0.055100 0.000000
1.000000 0.040150 0.000000
1.000000 0.025200 0.000000
1.000000 0.010250 0.000000
0.000000 0.332600 0.000000
0.000000 0.317650 0.000000
0.077700 0.302700 0.000000
0.175250 0.287750 0.000000
0.272800 0.272800 0.000000
0.370350 0.257850 0.000000
0.467900 0.242900 0.000000
0.565450 0.227950 0.000000
0.663000 0.213000 0.000000
0.760550 0.198050 0.000000
0.858100 0.183100 0.000000
0.955650 0.168150 0.000000
1.000000 0.153200 0.000000
1.000000 0.138250 0.000000
1.000000 0.123300 0.000000
1.000000 0.108350 0.000000
1.000000 0.093400 0.000000
0.000000 0.415750 0.000000
0.000000 0.400800 0.000000
0.048350 0.385850 0.000000
0.145900 0.370900 0.000000
0.243450 0.355950 0.000000
0.341000 0.341000 0.000000
0.438550 0.326050 0.000000
0.536100 0.311100 0.000000
0.633650 0.296150 0.000000
0.731200 0.281200 0.000000
0.828750 0.266250 0.000000
0.926300 0.251300 0.000000
1.000000 0.236350 0.000000
1.000000 0.221400 0.000000
1.000000 0.206450 0.000000
1.000000 0.191500 0.000000
1.000000 0.176550 0.000000
0.000000 0.498900 0.000000
0.000000 0.483950 0.000000
0.019000 0.469000 0.000000
0.116550 0.454050 0.000000
0.214100 0.439100 0.000000
0.311650 0.424150 0.000000
0.409200 0.409200 0.000000
0.506750 0.394250 0.000000
0.604300 0.379300 0.000000
0.701850 0.364350 0.000000
0.799400 0.349400 0.000000
0.896950 0.334450 0.000000
0.994500 0.319500 0.000000
1.000000 0.304550 0.000000
1.000000 0.289600 0.000000
1.000000 0.274650 0.000000
1.000000 0.259700 0.000000
0.000000 0.582050 0.000000
0.000000 0.567100 0.000000
0.000000 0.552150 0.000000
0.087200 0.537200 0.000000
0.184750 0.522250 0.000000
0.282300 0.507300 0.000000
0.379850 0.492350 0.000000
0.477400 0.477400 0.000000
0.574950 0.462450 0.000000
0.672500 0.447500 0.000000
0.770050 0.432550 0.000000
0.867600 0.417600 0.000000
0.965150 0.402650 0.000000
1.000000 0.387700 0.000000
1.000000 0.372750 0.000000
1.000000 0.357800 0.000000
1.000000 0.342850 0.000000
0.000000 0.665200 0.000000
0.000000 0.650250 0.000000
0.000000 0.635300 0.000000
0.057850 0.620350 0.000000
0.155400 0.605400 0.000000
0.252950 0.590450 0.000000
0.350500 0.575500 0.000000
0.448050 0.560550 0.000000
0.545600 0.545600 0.000000
0.643150 0.530650 0.000000
0.740700 0.515700 0.000000
0.838250 0.500750 0.000000
0.935800 0.485800 0.000000
1.000000 0.470850 0.000000
1.000000 0.455900 0.000000
1.000000 0.440950 0.000000
1.000000 0.426000 0.000000
0.000000 0.748350 0.000000
0.000000 0.733400 0.000000
0.000000 0.718450 0.000000
0.028500 0.703500 0.000000
0.126050 0.688550 0.000000
0.223600 0.673600 0.000000
0.321150 0.658650 0.000000
0.418700 0.643700 0.000000
0.516250 0.628750 0.000000
0.613800 0.613800 0.000000
0.711350 0.598850 0.000000
0.808900 0.583900 0.000000
0.906450 0.568950 0.000000
1.000000 0.554000 0.000000
1.000000 0.539050 0.000000
1.000000 0.524100 0.000000
1.000000 0.509150 0.000000
0.000000 0.831500 0.000000
0.000000 0.816550 0.000000
0.000000 0.801600 0.000000
0.000000 0.786650 0.000000
0.096700 0.771700 0.000000
0.194250 0.756750 0.000000
0.291800 0.741800 0.000000
0.389350 0.726850 0.000000
0.486900 0.711900 0.000000
0.584450 0.696950 0.000000
0.682000 0.682000 0.000000
0.779550 0.667050 0.000000
0.877100 0.652100 0.000000
0.974650 0.637150 0.000000
1.000000 0.622200 0.000000
1.000000 0.607250 0.000000
1.000000 0.592300 0.000000
0.000000 0.914650 0.000000
0.000000 0.899700 0.000000
0.000000 0.884750 0.000000
0.000000 0.869800 0.000000
0.067350 0.854850 0.000000
0.164900 0.839900 0.000000
0.262450 0.824950 0.000000
0.360000 0.810000 0.000000
0.457550 0.795050 0.000000
0.555100 0.780100 0.000000
0.652650 0.765150 0.000000
0.750200 0.750200 0.000000
0.847750 0.735250 0.000000
0.945300 0.720300 0.000000
1.000000 0.705350 0.000000
1.000000 0.690400 0.000000
1.000000 0.675450 0.000000
0.000000 0.997800 0.000000
0.000000 0.982850 0.000000
0.000000 0.967900 0.000000
0.000000 0.952950 0.000000
0.038000 0.938000 0.000000
0.135550 0.923050 0.000000
0.233100 0.908100 0.000000
0.330650 0.893150 0.000000
0.428200 0.878200 0.000000
0.525750 0.863250 0.000000
0.623300 0.848300 0.000000
0.720850 0.833350 0.000000
0.818400 0.818400 0.000000
0.915950 0.803450 0.000000
1.000000 0.788500 0.000000
1.000000 0.773550 0.000000
1.000000 0.758600 0.000000
0.000000 1.000000 0.000000
0.000000 1.000000 0.000000
0.000000 1.000000 0.000000
0.000000 1.000000 0.000000
0.008650 1.000000 0.000000
0.106200 1.000000 0.000000
0.203750 0.991250 0.000000
0.301300 0.976300 0.000000
0.398850 0.961350 0.000000
0.496400 0.946400 0.000000
0.593950 0.931450 0.000000
0.691500 0.916500 0.000000
0.789050 0.901550 0.000000
0.886600 0.886600 0.000000
0.984150 0.871650 0.000000
1.000000 0.856700 0.000000
1.000000 0.841750 0.000000
0.000000 1.000000 0.000000
0.000000 1.000000 0.000000
0.000000 1.000000 0.000000
0.000000 1.000000 0.000000
0.000000 1.000000 0.000000
0.076850 1.000000 0.000000
0.174400 1.000000 0.000000
0.271950 1.000000 0.000000
0.369500 1.000000 0.000000
0.467050 1.000000 0.000000
0.564600 1.000000 0.000000
0.662150 0.999650 0.000000
0.759700 0.984700 0.000000
0.857250 0.969750 0.000000
0.954800 0.954800 0.000000
1.000000 0.939850 0.000000
1.000000 0.924900 0.000000
0.000000 1.000000 0.000000
0.000000 1.000000 0.000000
0.000000 1.000000 0.000000
0.000000 1.000000 0.000000
0.000000 1.000000 0.000000
0.047500 1.000000 0.000000
0.145050 1.000000 0.000000
0.242600 1.000000 0.000000
0.340150 1.000000 0.000000
0.437700 1.000000 0.000000
0.535250 1.000000 0.000000
0.632800 1.000000 0.000000
0.730350 1.000000 0.000000
0.827900 1.000000 0.000000
0.925450 1.000000 0.000000
1.000000 1.000000 0.000000
1.000000 1.000000 0.000000
0.000000 1.000000 0.000000
0.000000 1.000000 0.000000
0.000000 1.000000 0.000000
0.000000 1.000000 0.000000
0.000000 1.000000 0.000000
0.018150 1.000000 0.000000
0.115700 1.000000 0.000000
0.213250 1.000000 0.000000
0.310800 1.000000 0.000000
0.408350 1.000000 0.000000
0.505900 1.000000 0.000000
0.603450 1.000000 0.000000
0.701000 1.000000 0.000000
0.798550 1.000000 0.000000
0.896100 1.000000 0.000000
0.993650 1.000000 0.000000
1.000000 1.000000 0.000000
0.000000 0.000000 0.106800
0.091850 0.000000 0.091850
0.189400 0.000000 0.076900
0.286950 0.000000 0.061950
0.384500 0.000000 0.047000
0.482050 0.000000 0.032050
0.579600 0.000000 0.017100
0.677150 0.000000 0.002150
0.774700 0.000000 0.000000
0.872250 0.000000 0.000000
0.969800 0.000000 0.000000
1.000000 0.000000 0.000000
1.000000 0.000000 0.000000
1.000000 0.000000 0.000000
1.000000 0.000000 0.000000
1.000000 0.000000 0.000000
1.000000 0.000000 0.000000
0.000000 0.077450 0.077450
0.062500 0.062500 0.062500
0.160050 0.047550 0.047550
0.257600 0.032600 0.032600
0.355150 0.017650 0.017650
0.452700 0.002700 0.002700
0.550250 0.000000 0.000000
0.647800 0.000000 0.000000
0.745350 0.000000 0.000000
0.842900 0.000000 0.000000
0.940450 0.000000 0.000000
1.000000 0.000000 0.000000
1.000000 0.000000 0.000000
1.000000 0.000000 0.000000
1.000000 0.000000 0.000000
1.000000 0.000000 0.000000
1.000000 0.000000 0.000000
0.000000 0.160600 0.048100
0.033150 0.145650 0.033150
0.130700 0.130700 0.018200
0.228250 0.115750 0.003250
0.325800 0.100800 0.000000
0.423350 0.085850 0.000000
0.520900 0.070900 0.000000
0.618450 0.055950 0.000000
0.716000 0.041000 0.000000
0.813550 0.026050 0.000000
0.911100 0.011100 0.000000
1.000000 0.000000 0.000000
1.000000 0.000000 0.000000
1.000000 0.000000 0.000000
1.000000 0.000000 0.000000
1.000000 0.000000 0.000000
1.000000 0.000000 0.000000
0.000000 0.243750 0.018750
0.003800 0.228800 0.003800
0.101350 0.213850 0.000000
0.198900 0.198900 0.000000
0.296450 0.183950 0.000000
0.394000 0.169000 0.000000
0.491550 0.154050 0.000000
0.589100 0.139100 0.000000
0.686650 0.124150 0.000000
0.784200 0.109200 0.000000
0.881750 0.094250 0.000000
0.979300 0.079300 0.000000
1.000000 0.064350 0.000000
1.000000 0.049400 0.000000
1.000000 0.034450 0.000000
1.000000 0.019500 0.000000
1.000000 0.004550 0.000000
0.000000 0.326900 0.000000
0.000000 0.311950 0.000000
0.072000 0.297000 0.000000
0.169550 0.282050 0.000000
0.267100 0.267100 0.000000
0.364650 0.252150 0.000000
0.462200 0.237200 0.000000
0.559750 0.222250 0.000000
0.657300 0.207300 0.000000
0.754850 0.192350 0.000000
0.852400 0.177400 0.000000
0.949950 0.162450 0.000000
1.000000 0.147500 0.000000
1.000000 0.132550 0.000000
1.000000 0.117600 0.000000
1.000000 0.102650 0.000000
1.000000 0.087700 0.000000
0.000000 0.410050 0.000000
0.000000 0.395100 0.000000
0.042650 0.380150 0.000000
0.140200 0.365200 0.000000
0.237750 0.350250 0.000000
0.335300 0.335300 0.000000
0.432850 0.320350 0.000000
0.530400 0.305400 0.000000
0.627950 0.290450 0.000000
0.725500 0.275500 0.000000
0.823050 0.260550 0.000000
0.920600 0.245600 0.000000
1.000000 0.230650 0.000000
1.000000 0.215700 0.000000
1.000000 0.200750 0.000000
1.000000 0.185800 0.000000
1.000000 0.170850 0.000000
0.000000 0.493200 0.000000
0.000000 0.478250 0.000000
0.013300 0.463300 0.000000
0.110850 0.448350 0.000000
0.208400 0.433400 0.000000
0.305950 0.418450 0.000000
0.403500 0.403500 0.000000
0.501050 0.388550 0.000000
0.598600 0.373600 0.000000
0.696150 0.358650 0.000000
0.793700 0.343700 0.000000
0.891250 0.328750 0.000000
0.988800 0.313800 0.000000
1.000000 0.298850 0.000000
1.000000 0.283900 0.000000
1.000000 0.268950 0.000000
1.000000 0.254000 0.000000
0.000000 0.576350 0.000000
0.000000 0.561400 0.000000
0.000000 0.546450 0.000000
0.081500 0.531500 0.000000
0.179050 0.516550 0.000000
0.276600 0.501600 0.000000
0.374150 0.486650 0.000000
0.471700 0.471700 0.000000
0.569250 0.456750 0.000000
0.666800 0.441800 0.000000
0.764350 0.426850 0.000000
0.861900 0.411900 0.000000
0.959450 0.396950 0.000000
1.000000 0.382000 0.000000
1.000000 0.367050 0.000000
1.000000 0.352100 0.000000
1.000000 0.337150 0.000000
0.000000 0.659500 0.000000
0.000000 0.644550 0.000000
0.000000 0.629600 0.000000
0.052150 0.614650 0.000000
0.149700 0.599700 0.000000
0.247250 0.584750 0.000000
0.344800 0.569800 0.000000
0.442350 0.554850 0.000000
0.539900 0.539900 0.000000
0.637450 0.524950 0.000000
0.735000 0.510000 0.000000
0.832550 0.495050 0.000000
0.930100 0.480100 0.000000
1.000000 0.465150 0.000000
1.000000 0.450200 0.000000
1.000000 0.435250 0.000000
1.000000 0.420300 0.000000
0.000000 0.742650 0.000000
0.000000 0.727700 0.000000
0.000000 0.712750 0.000000
0.022800 0.697800 0.000000
0.120350 0.682850 0.000000
0.217900 0.667900 0.000000
0.315450 0.652950 0.000000
0.413000 0.638000 0.000000
0.510550 0.623050 0.000000
0.608100 0.608100 0.000000
0.705650 0.593150 0.000000
0.803200 0.578200 0.000000
0.900750 0.563250 0.000000
0.998300 0.548300 0.000000
1.000000 0.533350 0.000000
1.000000 0.518400 0.000000
1.000000 0.503450 0.000000
0.000000 0.825800 0.000000
0.000000 0.810850 0.000000
0.000000 0.795900 0.000000
0.000000 0.780950 0.000000
0.091000 0.766000 0.000000
0.188550 0.751050 0.000000
0.286100 0.736100 0.000000
0.383650 0.721150 0.000000
0.481200 0.706200 0.000000
0.578750 0.691250 0.000000
0.676300 0.676300 0.000000
0.773850 0.661350 0.000000
0.871400 0.646400 0.000000
0.968950 0.631450 0.000000
1.000000 0.616500 0.000000
1.000000 0.601550 0.000000
1.000000 0.586600 0.000000
0.000000 0.908950 0.000000
0.000000 0.894000 0.000000
0.000000 0.879050 0.000000
0.000000 0.864100 0.000000
0.061650 0.849150 0.000000
0.159200 0.834200 0.000000
0.256750 0.819250 0.000000
0.354300 0.804300 0.000000
0.451850 0.789350 0.000000
0.549400 0.774400 0.000000
0.646950 0.759450 0.000000
0.744500 0.744500 0.000000
0.842050 0.729550 0.000000
0.939600 0.714600 0.000000
1.000000 0.699650 0.000000
1.000000 0.684700 0.000000
1.000000 0.669750 0.000000
0.000000 0.992100 0.000000
0.000000 0.977150 0.000000
0.000000 0.962200 0.000000
0.000000 0.947250 0.000000
0.032300 0.932300 0.000000
0.129850 0.917350 0.000000
0.227400 0.902400 0.000000
0.324950 0.887450 0.000000
0.422500 0.872500 0.000000
0.520050 0.857550 0.000000
0.617600 0.842600 0.000000
0.715150 0.827650 0.000000
0.812700 0.812700 0.000000
0.910250 0.797750 0.000000
1.000000 0.782800 0.000000
1.000000 0.767850 0.000000
1.000000 0.752900 0.000000
0.000000 1.000000 0.000000
0.000000 1.000000 0.000000
0.000000 1.000000 0.000000
0.000000 1.000000 0.000000
0.002950 1.000000 0.000000
0.100500 1.000000 0.000000
0.198050 0.985550 0.000000
0.295600 0.970600 0.000000
0.393150 0.955650 0.000000
0.490700 0.940700 0.000000
0.588250 0.925750 0.000000
0.685800 0.910800 0.000000
0.783350 0.895850 0.000000
0.880900 0.880900 0.000000
0.978450 0.865950 0.000000
1.000000 0.851000 0.000000
1.000000 0.836050 0.000000
0.000000 1.000000 0.000000
0.000000 1.000000 0.000000
0.000000 1.000000 0.000000
0.000000 1.000000 0.000000
0.000000 1.000000 0.000000
0.071150 1.000000 0.000000
0.168700 1.000000 0.000000
0.266250 1.000000 0.000000
0.363800 1.000000 0.000000
0.461350 1.000000 0.000000
0.558900 1.000000 0.000000
0.656450 0.993950 0.000000
0.754000 0.979000 0.000000
0.851550 0.964050 0.000000
0.949100 0.949100 0.000000
1.000000 0.934150 0.000000
1.000000 0.919200 0.000000
0.000000 1.000000 0.000000
0.000000 1.000000 0.000000
0.000000 1.000000 0.000000
0.000000 1.000000 0.000000
0.000000 1.000000 0.000000
0.041800 1.000000 0.000000
0.139350 1.000000 0.000000
0.236900 1.000000 0.000000
0.334450 1.000000 0.000000
0.432000 1.000000 0.000000
0.529550 1.000000 0.000000
0.627100 1.000000 0.000000
0.724650 1.000000 0.000000
0.822200 1.000000 0.000000
0.919750 1.000000 0.000000
1.000000 1.000000 0.000000
1.000000 1.000000 0.000000
0.000000 1.000000 0.000000
0.000000 1.000000 0.000000
0.000000 1.000000 0.000000
0.000000 1.000000 0.000000
0.000000 1.000000 0.000000
0.012450 1.000000 0.000000
0.110000 1.000000 0.000000
0.207550 1.000000 0.000000
0.305100 1.000000 0.000000
0.402650 1.000000 0.000000
0.500200 1.000000 0.000000
0.597750 1.000000 0.000000
0.695300 1.000000 0.000000
0.792850 1.000000 0.000000
0.890400 1.000000 0.000000
0.987950 1.000000 0.000000
1.000000 1.000000 0.000000
0.000000 0.000000 0.213600
0.086150 0.000000 0.198650
0.183700 0.000000 0.183700
0.281250 0.000000 0.168750
0.378800 0.000000 0.153800
0.476350 0.000000 0.138850
0.573900 0.000000 0.123900
0.671450 0.000000 0.108950
0.769000 0.000000 0.094000
0.866550 0.000000 0.079050
0.964100 0.000000 0.064100
1.000000 0.000000 0.049150
1.000000 0.000000 0.034200
1.000000 0.000000 0.019250
1.000000 0.000000 0.004300
1.000000 0.000000 0.000000
1.000000 0.000000 0.000000
0.000000 0.071750 0.184250
0.056800 0.056800 0.169300
0.154350 0.041850 0.154350
0.251900 0.026900 0.139400
0.349450 0.011950 0.124450
0.447000 0.000000 0.109500
0.544550 0.000000 0.094550
0.642100 0.000000 0.079600
0.739650 0.000000 0.064650
0.837200 0.000000 0.049700
0.934750 0.000000 0.034750
1.000000 0.000000 0.019800
1.000000 0.000000 0.004850
1.000000 0.000000 0.000000
1.000000 0.000000 0.000000
1.000000 0.000000 0.000000
1.000000 0.000000 0.000000
0.000000 0.154900 0.154900
0.027450 0.139950 0.139950
0.125000 0.125000 0.125000
0.222550 0.110050 0.110050
0.320100 0.095100 0.095100
0.417650 0.080150 0.080150
0.515200 0.065200 0.065200
0.612750 0.050250 0.050250
0.710300 0.035300 0.035300
0.807850 0.020350 0.020350
0.905400 0.005400 0.005400
1.000000 0.000000 0.000000
1.000000 0.000000 0.000000
1.000000 0.000000 0.000000
1.000000 0.000000 0.000000
1.000000 0.000000 0.000000
1.000000 0.000000 0.000000
0.000000 0.238050 0.125550
0.000000 0.223100 0.110600
0.095650 0.208150 0.095650
0.193200 0.193200 0.080700
0.290750 0.178250 0.065750
0.388300 0.163300 0.050800
0.485850 0.148350 0.035850
0.583400 0.133400 0.020900
0.680950 0.118450 0.005950
0.778500 0.103500 0.000000
0.876050 0.088550 0.000000
0.973600 0.073600 0.000000
1.000000 0.058650 0.000000
1.000000 0.043700 0.000000
1.000000 0.028750 0.000000
1.000000 0.013800 0.000000
1.000000 0.000000 0.000000
0.000000 0.321200 0.096200
0.000000 0.306250 0.081250
0.066300 0.291300 0.066300
0.163850 0.276350 0.051350
0.261400 0.261400 0.036400
0.358950 0.246450 0.021450
0.456500 0.231500 0.006500
0.554050 0.216550 0.000000
0.651600 0.201600 0.000000
0.749150 0.186650 0.000000
0.846700 0.171700 0.000000
0.944250 0.156750 0.000000
1.000000 0.141800 0.000000
1.000000 0.126850 0.000000
1.000000 0.111900 0.000000
1.000000 0.096950 0.000000
1.000000 0.082000 0.000000
0.000000 0.404350 0.066850
0.000000 0.389400 0.051900
0.036950 0.374450 0.036950
0.134500 0.359500 0.022000
0.232050 0.344550 0.007050
0.329600 0.329600 0.000000
0.427150 0.314650 0.000000
0.524700 0.299700 0.000000
0.622250 0.284750 0.000000
0.719800 0.269800 0.000000
0.817350 0.254850 0.000000
0.914900 0.239900 0.000000
1.000000 0.224950 0.000000
1.000000 0.210000 0.000000
1.000000 0.195050 0.000000
1.000000 0.180100 0.000000
1.000000 0.165150 0.000000
0.000000 0.487500 0.037500
0.000000 0.472550 0.022550
0.007600 0.457600 0.007600
0.105150 0.442650 0.000000
0.202700 0.427700 0.000000
0.300250 0.412750 0.000000
0.397800 0.397800 0.000000
0.495350 0.382850 0.000000
0.592900 0.367900 0.000000
0.690450 0.352950 0.000000
0.788000 0.338000 0.000000
0.885550 0.323050 0.000000
0.983100 0.308100 0.000000
1.000000 0.293150 0.000000
1.000000 0.278200 0.000000
1.000000 0.263250 0.000000
1.000000 0.248300 0.000000
0.000000 0.570650 0.008150
0.000000 0.555700 0.000000
0.000000 0.540750 0.000000
0.075800 0.525800 0.000000
0.173350 0.510850 0.000000
0.270900 0.495900 0.000000
0.368450 0.480950 0.000000
0.466000 0.466000 0.000000
0.563550 0.451050 0.000000
0.661100 0.436100 0.000000
0.758650 0.421150 0.000000
0.856200 0.406200 0.000000
0.953750 0.391250 0.000000
1.000000 0.376300 0.000000
1.000000 0.361350 0.000000
1.000000 0.346400 0.000000
1.000000 0.331450 0.000000
0.000000 0.653800 0.000000
0.000000 0.638850 0.000000
0.000000 0.623900 0.000000
0.046450 0.608950 0.000000
0.144000 0.594000 0.000000
0.241550 0.579050 0.000000
0.339100 0.564100 0.000000
0.436650 0.549150 0.000000
0.534200 0.534200 0.000000
0.631750 0.519250 0.000000
0.729300 0.504300 0.000000
0.826850 0.489350 0.000000
0.924400 0.474400 0.000000
1.000000 0.459450 0.000000
1.000000 0.444500 0.000000
1.000000 0.429550 0.000000
1.000000 0.414600 0.000000
0.000000 0.736950 0.000000
0.000000 0.722000 0.000000
0.000000 0.707050 0.000000
0.017100 0.692100 0.000000
0.114650 0.677150 0.000000
0.212200 0.662200 0.000000
0.309750 0.647250 0.000000
0.407300 0.632300 0.000000
0.504850 0.617350 0.000000
0.602400 0.602400 0.000000
0.699950 0.587450 0.000000
0.797500 0.572500 0.000000
0.895050 0.557550 0.000000
0.992600 0.542600 0.000000
1.000000 0.527650 0.000000
1.000000 0.512700 0.000000
1.000000 0.497750 0.000000
0.000000 0.820100 0.000000
0.000000 0.805150 0.000000
0.000000 0.790200 0.000000
0.000000 0.775250 0.000000
0.085300 0.760300 0.000000
0.182850 0.745350 0.000000
0.280400 0.730400 0.000000
0.377950 0.715450 0.000000
0.475500 0.700500 0.000000
0.573050 0.685550 0.000000
0.670600 0.670600 0.000000
0.768150 0.655650 0.000000
0.865700 0.640700 0.000000
0.963250 0.625750 0.000000
1.000000 0.610800 0.000000
1.000000 0.595850 0.000000
1.000000 0.580900 0.000000
0.000000 0.903250 0.000000
0.000000 0.888300 0.000000
0.000000 0.873350 0.000000
0.000000 0.858400 0.000000
0.055950 0.843450 0.000000
0.153500 0.828500 0.000000
0.251050 0.813550 0.000000
0.348600 0.798600 0.000000
0.446150 0.783650 0.000000
0.543700 0.768700 0.000000
0.641250 0.753750 0.000000
0.738800 0.738800 0.000000
0.836350 0.723850 0.000000
0.933900 0.708900 0.000000
1.000000 0.693950 0.000000
1.000000 0.679000 0.000000
1.000000 0.664050 0.000000
0.000000 0.986400 0.000000
0.000000 0.971450 0.000000
0.000000 0.956500 0.000000
0.000000 0.941550 0.000000
0.026600 0.926600 0.000000
0.124150 0.911650 0.000000
0.221700 0.896700 0.000000
0.319250 0.881750 0.000000
0.416800 0.866800 0.000000
0.514350 0.851850 0.000000
0.611900 0.836900 0.000000
0.709450 0.821950 0.000000
0.807000 0.807000 0.000000
0.904550 0.792050 0.000000
1.000000 0.777100 0.000000
1.000000 0.762150 0.000000
1.000000 0.747200 0.000000
0.000000 1.000000 0.000000
0.000000 1.000000 0.000000
0.000000 1.000000 0.000000
0.000000 1.000000 0.000000
0.000000 1.000000 0.000000
0.094800 0.994800 0.000000
0.192350 0.979850 0.000000
0.289900 0.964900 0.000000
0.387450 0.949950 0.000000
0.485000 0.935000 0.000000
0.582550 0.920050 0.000000
0.680100 0.905100 0.000000
0.777650 0.890150 0.000000
0.875200 0.875200 0.000000
0.972750 0.860250 0.000000
1.000000 0.845300 0.000000
1.000000 0.830350 0.000000
0.000000 1.000000 0.000000
0.000000 1.000000 0.000000
0.000000 1.000000 0.000000
0.000000 1.000000 0.000000
0.000000 1.000000 0.000000
0.065450 1.000000 0.000000
0.163000 1.000000 0.000000
0.260550 1.000000 0.000000
0.358100 1.000000 0.000000
0.455650 1.000000 0.000000
0.553200 1.000000 0.000000
0.650750 0.988250 0.000000
0.748300 0.973300 0.000000
0.845850 0.958350 0.000000
0.943400 0.943400 0.000000
1.000000 0.928450 0.000000
1.000000 0.913500 0.000000
0.000000 1.000000 0.000000
0.000000 1.000000 0.000000
0.000000 1.000000 0.000000
0.000000 1.000000 0.000000
0.000000 1.000000 0.000000
0.036100 1.000000 0.000000
0.133650 1.000000 0.000000
0.231200 1.000000 0.000000
0.328750 1.000000 0.000000
0.426300 1.000000 0.000000
0.523850 1.000000 0.000000
0.621400 1.000000 0.000000
0.718950 1.000000 0.000000
0.816500 1.000000 0.000000
0.914050 1.000000 0.000000
1.000000 1.000000 0.000000
1.000000 0.996650 0.000000
0.000000 1.000000 0.000000
0.000000 1.000000 0.000000
0.000000 1.000000 0.000000
0.000000 1.000000 0.000000
0.000000 1.000000 0.000000
0.006750 1.000000 0.000000
0.104300 1.000000 0.000000
0.201850 1.000000 0.000000
0.299400 1.000000 0.000000
0.396950 1.000000 0.000000
0.494500 1.000000 0.000000
0.592050 1.000000 0.000000
0.689600 1.000000 0.000000
0.787150 1.000000 0.000000
0.884700 1.000000 0.000000
0.982250 1.000000 0.000000
1.000000 1.000000 0.000000
0.000000 0.000000 0.320400
0.080450 0.000000 0.305450
0.178000 0.000000 0.290500
0.275550 0.000000 0.275550
0.373100 0.000000 0.260600
0.470650 0.000000 0.245650
0.568200 0.000000 0.230700
0.665750 0.000000 0.215750
0.763300 0.000000 0.200800
0.860850 0.000000 0.185850
0.958400 0.000000 0.170900
1.000000 0.000000 0.155950
1.000000 0.000000 0.141000
1.000000 0.000000 0.126050
1.000000 0.000000 0.111100
1.000000 0.000000 0.096150
1.000000 0.000000 0.081200
0.000000 0.066050 0.291050
