app/src/main/assets/luts/laser_grid.cube
# ApexStudio filter: laser_grid
LUT_3D_SIZE 5
DOMAIN_MIN 0.0 0.0 0.0
DOMAIN_MAX 1.0 1.0 1.0
0.000000 0.000000 0.000000
0.390200 0.000000 0.000000
0.780400 0.000000 0.000000
1.000000 0.000000 0.000000
1.000000 0.000000 0.000000
0.000000 0.332600 0.000000
0.272800 0.272800 0.000000
0.663000 0.213000 0.000000
1.000000 0.153200 0.000000
1.000000 0.093400 0.000000
0.000000 0.665200 0.000000
0.155400 0.605400 0.000000
0.545600 0.545600 0.000000
0.935800 0.485800 0.000000
1.000000 0.426000 0.000000
0.000000 0.997800 0.000000
0.038000 0.938000 0.000000
0.428200 0.878200 0.000000
0.818400 0.818400 0.000000
1.000000 0.758600 0.000000
0.000000 1.000000 0.000000
0.000000 1.000000 0.000000
0.310800 1.000000 0.000000
0.701000 1.000000 0.000000
1.000000 1.000000 0.000000
0.000000 0.000000 0.427200
0.367400 0.000000 0.367400
0.757600 0.000000 0.307600
1.000000 0.000000 0.247800
1.000000 0.000000 0.188000
0.000000 0.309800 0.309800
0.250000 0.250000 0.250000
0.640200 0.190200 0.190200
1.000000 0.130400 0.130400
1.000000 0.070600 0.070600
0.000000 0.642400 0.192400
0.132600 0.582600 0.132600
0.522800 0.522800 0.072800
0.913000 0.463000 0.013000
1.000000 0.403200 0.000000
0.000000 0.975000 0.075000
0.015200 0.915200 0.015200
0.405400 0.855400 0.000000
0.795600 0.795600 0.000000
1.000000 0.735800 0.000000
0.000000 1.000000 0.000000
0.000000 1.000000 0.000000
0.288000 1.000000 0.000000
0.678200 1.000000 0.000000
1.000000 1.000000 0.000000
0.000000 0.000000 0.854400
0.344600 0.000000 0.794600
0.734800 0.000000 0.734800
1.000000 0.000000 0.675000
1.000000 0.000000 0.615200
0.000000 0.287000 0.737000
0.227200 0.227200 0.677200
0.617400 0.167400 0.617400
1.000000 0.107600 0.557600
1.000000 0.047800 0.497800
0.000000 0.619600 0.619600
0.109800 0.559800 0.559800
0.500000 0.500000 0.500000
0.890200 0.440200 0.440200
1.000000 0.380400 0.380400
0.000000 0.952200 0.502200
0.000000 0.892400 0.442400
0.382600 0.832600 0.382600
0.772800 0.772800 0.322800
1.000000 0.713000 0.263000
0.000000 1.000000 0.384800
0.000000 1.000000 0.325000
0.265200 1.000000 0.265200
0.655400 1.000000 0.205400
1.000000 1.000000 0.145600
0.000000 0.000000 1.000000
0.321800 0.000000 1.000000
0.712000 0.000000 1.000000
1.000000 0.000000 1.000000
1.000000 0.000000 1.000000
0.000000 0.264200 1.000000
0.204400 0.204400 1.000000
0.594600 0.144600 1.000000
0.984800 0.084800 0.984800
1.000000 0.025000 0.925000
0.000000 0.596800 1.000000
0.087000 0.537000 0.987000
0.477200 0.477200 0.927200
0.867400 0.417400 0.867400
1.000000 0.357600 0.807600
0.000000 0.929400 0.929400
0.000000 0.869600 0.869600
0.359800 0.809800 0.809800
0.750000 0.750000 0.750000
1.000000 0.690200 0.690200
0.000000 1.000000 0.812000
0.000000 1.000000 0.752200
0.242400 1.000000 0.692400
0.632600 1.000000 0.632600
1.000000 1.000000 0.572800
0.000000 0.000000 1.000000
0.299000 0.000000 1.000000
0.689200 0.000000 1.000000
1.000000 0.000000 1.000000
1.000000 0.000000 1.000000
0.000000 0.241400 1.000000
0.181600 0.181600 1.000000
0.571800 0.121800 1.000000
0.962000 0.062000 1.000000
1.000000 0.002200 1.000000
0.000000 0.574000 1.000000
0.064200 0.514200 1.000000
0.454400 0.454400 1.000000
0.844600 0.394600 1.000000
1.000000 0.334800 1.000000
0.000000 0.906600 1.000000
0.000000 0.846800 1.000000
0.337000 0.787000 1.000000
0.727200 0.727200 1.000000
1.000000 0.667400 1.000000
0.000000 1.000000 1.000000
0.000000 1.000000 1.000000
0.219600 1.000000 1.000000
0.609800 1.000000 1.000000
1.000000 1.000000 1.000000
