app/src/main/assets/luts/laser_grid.cube
# ApexStudio filter: laser_grid
LUT_3D_SIZE 9
DOMAIN_MIN 0.0 0.0 0.0
DOMAIN_MAX 1.0 1.0 1.0
0.000000 0.000000 0.000000
0.195100 0.000000 0.000000
0.390200 0.000000 0.000000
0.585300 0.000000 0.000000
0.780400 0.000000 0.000000
0.975500 0.000000 0.000000
1.000000 0.000000 0.000000
1.000000 0.000000 0.000000
1.000000 0.000000 0.000000
0.000000 0.166300 0.000000
0.136400 0.136400 0.000000
0.331500 0.106500 0.000000
0.526600 0.076600 0.000000
0.721700 0.046700 0.000000
0.916800 0.016800 0.000000
1.000000 0.000000 0.000000
1.000000 0.000000 0.000000
1.000000 0.000000 0.000000
0.000000 0.332600 0.000000
0.077700 0.302700 0.000000
0.272800 0.272800 0.000000
0.467900 0.242900 0.000000
0.663000 0.213000 0.000000
0.858100 0.183100 0.000000
1.000000 0.153200 0.000000
1.000000 0.123300 0.000000
1.000000 0.093400 0.000000
0.000000 0.498900 0.000000
0.019000 0.469000 0.000000
0.214100 0.439100 0.000000
0.409200 0.409200 0.000000
0.604300 0.379300 0.000000
0.799400 0.349400 0.000000
0.994500 0.319500 0.000000
1.000000 0.289600 0.000000
1.000000 0.259700 0.000000
0.000000 0.665200 0.000000
0.000000 0.635300 0.000000
0.155400 0.605400 0.000000
0.350500 0.575500 0.000000
0.545600 0.545600 0.000000
0.740700 0.515700 0.000000
0.935800 0.485800 0.000000
1.000000 0.455900 0.000000
1.000000 0.426000 0.000000
0.000000 0.831500 0.000000
0.000000 0.801600 0.000000
0.096700 0.771700 0.000000
0.291800 0.741800 0.000000
0.486900 0.711900 0.000000
0.682000 0.682000 0.000000
0.877100 0.652100 0.000000
1.000000 0.622200 0.000000
1.000000 0.592300 0.000000
0.000000 0.997800 0.000000
0.000000 0.967900 0.000000
0.038000 0.938000 0.000000
0.233100 0.908100 0.000000
0.428200 0.878200 0.000000
0.623300 0.848300 0.000000
0.818400 0.818400 0.000000
1.000000 0.788500 0.000000
1.000000 0.758600 0.000000
0.000000 1.000000 0.000000
0.000000 1.000000 0.000000
0.000000 1.000000 0.000000
0.174400 1.000000 0.000000
0.369500 1.000000 0.000000
0.564600 1.000000 0.000000
0.759700 0.984700 0.000000
0.954800 0.954800 0.000000
1.000000 0.924900 0.000000
0.000000 1.000000 0.000000
0.000000 1.000000 0.000000
0.000000 1.000000 0.000000
0.115700 1.000000 0.000000
0.310800 1.000000 0.000000
0.505900 1.000000 0.000000
0.701000 1.000000 0.000000
0.896100 1.000000 0.000000
1.000000 1.000000 0.000000
0.000000 0.000000 0.213600
0.183700 0.000000 0.183700
0.378800 0.000000 0.153800
0.573900 0.000000 0.123900
0.769000 0.000000 0.094000
0.964100 0.000000 0.064100
1.000000 0.000000 0.034200
1.000000 0.000000 0.004300
1.000000 0.000000 0.000000
0.000000 0.154900 0.154900
0.125000 0.125000 0.125000
0.320100 0.095100 0.095100
0.515200 0.065200 0.065200
0.710300 0.035300 0.035300
0.905400 0.005400 0.005400
1.000000 0.000000 0.000000
1.000000 0.000000 0.000000
1.000000 0.000000 0.000000
0.000000 0.321200 0.096200
0.066300 0.291300 0.066300
0.261400 0.261400 0.036400
0.456500 0.231500 0.006500
0.651600 0.201600 0.000000
0.846700 0.171700 0.000000
1.000000 0.141800 0.000000
1.000000 0.111900 0.000000
1.000000 0.082000 0.000000
0.000000 0.487500 0.037500
0.007600 0.457600 0.007600
0.202700 0.427700 0.000000
0.397800 0.397800 0.000000
0.592900 0.367900 0.000000
0.788000 0.338000 0.000000
0.983100 0.308100 0.000000
1.000000 0.278200 0.000000
1.000000 0.248300 0.000000
0.000000 0.653800 0.000000
0.000000 0.623900 0.000000
0.144000 0.594000 0.000000
0.339100 0.564100 0.000000
0.534200 0.534200 0.000000
0.729300 0.504300 0.000000
0.924400 0.474400 0.000000
1.000000 0.444500 0.000000
1.000000 0.414600 0.000000
0.000000 0.820100 0.000000
0.000000 0.790200 0.000000
0.085300 0.760300 0.000000
0.280400 0.730400 0.000000
0.475500 0.700500 0.000000
0.670600 0.670600 0.000000
0.865700 0.640700 0.000000
1.000000 0.610800 0.000000
1.000000 0.580900 0.000000
0.000000 0.986400 0.000000
0.000000 0.956500 0.000000
0.026600 0.926600 0.000000
0.221700 0.896700 0.000000
0.416800 0.866800 0.000000
0.611900 0.836900 0.000000
0.807000 0.807000 0.000000
1.000000 0.777100 0.000000
1.000000 0.747200 0.000000
0.000000 1.000000 0.000000
0.000000 1.000000 0.000000
0.000000 1.000000 0.000000
0.163000 1.000000 0.000000
0.358100 1.000000 0.000000
0.553200 1.000000 0.000000
0.748300 0.973300 0.000000
0.943400 0.943400 0.000000
1.000000 0.913500 0.000000
0.000000 1.000000 0.000000
0.000000 1.000000 0.000000
0.000000 1.000000 0.000000
0.104300 1.000000 0.000000
0.299400 1.000000 0.000000
0.494500 1.000000 0.000000
0.689600 1.000000 0.000000
0.884700 1.000000 0.000000
1.000000 1.000000 0.000000
0.000000 0.000000 0.427200
0.172300 0.000000 0.397300
0.367400 0.000000 0.367400
0.562500 0.000000 0.337500
0.757600 0.000000 0.307600
0.952700 0.000000 0.277700
1.000000 0.000000 0.247800
1.000000 0.000000 0.217900
1.000000 0.000000 0.188000
0.000000 0.143500 0.368500
0.113600 0.113600 0.338600
0.308700 0.083700 0.308700
0.503800 0.053800 0.278800
0.698900 0.023900 0.248900
0.894000 0.000000 0.219000
1.000000 0.000000 0.189100
1.000000 0.000000 0.159200
1.000000 0.000000 0.129300
0.000000 0.309800 0.309800
0.054900 0.279900 0.279900
0.250000 0.250000 0.250000
0.445100 0.220100 0.220100
0.640200 0.190200 0.190200
0.835300 0.160300 0.160300
1.000000 0.130400 0.130400
1.000000 0.100500 0.100500
1.000000 0.070600 0.070600
0.000000 0.476100 0.251100
0.000000 0.446200 0.221200
0.191300 0.416300 0.191300
0.386400 0.386400 0.161400
0.581500 0.356500 0.131500
0.776600 0.326600 0.101600
0.971700 0.296700 0.071700
1.000000 0.266800 0.041800
1.000000 0.236900 0.011900
0.000000 0.642400 0.192400
0.000000 0.612500 0.162500
0.132600 0.582600 0.132600
0.327700 0.552700 0.102700
0.522800 0.522800 0.072800
0.717900 0.492900 0.042900
0.913000 0.463000 0.013000
1.000000 0.433100 0.000000
1.000000 0.403200 0.000000
0.000000 0.808700 0.133700
0.000000 0.778800 0.103800
0.073900 0.748900 0.073900
0.269000 0.719000 0.044000
0.464100 0.689100 0.014100
0.659200 0.659200 0.000000
0.854300 0.629300 0.000000
1.000000 0.599400 0.000000
1.000000 0.569500 0.000000
0.000000 0.975000 0.075000
0.000000 0.945100 0.045100
0.015200 0.915200 0.015200
0.210300 0.885300 0.000000
0.405400 0.855400 0.000000
0.600500 0.825500 0.000000
0.795600 0.795600 0.000000
0.990700 0.765700 0.000000
1.000000 0.735800 0.000000
0.000000 1.000000 0.016300
0.000000 1.000000 0.000000
0.000000 1.000000 0.000000
0.151600 1.000000 0.000000
0.346700 1.000000 0.000000
0.541800 0.991800 0.000000
0.736900 0.961900 0.000000
0.932000 0.932000 0.000000
1.000000 0.902100 0.000000
0.000000 1.000000 0.000000
0.000000 1.000000 0.000000
0.000000 1.000000 0.000000
0.092900 1.000000 0.000000
0.288000 1.000000 0.000000
0.483100 1.000000 0.000000
0.678200 1.000000 0.000000
0.873300 1.000000 0.000000
1.000000 1.000000 0.000000
0.000000 0.000000 0.640800
0.160900 0.000000 0.610900
0.356000 0.000000 0.581000
0.551100 0.000000 0.551100
0.746200 0.000000 0.521200
0.941300 0.000000 0.491300
1.000000 0.000000 0.461400
1.000000 0.000000 0.431500
1.000000 0.000000 0.401600
0.000000 0.132100 0.582100
0.102200 0.102200 0.552200
0.297300 0.072300 0.522300
0.492400 0.042400 0.492400
0.687500 0.012500 0.462500
0.882600 0.000000 0.432600
1.000000 0.000000 0.402700
1.000000 0.000000 0.372800
1.000000 0.000000 0.342900
0.000000 0.298400 0.523400
0.043500 0.268500 0.493500
0.238600 0.238600 0.463600
0.433700 0.208700 0.433700
0.628800 0.178800 0.403800
0.823900 0.148900 0.373900
1.000000 0.119000 0.344000
1.000000 0.089100 0.314100
1.000000 0.059200 0.284200
0.000000 0.464700 0.464700
0.000000 0.434800 0.434800
0.179900 0.404900 0.404900
0.375000 0.375000 0.375000
0.570100 0.345100 0.345100
0.765200 0.315200 0.315200
0.960300 0.285300 0.285300
1.000000 0.255400 0.255400
1.000000 0.225500 0.225500
0.000000 0.631000 0.406000
0.000000 0.601100 0.376100
0.121200 0.571200 0.346200
0.316300 0.541300 0.316300
0.511400 0.511400 0.286400
0.706500 0.481500 0.256500
0.901600 0.451600 0.226600
1.000000 0.421700 0.196700
1.000000 0.391800 0.166800
0.000000 0.797300 0.347300
0.000000 0.767400 0.317400
0.062500 0.737500 0.287500
0.257600 0.707600 0.257600
0.452700 0.677700 0.227700
0.647800 0.647800 0.197800
0.842900 0.617900 0.167900
1.000000 0.588000 0.138000
1.000000 0.558100 0.108100
0.000000 0.963600 0.288600
0.000000 0.933700 0.258700
0.003800 0.903800 0.228800
0.198900 0.873900 0.198900
0.394000 0.844000 0.169000
0.589100 0.814100 0.139100
0.784200 0.784200 0.109200
0.979300 0.754300 0.079300
1.000000 0.724400 0.049400
0.000000 1.000000 0.229900
0.000000 1.000000 0.200000
0.000000 1.000000 0.170100
0.140200 1.000000 0.140200
0.335300 1.000000 0.110300
0.530400 0.980400 0.080400
0.725500 0.950500 0.050500
0.920600 0.920600 0.020600
1.000000 0.890700 0.000000
0.000000 1.000000 0.171200
0.000000 1.000000 0.141300
0.000000 1.000000 0.111400
0.081500 1.000000 0.081500
0.276600 1.000000 0.051600
0.471700 1.000000 0.021700
0.666800 1.000000 0.000000
0.861900 1.000000 0.000000
1.000000 1.000000 0.000000
0.000000 0.000000 0.854400
0.149500 0.000000 0.824500
0.344600 0.000000 0.794600
0.539700 0.000000 0.764700
0.734800 0.000000 0.734800
0.929900 0.000000 0.704900
1.000000 0.000000 0.675000
1.000000 0.000000 0.645100
1.000000 0.000000 0.615200
0.000000 0.120700 0.795700
0.090800 0.090800 0.765800
0.285900 0.060900 0.735900
0.481000 0.031000 0.706000
0.676100 0.001100 0.676100
0.871200 0.000000 0.646200
1.000000 0.000000 0.616300
1.000000 0.000000 0.586400
1.000000 0.000000 0.556500
0.000000 0.287000 0.737000
0.032100 0.257100 0.707100
0.227200 0.227200 0.677200
0.422300 0.197300 0.647300
0.617400 0.167400 0.617400
0.812500 0.137500 0.587500
1.000000 0.107600 0.557600
1.000000 0.077700 0.527700
1.000000 0.047800 0.497800
0.000000 0.453300 0.678300
0.000000 0.423400 0.648400
0.168500 0.393500 0.618500
0.363600 0.363600 0.588600
0.558700 0.333700 0.558700
0.753800 0.303800 0.528800
0.948900 0.273900 0.498900
1.000000 0.244000 0.469000
1.000000 0.214100 0.439100
0.000000 0.619600 0.619600
0.000000 0.589700 0.589700
0.109800 0.559800 0.559800
0.304900 0.529900 0.529900
0.500000 0.500000 0.500000
0.695100 0.470100 0.470100
0.890200 0.440200 0.440200
1.000000 0.410300 0.410300
1.000000 0.380400 0.380400
0.000000 0.785900 0.560900
0.000000 0.756000 0.531000
0.051100 0.726100 0.501100
0.246200 0.696200 0.471200
0.441300 0.666300 0.441300
0.636400 0.636400 0.411400
0.831500 0.606500 0.381500
1.000000 0.576600 0.351600
1.000000 0.546700 0.321700
0.000000 0.952200 0.502200
0.000000 0.922300 0.472300
0.000000 0.892400 0.442400
0.187500 0.862500 0.412500
0.382600 0.832600 0.382600
0.577700 0.802700 0.352700
0.772800 0.772800 0.322800
0.967900 0.742900 0.292900
1.000000 0.713000 0.263000
0.000000 1.000000 0.443500
0.000000 1.000000 0.413600
0.000000 1.000000 0.383700
0.128800 1.000000 0.353800
0.323900 0.998900 0.323900
0.519000 0.969000 0.294000
0.714100 0.939100 0.264100
0.909200 0.909200 0.234200
1.000000 0.879300 0.204300
0.000000 1.000000 0.384800
0.000000 1.000000 0.354900
0.000000 1.000000 0.325000
0.070100 1.000000 0.295100
0.265200 1.000000 0.265200
0.460300 1.000000 0.235300
0.655400 1.000000 0.205400
0.850500 1.000000 0.175500
1.000000 1.000000 0.145600
0.000000 0.000000 1.000000
0.138100 0.000000 1.000000
0.333200 0.000000 1.000000
0.528300 0.000000 0.978300
0.723400 0.000000 0.948400
0.918500 0.000000 0.918500
1.000000 0.000000 0.888600
1.000000 0.000000 0.858700
1.000000 0.000000 0.828800
0.000000 0.109300 1.000000
0.079400 0.079400 0.979400
0.274500 0.049500 0.949500
0.469600 0.019600 0.919600
0.664700 0.000000 0.889700
0.859800 0.000000 0.859800
1.000000 0.000000 0.829900
1.000000 0.000000 0.800000
1.000000 0.000000 0.770100
0.000000 0.275600 0.950600
0.020700 0.245700 0.920700
0.215800 0.215800 0.890800
0.410900 0.185900 0.860900
0.606000 0.156000 0.831000
0.801100 0.126100 0.801100
0.996200 0.096200 0.771200
1.000000 0.066300 0.741300
1.000000 0.036400 0.711400
0.000000 0.441900 0.891900
0.000000 0.412000 0.862000
0.157100 0.382100 0.832100
0.352200 0.352200 0.802200
0.547300 0.322300 0.772300
0.742400 0.292400 0.742400
0.937500 0.262500 0.712500
1.000000 0.232600 0.682600
1.000000 0.202700 0.652700
0.000000 0.608200 0.833200
0.000000 0.578300 0.803300
0.098400 0.548400 0.773400
0.293500 0.518500 0.743500
0.488600 0.488600 0.713600
0.683700 0.458700 0.683700
0.878800 0.428800 0.653800
1.000000 0.398900 0.623900
1.000000 0.369000 0.594000
0.000000 0.774500 0.774500
0.000000 0.744600 0.744600
0.039700 0.714700 0.714700
0.234800 0.684800 0.684800
0.429900 0.654900 0.654900
0.625000 0.625000 0.625000
0.820100 0.595100 0.595100
1.000000 0.565200 0.565200
1.000000 0.535300 0.535300
0.000000 0.940800 0.715800
0.000000 0.910900 0.685900
0.000000 0.881000 0.656000
0.176100 0.851100 0.626100
0.371200 0.821200 0.596200
0.566300 0.791300 0.566300
0.761400 0.761400 0.536400
0.956500 0.731500 0.506500
1.000000 0.701600 0.476600
0.000000 1.000000 0.657100
0.000000 1.000000 0.627200
0.000000 1.000000 0.597300
0.117400 1.000000 0.567400
0.312500 0.987500 0.537500
0.507600 0.957600 0.507600
0.702700 0.927700 0.477700
0.897800 0.897800 0.447800
1.000000 0.867900 0.417900
0.000000 1.000000 0.598400
0.000000 1.000000 0.568500
0.000000 1.000000 0.538600
0.058700 1.000000 0.508700
0.253800 1.000000 0.478800
0.448900 1.000000 0.448900
0.644000 1.000000 0.419000
0.839100 1.000000 0.389100
1.000000 1.000000 0.359200
0.000000 0.000000 1.000000
0.126700 0.000000 1.000000
0.321800 0.000000 1.000000
0.516900 0.000000 1.000000
0.712000 0.000000 1.000000
0.907100 0.000000 1.000000
1.000000 0.000000 1.000000
1.000000 0.000000 1.000000
1.000000 0.000000 1.000000
0.000000 0.097900 1.000000
0.068000 0.068000 1.000000
0.263100 0.038100 1.000000
0.458200 0.008200 1.000000
0.653300 0.000000 1.000000
0.848400 0.000000 1.000000
1.000000 0.000000 1.000000
1.000000 0.000000 1.000000
1.000000 0.000000 0.983700
0.000000 0.264200 1.000000
0.009300 0.234300 1.000000
0.204400 0.204400 1.000000
0.399500 0.174500 1.000000
0.594600 0.144600 1.000000
0.789700 0.114700 1.000000
0.984800 0.084800 0.984800
1.000000 0.054900 0.954900
1.000000 0.025000 0.925000
0.000000 0.430500 1.000000
0.000000 0.400600 1.000000
0.145700 0.370700 1.000000
0.340800 0.340800 1.000000
0.535900 0.310900 0.985900
0.731000 0.281000 0.956000
0.926100 0.251100 0.926100
1.000000 0.221200 0.896200
1.000000 0.191300 0.866300
0.000000 0.596800 1.000000
0.000000 0.566900 1.000000
0.087000 0.537000 0.987000
0.282100 0.507100 0.957100
0.477200 0.477200 0.927200
0.672300 0.447300 0.897300
0.867400 0.417400 0.867400
1.000000 0.387500 0.837500
1.000000 0.357600 0.807600
0.000000 0.763100 0.988100
0.000000 0.733200 0.958200
0.028300 0.703300 0.928300
0.223400 0.673400 0.898400
0.418500 0.643500 0.868500
0.613600 0.613600 0.838600
0.808700 0.583700 0.808700
1.000000 0.553800 0.778800
1.000000 0.523900 0.748900
0.000000 0.929400 0.929400
0.000000 0.899500 0.899500
0.000000 0.869600 0.869600
0.164700 0.839700 0.839700
0.359800 0.809800 0.809800
0.554900 0.779900 0.779900
0.750000 0.750000 0.750000
0.945100 0.720100 0.720100
1.000000 0.690200 0.690200
0.000000 1.000000 0.870700
0.000000 1.000000 0.840800
0.000000 1.000000 0.810900
0.106000 1.000000 0.781000
0.301100 0.976100 0.751100
0.496200 0.946200 0.721200
0.691300 0.916300 0.691300
0.886400 0.886400 0.661400
1.000000 0.856500 0.631500
0.000000 1.000000 0.812000
0.000000 1.000000 0.782100
0.000000 1.000000 0.752200
0.047300 1.000000 0.722300
0.242400 1.000000 0.692400
0.437500 1.000000 0.662500
0.632600 1.000000 0.632600
0.827700 1.000000 0.602700
1.000000 1.000000 0.572800
0.000000 0.000000 1.000000
0.115300 0.000000 1.000000
0.310400 0.000000 1.000000
0.505500 0.000000 1.000000
0.700600 0.000000 1.000000
0.895700 0.000000 1.000000
1.000000 0.000000 1.000000
1.000000 0.000000 1.000000
1.000000 0.000000 1.000000
0.000000 0.086500 1.000000
0.056600 0.056600 1.000000
0.251700 0.026700 1.000000
0.446800 0.000000 1.000000
0.641900 0.000000 1.000000
0.837000 0.000000 1.000000
1.000000 0.000000 1.000000
1.000000 0.000000 1.000000
1.000000 0.000000 1.000000
0.000000 0.252800 1.000000
0.000000 0.222900 1.000000
0.193000 0.193000 1.000000
0.388100 0.163100 1.000000
0.583200 0.133200 1.000000
0.778300 0.103300 1.000000
0.973400 0.073400 1.000000
1.000000 0.043500 1.000000
1.000000 0.013600 1.000000
0.000000 0.419100 1.000000
0.000000 0.389200 1.000000
0.134300 0.359300 1.000000
0.329400 0.329400 1.000000
0.524500 0.299500 1.000000
0.719600 0.269600 1.000000
0.914700 0.239700 1.000000
1.000000 0.209800 1.000000
1.000000 0.179900 1.000000
0.000000 0.585400 1.000000
0.000000 0.555500 1.000000
0.075600 0.525600 1.000000
0.270700 0.495700 1.000000
0.465800 0.465800 1.000000
0.660900 0.435900 1.000000
0.856000 0.406000 1.000000
1.000000 0.376100 1.000000
1.000000 0.346200 1.000000
0.000000 0.751700 1.000000
0.000000 0.721800 1.000000
0.016900 0.691900 1.000000
0.212000 0.662000 1.000000
0.407100 0.632100 1.000000
0.602200 0.602200 1.000000
0.797300 0.572300 1.000000
0.992400 0.542400 0.992400
1.000000 0.512500 0.962500
0.000000 0.918000 1.000000
0.000000 0.888100 1.000000
0.000000 0.858200 1.000000
0.153300 0.828300 1.000000
0.348400 0.798400 1.000000
0.543500 0.768500 0.993500
0.738600 0.738600 0.963600
0.933700 0.708700 0.933700
1.000000 0.678800 0.903800
0.000000 1.000000 1.000000
0.000000 1.000000 1.000000
0.000000 1.000000 1.000000
0.094600 0.994600 0.994600
0.289700 0.964700 0.964700
0.484800 0.934800 0.934800
0.679900 0.904900 0.904900
0.875000 0.875000 0.875000
1.000000 0.845100 0.845100
0.000000 1.000000 1.000000
0.000000 1.000000 0.995700
0.000000 1.000000 0.965800
0.035900 1.000000 0.935900
0.231000 1.000000 0.906000
0.426100 1.000000 0.876100
0.621200 1.000000 0.846200
0.816300 1.000000 0.816300
1.000000 1.000000 0.786400
0.000000 0.000000 1.000000
0.103900 0.000000 1.000000
0.299000 0.000000 1.000000
0.494100 0.000000 1.000000
0.689200 0.000000 1.000000
0.884300 0.000000 1.000000
1.000000 0.000000 1.000000
1.000000 0.000000 1.000000
1.000000 0.000000 1.000000
0.000000 0.075100 1.000000
0.045200 0.045200 1.000000
0.240300 0.015300 1.000000
0.435400 0.000000 1.000000
0.630500 0.000000 1.000000
0.825600 0.000000 1.000000
1.000000 0.000000 1.000000
1.000000 0.000000 1.000000
1.000000 0.000000 1.000000
0.000000 0.241400 1.000000
0.000000 0.211500 1.000000
0.181600 0.181600 1.000000
0.376700 0.151700 1.000000
0.571800 0.121800 1.000000
0.766900 0.091900 1.000000
0.962000 0.062000 1.000000
1.000000 0.032100 1.000000
1.000000 0.002200 1.000000
0.000000 0.407700 1.000000
0.000000 0.377800 1.000000
0.122900 0.347900 1.000000
0.318000 0.318000 1.000000
0.513100 0.288100 1.000000
0.708200 0.258200 1.000000
0.903300 0.228300 1.000000
1.000000 0.198400 1.000000
1.000000 0.168500 1.000000
0.000000 0.574000 1.000000
0.000000 0.544100 1.000000
0.064200 0.514200 1.000000
0.259300 0.484300 1.000000
0.454400 0.454400 1.000000
0.649500 0.424500 1.000000
0.844600 0.394600 1.000000
1.000000 0.364700 1.000000
1.000000 0.334800 1.000000
0.000000 0.740300 1.000000
0.000000 0.710400 1.000000
0.005500 0.680500 1.000000
0.200600 0.650600 1.000000
0.395700 0.620700 1.000000
0.590800 0.590800 1.000000
0.785900 0.560900 1.000000
0.981000 0.531000 1.000000
1.000000 0.501100 1.000000
0.000000 0.906600 1.000000
0.000000 0.876700 1.000000
0.000000 0.846800 1.000000
0.141900 0.816900 1.000000
0.337000 0.787000 1.000000
0.532100 0.757100 1.000000
0.727200 0.727200 1.000000
0.922300 0.697300 1.000000
1.000000 0.667400 1.000000
0.000000 1.000000 1.000000
0.000000 1.000000 1.000000
0.000000 1.000000 1.000000
0.083200 0.983200 1.000000
0.278300 0.953300 1.000000
0.473400 0.923400 1.000000
0.668500 0.893500 1.000000
0.863600 0.863600 1.000000
1.000000 0.833700 1.000000
0.000000 1.000000 1.000000
0.000000 1.000000 1.000000
0.000000 1.000000 1.000000
0.024500 1.000000 1.000000
0.219600 1.000000 1.000000
0.414700 1.000000 1.000000
0.609800 1.000000 1.000000
0.804900 1.000000 1.000000
1.000000 1.000000 1.000000
