app/src/main/assets/luts/lomography_red.cube
# ApexStudio filter: lomography_red
LUT_3D_SIZE 5
DOMAIN_MIN 0.0 0.0 0.0
DOMAIN_MAX 1.0 1.0 1.0
0.150000 0.000000 0.000000
0.487500 0.000000 0.000000
0.825000 0.000000 0.000000
1.000000 0.000000 0.000000
1.000000 0.000000 0.000000
0.150000 0.175000 0.000000
0.487500 0.175000 0.000000
0.825000 0.175000 0.000000
1.000000 0.175000 0.000000
1.000000 0.175000 0.000000
0.150000 0.400000 0.000000
0.487500 0.400000 0.000000
0.825000 0.400000 0.000000
1.000000 0.400000 0.000000
1.000000 0.400000 0.000000
0.150000 0.625000 0.000000
0.487500 0.625000 0.000000
0.825000 0.625000 0.000000
1.000000 0.625000 0.000000
1.000000 0.625000 0.000000
0.150000 0.850000 0.000000
0.487500 0.850000 0.000000
0.825000 0.850000 0.000000
1.000000 0.850000 0.000000
1.000000 0.850000 0.000000
0.150000 0.000000 0.217500
0.487500 0.000000 0.217500
0.825000 0.000000 0.217500
1.000000 0.000000 0.217500
1.000000 0.000000 0.217500
0.150000 0.175000 0.217500
0.487500 0.175000 0.217500
0.825000 0.175000 0.217500
1.000000 0.175000 0.217500
1.000000 0.175000 0.217500
0.150000 0.400000 0.217500
0.487500 0.400000 0.217500
0.825000 0.400000 0.217500
1.000000 0.400000 0.217500
1.000000 0.400000 0.217500
0.150000 0.625000 0.217500
0.487500 0.625000 0.217500
0.825000 0.625000 0.217500
1.000000 0.625000 0.217500
1.000000 0.625000 0.217500
0.150000 0.850000 0.217500
0.487500 0.850000 0.217500
0.825000 0.850000 0.217500
1.000000 0.850000 0.217500
1.000000 0.850000 0.217500
0.150000 0.000000 0.455000
0.487500 0.000000 0.455000
0.825000 0.000000 0.455000
1.000000 0.000000 0.455000
1.000000 0.000000 0.455000
0.150000 0.175000 0.455000
0.487500 0.175000 0.455000
0.825000 0.175000 0.455000
1.000000 0.175000 0.455000
1.000000 0.175000 0.455000
0.150000 0.400000 0.455000
0.487500 0.400000 0.455000
0.825000 0.400000 0.455000
1.000000 0.400000 0.455000
1.000000 0.400000 0.455000
0.150000 0.625000 0.455000
0.487500 0.625000 0.455000
0.825000 0.625000 0.455000
1.000000 0.625000 0.455000
1.000000 0.625000 0.455000
0.150000 0.850000 0.455000
0.487500 0.850000 0.455000
0.825000 0.850000 0.455000
1.000000 0.850000 0.455000
1.000000 0.850000 0.455000
0.150000 0.000000 0.692500
0.487500 0.000000 0.692500
0.825000 0.000000 0.692500
1.000000 0.000000 0.692500
1.000000 0.000000 0.692500
0.150000 0.175000 0.692500
0.487500 0.175000 0.692500
0.825000 0.175000 0.692500
1.000000 0.175000 0.692500
1.000000 0.175000 0.692500
0.150000 0.400000 0.692500
0.487500 0.400000 0.692500
0.825000 0.400000 0.692500
1.000000 0.400000 0.692500
1.000000 0.400000 0.692500
0.150000 0.625000 0.692500
0.487500 0.625000 0.692500
0.825000 0.625000 0.692500
1.000000 0.625000 0.692500
1.000000 0.625000 0.692500
0.150000 0.850000 0.692500
0.487500 0.850000 0.692500
0.825000 0.850000 0.692500
1.000000 0.850000 0.692500
1.000000 0.850000 0.692500
0.150000 0.000000 0.930000
0.487500 0.000000 0.930000
0.825000 0.000000 0.930000
1.000000 0.000000 0.930000
1.000000 0.000000 0.930000
0.150000 0.175000 0.930000
0.487500 0.175000 0.930000
0.825000 0.175000 0.930000
1.000000 0.175000 0.930000
1.000000 0.175000 0.930000
0.150000 0.400000 0.930000
0.487500 0.400000 0.930000
0.825000 0.400000 0.930000
1.000000 0.400000 0.930000
1.000000 0.400000 0.930000
0.150000 0.625000 0.930000
0.487500 0.625000 0.930000
0.825000 0.625000 0.930000
1.000000 0.625000 0.930000
1.000000 0.625000 0.930000
0.150000 0.850000 0.930000
0.487500 0.850000 0.930000
0.825000 0.850000 0.930000
1.000000 0.850000 0.930000
1.000000 0.850000 0.930000
