app/src/main/assets/luts/lomography_red.cube
# ApexStudio filter: lomography_red
LUT_3D_SIZE 9
DOMAIN_MIN 0.0 0.0 0.0
DOMAIN_MAX 1.0 1.0 1.0
0.150000 0.000000 0.000000
0.318750 0.000000 0.000000
0.487500 0.000000 0.000000
0.656250 0.000000 0.000000
0.825000 0.000000 0.000000
0.993750 0.000000 0.000000
1.000000 0.000000 0.000000
1.000000 0.000000 0.000000
1.000000 0.000000 0.000000
0.150000 0.062500 0.000000
0.318750 0.062500 0.000000
0.487500 0.062500 0.000000
0.656250 0.062500 0.000000
0.825000 0.062500 0.000000
0.993750 0.062500 0.000000
1.000000 0.062500 0.000000
1.000000 0.062500 0.000000
1.000000 0.062500 0.000000
0.150000 0.175000 0.000000
0.318750 0.175000 0.000000
0.487500 0.175000 0.000000
0.656250 0.175000 0.000000
0.825000 0.175000 0.000000
0.993750 0.175000 0.000000
1.000000 0.175000 0.000000
1.000000 0.175000 0.000000
1.000000 0.175000 0.000000
0.150000 0.287500 0.000000
0.318750 0.287500 0.000000
0.487500 0.287500 0.000000
0.656250 0.287500 0.000000
0.825000 0.287500 0.000000
0.993750 0.287500 0.000000
1.000000 0.287500 0.000000
1.000000 0.287500 0.000000
1.000000 0.287500 0.000000
0.150000 0.400000 0.000000
0.318750 0.400000 0.000000
0.487500 0.400000 0.000000
0.656250 0.400000 0.000000
0.825000 0.400000 0.000000
0.993750 0.400000 0.000000
1.000000 0.400000 0.000000
1.000000 0.400000 0.000000
1.000000 0.400000 0.000000
0.150000 0.512500 0.000000
0.318750 0.512500 0.000000
0.487500 0.512500 0.000000
0.656250 0.512500 0.000000
0.825000 0.512500 0.000000
0.993750 0.512500 0.000000
1.000000 0.512500 0.000000
1.000000 0.512500 0.000000
1.000000 0.512500 0.000000
0.150000 0.625000 0.000000
0.318750 0.625000 0.000000
0.487500 0.625000 0.000000
0.656250 0.625000 0.000000
0.825000 0.625000 0.000000
0.993750 0.625000 0.000000
1.000000 0.625000 0.000000
1.000000 0.625000 0.000000
1.000000 0.625000 0.000000
0.150000 0.737500 0.000000
0.318750 0.737500 0.000000
0.487500 0.737500 0.000000
0.656250 0.737500 0.000000
0.825000 0.737500 0.000000
0.993750 0.737500 0.000000
1.000000 0.737500 0.000000
1.000000 0.737500 0.000000
1.000000 0.737500 0.000000
0.150000 0.850000 0.000000
0.318750 0.850000 0.000000
0.487500 0.850000 0.000000
0.656250 0.850000 0.000000
0.825000 0.850000 0.000000
0.993750 0.850000 0.000000
1.000000 0.850000 0.000000
1.000000 0.850000 0.000000
1.000000 0.850000 0.000000
0.150000 0.000000 0.098750
0.318750 0.000000 0.098750
0.487500 0.000000 0.098750
0.656250 0.000000 0.098750
0.825000 0.000000 0.098750
0.993750 0.000000 0.098750
1.000000 0.000000 0.098750
1.000000 0.000000 0.098750
1.000000 0.000000 0.098750
0.150000 0.062500 0.098750
0.318750 0.062500 0.098750
0.487500 0.062500 0.098750
0.656250 0.062500 0.098750
0.825000 0.062500 0.098750
0.993750 0.062500 0.098750
1.000000 0.062500 0.098750
1.000000 0.062500 0.098750
1.000000 0.062500 0.098750
0.150000 0.175000 0.098750
0.318750 0.175000 0.098750
0.487500 0.175000 0.098750
0.656250 0.175000 0.098750
0.825000 0.175000 0.098750
0.993750 0.175000 0.098750
1.000000 0.175000 0.098750
1.000000 0.175000 0.098750
1.000000 0.175000 0.098750
0.150000 0.287500 0.098750
0.318750 0.287500 0.098750
0.487500 0.287500 0.098750
0.656250 0.287500 0.098750
0.825000 0.287500 0.098750
0.993750 0.287500 0.098750
1.000000 0.287500 0.098750
1.000000 0.287500 0.098750
1.000000 0.287500 0.098750
0.150000 0.400000 0.098750
0.318750 0.400000 0.098750
0.487500 0.400000 0.098750
0.656250 0.400000 0.098750
0.825000 0.400000 0.098750
0.993750 0.400000 0.098750
1.000000 0.400000 0.098750
1.000000 0.400000 0.098750
1.000000 0.400000 0.098750
0.150000 0.512500 0.098750
0.318750 0.512500 0.098750
0.487500 0.512500 0.098750
0.656250 0.512500 0.098750
0.825000 0.512500 0.098750
0.993750 0.512500 0.098750
1.000000 0.512500 0.098750
1.000000 0.512500 0.098750
1.000000 0.512500 0.098750
0.150000 0.625000 0.098750
0.318750 0.625000 0.098750
0.487500 0.625000 0.098750
0.656250 0.625000 0.098750
0.825000 0.625000 0.098750
0.993750 0.625000 0.098750
1.000000 0.625000 0.098750
1.000000 0.625000 0.098750
1.000000 0.625000 0.098750
0.150000 0.737500 0.098750
0.318750 0.737500 0.098750
0.487500 0.737500 0.098750
0.656250 0.737500 0.098750
0.825000 0.737500 0.098750
0.993750 0.737500 0.098750
1.000000 0.737500 0.098750
1.000000 0.737500 0.098750
1.000000 0.737500 0.098750
0.150000 0.850000 0.098750
0.318750 0.850000 0.098750
0.487500 0.850000 0.098750
0.656250 0.850000 0.098750
0.825000 0.850000 0.098750
0.993750 0.850000 0.098750
1.000000 0.850000 0.098750
1.000000 0.850000 0.098750
1.000000 0.850000 0.098750
0.150000 0.000000 0.217500
0.318750 0.000000 0.217500
0.487500 0.000000 0.217500
0.656250 0.000000 0.217500
0.825000 0.000000 0.217500
0.993750 0.000000 0.217500
1.000000 0.000000 0.217500
1.000000 0.000000 0.217500
1.000000 0.000000 0.217500
0.150000 0.062500 0.217500
0.318750 0.062500 0.217500
0.487500 0.062500 0.217500
0.656250 0.062500 0.217500
0.825000 0.062500 0.217500
0.993750 0.062500 0.217500
1.000000 0.062500 0.217500
1.000000 0.062500 0.217500
1.000000 0.062500 0.217500
0.150000 0.175000 0.217500
0.318750 0.175000 0.217500
0.487500 0.175000 0.217500
0.656250 0.175000 0.217500
0.825000 0.175000 0.217500
0.993750 0.175000 0.217500
1.000000 0.175000 0.217500
1.000000 0.175000 0.217500
1.000000 0.175000 0.217500
0.150000 0.287500 0.217500
0.318750 0.287500 0.217500
0.487500 0.287500 0.217500
0.656250 0.287500 0.217500
0.825000 0.287500 0.217500
0.993750 0.287500 0.217500
1.000000 0.287500 0.217500
1.000000 0.287500 0.217500
1.000000 0.287500 0.217500
0.150000 0.400000 0.217500
0.318750 0.400000 0.217500
0.487500 0.400000 0.217500
0.656250 0.400000 0.217500
0.825000 0.400000 0.217500
0.993750 0.400000 0.217500
1.000000 0.400000 0.217500
1.000000 0.400000 0.217500
1.000000 0.400000 0.217500
0.150000 0.512500 0.217500
0.318750 0.512500 0.217500
0.487500 0.512500 0.217500
0.656250 0.512500 0.217500
0.825000 0.512500 0.217500
0.993750 0.512500 0.217500
1.000000 0.512500 0.217500
1.000000 0.512500 0.217500
1.000000 0.512500 0.217500
0.150000 0.625000 0.217500
0.318750 0.625000 0.217500
0.487500 0.625000 0.217500
0.656250 0.625000 0.217500
0.825000 0.625000 0.217500
0.993750 0.625000 0.217500
1.000000 0.625000 0.217500
1.000000 0.625000 0.217500
1.000000 0.625000 0.217500
0.150000 0.737500 0.217500
0.318750 0.737500 0.217500
0.487500 0.737500 0.217500
0.656250 0.737500 0.217500
0.825000 0.737500 0.217500
0.993750 0.737500 0.217500
1.000000 0.737500 0.217500
1.000000 0.737500 0.217500
1.000000 0.737500 0.217500
0.150000 0.850000 0.217500
0.318750 0.850000 0.217500
0.487500 0.850000 0.217500
0.656250 0.850000 0.217500
0.825000 0.850000 0.217500
0.993750 0.850000 0.217500
1.000000 0.850000 0.217500
1.000000 0.850000 0.217500
1.000000 0.850000 0.217500
0.150000 0.000000 0.336250
0.318750 0.000000 0.336250
0.487500 0.000000 0.336250
0.656250 0.000000 0.336250
0.825000 0.000000 0.336250
0.993750 0.000000 0.336250
1.000000 0.000000 0.336250
1.000000 0.000000 0.336250
1.000000 0.000000 0.336250
0.150000 0.062500 0.336250
0.318750 0.062500 0.336250
0.487500 0.062500 0.336250
0.656250 0.062500 0.336250
0.825000 0.062500 0.336250
0.993750 0.062500 0.336250
1.000000 0.062500 0.336250
1.000000 0.062500 0.336250
1.000000 0.062500 0.336250
0.150000 0.175000 0.336250
0.318750 0.175000 0.336250
0.487500 0.175000 0.336250
0.656250 0.175000 0.336250
0.825000 0.175000 0.336250
0.993750 0.175000 0.336250
1.000000 0.175000 0.336250
1.000000 0.175000 0.336250
1.000000 0.175000 0.336250
0.150000 0.287500 0.336250
0.318750 0.287500 0.336250
0.487500 0.287500 0.336250
0.656250 0.287500 0.336250
0.825000 0.287500 0.336250
0.993750 0.287500 0.336250
1.000000 0.287500 0.336250
1.000000 0.287500 0.336250
1.000000 0.287500 0.336250
0.150000 0.400000 0.336250
0.318750 0.400000 0.336250
0.487500 0.400000 0.336250
0.656250 0.400000 0.336250
0.825000 0.400000 0.336250
0.993750 0.400000 0.336250
1.000000 0.400000 0.336250
1.000000 0.400000 0.336250
1.000000 0.400000 0.336250
0.150000 0.512500 0.336250
0.318750 0.512500 0.336250
0.487500 0.512500 0.336250
0.656250 0.512500 0.336250
0.825000 0.512500 0.336250
0.993750 0.512500 0.336250
1.000000 0.512500 0.336250
1.000000 0.512500 0.336250
1.000000 0.512500 0.336250
0.150000 0.625000 0.336250
0.318750 0.625000 0.336250
0.487500 0.625000 0.336250
0.656250 0.625000 0.336250
0.825000 0.625000 0.336250
0.993750 0.625000 0.336250
1.000000 0.625000 0.336250
1.000000 0.625000 0.336250
1.000000 0.625000 0.336250
0.150000 0.737500 0.336250
0.318750 0.737500 0.336250
0.487500 0.737500 0.336250
0.656250 0.737500 0.336250
0.825000 0.737500 0.336250
0.993750 0.737500 0.336250
1.000000 0.737500 0.336250
1.000000 0.737500 0.336250
1.000000 0.737500 0.336250
0.150000 0.850000 0.336250
0.318750 0.850000 0.336250
0.487500 0.850000 0.336250
0.656250 0.850000 0.336250
0.825000 0.850000 0.336250
0.993750 0.850000 0.336250
1.000000 0.850000 0.336250
1.000000 0.850000 0.336250
1.000000 0.850000 0.336250
0.150000 0.000000 0.455000
0.318750 0.000000 0.455000
0.487500 0.000000 0.455000
0.656250 0.000000 0.455000
0.825000 0.000000 0.455000
0.993750 0.000000 0.455000
1.000000 0.000000 0.455000
1.000000 0.000000 0.455000
1.000000 0.000000 0.455000
0.150000 0.062500 0.455000
0.318750 0.062500 0.455000
0.487500 0.062500 0.455000
0.656250 0.062500 0.455000
0.825000 0.062500 0.455000
0.993750 0.062500 0.455000
1.000000 0.062500 0.455000
1.000000 0.062500 0.455000
1.000000 0.062500 0.455000
0.150000 0.175000 0.455000
0.318750 0.175000 0.455000
0.487500 0.175000 0.455000
0.656250 0.175000 0.455000
0.825000 0.175000 0.455000
0.993750 0.175000 0.455000
1.000000 0.175000 0.455000
1.000000 0.175000 0.455000
1.000000 0.175000 0.455000
0.150000 0.287500 0.455000
0.318750 0.287500 0.455000
0.487500 0.287500 0.455000
0.656250 0.287500 0.455000
0.825000 0.287500 0.455000
0.993750 0.287500 0.455000
1.000000 0.287500 0.455000
1.000000 0.287500 0.455000
1.000000 0.287500 0.455000
0.150000 0.400000 0.455000
0.318750 0.400000 0.455000
0.487500 0.400000 0.455000
0.656250 0.400000 0.455000
0.825000 0.400000 0.455000
0.993750 0.400000 0.455000
1.000000 0.400000 0.455000
1.000000 0.400000 0.455000
1.000000 0.400000 0.455000
0.150000 0.512500 0.455000
0.318750 0.512500 0.455000
0.487500 0.512500 0.455000
0.656250 0.512500 0.455000
0.825000 0.512500 0.455000
0.993750 0.512500 0.455000
1.000000 0.512500 0.455000
1.000000 0.512500 0.455000
1.000000 0.512500 0.455000
0.150000 0.625000 0.455000
0.318750 0.625000 0.455000
0.487500 0.625000 0.455000
0.656250 0.625000 0.455000
0.825000 0.625000 0.455000
0.993750 0.625000 0.455000
1.000000 0.625000 0.455000
1.000000 0.625000 0.455000
1.000000 0.625000 0.455000
0.150000 0.737500 0.455000
0.318750 0.737500 0.455000
0.487500 0.737500 0.455000
0.656250 0.737500 0.455000
0.825000 0.737500 0.455000
0.993750 0.737500 0.455000
1.000000 0.737500 0.455000
1.000000 0.737500 0.455000
1.000000 0.737500 0.455000
0.150000 0.850000 0.455000
0.318750 0.850000 0.455000
0.487500 0.850000 0.455000
0.656250 0.850000 0.455000
0.825000 0.850000 0.455000
0.993750 0.850000 0.455000
1.000000 0.850000 0.455000
1.000000 0.850000 0.455000
1.000000 0.850000 0.455000
0.150000 0.000000 0.573750
0.318750 0.000000 0.573750
0.487500 0.000000 0.573750
0.656250 0.000000 0.573750
0.825000 0.000000 0.573750
0.993750 0.000000 0.573750
1.000000 0.000000 0.573750
1.000000 0.000000 0.573750
1.000000 0.000000 0.573750
0.150000 0.062500 0.573750
0.318750 0.062500 0.573750
0.487500 0.062500 0.573750
0.656250 0.062500 0.573750
0.825000 0.062500 0.573750
0.993750 0.062500 0.573750
1.000000 0.062500 0.573750
1.000000 0.062500 0.573750
1.000000 0.062500 0.573750
0.150000 0.175000 0.573750
0.318750 0.175000 0.573750
0.487500 0.175000 0.573750
0.656250 0.175000 0.573750
0.825000 0.175000 0.573750
0.993750 0.175000 0.573750
1.000000 0.175000 0.573750
1.000000 0.175000 0.573750
1.000000 0.175000 0.573750
0.150000 0.287500 0.573750
0.318750 0.287500 0.573750
0.487500 0.287500 0.573750
0.656250 0.287500 0.573750
0.825000 0.287500 0.573750
0.993750 0.287500 0.573750
1.000000 0.287500 0.573750
1.000000 0.287500 0.573750
1.000000 0.287500 0.573750
0.150000 0.400000 0.573750
0.318750 0.400000 0.573750
0.487500 0.400000 0.573750
0.656250 0.400000 0.573750
0.825000 0.400000 0.573750
0.993750 0.400000 0.573750
1.000000 0.400000 0.573750
1.000000 0.400000 0.573750
1.000000 0.400000 0.573750
0.150000 0.512500 0.573750
0.318750 0.512500 0.573750
0.487500 0.512500 0.573750
0.656250 0.512500 0.573750
0.825000 0.512500 0.573750
0.993750 0.512500 0.573750
1.000000 0.512500 0.573750
1.000000 0.512500 0.573750
1.000000 0.512500 0.573750
0.150000 0.625000 0.573750
0.318750 0.625000 0.573750
0.487500 0.625000 0.573750
0.656250 0.625000 0.573750
0.825000 0.625000 0.573750
0.993750 0.625000 0.573750
1.000000 0.625000 0.573750
1.000000 0.625000 0.573750
1.000000 0.625000 0.573750
0.150000 0.737500 0.573750
0.318750 0.737500 0.573750
0.487500 0.737500 0.573750
0.656250 0.737500 0.573750
0.825000 0.737500 0.573750
0.993750 0.737500 0.573750
1.000000 0.737500 0.573750
1.000000 0.737500 0.573750
1.000000 0.737500 0.573750
0.150000 0.850000 0.573750
0.318750 0.850000 0.573750
0.487500 0.850000 0.573750
0.656250 0.850000 0.573750
0.825000 0.850000 0.573750
0.993750 0.850000 0.573750
1.000000 0.850000 0.573750
1.000000 0.850000 0.573750
1.000000 0.850000 0.573750
0.150000 0.000000 0.692500
0.318750 0.000000 0.692500
0.487500 0.000000 0.692500
0.656250 0.000000 0.692500
0.825000 0.000000 0.692500
0.993750 0.000000 0.692500
1.000000 0.000000 0.692500
1.000000 0.000000 0.692500
1.000000 0.000000 0.692500
0.150000 0.062500 0.692500
0.318750 0.062500 0.692500
0.487500 0.062500 0.692500
0.656250 0.062500 0.692500
0.825000 0.062500 0.692500
0.993750 0.062500 0.692500
1.000000 0.062500 0.692500
1.000000 0.062500 0.692500
1.000000 0.062500 0.692500
0.150000 0.175000 0.692500
0.318750 0.175000 0.692500
0.487500 0.175000 0.692500
0.656250 0.175000 0.692500
0.825000 0.175000 0.692500
0.993750 0.175000 0.692500
1.000000 0.175000 0.692500
1.000000 0.175000 0.692500
1.000000 0.175000 0.692500
0.150000 0.287500 0.692500
0.318750 0.287500 0.692500
0.487500 0.287500 0.692500
0.656250 0.287500 0.692500
0.825000 0.287500 0.692500
0.993750 0.287500 0.692500
1.000000 0.287500 0.692500
1.000000 0.287500 0.692500
1.000000 0.287500 0.692500
0.150000 0.400000 0.692500
0.318750 0.400000 0.692500
0.487500 0.400000 0.692500
0.656250 0.400000 0.692500
0.825000 0.400000 0.692500
0.993750 0.400000 0.692500
1.000000 0.400000 0.692500
1.000000 0.400000 0.692500
1.000000 0.400000 0.692500
0.150000 0.512500 0.692500
0.318750 0.512500 0.692500
0.487500 0.512500 0.692500
0.656250 0.512500 0.692500
0.825000 0.512500 0.692500
0.993750 0.512500 0.692500
1.000000 0.512500 0.692500
1.000000 0.512500 0.692500
1.000000 0.512500 0.692500
0.150000 0.625000 0.692500
0.318750 0.625000 0.692500
0.487500 0.625000 0.692500
0.656250 0.625000 0.692500
0.825000 0.625000 0.692500
0.993750 0.625000 0.692500
1.000000 0.625000 0.692500
1.000000 0.625000 0.692500
1.000000 0.625000 0.692500
0.150000 0.737500 0.692500
0.318750 0.737500 0.692500
0.487500 0.737500 0.692500
0.656250 0.737500 0.692500
0.825000 0.737500 0.692500
0.993750 0.737500 0.692500
1.000000 0.737500 0.692500
1.000000 0.737500 0.692500
1.000000 0.737500 0.692500
0.150000 0.850000 0.692500
0.318750 0.850000 0.692500
0.487500 0.850000 0.692500
0.656250 0.850000 0.692500
0.825000 0.850000 0.692500
0.993750 0.850000 0.692500
1.000000 0.850000 0.692500
1.000000 0.850000 0.692500
1.000000 0.850000 0.692500
0.150000 0.000000 0.811250
0.318750 0.000000 0.811250
0.487500 0.000000 0.811250
0.656250 0.000000 0.811250
0.825000 0.000000 0.811250
0.993750 0.000000 0.811250
1.000000 0.000000 0.811250
1.000000 0.000000 0.811250
1.000000 0.000000 0.811250
0.150000 0.062500 0.811250
0.318750 0.062500 0.811250
0.487500 0.062500 0.811250
0.656250 0.062500 0.811250
0.825000 0.062500 0.811250
0.993750 0.062500 0.811250
1.000000 0.062500 0.811250
1.000000 0.062500 0.811250
1.000000 0.062500 0.811250
0.150000 0.175000 0.811250
0.318750 0.175000 0.811250
0.487500 0.175000 0.811250
0.656250 0.175000 0.811250
0.825000 0.175000 0.811250
0.993750 0.175000 0.811250
1.000000 0.175000 0.811250
1.000000 0.175000 0.811250
1.000000 0.175000 0.811250
0.150000 0.287500 0.811250
0.318750 0.287500 0.811250
0.487500 0.287500 0.811250
0.656250 0.287500 0.811250
0.825000 0.287500 0.811250
0.993750 0.287500 0.811250
1.000000 0.287500 0.811250
1.000000 0.287500 0.811250
1.000000 0.287500 0.811250
0.150000 0.400000 0.811250
0.318750 0.400000 0.811250
0.487500 0.400000 0.811250
0.656250 0.400000 0.811250
0.825000 0.400000 0.811250
0.993750 0.400000 0.811250
1.000000 0.400000 0.811250
1.000000 0.400000 0.811250
1.000000 0.400000 0.811250
0.150000 0.512500 0.811250
0.318750 0.512500 0.811250
0.487500 0.512500 0.811250
0.656250 0.512500 0.811250
0.825000 0.512500 0.811250
0.993750 0.512500 0.811250
1.000000 0.512500 0.811250
1.000000 0.512500 0.811250
1.000000 0.512500 0.811250
0.150000 0.625000 0.811250
0.318750 0.625000 0.811250
0.487500 0.625000 0.811250
0.656250 0.625000 0.811250
0.825000 0.625000 0.811250
0.993750 0.625000 0.811250
1.000000 0.625000 0.811250
1.000000 0.625000 0.811250
1.000000 0.625000 0.811250
0.150000 0.737500 0.811250
0.318750 0.737500 0.811250
0.487500 0.737500 0.811250
0.656250 0.737500 0.811250
0.825000 0.737500 0.811250
0.993750 0.737500 0.811250
1.000000 0.737500 0.811250
1.000000 0.737500 0.811250
1.000000 0.737500 0.811250
0.150000 0.850000 0.811250
0.318750 0.850000 0.811250
0.487500 0.850000 0.811250
0.656250 0.850000 0.811250
0.825000 0.850000 0.811250
0.993750 0.850000 0.811250
1.000000 0.850000 0.811250
1.000000 0.850000 0.811250
1.000000 0.850000 0.811250
0.150000 0.000000 0.930000
0.318750 0.000000 0.930000
0.487500 0.000000 0.930000
0.656250 0.000000 0.930000
0.825000 0.000000 0.930000
0.993750 0.000000 0.930000
1.000000 0.000000 0.930000
1.000000 0.000000 0.930000
1.000000 0.000000 0.930000
0.150000 0.062500 0.930000
0.318750 0.062500 0.930000
0.487500 0.062500 0.930000
0.656250 0.062500 0.930000
0.825000 0.062500 0.930000
0.993750 0.062500 0.930000
1.000000 0.062500 0.930000
1.000000 0.062500 0.930000
1.000000 0.062500 0.930000
0.150000 0.175000 0.930000
0.318750 0.175000 0.930000
0.487500 0.175000 0.930000
0.656250 0.175000 0.930000
0.825000 0.175000 0.930000
0.993750 0.175000 0.930000
1.000000 0.175000 0.930000
1.000000 0.175000 0.930000
1.000000 0.175000 0.930000
0.150000 0.287500 0.930000
0.318750 0.287500 0.930000
0.487500 0.287500 0.930000
0.656250 0.287500 0.930000
0.825000 0.287500 0.930000
0.993750 0.287500 0.930000
1.000000 0.287500 0.930000
1.000000 0.287500 0.930000
1.000000 0.287500 0.930000
0.150000 0.400000 0.930000
0.318750 0.400000 0.930000
0.487500 0.400000 0.930000
0.656250 0.400000 0.930000
0.825000 0.400000 0.930000
0.993750 0.400000 0.930000
1.000000 0.400000 0.930000
1.000000 0.400000 0.930000
1.000000 0.400000 0.930000
0.150000 0.512500 0.930000
0.318750 0.512500 0.930000
0.487500 0.512500 0.930000
0.656250 0.512500 0.930000
0.825000 0.512500 0.930000
0.993750 0.512500 0.930000
1.000000 0.512500 0.930000
1.000000 0.512500 0.930000
1.000000 0.512500 0.930000
0.150000 0.625000 0.930000
0.318750 0.625000 0.930000
0.487500 0.625000 0.930000
0.656250 0.625000 0.930000
0.825000 0.625000 0.930000
0.993750 0.625000 0.930000
1.000000 0.625000 0.930000
1.000000 0.625000 0.930000
1.000000 0.625000 0.930000
0.150000 0.737500 0.930000
0.318750 0.737500 0.930000
0.487500 0.737500 0.930000
0.656250 0.737500 0.930000
0.825000 0.737500 0.930000
0.993750 0.737500 0.930000
1.000000 0.737500 0.930000
1.000000 0.737500 0.930000
1.000000 0.737500 0.930000
0.150000 0.850000 0.930000
0.318750 0.850000 0.930000
0.487500 0.850000 0.930000
0.656250 0.850000 0.930000
0.825000 0.850000 0.930000
0.993750 0.850000 0.930000
1.000000 0.850000 0.930000
1.000000 0.850000 0.930000
1.000000 0.850000 0.930000
