app/src/main/assets/luts/lomography_red.cube
# ApexStudio filter: lomography_red
LUT_3D_SIZE 17
DOMAIN_MIN 0.0 0.0 0.0
DOMAIN_MAX 1.0 1.0 1.0
0.150000 0.000000 0.000000
0.234375 0.000000 0.000000
0.318750 0.000000 0.000000
0.403125 0.000000 0.000000
0.487500 0.000000 0.000000
0.571875 0.000000 0.000000
0.656250 0.000000 0.000000
0.740625 0.000000 0.000000
0.825000 0.000000 0.000000
0.909375 0.000000 0.000000
0.993750 0.000000 0.000000
1.000000 0.000000 0.000000
1.000000 0.000000 0.000000
1.000000 0.000000 0.000000
1.000000 0.000000 0.000000
1.000000 0.000000 0.000000
1.000000 0.000000 0.000000
0.150000 0.006250 0.000000
0.234375 0.006250 0.000000
0.318750 0.006250 0.000000
0.403125 0.006250 0.000000
0.487500 0.006250 0.000000
0.571875 0.006250 0.000000
0.656250 0.006250 0.000000
0.740625 0.006250 0.000000
0.825000 0.006250 0.000000
0.909375 0.006250 0.000000
0.993750 0.006250 0.000000
1.000000 0.006250 0.000000
1.000000 0.006250 0.000000
1.000000 0.006250 0.000000
1.000000 0.006250 0.000000
1.000000 0.006250 0.000000
1.000000 0.006250 0.000000
0.150000 0.062500 0.000000
0.234375 0.062500 0.000000
0.318750 0.062500 0.000000
0.403125 0.062500 0.000000
0.487500 0.062500 0.000000
0.571875 0.062500 0.000000
0.656250 0.062500 0.000000
0.740625 0.062500 0.000000
0.825000 0.062500 0.000000
0.909375 0.062500 0.000000
0.993750 0.062500 0.000000
1.000000 0.062500 0.000000
1.000000 0.062500 0.000000
1.000000 0.062500 0.000000
1.000000 0.062500 0.000000
1.000000 0.062500 0.000000
1.000000 0.062500 0.000000
0.150000 0.118750 0.000000
0.234375 0.118750 0.000000
0.318750 0.118750 0.000000
0.403125 0.118750 0.000000
0.487500 0.118750 0.000000
0.571875 0.118750 0.000000
0.656250 0.118750 0.000000
0.740625 0.118750 0.000000
0.825000 0.118750 0.000000
0.909375 0.118750 0.000000
0.993750 0.118750 0.000000
1.000000 0.118750 0.000000
1.000000 0.118750 0.000000
1.000000 0.118750 0.000000
1.000000 0.118750 0.000000
1.000000 0.118750 0.000000
1.000000 0.118750 0.000000
0.150000 0.175000 0.000000
0.234375 0.175000 0.000000
0.318750 0.175000 0.000000
0.403125 0.175000 0.000000
0.487500 0.175000 0.000000
0.571875 0.175000 0.000000
0.656250 0.175000 0.000000
0.740625 0.175000 0.000000
0.825000 0.175000 0.000000
0.909375 0.175000 0.000000
0.993750 0.175000 0.000000
1.000000 0.175000 0.000000
1.000000 0.175000 0.000000
1.000000 0.175000 0.000000
1.000000 0.175000 0.000000
1.000000 0.175000 0.000000
1.000000 0.175000 0.000000
0.150000 0.231250 0.000000
0.234375 0.231250 0.000000
0.318750 0.231250 0.000000
0.403125 0.231250 0.000000
0.487500 0.231250 0.000000
0.571875 0.231250 0.000000
0.656250 0.231250 0.000000
0.740625 0.231250 0.000000
0.825000 0.231250 0.000000
0.909375 0.231250 0.000000
0.993750 0.231250 0.000000
1.000000 0.231250 0.000000
1.000000 0.231250 0.000000
1.000000 0.231250 0.000000
1.000000 0.231250 0.000000
1.000000 0.231250 0.000000
1.000000 0.231250 0.000000
0.150000 0.287500 0.000000
0.234375 0.287500 0.000000
0.318750 0.287500 0.000000
0.403125 0.287500 0.000000
0.487500 0.287500 0.000000
0.571875 0.287500 0.000000
0.656250 0.287500 0.000000
0.740625 0.287500 0.000000
0.825000 0.287500 0.000000
0.909375 0.287500 0.000000
0.993750 0.287500 0.000000
1.000000 0.287500 0.000000
1.000000 0.287500 0.000000
1.000000 0.287500 0.000000
1.000000 0.287500 0.000000
1.000000 0.287500 0.000000
1.000000 0.287500 0.000000
0.150000 0.343750 0.000000
0.234375 0.343750 0.000000
0.318750 0.343750 0.000000
0.403125 0.343750 0.000000
0.487500 0.343750 0.000000
0.571875 0.343750 0.000000
0.656250 0.343750 0.000000
0.740625 0.343750 0.000000
0.825000 0.343750 0.000000
0.909375 0.343750 0.000000
0.993750 0.343750 0.000000
1.000000 0.343750 0.000000
1.000000 0.343750 0.000000
1.000000 0.343750 0.000000
1.000000 0.343750 0.000000
1.000000 0.343750 0.000000
1.000000 0.343750 0.000000
0.150000 0.400000 0.000000
0.234375 0.400000 0.000000
0.318750 0.400000 0.000000
0.403125 0.400000 0.000000
0.487500 0.400000 0.000000
0.571875 0.400000 0.000000
0.656250 0.400000 0.000000
0.740625 0.400000 0.000000
0.825000 0.400000 0.000000
0.909375 0.400000 0.000000
0.993750 0.400000 0.000000
1.000000 0.400000 0.000000
1.000000 0.400000 0.000000
1.000000 0.400000 0.000000
1.000000 0.400000 0.000000
1.000000 0.400000 0.000000
1.000000 0.400000 0.000000
0.150000 0.456250 0.000000
0.234375 0.456250 0.000000
0.318750 0.456250 0.000000
0.403125 0.456250 0.000000
0.487500 0.456250 0.000000
0.571875 0.456250 0.000000
0.656250 0.456250 0.000000
0.740625 0.456250 0.000000
0.825000 0.456250 0.000000
0.909375 0.456250 0.000000
0.993750 0.456250 0.000000
1.000000 0.456250 0.000000
1.000000 0.456250 0.000000
1.000000 0.456250 0.000000
1.000000 0.456250 0.000000
1.000000 0.456250 0.000000
1.000000 0.456250 0.000000
0.150000 0.512500 0.000000
0.234375 0.512500 0.000000
0.318750 0.512500 0.000000
0.403125 0.512500 0.000000
0.487500 0.512500 0.000000
0.571875 0.512500 0.000000
0.656250 0.512500 0.000000
0.740625 0.512500 0.000000
0.825000 0.512500 0.000000
0.909375 0.512500 0.000000
0.993750 0.512500 0.000000
1.000000 0.512500 0.000000
1.000000 0.512500 0.000000
1.000000 0.512500 0.000000
1.000000 0.512500 0.000000
1.000000 0.512500 0.000000
1.000000 0.512500 0.000000
0.150000 0.568750 0.000000
0.234375 0.568750 0.000000
0.318750 0.568750 0.000000
0.403125 0.568750 0.000000
0.487500 0.568750 0.000000
0.571875 0.568750 0.000000
0.656250 0.568750 0.000000
0.740625 0.568750 0.000000
0.825000 0.568750 0.000000
0.909375 0.568750 0.000000
0.993750 0.568750 0.000000
1.000000 0.568750 0.000000
1.000000 0.568750 0.000000
1.000000 0.568750 0.000000
1.000000 0.568750 0.000000
1.000000 0.568750 0.000000
1.000000 0.568750 0.000000
0.150000 0.625000 0.000000
0.234375 0.625000 0.000000
0.318750 0.625000 0.000000
0.403125 0.625000 0.000000
0.487500 0.625000 0.000000
0.571875 0.625000 0.000000
0.656250 0.625000 0.000000
0.740625 0.625000 0.000000
0.825000 0.625000 0.000000
0.909375 0.625000 0.000000
0.993750 0.625000 0.000000
1.000000 0.625000 0.000000
1.000000 0.625000 0.000000
1.000000 0.625000 0.000000
1.000000 0.625000 0.000000
1.000000 0.625000 0.000000
1.000000 0.625000 0.000000
0.150000 0.681250 0.000000
0.234375 0.681250 0.000000
0.318750 0.681250 0.000000
0.403125 0.681250 0.000000
0.487500 0.681250 0.000000
0.571875 0.681250 0.000000
0.656250 0.681250 0.000000
0.740625 0.681250 0.000000
0.825000 0.681250 0.000000
0.909375 0.681250 0.000000
0.993750 0.681250 0.000000
1.000000 0.681250 0.000000
1.000000 0.681250 0.000000
1.000000 0.681250 0.000000
1.000000 0.681250 0.000000
1.000000 0.681250 0.000000
1.000000 0.681250 0.000000
0.150000 0.737500 0.000000
0.234375 0.737500 0.000000
0.318750 0.737500 0.000000
0.403125 0.737500 0.000000
0.487500 0.737500 0.000000
0.571875 0.737500 0.000000
0.656250 0.737500 0.000000
0.740625 0.737500 0.000000
0.825000 0.737500 0.000000
0.909375 0.737500 0.000000
0.993750 0.737500 0.000000
1.000000 0.737500 0.000000
1.000000 0.737500 0.000000
1.000000 0.737500 0.000000
1.000000 0.737500 0.000000
1.000000 0.737500 0.000000
1.000000 0.737500 0.000000
0.150000 0.793750 0.000000
0.234375 0.793750 0.000000
0.318750 0.793750 0.000000
0.403125 0.793750 0.000000
0.487500 0.793750 0.000000
0.571875 0.793750 0.000000
0.656250 0.793750 0.000000
0.740625 0.793750 0.000000
0.825000 0.793750 0.000000
0.909375 0.793750 0.000000
0.993750 0.793750 0.000000
1.000000 0.793750 0.000000
1.000000 0.793750 0.000000
1.000000 0.793750 0.000000
1.000000 0.793750 0.000000
1.000000 0.793750 0.000000
1.000000 0.793750 0.000000
0.150000 0.850000 0.000000
0.234375 0.850000 0.000000
0.318750 0.850000 0.000000
0.403125 0.850000 0.000000
0.487500 0.850000 0.000000
0.571875 0.850000 0.000000
0.656250 0.850000 0.000000
0.740625 0.850000 0.000000
0.825000 0.850000 0.000000
0.909375 0.850000 0.000000
0.993750 0.850000 0.000000
1.000000 0.850000 0.000000
1.000000 0.850000 0.000000
1.000000 0.850000 0.000000
1.000000 0.850000 0.000000
1.000000 0.850000 0.000000
1.000000 0.850000 0.000000
0.150000 0.000000 0.039375
0.234375 0.000000 0.039375
0.318750 0.000000 0.039375
0.403125 0.000000 0.039375
0.487500 0.000000 0.039375
0.571875 0.000000 0.039375
0.656250 0.000000 0.039375
0.740625 0.000000 0.039375
0.825000 0.000000 0.039375
0.909375 0.000000 0.039375
0.993750 0.000000 0.039375
1.000000 0.000000 0.039375
1.000000 0.000000 0.039375
1.000000 0.000000 0.039375
1.000000 0.000000 0.039375
1.000000 0.000000 0.039375
1.000000 0.000000 0.039375
0.150000 0.006250 0.039375
0.234375 0.006250 0.039375
0.318750 0.006250 0.039375
0.403125 0.006250 0.039375
0.487500 0.006250 0.039375
0.571875 0.006250 0.039375
0.656250 0.006250 0.039375
0.740625 0.006250 0.039375
0.825000 0.006250 0.039375
0.909375 0.006250 0.039375
0.993750 0.006250 0.039375
1.000000 0.006250 0.039375
1.000000 0.006250 0.039375
1.000000 0.006250 0.039375
1.000000 0.006250 0.039375
1.000000 0.006250 0.039375
1.000000 0.006250 0.039375
0.150000 0.062500 0.039375
0.234375 0.062500 0.039375
0.318750 0.062500 0.039375
0.403125 0.062500 0.039375
0.487500 0.062500 0.039375
0.571875 0.062500 0.039375
0.656250 0.062500 0.039375
0.740625 0.062500 0.039375
0.825000 0.062500 0.039375
0.909375 0.062500 0.039375
0.993750 0.062500 0.039375
1.000000 0.062500 0.039375
1.000000 0.062500 0.039375
1.000000 0.062500 0.039375
1.000000 0.062500 0.039375
1.000000 0.062500 0.039375
1.000000 0.062500 0.039375
0.150000 0.118750 0.039375
0.234375 0.118750 0.039375
0.318750 0.118750 0.039375
0.403125 0.118750 0.039375
0.487500 0.118750 0.039375
0.571875 0.118750 0.039375
0.656250 0.118750 0.039375
0.740625 0.118750 0.039375
0.825000 0.118750 0.039375
0.909375 0.118750 0.039375
0.993750 0.118750 0.039375
1.000000 0.118750 0.039375
1.000000 0.118750 0.039375
1.000000 0.118750 0.039375
1.000000 0.118750 0.039375
1.000000 0.118750 0.039375
1.000000 0.118750 0.039375
0.150000 0.175000 0.039375
0.234375 0.175000 0.039375
0.318750 0.175000 0.039375
0.403125 0.175000 0.039375
0.487500 0.175000 0.039375
0.571875 0.175000 0.039375
0.656250 0.175000 0.039375
0.740625 0.175000 0.039375
0.825000 0.175000 0.039375
0.909375 0.175000 0.039375
0.993750 0.175000 0.039375
1.000000 0.175000 0.039375
1.000000 0.175000 0.039375
1.000000 0.175000 0.039375
1.000000 0.175000 0.039375
1.000000 0.175000 0.039375
1.000000 0.175000 0.039375
0.150000 0.231250 0.039375
0.234375 0.231250 0.039375
0.318750 0.231250 0.039375
0.403125 0.231250 0.039375
0.487500 0.231250 0.039375
0.571875 0.231250 0.039375
0.656250 0.231250 0.039375
0.740625 0.231250 0.039375
0.825000 0.231250 0.039375
0.909375 0.231250 0.039375
0.993750 0.231250 0.039375
1.000000 0.231250 0.039375
1.000000 0.231250 0.039375
1.000000 0.231250 0.039375
1.000000 0.231250 0.039375
1.000000 0.231250 0.039375
1.000000 0.231250 0.039375
0.150000 0.287500 0.039375
0.234375 0.287500 0.039375
0.318750 0.287500 0.039375
0.403125 0.287500 0.039375
0.487500 0.287500 0.039375
0.571875 0.287500 0.039375
0.656250 0.287500 0.039375
0.740625 0.287500 0.039375
0.825000 0.287500 0.039375
0.909375 0.287500 0.039375
0.993750 0.287500 0.039375
1.000000 0.287500 0.039375
1.000000 0.287500 0.039375
1.000000 0.287500 0.039375
1.000000 0.287500 0.039375
1.000000 0.287500 0.039375
1.000000 0.287500 0.039375
0.150000 0.343750 0.039375
0.234375 0.343750 0.039375
0.318750 0.343750 0.039375
0.403125 0.343750 0.039375
0.487500 0.343750 0.039375
0.571875 0.343750 0.039375
0.656250 0.343750 0.039375
0.740625 0.343750 0.039375
0.825000 0.343750 0.039375
0.909375 0.343750 0.039375
0.993750 0.343750 0.039375
1.000000 0.343750 0.039375
1.000000 0.343750 0.039375
1.000000 0.343750 0.039375
1.000000 0.343750 0.039375
1.000000 0.343750 0.039375
1.000000 0.343750 0.039375
0.150000 0.400000 0.039375
0.234375 0.400000 0.039375
0.318750 0.400000 0.039375
0.403125 0.400000 0.039375
0.487500 0.400000 0.039375
0.571875 0.400000 0.039375
0.656250 0.400000 0.039375
0.740625 0.400000 0.039375
0.825000 0.400000 0.039375
0.909375 0.400000 0.039375
0.993750 0.400000 0.039375
1.000000 0.400000 0.039375
1.000000 0.400000 0.039375
1.000000 0.400000 0.039375
1.000000 0.400000 0.039375
1.000000 0.400000 0.039375
1.000000 0.400000 0.039375
0.150000 0.456250 0.039375
0.234375 0.456250 0.039375
0.318750 0.456250 0.039375
0.403125 0.456250 0.039375
0.487500 0.456250 0.039375
0.571875 0.456250 0.039375
0.656250 0.456250 0.039375
0.740625 0.456250 0.039375
0.825000 0.456250 0.039375
0.909375 0.456250 0.039375
0.993750 0.456250 0.039375
1.000000 0.456250 0.039375
1.000000 0.456250 0.039375
1.000000 0.456250 0.039375
1.000000 0.456250 0.039375
1.000000 0.456250 0.039375
1.000000 0.456250 0.039375
0.150000 0.512500 0.039375
0.234375 0.512500 0.039375
0.318750 0.512500 0.039375
0.403125 0.512500 0.039375
0.487500 0.512500 0.039375
0.571875 0.512500 0.039375
0.656250 0.512500 0.039375
0.740625 0.512500 0.039375
0.825000 0.512500 0.039375
0.909375 0.512500 0.039375
0.993750 0.512500 0.039375
1.000000 0.512500 0.039375
1.000000 0.512500 0.039375
1.000000 0.512500 0.039375
1.000000 0.512500 0.039375
1.000000 0.512500 0.039375
1.000000 0.512500 0.039375
0.150000 0.568750 0.039375
0.234375 0.568750 0.039375
0.318750 0.568750 0.039375
0.403125 0.568750 0.039375
0.487500 0.568750 0.039375
0.571875 0.568750 0.039375
0.656250 0.568750 0.039375
0.740625 0.568750 0.039375
0.825000 0.568750 0.039375
0.909375 0.568750 0.039375
0.993750 0.568750 0.039375
1.000000 0.568750 0.039375
1.000000 0.568750 0.039375
1.000000 0.568750 0.039375
1.000000 0.568750 0.039375
1.000000 0.568750 0.039375
1.000000 0.568750 0.039375
0.150000 0.625000 0.039375
0.234375 0.625000 0.039375
0.318750 0.625000 0.039375
0.403125 0.625000 0.039375
0.487500 0.625000 0.039375
0.571875 0.625000 0.039375
0.656250 0.625000 0.039375
0.740625 0.625000 0.039375
0.825000 0.625000 0.039375
0.909375 0.625000 0.039375
0.993750 0.625000 0.039375
1.000000 0.625000 0.039375
1.000000 0.625000 0.039375
1.000000 0.625000 0.039375
1.000000 0.625000 0.039375
1.000000 0.625000 0.039375
1.000000 0.625000 0.039375
0.150000 0.681250 0.039375
0.234375 0.681250 0.039375
0.318750 0.681250 0.039375
0.403125 0.681250 0.039375
0.487500 0.681250 0.039375
0.571875 0.681250 0.039375
0.656250 0.681250 0.039375
0.740625 0.681250 0.039375
0.825000 0.681250 0.039375
0.909375 0.681250 0.039375
0.993750 0.681250 0.039375
1.000000 0.681250 0.039375
1.000000 0.681250 0.039375
1.000000 0.681250 0.039375
1.000000 0.681250 0.039375
1.000000 0.681250 0.039375
1.000000 0.681250 0.039375
0.150000 0.737500 0.039375
0.234375 0.737500 0.039375
0.318750 0.737500 0.039375
0.403125 0.737500 0.039375
0.487500 0.737500 0.039375
0.571875 0.737500 0.039375
0.656250 0.737500 0.039375
0.740625 0.737500 0.039375
0.825000 0.737500 0.039375
0.909375 0.737500 0.039375
0.993750 0.737500 0.039375
1.000000 0.737500 0.039375
1.000000 0.737500 0.039375
1.000000 0.737500 0.039375
1.000000 0.737500 0.039375
1.000000 0.737500 0.039375
1.000000 0.737500 0.039375
0.150000 0.793750 0.039375
0.234375 0.793750 0.039375
0.318750 0.793750 0.039375
0.403125 0.793750 0.039375
0.487500 0.793750 0.039375
0.571875 0.793750 0.039375
0.656250 0.793750 0.039375
0.740625 0.793750 0.039375
0.825000 0.793750 0.039375
0.909375 0.793750 0.039375
0.993750 0.793750 0.039375
1.000000 0.793750 0.039375
1.000000 0.793750 0.039375
1.000000 0.793750 0.039375
1.000000 0.793750 0.039375
1.000000 0.793750 0.039375
1.000000 0.793750 0.039375
0.150000 0.850000 0.039375
0.234375 0.850000 0.039375
0.318750 0.850000 0.039375
0.403125 0.850000 0.039375
0.487500 0.850000 0.039375
0.571875 0.850000 0.039375
0.656250 0.850000 0.039375
0.740625 0.850000 0.039375
0.825000 0.850000 0.039375
0.909375 0.850000 0.039375
0.993750 0.850000 0.039375
1.000000 0.850000 0.039375
1.000000 0.850000 0.039375
1.000000 0.850000 0.039375
1.000000 0.850000 0.039375
1.000000 0.850000 0.039375
1.000000 0.850000 0.039375
0.150000 0.000000 0.098750
0.234375 0.000000 0.098750
0.318750 0.000000 0.098750
0.403125 0.000000 0.098750
0.487500 0.000000 0.098750
0.571875 0.000000 0.098750
0.656250 0.000000 0.098750
0.740625 0.000000 0.098750
0.825000 0.000000 0.098750
0.909375 0.000000 0.098750
0.993750 0.000000 0.098750
1.000000 0.000000 0.098750
1.000000 0.000000 0.098750
1.000000 0.000000 0.098750
1.000000 0.000000 0.098750
1.000000 0.000000 0.098750
1.000000 0.000000 0.098750
0.150000 0.006250 0.098750
0.234375 0.006250 0.098750
0.318750 0.006250 0.098750
0.403125 0.006250 0.098750
0.487500 0.006250 0.098750
0.571875 0.006250 0.098750
0.656250 0.006250 0.098750
0.740625 0.006250 0.098750
0.825000 0.006250 0.098750
0.909375 0.006250 0.098750
0.993750 0.006250 0.098750
1.000000 0.006250 0.098750
1.000000 0.006250 0.098750
1.000000 0.006250 0.098750
1.000000 0.006250 0.098750
1.000000 0.006250 0.098750
1.000000 0.006250 0.098750
0.150000 0.062500 0.098750
0.234375 0.062500 0.098750
0.318750 0.062500 0.098750
0.403125 0.062500 0.098750
0.487500 0.062500 0.098750
0.571875 0.062500 0.098750
0.656250 0.062500 0.098750
0.740625 0.062500 0.098750
0.825000 0.062500 0.098750
0.909375 0.062500 0.098750
0.993750 0.062500 0.098750
1.000000 0.062500 0.098750
1.000000 0.062500 0.098750
1.000000 0.062500 0.098750
1.000000 0.062500 0.098750
1.000000 0.062500 0.098750
1.000000 0.062500 0.098750
0.150000 0.118750 0.098750
0.234375 0.118750 0.098750
0.318750 0.118750 0.098750
0.403125 0.118750 0.098750
0.487500 0.118750 0.098750
0.571875 0.118750 0.098750
0.656250 0.118750 0.098750
0.740625 0.118750 0.098750
0.825000 0.118750 0.098750
0.909375 0.118750 0.098750
0.993750 0.118750 0.098750
1.000000 0.118750 0.098750
1.000000 0.118750 0.098750
1.000000 0.118750 0.098750
1.000000 0.118750 0.098750
1.000000 0.118750 0.098750
1.000000 0.118750 0.098750
0.150000 0.175000 0.098750
0.234375 0.175000 0.098750
0.318750 0.175000 0.098750
0.403125 0.175000 0.098750
0.487500 0.175000 0.098750
0.571875 0.175000 0.098750
0.656250 0.175000 0.098750
0.740625 0.175000 0.098750
0.825000 0.175000 0.098750
0.909375 0.175000 0.098750
0.993750 0.175000 0.098750
1.000000 0.175000 0.098750
1.000000 0.175000 0.098750
1.000000 0.175000 0.098750
1.000000 0.175000 0.098750
1.000000 0.175000 0.098750
1.000000 0.175000 0.098750
0.150000 0.231250 0.098750
0.234375 0.231250 0.098750
0.318750 0.231250 0.098750
0.403125 0.231250 0.098750
0.487500 0.231250 0.098750
0.571875 0.231250 0.098750
0.656250 0.231250 0.098750
0.740625 0.231250 0.098750
0.825000 0.231250 0.098750
0.909375 0.231250 0.098750
0.993750 0.231250 0.098750
1.000000 0.231250 0.098750
1.000000 0.231250 0.098750
1.000000 0.231250 0.098750
1.000000 0.231250 0.098750
1.000000 0.231250 0.098750
1.000000 0.231250 0.098750
0.150000 0.287500 0.098750
0.234375 0.287500 0.098750
0.318750 0.287500 0.098750
0.403125 0.287500 0.098750
0.487500 0.287500 0.098750
0.571875 0.287500 0.098750
0.656250 0.287500 0.098750
0.740625 0.287500 0.098750
0.825000 0.287500 0.098750
0.909375 0.287500 0.098750
0.993750 0.287500 0.098750
1.000000 0.287500 0.098750
1.000000 0.287500 0.098750
1.000000 0.287500 0.098750
1.000000 0.287500 0.098750
1.000000 0.287500 0.098750
1.000000 0.287500 0.098750
0.150000 0.343750 0.098750
0.234375 0.343750 0.098750
0.318750 0.343750 0.098750
0.403125 0.343750 0.098750
0.487500 0.343750 0.098750
0.571875 0.343750 0.098750
0.656250 0.343750 0.098750
0.740625 0.343750 0.098750
0.825000 0.343750 0.098750
0.909375 0.343750 0.098750
0.993750 0.343750 0.098750
1.000000 0.343750 0.098750
1.000000 0.343750 0.098750
1.000000 0.343750 0.098750
1.000000 0.343750 0.098750
1.000000 0.343750 0.098750
1.000000 0.343750 0.098750
0.150000 0.400000 0.098750
0.234375 0.400000 0.098750
0.318750 0.400000 0.098750
0.403125 0.400000 0.098750
0.487500 0.400000 0.098750
0.571875 0.400000 0.098750
0.656250 0.400000 0.098750
0.740625 0.400000 0.098750
0.825000 0.400000 0.098750
0.909375 0.400000 0.098750
0.993750 0.400000 0.098750
1.000000 0.400000 0.098750
1.000000 0.400000 0.098750
1.000000 0.400000 0.098750
1.000000 0.400000 0.098750
1.000000 0.400000 0.098750
1.000000 0.400000 0.098750
0.150000 0.456250 0.098750
0.234375 0.456250 0.098750
0.318750 0.456250 0.098750
0.403125 0.456250 0.098750
0.487500 0.456250 0.098750
0.571875 0.456250 0.098750
0.656250 0.456250 0.098750
0.740625 0.456250 0.098750
0.825000 0.456250 0.098750
0.909375 0.456250 0.098750
0.993750 0.456250 0.098750
1.000000 0.456250 0.098750
1.000000 0.456250 0.098750
1.000000 0.456250 0.098750
1.000000 0.456250 0.098750
1.000000 0.456250 0.098750
1.000000 0.456250 0.098750
0.150000 0.512500 0.098750
0.234375 0.512500 0.098750
0.318750 0.512500 0.098750
0.403125 0.512500 0.098750
0.487500 0.512500 0.098750
0.571875 0.512500 0.098750
0.656250 0.512500 0.098750
0.740625 0.512500 0.098750
0.825000 0.512500 0.098750
0.909375 0.512500 0.098750
0.993750 0.512500 0.098750
1.000000 0.512500 0.098750
1.000000 0.512500 0.098750
1.000000 0.512500 0.098750
1.000000 0.512500 0.098750
1.000000 0.512500 0.098750
1.000000 0.512500 0.098750
0.150000 0.568750 0.098750
0.234375 0.568750 0.098750
0.318750 0.568750 0.098750
0.403125 0.568750 0.098750
0.487500 0.568750 0.098750
0.571875 0.568750 0.098750
0.656250 0.568750 0.098750
0.740625 0.568750 0.098750
0.825000 0.568750 0.098750
0.909375 0.568750 0.098750
0.993750 0.568750 0.098750
1.000000 0.568750 0.098750
1.000000 0.568750 0.098750
1.000000 0.568750 0.098750
1.000000 0.568750 0.098750
1.000000 0.568750 0.098750
1.000000 0.568750 0.098750
0.150000 0.625000 0.098750
0.234375 0.625000 0.098750
0.318750 0.625000 0.098750
0.403125 0.625000 0.098750
0.487500 0.625000 0.098750
0.571875 0.625000 0.098750
0.656250 0.625000 0.098750
0.740625 0.625000 0.098750
0.825000 0.625000 0.098750
0.909375 0.625000 0.098750
0.993750 0.625000 0.098750
1.000000 0.625000 0.098750
1.000000 0.625000 0.098750
1.000000 0.625000 0.098750
1.000000 0.625000 0.098750
1.000000 0.625000 0.098750
1.000000 0.625000 0.098750
0.150000 0.681250 0.098750
0.234375 0.681250 0.098750
0.318750 0.681250 0.098750
0.403125 0.681250 0.098750
0.487500 0.681250 0.098750
0.571875 0.681250 0.098750
0.656250 0.681250 0.098750
0.740625 0.681250 0.098750
0.825000 0.681250 0.098750
0.909375 0.681250 0.098750
0.993750 0.681250 0.098750
1.000000 0.681250 0.098750
1.000000 0.681250 0.098750
1.000000 0.681250 0.098750
1.000000 0.681250 0.098750
1.000000 0.681250 0.098750
1.000000 0.681250 0.098750
0.150000 0.737500 0.098750
0.234375 0.737500 0.098750
0.318750 0.737500 0.098750
0.403125 0.737500 0.098750
0.487500 0.737500 0.098750
0.571875 0.737500 0.098750
0.656250 0.737500 0.098750
0.740625 0.737500 0.098750
0.825000 0.737500 0.098750
0.909375 0.737500 0.098750
0.993750 0.737500 0.098750
1.000000 0.737500 0.098750
1.000000 0.737500 0.098750
1.000000 0.737500 0.098750
1.000000 0.737500 0.098750
1.000000 0.737500 0.098750
1.000000 0.737500 0.098750
0.150000 0.793750 0.098750
0.234375 0.793750 0.098750
0.318750 0.793750 0.098750
0.403125 0.793750 0.098750
0.487500 0.793750 0.098750
0.571875 0.793750 0.098750
0.656250 0.793750 0.098750
0.740625 0.793750 0.098750
0.825000 0.793750 0.098750
0.909375 0.793750 0.098750
0.993750 0.793750 0.098750
1.000000 0.793750 0.098750
1.000000 0.793750 0.098750
1.000000 0.793750 0.098750
1.000000 0.793750 0.098750
1.000000 0.793750 0.098750
1.000000 0.793750 0.098750
0.150000 0.850000 0.098750
0.234375 0.850000 0.098750
0.318750 0.850000 0.098750
0.403125 0.850000 0.098750
0.487500 0.850000 0.098750
0.571875 0.850000 0.098750
0.656250 0.850000 0.098750
0.740625 0.850000 0.098750
0.825000 0.850000 0.098750
0.909375 0.850000 0.098750
0.993750 0.850000 0.098750
1.000000 0.850000 0.098750
1.000000 0.850000 0.098750
1.000000 0.850000 0.098750
1.000000 0.850000 0.098750
1.000000 0.850000 0.098750
1.000000 0.850000 0.098750
0.150000 0.000000 0.158125
0.234375 0.000000 0.158125
0.318750 0.000000 0.158125
0.403125 0.000000 0.158125
0.487500 0.000000 0.158125
0.571875 0.000000 0.158125
0.656250 0.000000 0.158125
0.740625 0.000000 0.158125
0.825000 0.000000 0.158125
0.909375 0.000000 0.158125
0.993750 0.000000 0.158125
1.000000 0.000000 0.158125
1.000000 0.000000 0.158125
1.000000 0.000000 0.158125
1.000000 0.000000 0.158125
1.000000 0.000000 0.158125
1.000000 0.000000 0.158125
0.150000 0.006250 0.158125
