app/src/main/assets/luts/makoto_sky.cube
# ApexStudio filter: makoto_sky
LUT_3D_SIZE 5
DOMAIN_MIN 0.0 0.0 0.0
DOMAIN_MAX 1.0 1.0 1.0
0.000000 0.050000 0.150000
0.187500 0.050000 0.150000
0.425000 0.050000 0.150000
0.662500 0.050000 0.150000
0.900000 0.050000 0.150000
0.000000 0.325000 0.150000
0.187500 0.325000 0.150000
0.425000 0.325000 0.150000
0.662500 0.325000 0.150000
0.900000 0.325000 0.150000
0.000000 0.600000 0.150000
0.187500 0.600000 0.150000
0.425000 0.600000 0.150000
0.662500 0.600000 0.150000
0.900000 0.600000 0.150000
0.000000 0.875000 0.150000
0.187500 0.875000 0.150000
0.425000 0.875000 0.150000
0.662500 0.875000 0.150000
0.900000 0.875000 0.150000
0.000000 1.000000 0.150000
0.187500 1.000000 0.150000
0.425000 1.000000 0.150000
0.662500 1.000000 0.150000
0.900000 1.000000 0.150000
0.000000 0.050000 0.487500
0.187500 0.050000 0.487500
0.425000 0.050000 0.487500
0.662500 0.050000 0.487500
0.900000 0.050000 0.487500
0.000000 0.325000 0.487500
0.187500 0.325000 0.487500
0.425000 0.325000 0.487500
0.662500 0.325000 0.487500
0.900000 0.325000 0.487500
0.000000 0.600000 0.487500
0.187500 0.600000 0.487500
0.425000 0.600000 0.487500
0.662500 0.600000 0.487500
0.900000 0.600000 0.487500
0.000000 0.875000 0.487500
0.187500 0.875000 0.487500
0.425000 0.875000 0.487500
0.662500 0.875000 0.487500
0.900000 0.875000 0.487500
0.000000 1.000000 0.487500
0.187500 1.000000 0.487500
0.425000 1.000000 0.487500
0.662500 1.000000 0.487500
0.900000 1.000000 0.487500
0.000000 0.050000 0.825000
0.187500 0.050000 0.825000
0.425000 0.050000 0.825000
0.662500 0.050000 0.825000
0.900000 0.050000 0.825000
0.000000 0.325000 0.825000
0.187500 0.325000 0.825000
0.425000 0.325000 0.825000
0.662500 0.325000 0.825000
0.900000 0.325000 0.825000
0.000000 0.600000 0.825000
0.187500 0.600000 0.825000
0.425000 0.600000 0.825000
0.662500 0.600000 0.825000
0.900000 0.600000 0.825000
0.000000 0.875000 0.825000
0.187500 0.875000 0.825000
0.425000 0.875000 0.825000
0.662500 0.875000 0.825000
0.900000 0.875000 0.825000
0.000000 1.000000 0.825000
0.187500 1.000000 0.825000
0.425000 1.000000 0.825000
0.662500 1.000000 0.825000
0.900000 1.000000 0.825000
0.000000 0.050000 1.000000
0.187500 0.050000 1.000000
0.425000 0.050000 1.000000
0.662500 0.050000 1.000000
0.900000 0.050000 1.000000
0.000000 0.325000 1.000000
0.187500 0.325000 1.000000
0.425000 0.325000 1.000000
0.662500 0.325000 1.000000
0.900000 0.325000 1.000000
0.000000 0.600000 1.000000
0.187500 0.600000 1.000000
0.425000 0.600000 1.000000
0.662500 0.600000 1.000000
0.900000 0.600000 1.000000
0.000000 0.875000 1.000000
0.187500 0.875000 1.000000
0.425000 0.875000 1.000000
0.662500 0.875000 1.000000
0.900000 0.875000 1.000000
0.000000 1.000000 1.000000
0.187500 1.000000 1.000000
0.425000 1.000000 1.000000
0.662500 1.000000 1.000000
0.900000 1.000000 1.000000
0.000000 0.050000 1.000000
0.187500 0.050000 1.000000
0.425000 0.050000 1.000000
0.662500 0.050000 1.000000
0.900000 0.050000 1.000000
0.000000 0.325000 1.000000
0.187500 0.325000 1.000000
0.425000 0.325000 1.000000
0.662500 0.325000 1.000000
0.900000 0.325000 1.000000
0.000000 0.600000 1.000000
0.187500 0.600000 1.000000
0.425000 0.600000 1.000000
0.662500 0.600000 1.000000
0.900000 0.600000 1.000000
0.000000 0.875000 1.000000
0.187500 0.875000 1.000000
0.425000 0.875000 1.000000
0.662500 0.875000 1.000000
0.900000 0.875000 1.000000
0.000000 1.000000 1.000000
0.187500 1.000000 1.000000
0.425000 1.000000 1.000000
0.662500 1.000000 1.000000
0.900000 1.000000 1.000000
