app/src/main/assets/luts/makoto_sky.cube
# ApexStudio filter: makoto_sky
LUT_3D_SIZE 9
DOMAIN_MIN 0.0 0.0 0.0
DOMAIN_MAX 1.0 1.0 1.0
0.000000 0.050000 0.150000
0.068750 0.050000 0.150000
0.187500 0.050000 0.150000
0.306250 0.050000 0.150000
0.425000 0.050000 0.150000
0.543750 0.050000 0.150000
0.662500 0.050000 0.150000
0.781250 0.050000 0.150000
0.900000 0.050000 0.150000
0.000000 0.187500 0.150000
0.068750 0.187500 0.150000
0.187500 0.187500 0.150000
0.306250 0.187500 0.150000
0.425000 0.187500 0.150000
0.543750 0.187500 0.150000
0.662500 0.187500 0.150000
0.781250 0.187500 0.150000
0.900000 0.187500 0.150000
0.000000 0.325000 0.150000
0.068750 0.325000 0.150000
0.187500 0.325000 0.150000
0.306250 0.325000 0.150000
0.425000 0.325000 0.150000
0.543750 0.325000 0.150000
0.662500 0.325000 0.150000
0.781250 0.325000 0.150000
0.900000 0.325000 0.150000
0.000000 0.462500 0.150000
0.068750 0.462500 0.150000
0.187500 0.462500 0.150000
0.306250 0.462500 0.150000
0.425000 0.462500 0.150000
0.543750 0.462500 0.150000
0.662500 0.462500 0.150000
0.781250 0.462500 0.150000
0.900000 0.462500 0.150000
0.000000 0.600000 0.150000
0.068750 0.600000 0.150000
0.187500 0.600000 0.150000
0.306250 0.600000 0.150000
0.425000 0.600000 0.150000
0.543750 0.600000 0.150000
0.662500 0.600000 0.150000
0.781250 0.600000 0.150000
0.900000 0.600000 0.150000
0.000000 0.737500 0.150000
0.068750 0.737500 0.150000
0.187500 0.737500 0.150000
0.306250 0.737500 0.150000
0.425000 0.737500 0.150000
0.543750 0.737500 0.150000
0.662500 0.737500 0.150000
0.781250 0.737500 0.150000
0.900000 0.737500 0.150000
0.000000 0.875000 0.150000
0.068750 0.875000 0.150000
0.187500 0.875000 0.150000
0.306250 0.875000 0.150000
0.425000 0.875000 0.150000
0.543750 0.875000 0.150000
0.662500 0.875000 0.150000
0.781250 0.875000 0.150000
0.900000 0.875000 0.150000
0.000000 1.000000 0.150000
0.068750 1.000000 0.150000
0.187500 1.000000 0.150000
0.306250 1.000000 0.150000
0.425000 1.000000 0.150000
0.543750 1.000000 0.150000
0.662500 1.000000 0.150000
0.781250 1.000000 0.150000
0.900000 1.000000 0.150000
0.000000 1.000000 0.150000
0.068750 1.000000 0.150000
0.187500 1.000000 0.150000
0.306250 1.000000 0.150000
0.425000 1.000000 0.150000
0.543750 1.000000 0.150000
0.662500 1.000000 0.150000
0.781250 1.000000 0.150000
0.900000 1.000000 0.150000
0.000000 0.050000 0.318750
0.068750 0.050000 0.318750
0.187500 0.050000 0.318750
0.306250 0.050000 0.318750
0.425000 0.050000 0.318750
0.543750 0.050000 0.318750
0.662500 0.050000 0.318750
0.781250 0.050000 0.318750
0.900000 0.050000 0.318750
0.000000 0.187500 0.318750
0.068750 0.187500 0.318750
0.187500 0.187500 0.318750
0.306250 0.187500 0.318750
0.425000 0.187500 0.318750
0.543750 0.187500 0.318750
0.662500 0.187500 0.318750
0.781250 0.187500 0.318750
0.900000 0.187500 0.318750
0.000000 0.325000 0.318750
0.068750 0.325000 0.318750
0.187500 0.325000 0.318750
0.306250 0.325000 0.318750
0.425000 0.325000 0.318750
0.543750 0.325000 0.318750
0.662500 0.325000 0.318750
0.781250 0.325000 0.318750
0.900000 0.325000 0.318750
0.000000 0.462500 0.318750
0.068750 0.462500 0.318750
0.187500 0.462500 0.318750
0.306250 0.462500 0.318750
0.425000 0.462500 0.318750
0.543750 0.462500 0.318750
0.662500 0.462500 0.318750
0.781250 0.462500 0.318750
0.900000 0.462500 0.318750
0.000000 0.600000 0.318750
0.068750 0.600000 0.318750
0.187500 0.600000 0.318750
0.306250 0.600000 0.318750
0.425000 0.600000 0.318750
0.543750 0.600000 0.318750
0.662500 0.600000 0.318750
0.781250 0.600000 0.318750
0.900000 0.600000 0.318750
0.000000 0.737500 0.318750
0.068750 0.737500 0.318750
0.187500 0.737500 0.318750
0.306250 0.737500 0.318750
0.425000 0.737500 0.318750
0.543750 0.737500 0.318750
0.662500 0.737500 0.318750
0.781250 0.737500 0.318750
0.900000 0.737500 0.318750
0.000000 0.875000 0.318750
0.068750 0.875000 0.318750
0.187500 0.875000 0.318750
0.306250 0.875000 0.318750
0.425000 0.875000 0.318750
0.543750 0.875000 0.318750
0.662500 0.875000 0.318750
0.781250 0.875000 0.318750
0.900000 0.875000 0.318750
0.000000 1.000000 0.318750
0.068750 1.000000 0.318750
0.187500 1.000000 0.318750
0.306250 1.000000 0.318750
0.425000 1.000000 0.318750
0.543750 1.000000 0.318750
0.662500 1.000000 0.318750
0.781250 1.000000 0.318750
0.900000 1.000000 0.318750
0.000000 1.000000 0.318750
0.068750 1.000000 0.318750
0.187500 1.000000 0.318750
0.306250 1.000000 0.318750
0.425000 1.000000 0.318750
0.543750 1.000000 0.318750
0.662500 1.000000 0.318750
0.781250 1.000000 0.318750
0.900000 1.000000 0.318750
0.000000 0.050000 0.487500
0.068750 0.050000 0.487500
0.187500 0.050000 0.487500
0.306250 0.050000 0.487500
0.425000 0.050000 0.487500
0.543750 0.050000 0.487500
0.662500 0.050000 0.487500
0.781250 0.050000 0.487500
0.900000 0.050000 0.487500
0.000000 0.187500 0.487500
0.068750 0.187500 0.487500
0.187500 0.187500 0.487500
0.306250 0.187500 0.487500
0.425000 0.187500 0.487500
0.543750 0.187500 0.487500
0.662500 0.187500 0.487500
0.781250 0.187500 0.487500
0.900000 0.187500 0.487500
0.000000 0.325000 0.487500
0.068750 0.325000 0.487500
0.187500 0.325000 0.487500
0.306250 0.325000 0.487500
0.425000 0.325000 0.487500
0.543750 0.325000 0.487500
0.662500 0.325000 0.487500
0.781250 0.325000 0.487500
0.900000 0.325000 0.487500
0.000000 0.462500 0.487500
0.068750 0.462500 0.487500
0.187500 0.462500 0.487500
0.306250 0.462500 0.487500
0.425000 0.462500 0.487500
0.543750 0.462500 0.487500
0.662500 0.462500 0.487500
0.781250 0.462500 0.487500
0.900000 0.462500 0.487500
0.000000 0.600000 0.487500
0.068750 0.600000 0.487500
0.187500 0.600000 0.487500
0.306250 0.600000 0.487500
0.425000 0.600000 0.487500
0.543750 0.600000 0.487500
0.662500 0.600000 0.487500
0.781250 0.600000 0.487500
0.900000 0.600000 0.487500
0.000000 0.737500 0.487500
0.068750 0.737500 0.487500
0.187500 0.737500 0.487500
0.306250 0.737500 0.487500
0.425000 0.737500 0.487500
0.543750 0.737500 0.487500
0.662500 0.737500 0.487500
0.781250 0.737500 0.487500
0.900000 0.737500 0.487500
0.000000 0.875000 0.487500
0.068750 0.875000 0.487500
0.187500 0.875000 0.487500
0.306250 0.875000 0.487500
0.425000 0.875000 0.487500
0.543750 0.875000 0.487500
0.662500 0.875000 0.487500
0.781250 0.875000 0.487500
0.900000 0.875000 0.487500
0.000000 1.000000 0.487500
0.068750 1.000000 0.487500
0.187500 1.000000 0.487500
0.306250 1.000000 0.487500
0.425000 1.000000 0.487500
0.543750 1.000000 0.487500
0.662500 1.000000 0.487500
0.781250 1.000000 0.487500
0.900000 1.000000 0.487500
0.000000 1.000000 0.487500
0.068750 1.000000 0.487500
0.187500 1.000000 0.487500
0.306250 1.000000 0.487500
0.425000 1.000000 0.487500
0.543750 1.000000 0.487500
0.662500 1.000000 0.487500
0.781250 1.000000 0.487500
0.900000 1.000000 0.487500
0.000000 0.050000 0.656250
0.068750 0.050000 0.656250
0.187500 0.050000 0.656250
0.306250 0.050000 0.656250
0.425000 0.050000 0.656250
0.543750 0.050000 0.656250
0.662500 0.050000 0.656250
0.781250 0.050000 0.656250
0.900000 0.050000 0.656250
0.000000 0.187500 0.656250
0.068750 0.187500 0.656250
0.187500 0.187500 0.656250
0.306250 0.187500 0.656250
0.425000 0.187500 0.656250
0.543750 0.187500 0.656250
0.662500 0.187500 0.656250
0.781250 0.187500 0.656250
0.900000 0.187500 0.656250
0.000000 0.325000 0.656250
0.068750 0.325000 0.656250
0.187500 0.325000 0.656250
0.306250 0.325000 0.656250
0.425000 0.325000 0.656250
0.543750 0.325000 0.656250
0.662500 0.325000 0.656250
0.781250 0.325000 0.656250
0.900000 0.325000 0.656250
0.000000 0.462500 0.656250
0.068750 0.462500 0.656250
0.187500 0.462500 0.656250
0.306250 0.462500 0.656250
0.425000 0.462500 0.656250
0.543750 0.462500 0.656250
0.662500 0.462500 0.656250
0.781250 0.462500 0.656250
0.900000 0.462500 0.656250
0.000000 0.600000 0.656250
0.068750 0.600000 0.656250
0.187500 0.600000 0.656250
0.306250 0.600000 0.656250
0.425000 0.600000 0.656250
0.543750 0.600000 0.656250
0.662500 0.600000 0.656250
0.781250 0.600000 0.656250
0.900000 0.600000 0.656250
0.000000 0.737500 0.656250
0.068750 0.737500 0.656250
0.187500 0.737500 0.656250
0.306250 0.737500 0.656250
0.425000 0.737500 0.656250
0.543750 0.737500 0.656250
0.662500 0.737500 0.656250
0.781250 0.737500 0.656250
0.900000 0.737500 0.656250
0.000000 0.875000 0.656250
0.068750 0.875000 0.656250
0.187500 0.875000 0.656250
0.306250 0.875000 0.656250
0.425000 0.875000 0.656250
0.543750 0.875000 0.656250
0.662500 0.875000 0.656250
0.781250 0.875000 0.656250
0.900000 0.875000 0.656250
0.000000 1.000000 0.656250
0.068750 1.000000 0.656250
0.187500 1.000000 0.656250
0.306250 1.000000 0.656250
0.425000 1.000000 0.656250
0.543750 1.000000 0.656250
0.662500 1.000000 0.656250
0.781250 1.000000 0.656250
0.900000 1.000000 0.656250
0.000000 1.000000 0.656250
0.068750 1.000000 0.656250
0.187500 1.000000 0.656250
0.306250 1.000000 0.656250
0.425000 1.000000 0.656250
0.543750 1.000000 0.656250
0.662500 1.000000 0.656250
0.781250 1.000000 0.656250
0.900000 1.000000 0.656250
0.000000 0.050000 0.825000
0.068750 0.050000 0.825000
0.187500 0.050000 0.825000
0.306250 0.050000 0.825000
0.425000 0.050000 0.825000
0.543750 0.050000 0.825000
0.662500 0.050000 0.825000
0.781250 0.050000 0.825000
0.900000 0.050000 0.825000
0.000000 0.187500 0.825000
0.068750 0.187500 0.825000
0.187500 0.187500 0.825000
0.306250 0.187500 0.825000
0.425000 0.187500 0.825000
0.543750 0.187500 0.825000
0.662500 0.187500 0.825000
0.781250 0.187500 0.825000
0.900000 0.187500 0.825000
0.000000 0.325000 0.825000
0.068750 0.325000 0.825000
0.187500 0.325000 0.825000
0.306250 0.325000 0.825000
0.425000 0.325000 0.825000
0.543750 0.325000 0.825000
0.662500 0.325000 0.825000
0.781250 0.325000 0.825000
0.900000 0.325000 0.825000
0.000000 0.462500 0.825000
0.068750 0.462500 0.825000
0.187500 0.462500 0.825000
0.306250 0.462500 0.825000
0.425000 0.462500 0.825000
0.543750 0.462500 0.825000
0.662500 0.462500 0.825000
0.781250 0.462500 0.825000
0.900000 0.462500 0.825000
0.000000 0.600000 0.825000
0.068750 0.600000 0.825000
0.187500 0.600000 0.825000
0.306250 0.600000 0.825000
0.425000 0.600000 0.825000
0.543750 0.600000 0.825000
0.662500 0.600000 0.825000
0.781250 0.600000 0.825000
0.900000 0.600000 0.825000
0.000000 0.737500 0.825000
0.068750 0.737500 0.825000
0.187500 0.737500 0.825000
0.306250 0.737500 0.825000
0.425000 0.737500 0.825000
0.543750 0.737500 0.825000
0.662500 0.737500 0.825000
0.781250 0.737500 0.825000
0.900000 0.737500 0.825000
0.000000 0.875000 0.825000
0.068750 0.875000 0.825000
0.187500 0.875000 0.825000
0.306250 0.875000 0.825000
0.425000 0.875000 0.825000
0.543750 0.875000 0.825000
0.662500 0.875000 0.825000
0.781250 0.875000 0.825000
0.900000 0.875000 0.825000
0.000000 1.000000 0.825000
0.068750 1.000000 0.825000
0.187500 1.000000 0.825000
0.306250 1.000000 0.825000
0.425000 1.000000 0.825000
0.543750 1.000000 0.825000
0.662500 1.000000 0.825000
0.781250 1.000000 0.825000
0.900000 1.000000 0.825000
0.000000 1.000000 0.825000
0.068750 1.000000 0.825000
0.187500 1.000000 0.825000
0.306250 1.000000 0.825000
0.425000 1.000000 0.825000
0.543750 1.000000 0.825000
0.662500 1.000000 0.825000
0.781250 1.000000 0.825000
0.900000 1.000000 0.825000
0.000000 0.050000 0.993750
0.068750 0.050000 0.993750
0.187500 0.050000 0.993750
0.306250 0.050000 0.993750
0.425000 0.050000 0.993750
0.543750 0.050000 0.993750
0.662500 0.050000 0.993750
0.781250 0.050000 0.993750
0.900000 0.050000 0.993750
0.000000 0.187500 0.993750
0.068750 0.187500 0.993750
0.187500 0.187500 0.993750
0.306250 0.187500 0.993750
0.425000 0.187500 0.993750
0.543750 0.187500 0.993750
0.662500 0.187500 0.993750
0.781250 0.187500 0.993750
0.900000 0.187500 0.993750
0.000000 0.325000 0.993750
0.068750 0.325000 0.993750
0.187500 0.325000 0.993750
0.306250 0.325000 0.993750
0.425000 0.325000 0.993750
0.543750 0.325000 0.993750
0.662500 0.325000 0.993750
0.781250 0.325000 0.993750
0.900000 0.325000 0.993750
0.000000 0.462500 0.993750
0.068750 0.462500 0.993750
0.187500 0.462500 0.993750
0.306250 0.462500 0.993750
0.425000 0.462500 0.993750
0.543750 0.462500 0.993750
0.662500 0.462500 0.993750
0.781250 0.462500 0.993750
0.900000 0.462500 0.993750
0.000000 0.600000 0.993750
0.068750 0.600000 0.993750
0.187500 0.600000 0.993750
0.306250 0.600000 0.993750
0.425000 0.600000 0.993750
0.543750 0.600000 0.993750
0.662500 0.600000 0.993750
0.781250 0.600000 0.993750
0.900000 0.600000 0.993750
0.000000 0.737500 0.993750
0.068750 0.737500 0.993750
0.187500 0.737500 0.993750
0.306250 0.737500 0.993750
0.425000 0.737500 0.993750
0.543750 0.737500 0.993750
0.662500 0.737500 0.993750
0.781250 0.737500 0.993750
0.900000 0.737500 0.993750
0.000000 0.875000 0.993750
0.068750 0.875000 0.993750
0.187500 0.875000 0.993750
0.306250 0.875000 0.993750
0.425000 0.875000 0.993750
0.543750 0.875000 0.993750
0.662500 0.875000 0.993750
0.781250 0.875000 0.993750
0.900000 0.875000 0.993750
0.000000 1.000000 0.993750
0.068750 1.000000 0.993750
0.187500 1.000000 0.993750
0.306250 1.000000 0.993750
0.425000 1.000000 0.993750
0.543750 1.000000 0.993750
0.662500 1.000000 0.993750
0.781250 1.000000 0.993750
0.900000 1.000000 0.993750
0.000000 1.000000 0.993750
0.068750 1.000000 0.993750
0.187500 1.000000 0.993750
0.306250 1.000000 0.993750
0.425000 1.000000 0.993750
0.543750 1.000000 0.993750
0.662500 1.000000 0.993750
0.781250 1.000000 0.993750
0.900000 1.000000 0.993750
0.000000 0.050000 1.000000
0.068750 0.050000 1.000000
0.187500 0.050000 1.000000
0.306250 0.050000 1.000000
0.425000 0.050000 1.000000
0.543750 0.050000 1.000000
0.662500 0.050000 1.000000
0.781250 0.050000 1.000000
0.900000 0.050000 1.000000
0.000000 0.187500 1.000000
0.068750 0.187500 1.000000
0.187500 0.187500 1.000000
0.306250 0.187500 1.000000
0.425000 0.187500 1.000000
0.543750 0.187500 1.000000
0.662500 0.187500 1.000000
0.781250 0.187500 1.000000
0.900000 0.187500 1.000000
0.000000 0.325000 1.000000
0.068750 0.325000 1.000000
0.187500 0.325000 1.000000
0.306250 0.325000 1.000000
0.425000 0.325000 1.000000
0.543750 0.325000 1.000000
0.662500 0.325000 1.000000
0.781250 0.325000 1.000000
0.900000 0.325000 1.000000
0.000000 0.462500 1.000000
0.068750 0.462500 1.000000
0.187500 0.462500 1.000000
0.306250 0.462500 1.000000
0.425000 0.462500 1.000000
0.543750 0.462500 1.000000
0.662500 0.462500 1.000000
0.781250 0.462500 1.000000
0.900000 0.462500 1.000000
0.000000 0.600000 1.000000
0.068750 0.600000 1.000000
0.187500 0.600000 1.000000
0.306250 0.600000 1.000000
0.425000 0.600000 1.000000
0.543750 0.600000 1.000000
0.662500 0.600000 1.000000
0.781250 0.600000 1.000000
0.900000 0.600000 1.000000
0.000000 0.737500 1.000000
0.068750 0.737500 1.000000
0.187500 0.737500 1.000000
0.306250 0.737500 1.000000
0.425000 0.737500 1.000000
0.543750 0.737500 1.000000
0.662500 0.737500 1.000000
0.781250 0.737500 1.000000
0.900000 0.737500 1.000000
0.000000 0.875000 1.000000
0.068750 0.875000 1.000000
0.187500 0.875000 1.000000
0.306250 0.875000 1.000000
0.425000 0.875000 1.000000
0.543750 0.875000 1.000000
0.662500 0.875000 1.000000
0.781250 0.875000 1.000000
0.900000 0.875000 1.000000
0.000000 1.000000 1.000000
0.068750 1.000000 1.000000
0.187500 1.000000 1.000000
0.306250 1.000000 1.000000
0.425000 1.000000 1.000000
0.543750 1.000000 1.000000
0.662500 1.000000 1.000000
0.781250 1.000000 1.000000
0.900000 1.000000 1.000000
0.000000 1.000000 1.000000
0.068750 1.000000 1.000000
0.187500 1.000000 1.000000
0.306250 1.000000 1.000000
0.425000 1.000000 1.000000
0.543750 1.000000 1.000000
0.662500 1.000000 1.000000
0.781250 1.000000 1.000000
0.900000 1.000000 1.000000
0.000000 0.050000 1.000000
0.068750 0.050000 1.000000
0.187500 0.050000 1.000000
0.306250 0.050000 1.000000
0.425000 0.050000 1.000000
0.543750 0.050000 1.000000
0.662500 0.050000 1.000000
0.781250 0.050000 1.000000
0.900000 0.050000 1.000000
0.000000 0.187500 1.000000
0.068750 0.187500 1.000000
0.187500 0.187500 1.000000
0.306250 0.187500 1.000000
0.425000 0.187500 1.000000
0.543750 0.187500 1.000000
0.662500 0.187500 1.000000
0.781250 0.187500 1.000000
0.900000 0.187500 1.000000
0.000000 0.325000 1.000000
0.068750 0.325000 1.000000
0.187500 0.325000 1.000000
0.306250 0.325000 1.000000
0.425000 0.325000 1.000000
0.543750 0.325000 1.000000
0.662500 0.325000 1.000000
0.781250 0.325000 1.000000
0.900000 0.325000 1.000000
0.000000 0.462500 1.000000
0.068750 0.462500 1.000000
0.187500 0.462500 1.000000
0.306250 0.462500 1.000000
0.425000 0.462500 1.000000
0.543750 0.462500 1.000000
0.662500 0.462500 1.000000
0.781250 0.462500 1.000000
0.900000 0.462500 1.000000
0.000000 0.600000 1.000000
0.068750 0.600000 1.000000
0.187500 0.600000 1.000000
0.306250 0.600000 1.000000
0.425000 0.600000 1.000000
0.543750 0.600000 1.000000
0.662500 0.600000 1.000000
0.781250 0.600000 1.000000
0.900000 0.600000 1.000000
0.000000 0.737500 1.000000
0.068750 0.737500 1.000000
0.187500 0.737500 1.000000
0.306250 0.737500 1.000000
0.425000 0.737500 1.000000
0.543750 0.737500 1.000000
0.662500 0.737500 1.000000
0.781250 0.737500 1.000000
0.900000 0.737500 1.000000
0.000000 0.875000 1.000000
0.068750 0.875000 1.000000
0.187500 0.875000 1.000000
0.306250 0.875000 1.000000
0.425000 0.875000 1.000000
0.543750 0.875000 1.000000
0.662500 0.875000 1.000000
0.781250 0.875000 1.000000
0.900000 0.875000 1.000000
0.000000 1.000000 1.000000
0.068750 1.000000 1.000000
0.187500 1.000000 1.000000
0.306250 1.000000 1.000000
0.425000 1.000000 1.000000
0.543750 1.000000 1.000000
0.662500 1.000000 1.000000
0.781250 1.000000 1.000000
0.900000 1.000000 1.000000
0.000000 1.000000 1.000000
0.068750 1.000000 1.000000
0.187500 1.000000 1.000000
0.306250 1.000000 1.000000
0.425000 1.000000 1.000000
0.543750 1.000000 1.000000
0.662500 1.000000 1.000000
0.781250 1.000000 1.000000
0.900000 1.000000 1.000000
0.000000 0.050000 1.000000
0.068750 0.050000 1.000000
0.187500 0.050000 1.000000
0.306250 0.050000 1.000000
0.425000 0.050000 1.000000
0.543750 0.050000 1.000000
0.662500 0.050000 1.000000
0.781250 0.050000 1.000000
0.900000 0.050000 1.000000
0.000000 0.187500 1.000000
0.068750 0.187500 1.000000
0.187500 0.187500 1.000000
0.306250 0.187500 1.000000
0.425000 0.187500 1.000000
0.543750 0.187500 1.000000
0.662500 0.187500 1.000000
0.781250 0.187500 1.000000
0.900000 0.187500 1.000000
0.000000 0.325000 1.000000
0.068750 0.325000 1.000000
0.187500 0.325000 1.000000
0.306250 0.325000 1.000000
0.425000 0.325000 1.000000
0.543750 0.325000 1.000000
0.662500 0.325000 1.000000
0.781250 0.325000 1.000000
0.900000 0.325000 1.000000
0.000000 0.462500 1.000000
0.068750 0.462500 1.000000
0.187500 0.462500 1.000000
0.306250 0.462500 1.000000
0.425000 0.462500 1.000000
0.543750 0.462500 1.000000
0.662500 0.462500 1.000000
0.781250 0.462500 1.000000
0.900000 0.462500 1.000000
0.000000 0.600000 1.000000
0.068750 0.600000 1.000000
0.187500 0.600000 1.000000
0.306250 0.600000 1.000000
0.425000 0.600000 1.000000
0.543750 0.600000 1.000000
0.662500 0.600000 1.000000
0.781250 0.600000 1.000000
0.900000 0.600000 1.000000
0.000000 0.737500 1.000000
0.068750 0.737500 1.000000
0.187500 0.737500 1.000000
0.306250 0.737500 1.000000
0.425000 0.737500 1.000000
0.543750 0.737500 1.000000
0.662500 0.737500 1.000000
0.781250 0.737500 1.000000
0.900000 0.737500 1.000000
0.000000 0.875000 1.000000
0.068750 0.875000 1.000000
0.187500 0.875000 1.000000
0.306250 0.875000 1.000000
0.425000 0.875000 1.000000
0.543750 0.875000 1.000000
0.662500 0.875000 1.000000
0.781250 0.875000 1.000000
0.900000 0.875000 1.000000
0.000000 1.000000 1.000000
0.068750 1.000000 1.000000
0.187500 1.000000 1.000000
0.306250 1.000000 1.000000
0.425000 1.000000 1.000000
0.543750 1.000000 1.000000
0.662500 1.000000 1.000000
0.781250 1.000000 1.000000
0.900000 1.000000 1.000000
0.000000 1.000000 1.000000
0.068750 1.000000 1.000000
0.187500 1.000000 1.000000
0.306250 1.000000 1.000000
0.425000 1.000000 1.000000
0.543750 1.000000 1.000000
0.662500 1.000000 1.000000
0.781250 1.000000 1.000000
0.900000 1.000000 1.000000
