app/src/main/assets/luts/makoto_sky.cube
# ApexStudio filter: makoto_sky
LUT_3D_SIZE 17
DOMAIN_MIN 0.0 0.0 0.0
DOMAIN_MAX 1.0 1.0 1.0
0.000000 0.050000 0.150000
0.009375 0.050000 0.150000
0.068750 0.050000 0.150000
0.128125 0.050000 0.150000
0.187500 0.050000 0.150000
0.246875 0.050000 0.150000
0.306250 0.050000 0.150000
0.365625 0.050000 0.150000
0.425000 0.050000 0.150000
0.484375 0.050000 0.150000
0.543750 0.050000 0.150000
0.603125 0.050000 0.150000
0.662500 0.050000 0.150000
0.721875 0.050000 0.150000
0.781250 0.050000 0.150000
0.840625 0.050000 0.150000
0.900000 0.050000 0.150000
0.000000 0.118750 0.150000
0.009375 0.118750 0.150000
0.068750 0.118750 0.150000
0.128125 0.118750 0.150000
0.187500 0.118750 0.150000
0.246875 0.118750 0.150000
0.306250 0.118750 0.150000
0.365625 0.118750 0.150000
0.425000 0.118750 0.150000
0.484375 0.118750 0.150000
0.543750 0.118750 0.150000
0.603125 0.118750 0.150000
0.662500 0.118750 0.150000
0.721875 0.118750 0.150000
0.781250 0.118750 0.150000
0.840625 0.118750 0.150000
0.900000 0.118750 0.150000
0.000000 0.187500 0.150000
0.009375 0.187500 0.150000
0.068750 0.187500 0.150000
0.128125 0.187500 0.150000
0.187500 0.187500 0.150000
0.246875 0.187500 0.150000
0.306250 0.187500 0.150000
0.365625 0.187500 0.150000
0.425000 0.187500 0.150000
0.484375 0.187500 0.150000
0.543750 0.187500 0.150000
0.603125 0.187500 0.150000
0.662500 0.187500 0.150000
0.721875 0.187500 0.150000
0.781250 0.187500 0.150000
0.840625 0.187500 0.150000
0.900000 0.187500 0.150000
0.000000 0.256250 0.150000
0.009375 0.256250 0.150000
0.068750 0.256250 0.150000
0.128125 0.256250 0.150000
0.187500 0.256250 0.150000
0.246875 0.256250 0.150000
0.306250 0.256250 0.150000
0.365625 0.256250 0.150000
0.425000 0.256250 0.150000
0.484375 0.256250 0.150000
0.543750 0.256250 0.150000
0.603125 0.256250 0.150000
0.662500 0.256250 0.150000
0.721875 0.256250 0.150000
0.781250 0.256250 0.150000
0.840625 0.256250 0.150000
0.900000 0.256250 0.150000
0.000000 0.325000 0.150000
0.009375 0.325000 0.150000
0.068750 0.325000 0.150000
0.128125 0.325000 0.150000
0.187500 0.325000 0.150000
0.246875 0.325000 0.150000
0.306250 0.325000 0.150000
0.365625 0.325000 0.150000
0.425000 0.325000 0.150000
0.484375 0.325000 0.150000
0.543750 0.325000 0.150000
0.603125 0.325000 0.150000
0.662500 0.325000 0.150000
0.721875 0.325000 0.150000
0.781250 0.325000 0.150000
0.840625 0.325000 0.150000
0.900000 0.325000 0.150000
0.000000 0.393750 0.150000
0.009375 0.393750 0.150000
0.068750 0.393750 0.150000
0.128125 0.393750 0.150000
0.187500 0.393750 0.150000
0.246875 0.393750 0.150000
0.306250 0.393750 0.150000
0.365625 0.393750 0.150000
0.425000 0.393750 0.150000
0.484375 0.393750 0.150000
0.543750 0.393750 0.150000
0.603125 0.393750 0.150000
0.662500 0.393750 0.150000
0.721875 0.393750 0.150000
0.781250 0.393750 0.150000
0.840625 0.393750 0.150000
0.900000 0.393750 0.150000
0.000000 0.462500 0.150000
0.009375 0.462500 0.150000
0.068750 0.462500 0.150000
0.128125 0.462500 0.150000
0.187500 0.462500 0.150000
0.246875 0.462500 0.150000
0.306250 0.462500 0.150000
0.365625 0.462500 0.150000
0.425000 0.462500 0.150000
0.484375 0.462500 0.150000
0.543750 0.462500 0.150000
0.603125 0.462500 0.150000
0.662500 0.462500 0.150000
0.721875 0.462500 0.150000
0.781250 0.462500 0.150000
0.840625 0.462500 0.150000
0.900000 0.462500 0.150000
0.000000 0.531250 0.150000
0.009375 0.531250 0.150000
0.068750 0.531250 0.150000
0.128125 0.531250 0.150000
0.187500 0.531250 0.150000
0.246875 0.531250 0.150000
0.306250 0.531250 0.150000
0.365625 0.531250 0.150000
0.425000 0.531250 0.150000
0.484375 0.531250 0.150000
0.543750 0.531250 0.150000
0.603125 0.531250 0.150000
0.662500 0.531250 0.150000
0.721875 0.531250 0.150000
0.781250 0.531250 0.150000
0.840625 0.531250 0.150000
0.900000 0.531250 0.150000
0.000000 0.600000 0.150000
0.009375 0.600000 0.150000
0.068750 0.600000 0.150000
0.128125 0.600000 0.150000
0.187500 0.600000 0.150000
0.246875 0.600000 0.150000
0.306250 0.600000 0.150000
0.365625 0.600000 0.150000
0.425000 0.600000 0.150000
0.484375 0.600000 0.150000
0.543750 0.600000 0.150000
0.603125 0.600000 0.150000
0.662500 0.600000 0.150000
0.721875 0.600000 0.150000
0.781250 0.600000 0.150000
0.840625 0.600000 0.150000
0.900000 0.600000 0.150000
0.000000 0.668750 0.150000
0.009375 0.668750 0.150000
0.068750 0.668750 0.150000
0.128125 0.668750 0.150000
0.187500 0.668750 0.150000
0.246875 0.668750 0.150000
0.306250 0.668750 0.150000
0.365625 0.668750 0.150000
0.425000 0.668750 0.150000
0.484375 0.668750 0.150000
0.543750 0.668750 0.150000
0.603125 0.668750 0.150000
0.662500 0.668750 0.150000
0.721875 0.668750 0.150000
0.781250 0.668750 0.150000
0.840625 0.668750 0.150000
0.900000 0.668750 0.150000
0.000000 0.737500 0.150000
0.009375 0.737500 0.150000
0.068750 0.737500 0.150000
0.128125 0.737500 0.150000
0.187500 0.737500 0.150000
0.246875 0.737500 0.150000
0.306250 0.737500 0.150000
0.365625 0.737500 0.150000
0.425000 0.737500 0.150000
0.484375 0.737500 0.150000
0.543750 0.737500 0.150000
0.603125 0.737500 0.150000
0.662500 0.737500 0.150000
0.721875 0.737500 0.150000
0.781250 0.737500 0.150000
0.840625 0.737500 0.150000
0.900000 0.737500 0.150000
0.000000 0.806250 0.150000
0.009375 0.806250 0.150000
0.068750 0.806250 0.150000
0.128125 0.806250 0.150000
0.187500 0.806250 0.150000
0.246875 0.806250 0.150000
0.306250 0.806250 0.150000
0.365625 0.806250 0.150000
0.425000 0.806250 0.150000
0.484375 0.806250 0.150000
0.543750 0.806250 0.150000
0.603125 0.806250 0.150000
0.662500 0.806250 0.150000
0.721875 0.806250 0.150000
0.781250 0.806250 0.150000
0.840625 0.806250 0.150000
0.900000 0.806250 0.150000
0.000000 0.875000 0.150000
0.009375 0.875000 0.150000
0.068750 0.875000 0.150000
0.128125 0.875000 0.150000
0.187500 0.875000 0.150000
0.246875 0.875000 0.150000
0.306250 0.875000 0.150000
0.365625 0.875000 0.150000
0.425000 0.875000 0.150000
0.484375 0.875000 0.150000
0.543750 0.875000 0.150000
0.603125 0.875000 0.150000
0.662500 0.875000 0.150000
0.721875 0.875000 0.150000
0.781250 0.875000 0.150000
0.840625 0.875000 0.150000
0.900000 0.875000 0.150000
0.000000 0.943750 0.150000
0.009375 0.943750 0.150000
0.068750 0.943750 0.150000
0.128125 0.943750 0.150000
0.187500 0.943750 0.150000
0.246875 0.943750 0.150000
0.306250 0.943750 0.150000
0.365625 0.943750 0.150000
0.425000 0.943750 0.150000
0.484375 0.943750 0.150000
0.543750 0.943750 0.150000
0.603125 0.943750 0.150000
0.662500 0.943750 0.150000
0.721875 0.943750 0.150000
0.781250 0.943750 0.150000
0.840625 0.943750 0.150000
0.900000 0.943750 0.150000
0.000000 1.000000 0.150000
0.009375 1.000000 0.150000
0.068750 1.000000 0.150000
0.128125 1.000000 0.150000
0.187500 1.000000 0.150000
0.246875 1.000000 0.150000
0.306250 1.000000 0.150000
0.365625 1.000000 0.150000
0.425000 1.000000 0.150000
0.484375 1.000000 0.150000
0.543750 1.000000 0.150000
0.603125 1.000000 0.150000
0.662500 1.000000 0.150000
0.721875 1.000000 0.150000
0.781250 1.000000 0.150000
0.840625 1.000000 0.150000
0.900000 1.000000 0.150000
0.000000 1.000000 0.150000
0.009375 1.000000 0.150000
0.068750 1.000000 0.150000
0.128125 1.000000 0.150000
0.187500 1.000000 0.150000
0.246875 1.000000 0.150000
0.306250 1.000000 0.150000
0.365625 1.000000 0.150000
0.425000 1.000000 0.150000
0.484375 1.000000 0.150000
0.543750 1.000000 0.150000
0.603125 1.000000 0.150000
0.662500 1.000000 0.150000
0.721875 1.000000 0.150000
0.781250 1.000000 0.150000
0.840625 1.000000 0.150000
0.900000 1.000000 0.150000
0.000000 1.000000 0.150000
0.009375 1.000000 0.150000
0.068750 1.000000 0.150000
0.128125 1.000000 0.150000
0.187500 1.000000 0.150000
0.246875 1.000000 0.150000
0.306250 1.000000 0.150000
0.365625 1.000000 0.150000
0.425000 1.000000 0.150000
0.484375 1.000000 0.150000
0.543750 1.000000 0.150000
0.603125 1.000000 0.150000
0.662500 1.000000 0.150000
0.721875 1.000000 0.150000
0.781250 1.000000 0.150000
0.840625 1.000000 0.150000
0.900000 1.000000 0.150000
0.000000 0.050000 0.234375
0.009375 0.050000 0.234375
0.068750 0.050000 0.234375
0.128125 0.050000 0.234375
0.187500 0.050000 0.234375
0.246875 0.050000 0.234375
0.306250 0.050000 0.234375
0.365625 0.050000 0.234375
0.425000 0.050000 0.234375
0.484375 0.050000 0.234375
0.543750 0.050000 0.234375
0.603125 0.050000 0.234375
0.662500 0.050000 0.234375
0.721875 0.050000 0.234375
0.781250 0.050000 0.234375
0.840625 0.050000 0.234375
0.900000 0.050000 0.234375
0.000000 0.118750 0.234375
0.009375 0.118750 0.234375
0.068750 0.118750 0.234375
0.128125 0.118750 0.234375
0.187500 0.118750 0.234375
0.246875 0.118750 0.234375
0.306250 0.118750 0.234375
0.365625 0.118750 0.234375
0.425000 0.118750 0.234375
0.484375 0.118750 0.234375
0.543750 0.118750 0.234375
0.603125 0.118750 0.234375
0.662500 0.118750 0.234375
0.721875 0.118750 0.234375
0.781250 0.118750 0.234375
0.840625 0.118750 0.234375
0.900000 0.118750 0.234375
0.000000 0.187500 0.234375
0.009375 0.187500 0.234375
0.068750 0.187500 0.234375
0.128125 0.187500 0.234375
0.187500 0.187500 0.234375
0.246875 0.187500 0.234375
0.306250 0.187500 0.234375
0.365625 0.187500 0.234375
0.425000 0.187500 0.234375
0.484375 0.187500 0.234375
0.543750 0.187500 0.234375
0.603125 0.187500 0.234375
0.662500 0.187500 0.234375
0.721875 0.187500 0.234375
0.781250 0.187500 0.234375
0.840625 0.187500 0.234375
0.900000 0.187500 0.234375
0.000000 0.256250 0.234375
0.009375 0.256250 0.234375
0.068750 0.256250 0.234375
0.128125 0.256250 0.234375
0.187500 0.256250 0.234375
0.246875 0.256250 0.234375
0.306250 0.256250 0.234375
0.365625 0.256250 0.234375
0.425000 0.256250 0.234375
0.484375 0.256250 0.234375
0.543750 0.256250 0.234375
0.603125 0.256250 0.234375
0.662500 0.256250 0.234375
0.721875 0.256250 0.234375
0.781250 0.256250 0.234375
0.840625 0.256250 0.234375
0.900000 0.256250 0.234375
0.000000 0.325000 0.234375
0.009375 0.325000 0.234375
0.068750 0.325000 0.234375
0.128125 0.325000 0.234375
0.187500 0.325000 0.234375
0.246875 0.325000 0.234375
0.306250 0.325000 0.234375
0.365625 0.325000 0.234375
0.425000 0.325000 0.234375
0.484375 0.325000 0.234375
0.543750 0.325000 0.234375
0.603125 0.325000 0.234375
0.662500 0.325000 0.234375
0.721875 0.325000 0.234375
0.781250 0.325000 0.234375
0.840625 0.325000 0.234375
0.900000 0.325000 0.234375
0.000000 0.393750 0.234375
0.009375 0.393750 0.234375
0.068750 0.393750 0.234375
0.128125 0.393750 0.234375
0.187500 0.393750 0.234375
0.246875 0.393750 0.234375
0.306250 0.393750 0.234375
0.365625 0.393750 0.234375
0.425000 0.393750 0.234375
0.484375 0.393750 0.234375
0.543750 0.393750 0.234375
0.603125 0.393750 0.234375
0.662500 0.393750 0.234375
0.721875 0.393750 0.234375
0.781250 0.393750 0.234375
0.840625 0.393750 0.234375
0.900000 0.393750 0.234375
0.000000 0.462500 0.234375
0.009375 0.462500 0.234375
0.068750 0.462500 0.234375
0.128125 0.462500 0.234375
0.187500 0.462500 0.234375
0.246875 0.462500 0.234375
0.306250 0.462500 0.234375
0.365625 0.462500 0.234375
0.425000 0.462500 0.234375
0.484375 0.462500 0.234375
0.543750 0.462500 0.234375
0.603125 0.462500 0.234375
0.662500 0.462500 0.234375
0.721875 0.462500 0.234375
0.781250 0.462500 0.234375
0.840625 0.462500 0.234375
0.900000 0.462500 0.234375
0.000000 0.531250 0.234375
0.009375 0.531250 0.234375
0.068750 0.531250 0.234375
0.128125 0.531250 0.234375
0.187500 0.531250 0.234375
0.246875 0.531250 0.234375
0.306250 0.531250 0.234375
0.365625 0.531250 0.234375
0.425000 0.531250 0.234375
0.484375 0.531250 0.234375
0.543750 0.531250 0.234375
0.603125 0.531250 0.234375
0.662500 0.531250 0.234375
0.721875 0.531250 0.234375
0.781250 0.531250 0.234375
0.840625 0.531250 0.234375
0.900000 0.531250 0.234375
0.000000 0.600000 0.234375
0.009375 0.600000 0.234375
0.068750 0.600000 0.234375
0.128125 0.600000 0.234375
0.187500 0.600000 0.234375
0.246875 0.600000 0.234375
0.306250 0.600000 0.234375
0.365625 0.600000 0.234375
0.425000 0.600000 0.234375
0.484375 0.600000 0.234375
0.543750 0.600000 0.234375
0.603125 0.600000 0.234375
0.662500 0.600000 0.234375
0.721875 0.600000 0.234375
0.781250 0.600000 0.234375
0.840625 0.600000 0.234375
0.900000 0.600000 0.234375
0.000000 0.668750 0.234375
0.009375 0.668750 0.234375
0.068750 0.668750 0.234375
0.128125 0.668750 0.234375
0.187500 0.668750 0.234375
0.246875 0.668750 0.234375
0.306250 0.668750 0.234375
0.365625 0.668750 0.234375
0.425000 0.668750 0.234375
0.484375 0.668750 0.234375
0.543750 0.668750 0.234375
0.603125 0.668750 0.234375
0.662500 0.668750 0.234375
0.721875 0.668750 0.234375
0.781250 0.668750 0.234375
0.840625 0.668750 0.234375
0.900000 0.668750 0.234375
0.000000 0.737500 0.234375
0.009375 0.737500 0.234375
0.068750 0.737500 0.234375
0.128125 0.737500 0.234375
0.187500 0.737500 0.234375
0.246875 0.737500 0.234375
0.306250 0.737500 0.234375
0.365625 0.737500 0.234375
0.425000 0.737500 0.234375
0.484375 0.737500 0.234375
0.543750 0.737500 0.234375
0.603125 0.737500 0.234375
0.662500 0.737500 0.234375
0.721875 0.737500 0.234375
0.781250 0.737500 0.234375
0.840625 0.737500 0.234375
0.900000 0.737500 0.234375
0.000000 0.806250 0.234375
0.009375 0.806250 0.234375
0.068750 0.806250 0.234375
0.128125 0.806250 0.234375
0.187500 0.806250 0.234375
0.246875 0.806250 0.234375
0.306250 0.806250 0.234375
0.365625 0.806250 0.234375
0.425000 0.806250 0.234375
0.484375 0.806250 0.234375
0.543750 0.806250 0.234375
0.603125 0.806250 0.234375
0.662500 0.806250 0.234375
0.721875 0.806250 0.234375
0.781250 0.806250 0.234375
0.840625 0.806250 0.234375
0.900000 0.806250 0.234375
0.000000 0.875000 0.234375
0.009375 0.875000 0.234375
0.068750 0.875000 0.234375
0.128125 0.875000 0.234375
0.187500 0.875000 0.234375
0.246875 0.875000 0.234375
0.306250 0.875000 0.234375
0.365625 0.875000 0.234375
0.425000 0.875000 0.234375
0.484375 0.875000 0.234375
0.543750 0.875000 0.234375
0.603125 0.875000 0.234375
0.662500 0.875000 0.234375
0.721875 0.875000 0.234375
0.781250 0.875000 0.234375
0.840625 0.875000 0.234375
0.900000 0.875000 0.234375
0.000000 0.943750 0.234375
0.009375 0.943750 0.234375
0.068750 0.943750 0.234375
0.128125 0.943750 0.234375
0.187500 0.943750 0.234375
0.246875 0.943750 0.234375
0.306250 0.943750 0.234375
0.365625 0.943750 0.234375
0.425000 0.943750 0.234375
0.484375 0.943750 0.234375
0.543750 0.943750 0.234375
0.603125 0.943750 0.234375
0.662500 0.943750 0.234375
0.721875 0.943750 0.234375
0.781250 0.943750 0.234375
0.840625 0.943750 0.234375
0.900000 0.943750 0.234375
0.000000 1.000000 0.234375
0.009375 1.000000 0.234375
0.068750 1.000000 0.234375
0.128125 1.000000 0.234375
0.187500 1.000000 0.234375
0.246875 1.000000 0.234375
0.306250 1.000000 0.234375
0.365625 1.000000 0.234375
0.425000 1.000000 0.234375
0.484375 1.000000 0.234375
0.543750 1.000000 0.234375
0.603125 1.000000 0.234375
0.662500 1.000000 0.234375
0.721875 1.000000 0.234375
0.781250 1.000000 0.234375
0.840625 1.000000 0.234375
0.900000 1.000000 0.234375
0.000000 1.000000 0.234375
0.009375 1.000000 0.234375
0.068750 1.000000 0.234375
0.128125 1.000000 0.234375
0.187500 1.000000 0.234375
0.246875 1.000000 0.234375
0.306250 1.000000 0.234375
0.365625 1.000000 0.234375
0.425000 1.000000 0.234375
0.484375 1.000000 0.234375
0.543750 1.000000 0.234375
0.603125 1.000000 0.234375
0.662500 1.000000 0.234375
0.721875 1.000000 0.234375
0.781250 1.000000 0.234375
0.840625 1.000000 0.234375
0.900000 1.000000 0.234375
0.000000 1.000000 0.234375
0.009375 1.000000 0.234375
0.068750 1.000000 0.234375
0.128125 1.000000 0.234375
0.187500 1.000000 0.234375
0.246875 1.000000 0.234375
0.306250 1.000000 0.234375
0.365625 1.000000 0.234375
0.425000 1.000000 0.234375
0.484375 1.000000 0.234375
0.543750 1.000000 0.234375
0.603125 1.000000 0.234375
0.662500 1.000000 0.234375
0.721875 1.000000 0.234375
0.781250 1.000000 0.234375
0.840625 1.000000 0.234375
0.900000 1.000000 0.234375
0.000000 0.050000 0.318750
0.009375 0.050000 0.318750
0.068750 0.050000 0.318750
0.128125 0.050000 0.318750
0.187500 0.050000 0.318750
0.246875 0.050000 0.318750
0.306250 0.050000 0.318750
0.365625 0.050000 0.318750
0.425000 0.050000 0.318750
0.484375 0.050000 0.318750
0.543750 0.050000 0.318750
0.603125 0.050000 0.318750
0.662500 0.050000 0.318750
0.721875 0.050000 0.318750
0.781250 0.050000 0.318750
0.840625 0.050000 0.318750
0.900000 0.050000 0.318750
0.000000 0.118750 0.318750
0.009375 0.118750 0.318750
0.068750 0.118750 0.318750
0.128125 0.118750 0.318750
0.187500 0.118750 0.318750
0.246875 0.118750 0.318750
0.306250 0.118750 0.318750
0.365625 0.118750 0.318750
0.425000 0.118750 0.318750
0.484375 0.118750 0.318750
0.543750 0.118750 0.318750
0.603125 0.118750 0.318750
0.662500 0.118750 0.318750
0.721875 0.118750 0.318750
0.781250 0.118750 0.318750
0.840625 0.118750 0.318750
0.900000 0.118750 0.318750
0.000000 0.187500 0.318750
0.009375 0.187500 0.318750
0.068750 0.187500 0.318750
0.128125 0.187500 0.318750
0.187500 0.187500 0.318750
0.246875 0.187500 0.318750
0.306250 0.187500 0.318750
0.365625 0.187500 0.318750
0.425000 0.187500 0.318750
0.484375 0.187500 0.318750
0.543750 0.187500 0.318750
0.603125 0.187500 0.318750
0.662500 0.187500 0.318750
0.721875 0.187500 0.318750
0.781250 0.187500 0.318750
0.840625 0.187500 0.318750
0.900000 0.187500 0.318750
0.000000 0.256250 0.318750
0.009375 0.256250 0.318750
0.068750 0.256250 0.318750
0.128125 0.256250 0.318750
0.187500 0.256250 0.318750
0.246875 0.256250 0.318750
0.306250 0.256250 0.318750
0.365625 0.256250 0.318750
0.425000 0.256250 0.318750
0.484375 0.256250 0.318750
0.543750 0.256250 0.318750
0.603125 0.256250 0.318750
0.662500 0.256250 0.318750
0.721875 0.256250 0.318750
0.781250 0.256250 0.318750
0.840625 0.256250 0.318750
0.900000 0.256250 0.318750
0.000000 0.325000 0.318750
0.009375 0.325000 0.318750
0.068750 0.325000 0.318750
0.128125 0.325000 0.318750
0.187500 0.325000 0.318750
0.246875 0.325000 0.318750
0.306250 0.325000 0.318750
0.365625 0.325000 0.318750
0.425000 0.325000 0.318750
0.484375 0.325000 0.318750
0.543750 0.325000 0.318750
0.603125 0.325000 0.318750
0.662500 0.325000 0.318750
0.721875 0.325000 0.318750
0.781250 0.325000 0.318750
0.840625 0.325000 0.318750
0.900000 0.325000 0.318750
0.000000 0.393750 0.318750
0.009375 0.393750 0.318750
0.068750 0.393750 0.318750
0.128125 0.393750 0.318750
0.187500 0.393750 0.318750
0.246875 0.393750 0.318750
0.306250 0.393750 0.318750
0.365625 0.393750 0.318750
0.425000 0.393750 0.318750
0.484375 0.393750 0.318750
0.543750 0.393750 0.318750
0.603125 0.393750 0.318750
0.662500 0.393750 0.318750
0.721875 0.393750 0.318750
0.781250 0.393750 0.318750
0.840625 0.393750 0.318750
0.900000 0.393750 0.318750
0.000000 0.462500 0.318750
0.009375 0.462500 0.318750
0.068750 0.462500 0.318750
0.128125 0.462500 0.318750
0.187500 0.462500 0.318750
0.246875 0.462500 0.318750
0.306250 0.462500 0.318750
0.365625 0.462500 0.318750
0.425000 0.462500 0.318750
0.484375 0.462500 0.318750
0.543750 0.462500 0.318750
0.603125 0.462500 0.318750
0.662500 0.462500 0.318750
0.721875 0.462500 0.318750
0.781250 0.462500 0.318750
0.840625 0.462500 0.318750
0.900000 0.462500 0.318750
0.000000 0.531250 0.318750
0.009375 0.531250 0.318750
0.068750 0.531250 0.318750
0.128125 0.531250 0.318750
0.187500 0.531250 0.318750
0.246875 0.531250 0.318750
0.306250 0.531250 0.318750
0.365625 0.531250 0.318750
0.425000 0.531250 0.318750
0.484375 0.531250 0.318750
0.543750 0.531250 0.318750
0.603125 0.531250 0.318750
0.662500 0.531250 0.318750
0.721875 0.531250 0.318750
0.781250 0.531250 0.318750
0.840625 0.531250 0.318750
0.900000 0.531250 0.318750
0.000000 0.600000 0.318750
0.009375 0.600000 0.318750
0.068750 0.600000 0.318750
0.128125 0.600000 0.318750
0.187500 0.600000 0.318750
0.246875 0.600000 0.318750
0.306250 0.600000 0.318750
0.365625 0.600000 0.318750
0.425000 0.600000 0.318750
0.484375 0.600000 0.318750
0.543750 0.600000 0.318750
0.603125 0.600000 0.318750
0.662500 0.600000 0.318750
0.721875 0.600000 0.318750
0.781250 0.600000 0.318750
0.840625 0.600000 0.318750
0.900000 0.600000 0.318750
0.000000 0.668750 0.318750
0.009375 0.668750 0.318750
0.068750 0.668750 0.318750
0.128125 0.668750 0.318750
0.187500 0.668750 0.318750
0.246875 0.668750 0.318750
0.306250 0.668750 0.318750
0.365625 0.668750 0.318750
0.425000 0.668750 0.318750
0.484375 0.668750 0.318750
0.543750 0.668750 0.318750
0.603125 0.668750 0.318750
0.662500 0.668750 0.318750
0.721875 0.668750 0.318750
0.781250 0.668750 0.318750
0.840625 0.668750 0.318750
0.900000 0.668750 0.318750
0.000000 0.737500 0.318750
0.009375 0.737500 0.318750
0.068750 0.737500 0.318750
0.128125 0.737500 0.318750
0.187500 0.737500 0.318750
0.246875 0.737500 0.318750
0.306250 0.737500 0.318750
0.365625 0.737500 0.318750
0.425000 0.737500 0.318750
0.484375 0.737500 0.318750
0.543750 0.737500 0.318750
0.603125 0.737500 0.318750
0.662500 0.737500 0.318750
0.721875 0.737500 0.318750
0.781250 0.737500 0.318750
0.840625 0.737500 0.318750
0.900000 0.737500 0.318750
0.000000 0.806250 0.318750
0.009375 0.806250 0.318750
0.068750 0.806250 0.318750
0.128125 0.806250 0.318750
0.187500 0.806250 0.318750
0.246875 0.806250 0.318750
0.306250 0.806250 0.318750
0.365625 0.806250 0.318750
0.425000 0.806250 0.318750
0.484375 0.806250 0.318750
0.543750 0.806250 0.318750
0.603125 0.806250 0.318750
0.662500 0.806250 0.318750
0.721875 0.806250 0.318750
0.781250 0.806250 0.318750
0.840625 0.806250 0.318750
0.900000 0.806250 0.318750
0.000000 0.875000 0.318750
0.009375 0.875000 0.318750
0.068750 0.875000 0.318750
0.128125 0.875000 0.318750
0.187500 0.875000 0.318750
0.246875 0.875000 0.318750
0.306250 0.875000 0.318750
0.365625 0.875000 0.318750
0.425000 0.875000 0.318750
0.484375 0.875000 0.318750
0.543750 0.875000 0.318750
0.603125 0.875000 0.318750
0.662500 0.875000 0.318750
0.721875 0.875000 0.318750
0.781250 0.875000 0.318750
0.840625 0.875000 0.318750
0.900000 0.875000 0.318750
0.000000 0.943750 0.318750
0.009375 0.943750 0.318750
0.068750 0.943750 0.318750
0.128125 0.943750 0.318750
0.187500 0.943750 0.318750
0.246875 0.943750 0.318750
0.306250 0.943750 0.318750
0.365625 0.943750 0.318750
0.425000 0.943750 0.318750
0.484375 0.943750 0.318750
0.543750 0.943750 0.318750
0.603125 0.943750 0.318750
0.662500 0.943750 0.318750
0.721875 0.943750 0.318750
0.781250 0.943750 0.318750
0.840625 0.943750 0.318750
0.900000 0.943750 0.318750
0.000000 1.000000 0.318750
0.009375 1.000000 0.318750
0.068750 1.000000 0.318750
0.128125 1.000000 0.318750
0.187500 1.000000 0.318750
0.246875 1.000000 0.318750
0.306250 1.000000 0.318750
0.365625 1.000000 0.318750
0.425000 1.000000 0.318750
0.484375 1.000000 0.318750
0.543750 1.000000 0.318750
0.603125 1.000000 0.318750
0.662500 1.000000 0.318750
0.721875 1.000000 0.318750
0.781250 1.000000 0.318750
0.840625 1.000000 0.318750
0.900000 1.000000 0.318750
0.000000 1.000000 0.318750
0.009375 1.000000 0.318750
0.068750 1.000000 0.318750
0.128125 1.000000 0.318750
0.187500 1.000000 0.318750
0.246875 1.000000 0.318750
0.306250 1.000000 0.318750
0.365625 1.000000 0.318750
0.425000 1.000000 0.318750
0.484375 1.000000 0.318750
0.543750 1.000000 0.318750
0.603125 1.000000 0.318750
0.662500 1.000000 0.318750
0.721875 1.000000 0.318750
0.781250 1.000000 0.318750
0.840625 1.000000 0.318750
0.900000 1.000000 0.318750
0.000000 1.000000 0.318750
0.009375 1.000000 0.318750
0.068750 1.000000 0.318750
0.128125 1.000000 0.318750
0.187500 1.000000 0.318750
0.246875 1.000000 0.318750
0.306250 1.000000 0.318750
0.365625 1.000000 0.318750
0.425000 1.000000 0.318750
0.484375 1.000000 0.318750
0.543750 1.000000 0.318750
0.603125 1.000000 0.318750
0.662500 1.000000 0.318750
0.721875 1.000000 0.318750
0.781250 1.000000 0.318750
0.840625 1.000000 0.318750
0.900000 1.000000 0.318750
0.000000 0.050000 0.403125
0.009375 0.050000 0.403125
0.068750 0.050000 0.403125
0.128125 0.050000 0.403125
0.187500 0.050000 0.403125
0.246875 0.050000 0.403125
0.306250 0.050000 0.403125
0.365625 0.050000 0.403125
0.425000 0.050000 0.403125
0.484375 0.050000 0.403125
0.543750 0.050000 0.403125
0.603125 0.050000 0.403125
0.662500 0.050000 0.403125
0.721875 0.050000 0.403125
0.781250 0.050000 0.403125
0.840625 0.050000 0.403125
0.900000 0.050000 0.403125
0.000000 0.118750 0.403125
