app/src/main/assets/luts/matrix_green.cube
# ApexStudio filter: matrix_green
LUT_3D_SIZE 17
DOMAIN_MIN 0.0 0.0 0.0
DOMAIN_MAX 1.0 1.0 1.0
0.050000 0.100000 0.050000
0.093750 0.100000 0.050000
0.137500 0.100000 0.050000
0.181250 0.100000 0.050000
0.225000 0.100000 0.050000
0.268750 0.100000 0.050000
0.312500 0.100000 0.050000
0.356250 0.100000 0.050000
0.400000 0.100000 0.050000
0.443750 0.100000 0.050000
0.487500 0.100000 0.050000
0.531250 0.100000 0.050000
0.575000 0.100000 0.050000
0.618750 0.100000 0.050000
0.662500 0.100000 0.050000
0.706250 0.100000 0.050000
0.750000 0.100000 0.050000
0.050000 0.162500 0.050000
0.093750 0.162500 0.050000
0.137500 0.162500 0.050000
0.181250 0.162500 0.050000
0.225000 0.162500 0.050000
0.268750 0.162500 0.050000
0.312500 0.162500 0.050000
0.356250 0.162500 0.050000
0.400000 0.162500 0.050000
0.443750 0.162500 0.050000
0.487500 0.162500 0.050000
0.531250 0.162500 0.050000
0.575000 0.162500 0.050000
0.618750 0.162500 0.050000
0.662500 0.162500 0.050000
0.706250 0.162500 0.050000
0.750000 0.162500 0.050000
0.050000 0.225000 0.050000
0.093750 0.225000 0.050000
0.137500 0.225000 0.050000
0.181250 0.225000 0.050000
0.225000 0.225000 0.050000
0.268750 0.225000 0.050000
0.312500 0.225000 0.050000
0.356250 0.225000 0.050000
0.400000 0.225000 0.050000
0.443750 0.225000 0.050000
0.487500 0.225000 0.050000
0.531250 0.225000 0.050000
0.575000 0.225000 0.050000
0.618750 0.225000 0.050000
0.662500 0.225000 0.050000
0.706250 0.225000 0.050000
0.750000 0.225000 0.050000
0.050000 0.287500 0.050000
0.093750 0.287500 0.050000
0.137500 0.287500 0.050000
0.181250 0.287500 0.050000
0.225000 0.287500 0.050000
0.268750 0.287500 0.050000
0.312500 0.287500 0.050000
0.356250 0.287500 0.050000
0.400000 0.287500 0.050000
0.443750 0.287500 0.050000
0.487500 0.287500 0.050000
0.531250 0.287500 0.050000
0.575000 0.287500 0.050000
0.618750 0.287500 0.050000
0.662500 0.287500 0.050000
0.706250 0.287500 0.050000
0.750000 0.287500 0.050000
0.050000 0.350000 0.050000
0.093750 0.350000 0.050000
0.137500 0.350000 0.050000
0.181250 0.350000 0.050000
0.225000 0.350000 0.050000
0.268750 0.350000 0.050000
0.312500 0.350000 0.050000
0.356250 0.350000 0.050000
0.400000 0.350000 0.050000
0.443750 0.350000 0.050000
0.487500 0.350000 0.050000
0.531250 0.350000 0.050000
0.575000 0.350000 0.050000
0.618750 0.350000 0.050000
0.662500 0.350000 0.050000
0.706250 0.350000 0.050000
0.750000 0.350000 0.050000
0.050000 0.412500 0.050000
0.093750 0.412500 0.050000
0.137500 0.412500 0.050000
0.181250 0.412500 0.050000
0.225000 0.412500 0.050000
0.268750 0.412500 0.050000
0.312500 0.412500 0.050000
0.356250 0.412500 0.050000
0.400000 0.412500 0.050000
0.443750 0.412500 0.050000
0.487500 0.412500 0.050000
0.531250 0.412500 0.050000
0.575000 0.412500 0.050000
0.618750 0.412500 0.050000
0.662500 0.412500 0.050000
0.706250 0.412500 0.050000
0.750000 0.412500 0.050000
0.050000 0.475000 0.050000
0.093750 0.475000 0.050000
0.137500 0.475000 0.050000
0.181250 0.475000 0.050000
0.225000 0.475000 0.050000
0.268750 0.475000 0.050000
0.312500 0.475000 0.050000
0.356250 0.475000 0.050000
0.400000 0.475000 0.050000
0.443750 0.475000 0.050000
0.487500 0.475000 0.050000
0.531250 0.475000 0.050000
0.575000 0.475000 0.050000
0.618750 0.475000 0.050000
0.662500 0.475000 0.050000
0.706250 0.475000 0.050000
0.750000 0.475000 0.050000
0.050000 0.537500 0.050000
0.093750 0.537500 0.050000
0.137500 0.537500 0.050000
0.181250 0.537500 0.050000
0.225000 0.537500 0.050000
0.268750 0.537500 0.050000
0.312500 0.537500 0.050000
0.356250 0.537500 0.050000
0.400000 0.537500 0.050000
0.443750 0.537500 0.050000
0.487500 0.537500 0.050000
0.531250 0.537500 0.050000
0.575000 0.537500 0.050000
0.618750 0.537500 0.050000
0.662500 0.537500 0.050000
0.706250 0.537500 0.050000
0.750000 0.537500 0.050000
0.050000 0.600000 0.050000
0.093750 0.600000 0.050000
0.137500 0.600000 0.050000
0.181250 0.600000 0.050000
0.225000 0.600000 0.050000
0.268750 0.600000 0.050000
0.312500 0.600000 0.050000
0.356250 0.600000 0.050000
0.400000 0.600000 0.050000
0.443750 0.600000 0.050000
0.487500 0.600000 0.050000
0.531250 0.600000 0.050000
0.575000 0.600000 0.050000
0.618750 0.600000 0.050000
0.662500 0.600000 0.050000
0.706250 0.600000 0.050000
0.750000 0.600000 0.050000
0.050000 0.662500 0.050000
0.093750 0.662500 0.050000
0.137500 0.662500 0.050000
0.181250 0.662500 0.050000
0.225000 0.662500 0.050000
0.268750 0.662500 0.050000
0.312500 0.662500 0.050000
0.356250 0.662500 0.050000
0.400000 0.662500 0.050000
0.443750 0.662500 0.050000
0.487500 0.662500 0.050000
0.531250 0.662500 0.050000
0.575000 0.662500 0.050000
0.618750 0.662500 0.050000
0.662500 0.662500 0.050000
0.706250 0.662500 0.050000
0.750000 0.662500 0.050000
0.050000 0.725000 0.050000
0.093750 0.725000 0.050000
0.137500 0.725000 0.050000
0.181250 0.725000 0.050000
0.225000 0.725000 0.050000
0.268750 0.725000 0.050000
0.312500 0.725000 0.050000
0.356250 0.725000 0.050000
0.400000 0.725000 0.050000
0.443750 0.725000 0.050000
0.487500 0.725000 0.050000
0.531250 0.725000 0.050000
0.575000 0.725000 0.050000
0.618750 0.725000 0.050000
0.662500 0.725000 0.050000
0.706250 0.725000 0.050000
0.750000 0.725000 0.050000
0.050000 0.787500 0.050000
0.093750 0.787500 0.050000
0.137500 0.787500 0.050000
0.181250 0.787500 0.050000
0.225000 0.787500 0.050000
0.268750 0.787500 0.050000
0.312500 0.787500 0.050000
0.356250 0.787500 0.050000
0.400000 0.787500 0.050000
0.443750 0.787500 0.050000
0.487500 0.787500 0.050000
0.531250 0.787500 0.050000
0.575000 0.787500 0.050000
0.618750 0.787500 0.050000
0.662500 0.787500 0.050000
0.706250 0.787500 0.050000
0.750000 0.787500 0.050000
0.050000 0.850000 0.050000
0.093750 0.850000 0.050000
0.137500 0.850000 0.050000
0.181250 0.850000 0.050000
0.225000 0.850000 0.050000
0.268750 0.850000 0.050000
0.312500 0.850000 0.050000
0.356250 0.850000 0.050000
0.400000 0.850000 0.050000
0.443750 0.850000 0.050000
0.487500 0.850000 0.050000
0.531250 0.850000 0.050000
0.575000 0.850000 0.050000
0.618750 0.850000 0.050000
0.662500 0.850000 0.050000
0.706250 0.850000 0.050000
0.750000 0.850000 0.050000
0.050000 0.912500 0.050000
0.093750 0.912500 0.050000
0.137500 0.912500 0.050000
0.181250 0.912500 0.050000
0.225000 0.912500 0.050000
0.268750 0.912500 0.050000
0.312500 0.912500 0.050000
0.356250 0.912500 0.050000
0.400000 0.912500 0.050000
0.443750 0.912500 0.050000
0.487500 0.912500 0.050000
0.531250 0.912500 0.050000
0.575000 0.912500 0.050000
0.618750 0.912500 0.050000
0.662500 0.912500 0.050000
0.706250 0.912500 0.050000
0.750000 0.912500 0.050000
0.050000 0.975000 0.050000
0.093750 0.975000 0.050000
0.137500 0.975000 0.050000
0.181250 0.975000 0.050000
0.225000 0.975000 0.050000
0.268750 0.975000 0.050000
0.312500 0.975000 0.050000
0.356250 0.975000 0.050000
0.400000 0.975000 0.050000
0.443750 0.975000 0.050000
0.487500 0.975000 0.050000
0.531250 0.975000 0.050000
0.575000 0.975000 0.050000
0.618750 0.975000 0.050000
0.662500 0.975000 0.050000
0.706250 0.975000 0.050000
0.750000 0.975000 0.050000
0.050000 1.000000 0.050000
0.093750 1.000000 0.050000
0.137500 1.000000 0.050000
0.181250 1.000000 0.050000
0.225000 1.000000 0.050000
0.268750 1.000000 0.050000
0.312500 1.000000 0.050000
0.356250 1.000000 0.050000
0.400000 1.000000 0.050000
0.443750 1.000000 0.050000
0.487500 1.000000 0.050000
0.531250 1.000000 0.050000
0.575000 1.000000 0.050000
0.618750 1.000000 0.050000
0.662500 1.000000 0.050000
0.706250 1.000000 0.050000
0.750000 1.000000 0.050000
0.050000 1.000000 0.050000
0.093750 1.000000 0.050000
0.137500 1.000000 0.050000
0.181250 1.000000 0.050000
0.225000 1.000000 0.050000
0.268750 1.000000 0.050000
0.312500 1.000000 0.050000
0.356250 1.000000 0.050000
0.400000 1.000000 0.050000
0.443750 1.000000 0.050000
0.487500 1.000000 0.050000
0.531250 1.000000 0.050000
0.575000 1.000000 0.050000
0.618750 1.000000 0.050000
0.662500 1.000000 0.050000
0.706250 1.000000 0.050000
0.750000 1.000000 0.050000
0.050000 0.100000 0.093750
0.093750 0.100000 0.093750
0.137500 0.100000 0.093750
0.181250 0.100000 0.093750
0.225000 0.100000 0.093750
0.268750 0.100000 0.093750
0.312500 0.100000 0.093750
0.356250 0.100000 0.093750
0.400000 0.100000 0.093750
0.443750 0.100000 0.093750
0.487500 0.100000 0.093750
0.531250 0.100000 0.093750
0.575000 0.100000 0.093750
0.618750 0.100000 0.093750
0.662500 0.100000 0.093750
0.706250 0.100000 0.093750
0.750000 0.100000 0.093750
0.050000 0.162500 0.093750
0.093750 0.162500 0.093750
0.137500 0.162500 0.093750
0.181250 0.162500 0.093750
0.225000 0.162500 0.093750
0.268750 0.162500 0.093750
0.312500 0.162500 0.093750
0.356250 0.162500 0.093750
0.400000 0.162500 0.093750
0.443750 0.162500 0.093750
0.487500 0.162500 0.093750
0.531250 0.162500 0.093750
0.575000 0.162500 0.093750
0.618750 0.162500 0.093750
0.662500 0.162500 0.093750
0.706250 0.162500 0.093750
0.750000 0.162500 0.093750
0.050000 0.225000 0.093750
0.093750 0.225000 0.093750
0.137500 0.225000 0.093750
0.181250 0.225000 0.093750
0.225000 0.225000 0.093750
0.268750 0.225000 0.093750
0.312500 0.225000 0.093750
0.356250 0.225000 0.093750
0.400000 0.225000 0.093750
0.443750 0.225000 0.093750
0.487500 0.225000 0.093750
0.531250 0.225000 0.093750
0.575000 0.225000 0.093750
0.618750 0.225000 0.093750
0.662500 0.225000 0.093750
0.706250 0.225000 0.093750
0.750000 0.225000 0.093750
0.050000 0.287500 0.093750
0.093750 0.287500 0.093750
0.137500 0.287500 0.093750
0.181250 0.287500 0.093750
0.225000 0.287500 0.093750
0.268750 0.287500 0.093750
0.312500 0.287500 0.093750
0.356250 0.287500 0.093750
0.400000 0.287500 0.093750
0.443750 0.287500 0.093750
0.487500 0.287500 0.093750
0.531250 0.287500 0.093750
0.575000 0.287500 0.093750
0.618750 0.287500 0.093750
0.662500 0.287500 0.093750
0.706250 0.287500 0.093750
0.750000 0.287500 0.093750
0.050000 0.350000 0.093750
0.093750 0.350000 0.093750
0.137500 0.350000 0.093750
0.181250 0.350000 0.093750
0.225000 0.350000 0.093750
0.268750 0.350000 0.093750
0.312500 0.350000 0.093750
0.356250 0.350000 0.093750
0.400000 0.350000 0.093750
0.443750 0.350000 0.093750
0.487500 0.350000 0.093750
0.531250 0.350000 0.093750
0.575000 0.350000 0.093750
0.618750 0.350000 0.093750
0.662500 0.350000 0.093750
0.706250 0.350000 0.093750
0.750000 0.350000 0.093750
0.050000 0.412500 0.093750
0.093750 0.412500 0.093750
0.137500 0.412500 0.093750
0.181250 0.412500 0.093750
0.225000 0.412500 0.093750
0.268750 0.412500 0.093750
0.312500 0.412500 0.093750
0.356250 0.412500 0.093750
0.400000 0.412500 0.093750
0.443750 0.412500 0.093750
0.487500 0.412500 0.093750
0.531250 0.412500 0.093750
0.575000 0.412500 0.093750
0.618750 0.412500 0.093750
0.662500 0.412500 0.093750
0.706250 0.412500 0.093750
0.750000 0.412500 0.093750
0.050000 0.475000 0.093750
0.093750 0.475000 0.093750
0.137500 0.475000 0.093750
0.181250 0.475000 0.093750
0.225000 0.475000 0.093750
0.268750 0.475000 0.093750
0.312500 0.475000 0.093750
0.356250 0.475000 0.093750
0.400000 0.475000 0.093750
0.443750 0.475000 0.093750
0.487500 0.475000 0.093750
0.531250 0.475000 0.093750
0.575000 0.475000 0.093750
0.618750 0.475000 0.093750
0.662500 0.475000 0.093750
0.706250 0.475000 0.093750
0.750000 0.475000 0.093750
0.050000 0.537500 0.093750
0.093750 0.537500 0.093750
0.137500 0.537500 0.093750
0.181250 0.537500 0.093750
0.225000 0.537500 0.093750
0.268750 0.537500 0.093750
0.312500 0.537500 0.093750
0.356250 0.537500 0.093750
0.400000 0.537500 0.093750
0.443750 0.537500 0.093750
0.487500 0.537500 0.093750
0.531250 0.537500 0.093750
0.575000 0.537500 0.093750
0.618750 0.537500 0.093750
0.662500 0.537500 0.093750
0.706250 0.537500 0.093750
0.750000 0.537500 0.093750
0.050000 0.600000 0.093750
0.093750 0.600000 0.093750
0.137500 0.600000 0.093750
0.181250 0.600000 0.093750
0.225000 0.600000 0.093750
0.268750 0.600000 0.093750
0.312500 0.600000 0.093750
0.356250 0.600000 0.093750
0.400000 0.600000 0.093750
0.443750 0.600000 0.093750
0.487500 0.600000 0.093750
0.531250 0.600000 0.093750
0.575000 0.600000 0.093750
0.618750 0.600000 0.093750
0.662500 0.600000 0.093750
0.706250 0.600000 0.093750
0.750000 0.600000 0.093750
0.050000 0.662500 0.093750
0.093750 0.662500 0.093750
0.137500 0.662500 0.093750
0.181250 0.662500 0.093750
0.225000 0.662500 0.093750
0.268750 0.662500 0.093750
0.312500 0.662500 0.093750
0.356250 0.662500 0.093750
0.400000 0.662500 0.093750
0.443750 0.662500 0.093750
0.487500 0.662500 0.093750
0.531250 0.662500 0.093750
0.575000 0.662500 0.093750
0.618750 0.662500 0.093750
0.662500 0.662500 0.093750
0.706250 0.662500 0.093750
0.750000 0.662500 0.093750
0.050000 0.725000 0.093750
0.093750 0.725000 0.093750
0.137500 0.725000 0.093750
0.181250 0.725000 0.093750
0.225000 0.725000 0.093750
0.268750 0.725000 0.093750
0.312500 0.725000 0.093750
0.356250 0.725000 0.093750
0.400000 0.725000 0.093750
0.443750 0.725000 0.093750
0.487500 0.725000 0.093750
0.531250 0.725000 0.093750
0.575000 0.725000 0.093750
0.618750 0.725000 0.093750
0.662500 0.725000 0.093750
0.706250 0.725000 0.093750
0.750000 0.725000 0.093750
0.050000 0.787500 0.093750
0.093750 0.787500 0.093750
0.137500 0.787500 0.093750
0.181250 0.787500 0.093750
0.225000 0.787500 0.093750
0.268750 0.787500 0.093750
0.312500 0.787500 0.093750
0.356250 0.787500 0.093750
0.400000 0.787500 0.093750
0.443750 0.787500 0.093750
0.487500 0.787500 0.093750
0.531250 0.787500 0.093750
0.575000 0.787500 0.093750
0.618750 0.787500 0.093750
0.662500 0.787500 0.093750
0.706250 0.787500 0.093750
0.750000 0.787500 0.093750
0.050000 0.850000 0.093750
0.093750 0.850000 0.093750
0.137500 0.850000 0.093750
0.181250 0.850000 0.093750
0.225000 0.850000 0.093750
0.268750 0.850000 0.093750
0.312500 0.850000 0.093750
0.356250 0.850000 0.093750
0.400000 0.850000 0.093750
0.443750 0.850000 0.093750
0.487500 0.850000 0.093750
0.531250 0.850000 0.093750
0.575000 0.850000 0.093750
0.618750 0.850000 0.093750
0.662500 0.850000 0.093750
0.706250 0.850000 0.093750
0.750000 0.850000 0.093750
0.050000 0.912500 0.093750
0.093750 0.912500 0.093750
0.137500 0.912500 0.093750
0.181250 0.912500 0.093750
0.225000 0.912500 0.093750
0.268750 0.912500 0.093750
0.312500 0.912500 0.093750
0.356250 0.912500 0.093750
0.400000 0.912500 0.093750
0.443750 0.912500 0.093750
0.487500 0.912500 0.093750
0.531250 0.912500 0.093750
0.575000 0.912500 0.093750
0.618750 0.912500 0.093750
0.662500 0.912500 0.093750
0.706250 0.912500 0.093750
0.750000 0.912500 0.093750
0.050000 0.975000 0.093750
0.093750 0.975000 0.093750
0.137500 0.975000 0.093750
0.181250 0.975000 0.093750
0.225000 0.975000 0.093750
0.268750 0.975000 0.093750
0.312500 0.975000 0.093750
0.356250 0.975000 0.093750
0.400000 0.975000 0.093750
0.443750 0.975000 0.093750
0.487500 0.975000 0.093750
0.531250 0.975000 0.093750
0.575000 0.975000 0.093750
0.618750 0.975000 0.093750
0.662500 0.975000 0.093750
0.706250 0.975000 0.093750
0.750000 0.975000 0.093750
0.050000 1.000000 0.093750
0.093750 1.000000 0.093750
0.137500 1.000000 0.093750
0.181250 1.000000 0.093750
0.225000 1.000000 0.093750
0.268750 1.000000 0.093750
0.312500 1.000000 0.093750
0.356250 1.000000 0.093750
0.400000 1.000000 0.093750
0.443750 1.000000 0.093750
0.487500 1.000000 0.093750
0.531250 1.000000 0.093750
0.575000 1.000000 0.093750
0.618750 1.000000 0.093750
0.662500 1.000000 0.093750
0.706250 1.000000 0.093750
0.750000 1.000000 0.093750
0.050000 1.000000 0.093750
0.093750 1.000000 0.093750
0.137500 1.000000 0.093750
0.181250 1.000000 0.093750
0.225000 1.000000 0.093750
0.268750 1.000000 0.093750
0.312500 1.000000 0.093750
0.356250 1.000000 0.093750
0.400000 1.000000 0.093750
0.443750 1.000000 0.093750
0.487500 1.000000 0.093750
0.531250 1.000000 0.093750
0.575000 1.000000 0.093750
0.618750 1.000000 0.093750
0.662500 1.000000 0.093750
0.706250 1.000000 0.093750
0.750000 1.000000 0.093750
0.050000 0.100000 0.137500
0.093750 0.100000 0.137500
0.137500 0.100000 0.137500
0.181250 0.100000 0.137500
0.225000 0.100000 0.137500
0.268750 0.100000 0.137500
0.312500 0.100000 0.137500
0.356250 0.100000 0.137500
0.400000 0.100000 0.137500
0.443750 0.100000 0.137500
0.487500 0.100000 0.137500
0.531250 0.100000 0.137500
0.575000 0.100000 0.137500
0.618750 0.100000 0.137500
0.662500 0.100000 0.137500
0.706250 0.100000 0.137500
0.750000 0.100000 0.137500
0.050000 0.162500 0.137500
0.093750 0.162500 0.137500
0.137500 0.162500 0.137500
0.181250 0.162500 0.137500
0.225000 0.162500 0.137500
0.268750 0.162500 0.137500
0.312500 0.162500 0.137500
0.356250 0.162500 0.137500
0.400000 0.162500 0.137500
0.443750 0.162500 0.137500
0.487500 0.162500 0.137500
0.531250 0.162500 0.137500
0.575000 0.162500 0.137500
0.618750 0.162500 0.137500
0.662500 0.162500 0.137500
0.706250 0.162500 0.137500
0.750000 0.162500 0.137500
0.050000 0.225000 0.137500
0.093750 0.225000 0.137500
0.137500 0.225000 0.137500
0.181250 0.225000 0.137500
0.225000 0.225000 0.137500
0.268750 0.225000 0.137500
0.312500 0.225000 0.137500
0.356250 0.225000 0.137500
0.400000 0.225000 0.137500
0.443750 0.225000 0.137500
0.487500 0.225000 0.137500
0.531250 0.225000 0.137500
0.575000 0.225000 0.137500
0.618750 0.225000 0.137500
0.662500 0.225000 0.137500
0.706250 0.225000 0.137500
0.750000 0.225000 0.137500
0.050000 0.287500 0.137500
0.093750 0.287500 0.137500
0.137500 0.287500 0.137500
0.181250 0.287500 0.137500
0.225000 0.287500 0.137500
0.268750 0.287500 0.137500
0.312500 0.287500 0.137500
0.356250 0.287500 0.137500
0.400000 0.287500 0.137500
0.443750 0.287500 0.137500
0.487500 0.287500 0.137500
0.531250 0.287500 0.137500
0.575000 0.287500 0.137500
0.618750 0.287500 0.137500
0.662500 0.287500 0.137500
0.706250 0.287500 0.137500
0.750000 0.287500 0.137500
0.050000 0.350000 0.137500
0.093750 0.350000 0.137500
0.137500 0.350000 0.137500
0.181250 0.350000 0.137500
0.225000 0.350000 0.137500
0.268750 0.350000 0.137500
0.312500 0.350000 0.137500
0.356250 0.350000 0.137500
0.400000 0.350000 0.137500
0.443750 0.350000 0.137500
0.487500 0.350000 0.137500
0.531250 0.350000 0.137500
0.575000 0.350000 0.137500
0.618750 0.350000 0.137500
0.662500 0.350000 0.137500
0.706250 0.350000 0.137500
0.750000 0.350000 0.137500
0.050000 0.412500 0.137500
0.093750 0.412500 0.137500
0.137500 0.412500 0.137500
0.181250 0.412500 0.137500
0.225000 0.412500 0.137500
0.268750 0.412500 0.137500
0.312500 0.412500 0.137500
0.356250 0.412500 0.137500
0.400000 0.412500 0.137500
0.443750 0.412500 0.137500
0.487500 0.412500 0.137500
0.531250 0.412500 0.137500
0.575000 0.412500 0.137500
0.618750 0.412500 0.137500
0.662500 0.412500 0.137500
0.706250 0.412500 0.137500
0.750000 0.412500 0.137500
0.050000 0.475000 0.137500
0.093750 0.475000 0.137500
0.137500 0.475000 0.137500
0.181250 0.475000 0.137500
0.225000 0.475000 0.137500
0.268750 0.475000 0.137500
0.312500 0.475000 0.137500
0.356250 0.475000 0.137500
0.400000 0.475000 0.137500
0.443750 0.475000 0.137500
0.487500 0.475000 0.137500
0.531250 0.475000 0.137500
0.575000 0.475000 0.137500
0.618750 0.475000 0.137500
0.662500 0.475000 0.137500
0.706250 0.475000 0.137500
0.750000 0.475000 0.137500
0.050000 0.537500 0.137500
0.093750 0.537500 0.137500
0.137500 0.537500 0.137500
0.181250 0.537500 0.137500
0.225000 0.537500 0.137500
0.268750 0.537500 0.137500
0.312500 0.537500 0.137500
0.356250 0.537500 0.137500
0.400000 0.537500 0.137500
0.443750 0.537500 0.137500
0.487500 0.537500 0.137500
0.531250 0.537500 0.137500
0.575000 0.537500 0.137500
0.618750 0.537500 0.137500
0.662500 0.537500 0.137500
0.706250 0.537500 0.137500
0.750000 0.537500 0.137500
0.050000 0.600000 0.137500
0.093750 0.600000 0.137500
0.137500 0.600000 0.137500
0.181250 0.600000 0.137500
0.225000 0.600000 0.137500
0.268750 0.600000 0.137500
0.312500 0.600000 0.137500
0.356250 0.600000 0.137500
0.400000 0.600000 0.137500
0.443750 0.600000 0.137500
0.487500 0.600000 0.137500
0.531250 0.600000 0.137500
0.575000 0.600000 0.137500
0.618750 0.600000 0.137500
0.662500 0.600000 0.137500
0.706250 0.600000 0.137500
0.750000 0.600000 0.137500
0.050000 0.662500 0.137500
0.093750 0.662500 0.137500
0.137500 0.662500 0.137500
0.181250 0.662500 0.137500
0.225000 0.662500 0.137500
0.268750 0.662500 0.137500
0.312500 0.662500 0.137500
0.356250 0.662500 0.137500
0.400000 0.662500 0.137500
0.443750 0.662500 0.137500
0.487500 0.662500 0.137500
0.531250 0.662500 0.137500
0.575000 0.662500 0.137500
0.618750 0.662500 0.137500
0.662500 0.662500 0.137500
0.706250 0.662500 0.137500
0.750000 0.662500 0.137500
0.050000 0.725000 0.137500
0.093750 0.725000 0.137500
0.137500 0.725000 0.137500
0.181250 0.725000 0.137500
0.225000 0.725000 0.137500
0.268750 0.725000 0.137500
0.312500 0.725000 0.137500
0.356250 0.725000 0.137500
0.400000 0.725000 0.137500
0.443750 0.725000 0.137500
0.487500 0.725000 0.137500
0.531250 0.725000 0.137500
0.575000 0.725000 0.137500
0.618750 0.725000 0.137500
0.662500 0.725000 0.137500
0.706250 0.725000 0.137500
0.750000 0.725000 0.137500
0.050000 0.787500 0.137500
0.093750 0.787500 0.137500
0.137500 0.787500 0.137500
0.181250 0.787500 0.137500
0.225000 0.787500 0.137500
0.268750 0.787500 0.137500
0.312500 0.787500 0.137500
0.356250 0.787500 0.137500
0.400000 0.787500 0.137500
0.443750 0.787500 0.137500
0.487500 0.787500 0.137500
0.531250 0.787500 0.137500
0.575000 0.787500 0.137500
0.618750 0.787500 0.137500
0.662500 0.787500 0.137500
0.706250 0.787500 0.137500
0.750000 0.787500 0.137500
0.050000 0.850000 0.137500
0.093750 0.850000 0.137500
0.137500 0.850000 0.137500
0.181250 0.850000 0.137500
0.225000 0.850000 0.137500
0.268750 0.850000 0.137500
0.312500 0.850000 0.137500
0.356250 0.850000 0.137500
0.400000 0.850000 0.137500
0.443750 0.850000 0.137500
0.487500 0.850000 0.137500
0.531250 0.850000 0.137500
0.575000 0.850000 0.137500
0.618750 0.850000 0.137500
0.662500 0.850000 0.137500
0.706250 0.850000 0.137500
0.750000 0.850000 0.137500
0.050000 0.912500 0.137500
0.093750 0.912500 0.137500
0.137500 0.912500 0.137500
0.181250 0.912500 0.137500
0.225000 0.912500 0.137500
0.268750 0.912500 0.137500
0.312500 0.912500 0.137500
0.356250 0.912500 0.137500
0.400000 0.912500 0.137500
0.443750 0.912500 0.137500
0.487500 0.912500 0.137500
0.531250 0.912500 0.137500
0.575000 0.912500 0.137500
0.618750 0.912500 0.137500
0.662500 0.912500 0.137500
0.706250 0.912500 0.137500
0.750000 0.912500 0.137500
0.050000 0.975000 0.137500
0.093750 0.975000 0.137500
0.137500 0.975000 0.137500
0.181250 0.975000 0.137500
0.225000 0.975000 0.137500
0.268750 0.975000 0.137500
0.312500 0.975000 0.137500
0.356250 0.975000 0.137500
0.400000 0.975000 0.137500
0.443750 0.975000 0.137500
0.487500 0.975000 0.137500
0.531250 0.975000 0.137500
0.575000 0.975000 0.137500
0.618750 0.975000 0.137500
0.662500 0.975000 0.137500
0.706250 0.975000 0.137500
0.750000 0.975000 0.137500
0.050000 1.000000 0.137500
0.093750 1.000000 0.137500
0.137500 1.000000 0.137500
0.181250 1.000000 0.137500
0.225000 1.000000 0.137500
0.268750 1.000000 0.137500
0.312500 1.000000 0.137500
0.356250 1.000000 0.137500
0.400000 1.000000 0.137500
0.443750 1.000000 0.137500
0.487500 1.000000 0.137500
0.531250 1.000000 0.137500
0.575000 1.000000 0.137500
0.618750 1.000000 0.137500
0.662500 1.000000 0.137500
0.706250 1.000000 0.137500
0.750000 1.000000 0.137500
0.050000 1.000000 0.137500
0.093750 1.000000 0.137500
0.137500 1.000000 0.137500
0.181250 1.000000 0.137500
0.225000 1.000000 0.137500
0.268750 1.000000 0.137500
0.312500 1.000000 0.137500
0.356250 1.000000 0.137500
0.400000 1.000000 0.137500
0.443750 1.000000 0.137500
0.487500 1.000000 0.137500
0.531250 1.000000 0.137500
0.575000 1.000000 0.137500
0.618750 1.000000 0.137500
0.662500 1.000000 0.137500
0.706250 1.000000 0.137500
0.750000 1.000000 0.137500
0.050000 0.100000 0.181250
0.093750 0.100000 0.181250
0.137500 0.100000 0.181250
0.181250 0.100000 0.181250
0.225000 0.100000 0.181250
0.268750 0.100000 0.181250
0.312500 0.100000 0.181250
0.356250 0.100000 0.181250
0.400000 0.100000 0.181250
0.443750 0.100000 0.181250
0.487500 0.100000 0.181250
0.531250 0.100000 0.181250
0.575000 0.100000 0.181250
0.618750 0.100000 0.181250
0.662500 0.100000 0.181250
0.706250 0.100000 0.181250
0.750000 0.100000 0.181250
0.050000 0.162500 0.181250
