app/src/main/assets/luts/matrix_green.cube
# ApexStudio filter: matrix_green
LUT_3D_SIZE 5
DOMAIN_MIN 0.0 0.0 0.0
DOMAIN_MAX 1.0 1.0 1.0
0.050000 0.100000 0.050000
0.225000 0.100000 0.050000
0.400000 0.100000 0.050000
0.575000 0.100000 0.050000
0.750000 0.100000 0.050000
0.050000 0.350000 0.050000
0.225000 0.350000 0.050000
0.400000 0.350000 0.050000
0.575000 0.350000 0.050000
0.750000 0.350000 0.050000
0.050000 0.600000 0.050000
0.225000 0.600000 0.050000
0.400000 0.600000 0.050000
0.575000 0.600000 0.050000
0.750000 0.600000 0.050000
0.050000 0.850000 0.050000
0.225000 0.850000 0.050000
0.400000 0.850000 0.050000
0.575000 0.850000 0.050000
0.750000 0.850000 0.050000
0.050000 1.000000 0.050000
0.225000 1.000000 0.050000
0.400000 1.000000 0.050000
0.575000 1.000000 0.050000
0.750000 1.000000 0.050000
0.050000 0.100000 0.225000
0.225000 0.100000 0.225000
0.400000 0.100000 0.225000
0.575000 0.100000 0.225000
0.750000 0.100000 0.225000
0.050000 0.350000 0.225000
0.225000 0.350000 0.225000
0.400000 0.350000 0.225000
0.575000 0.350000 0.225000
0.750000 0.350000 0.225000
0.050000 0.600000 0.225000
0.225000 0.600000 0.225000
0.400000 0.600000 0.225000
0.575000 0.600000 0.225000
0.750000 0.600000 0.225000
0.050000 0.850000 0.225000
0.225000 0.850000 0.225000
0.400000 0.850000 0.225000
0.575000 0.850000 0.225000
0.750000 0.850000 0.225000
0.050000 1.000000 0.225000
0.225000 1.000000 0.225000
0.400000 1.000000 0.225000
0.575000 1.000000 0.225000
0.750000 1.000000 0.225000
0.050000 0.100000 0.400000
0.225000 0.100000 0.400000
0.400000 0.100000 0.400000
0.575000 0.100000 0.400000
0.750000 0.100000 0.400000
0.050000 0.350000 0.400000
0.225000 0.350000 0.400000
0.400000 0.350000 0.400000
0.575000 0.350000 0.400000
0.750000 0.350000 0.400000
0.050000 0.600000 0.400000
0.225000 0.600000 0.400000
0.400000 0.600000 0.400000
0.575000 0.600000 0.400000
0.750000 0.600000 0.400000
0.050000 0.850000 0.400000
0.225000 0.850000 0.400000
0.400000 0.850000 0.400000
0.575000 0.850000 0.400000
0.750000 0.850000 0.400000
0.050000 1.000000 0.400000
0.225000 1.000000 0.400000
0.400000 1.000000 0.400000
0.575000 1.000000 0.400000
0.750000 1.000000 0.400000
0.050000 0.100000 0.575000
0.225000 0.100000 0.575000
0.400000 0.100000 0.575000
0.575000 0.100000 0.575000
0.750000 0.100000 0.575000
0.050000 0.350000 0.575000
0.225000 0.350000 0.575000
0.400000 0.350000 0.575000
0.575000 0.350000 0.575000
0.750000 0.350000 0.575000
0.050000 0.600000 0.575000
0.225000 0.600000 0.575000
0.400000 0.600000 0.575000
0.575000 0.600000 0.575000
0.750000 0.600000 0.575000
0.050000 0.850000 0.575000
0.225000 0.850000 0.575000
0.400000 0.850000 0.575000
0.575000 0.850000 0.575000
0.750000 0.850000 0.575000
0.050000 1.000000 0.575000
0.225000 1.000000 0.575000
0.400000 1.000000 0.575000
0.575000 1.000000 0.575000
0.750000 1.000000 0.575000
0.050000 0.100000 0.750000
0.225000 0.100000 0.750000
0.400000 0.100000 0.750000
0.575000 0.100000 0.750000
0.750000 0.100000 0.750000
0.050000 0.350000 0.750000
0.225000 0.350000 0.750000
0.400000 0.350000 0.750000
0.575000 0.350000 0.750000
0.750000 0.350000 0.750000
0.050000 0.600000 0.750000
0.225000 0.600000 0.750000
0.400000 0.600000 0.750000
0.575000 0.600000 0.750000
0.750000 0.600000 0.750000
0.050000 0.850000 0.750000
0.225000 0.850000 0.750000
0.400000 0.850000 0.750000
0.575000 0.850000 0.750000
0.750000 0.850000 0.750000
0.050000 1.000000 0.750000
0.225000 1.000000 0.750000
0.400000 1.000000 0.750000
0.575000 1.000000 0.750000
0.750000 1.000000 0.750000
