app/src/main/assets/luts/metallic_bronze.cube
# ApexStudio filter: metallic_bronze
LUT_3D_SIZE 9
DOMAIN_MIN 0.0 0.0 0.0
DOMAIN_MAX 1.0 1.0 1.0
0.080000 0.050000 0.000000
0.236250 0.050000 0.000000
0.392500 0.050000 0.000000
0.548750 0.050000 0.000000
0.705000 0.050000 0.000000
0.861250 0.050000 0.000000
1.000000 0.050000 0.000000
1.000000 0.050000 0.000000
1.000000 0.050000 0.000000
0.080000 0.193750 0.000000
0.236250 0.193750 0.000000
0.392500 0.193750 0.000000
0.548750 0.193750 0.000000
0.705000 0.193750 0.000000
0.861250 0.193750 0.000000
1.000000 0.193750 0.000000
1.000000 0.193750 0.000000
1.000000 0.193750 0.000000
0.080000 0.337500 0.000000
0.236250 0.337500 0.000000
0.392500 0.337500 0.000000
0.548750 0.337500 0.000000
0.705000 0.337500 0.000000
0.861250 0.337500 0.000000
1.000000 0.337500 0.000000
1.000000 0.337500 0.000000
1.000000 0.337500 0.000000
0.080000 0.481250 0.000000
0.236250 0.481250 0.000000
0.392500 0.481250 0.000000
0.548750 0.481250 0.000000
0.705000 0.481250 0.000000
0.861250 0.481250 0.000000
1.000000 0.481250 0.000000
1.000000 0.481250 0.000000
1.000000 0.481250 0.000000
0.080000 0.625000 0.000000
0.236250 0.625000 0.000000
0.392500 0.625000 0.000000
0.548750 0.625000 0.000000
0.705000 0.625000 0.000000
0.861250 0.625000 0.000000
1.000000 0.625000 0.000000
1.000000 0.625000 0.000000
1.000000 0.625000 0.000000
0.080000 0.768750 0.000000
0.236250 0.768750 0.000000
0.392500 0.768750 0.000000
0.548750 0.768750 0.000000
0.705000 0.768750 0.000000
0.861250 0.768750 0.000000
1.000000 0.768750 0.000000
1.000000 0.768750 0.000000
1.000000 0.768750 0.000000
0.080000 0.912500 0.000000
0.236250 0.912500 0.000000
0.392500 0.912500 0.000000
0.548750 0.912500 0.000000
0.705000 0.912500 0.000000
0.861250 0.912500 0.000000
1.000000 0.912500 0.000000
1.000000 0.912500 0.000000
1.000000 0.912500 0.000000
0.080000 1.000000 0.000000
0.236250 1.000000 0.000000
0.392500 1.000000 0.000000
0.548750 1.000000 0.000000
0.705000 1.000000 0.000000
0.861250 1.000000 0.000000
1.000000 1.000000 0.000000
1.000000 1.000000 0.000000
1.000000 1.000000 0.000000
0.080000 1.000000 0.000000
0.236250 1.000000 0.000000
0.392500 1.000000 0.000000
0.548750 1.000000 0.000000
0.705000 1.000000 0.000000
0.861250 1.000000 0.000000
1.000000 1.000000 0.000000
1.000000 1.000000 0.000000
1.000000 1.000000 0.000000
0.080000 0.050000 0.056250
0.236250 0.050000 0.056250
0.392500 0.050000 0.056250
0.548750 0.050000 0.056250
0.705000 0.050000 0.056250
0.861250 0.050000 0.056250
1.000000 0.050000 0.056250
1.000000 0.050000 0.056250
1.000000 0.050000 0.056250
0.080000 0.193750 0.056250
0.236250 0.193750 0.056250
0.392500 0.193750 0.056250
0.548750 0.193750 0.056250
0.705000 0.193750 0.056250
0.861250 0.193750 0.056250
1.000000 0.193750 0.056250
1.000000 0.193750 0.056250
1.000000 0.193750 0.056250
0.080000 0.337500 0.056250
0.236250 0.337500 0.056250
0.392500 0.337500 0.056250
0.548750 0.337500 0.056250
0.705000 0.337500 0.056250
0.861250 0.337500 0.056250
1.000000 0.337500 0.056250
1.000000 0.337500 0.056250
1.000000 0.337500 0.056250
0.080000 0.481250 0.056250
0.236250 0.481250 0.056250
0.392500 0.481250 0.056250
0.548750 0.481250 0.056250
0.705000 0.481250 0.056250
0.861250 0.481250 0.056250
1.000000 0.481250 0.056250
1.000000 0.481250 0.056250
1.000000 0.481250 0.056250
0.080000 0.625000 0.056250
0.236250 0.625000 0.056250
0.392500 0.625000 0.056250
0.548750 0.625000 0.056250
0.705000 0.625000 0.056250
0.861250 0.625000 0.056250
1.000000 0.625000 0.056250
1.000000 0.625000 0.056250
1.000000 0.625000 0.056250
0.080000 0.768750 0.056250
0.236250 0.768750 0.056250
0.392500 0.768750 0.056250
0.548750 0.768750 0.056250
0.705000 0.768750 0.056250
0.861250 0.768750 0.056250
1.000000 0.768750 0.056250
1.000000 0.768750 0.056250
1.000000 0.768750 0.056250
0.080000 0.912500 0.056250
0.236250 0.912500 0.056250
0.392500 0.912500 0.056250
0.548750 0.912500 0.056250
0.705000 0.912500 0.056250
0.861250 0.912500 0.056250
1.000000 0.912500 0.056250
1.000000 0.912500 0.056250
1.000000 0.912500 0.056250
0.080000 1.000000 0.056250
0.236250 1.000000 0.056250
0.392500 1.000000 0.056250
0.548750 1.000000 0.056250
0.705000 1.000000 0.056250
0.861250 1.000000 0.056250
1.000000 1.000000 0.056250
1.000000 1.000000 0.056250
1.000000 1.000000 0.056250
0.080000 1.000000 0.056250
0.236250 1.000000 0.056250
0.392500 1.000000 0.056250
0.548750 1.000000 0.056250
0.705000 1.000000 0.056250
0.861250 1.000000 0.056250
1.000000 1.000000 0.056250
1.000000 1.000000 0.056250
1.000000 1.000000 0.056250
0.080000 0.050000 0.162500
0.236250 0.050000 0.162500
0.392500 0.050000 0.162500
0.548750 0.050000 0.162500
0.705000 0.050000 0.162500
0.861250 0.050000 0.162500
1.000000 0.050000 0.162500
1.000000 0.050000 0.162500
1.000000 0.050000 0.162500
0.080000 0.193750 0.162500
0.236250 0.193750 0.162500
0.392500 0.193750 0.162500
0.548750 0.193750 0.162500
0.705000 0.193750 0.162500
0.861250 0.193750 0.162500
1.000000 0.193750 0.162500
1.000000 0.193750 0.162500
1.000000 0.193750 0.162500
0.080000 0.337500 0.162500
0.236250 0.337500 0.162500
0.392500 0.337500 0.162500
0.548750 0.337500 0.162500
0.705000 0.337500 0.162500
0.861250 0.337500 0.162500
1.000000 0.337500 0.162500
1.000000 0.337500 0.162500
1.000000 0.337500 0.162500
0.080000 0.481250 0.162500
0.236250 0.481250 0.162500
0.392500 0.481250 0.162500
0.548750 0.481250 0.162500
0.705000 0.481250 0.162500
0.861250 0.481250 0.162500
1.000000 0.481250 0.162500
1.000000 0.481250 0.162500
1.000000 0.481250 0.162500
0.080000 0.625000 0.162500
0.236250 0.625000 0.162500
0.392500 0.625000 0.162500
0.548750 0.625000 0.162500
0.705000 0.625000 0.162500
0.861250 0.625000 0.162500
1.000000 0.625000 0.162500
1.000000 0.625000 0.162500
1.000000 0.625000 0.162500
0.080000 0.768750 0.162500
0.236250 0.768750 0.162500
0.392500 0.768750 0.162500
0.548750 0.768750 0.162500
0.705000 0.768750 0.162500
0.861250 0.768750 0.162500
1.000000 0.768750 0.162500
1.000000 0.768750 0.162500
1.000000 0.768750 0.162500
0.080000 0.912500 0.162500
0.236250 0.912500 0.162500
0.392500 0.912500 0.162500
0.548750 0.912500 0.162500
0.705000 0.912500 0.162500
0.861250 0.912500 0.162500
1.000000 0.912500 0.162500
1.000000 0.912500 0.162500
1.000000 0.912500 0.162500
0.080000 1.000000 0.162500
0.236250 1.000000 0.162500
0.392500 1.000000 0.162500
0.548750 1.000000 0.162500
0.705000 1.000000 0.162500
0.861250 1.000000 0.162500
1.000000 1.000000 0.162500
1.000000 1.000000 0.162500
1.000000 1.000000 0.162500
0.080000 1.000000 0.162500
0.236250 1.000000 0.162500
0.392500 1.000000 0.162500
0.548750 1.000000 0.162500
0.705000 1.000000 0.162500
0.861250 1.000000 0.162500
1.000000 1.000000 0.162500
1.000000 1.000000 0.162500
1.000000 1.000000 0.162500
0.080000 0.050000 0.268750
0.236250 0.050000 0.268750
0.392500 0.050000 0.268750
0.548750 0.050000 0.268750
0.705000 0.050000 0.268750
0.861250 0.050000 0.268750
1.000000 0.050000 0.268750
1.000000 0.050000 0.268750
1.000000 0.050000 0.268750
0.080000 0.193750 0.268750
0.236250 0.193750 0.268750
0.392500 0.193750 0.268750
0.548750 0.193750 0.268750
0.705000 0.193750 0.268750
0.861250 0.193750 0.268750
1.000000 0.193750 0.268750
1.000000 0.193750 0.268750
1.000000 0.193750 0.268750
0.080000 0.337500 0.268750
0.236250 0.337500 0.268750
0.392500 0.337500 0.268750
0.548750 0.337500 0.268750
0.705000 0.337500 0.268750
0.861250 0.337500 0.268750
1.000000 0.337500 0.268750
1.000000 0.337500 0.268750
1.000000 0.337500 0.268750
0.080000 0.481250 0.268750
0.236250 0.481250 0.268750
0.392500 0.481250 0.268750
0.548750 0.481250 0.268750
0.705000 0.481250 0.268750
0.861250 0.481250 0.268750
1.000000 0.481250 0.268750
1.000000 0.481250 0.268750
1.000000 0.481250 0.268750
0.080000 0.625000 0.268750
0.236250 0.625000 0.268750
0.392500 0.625000 0.268750
0.548750 0.625000 0.268750
0.705000 0.625000 0.268750
0.861250 0.625000 0.268750
1.000000 0.625000 0.268750
1.000000 0.625000 0.268750
1.000000 0.625000 0.268750
0.080000 0.768750 0.268750
0.236250 0.768750 0.268750
0.392500 0.768750 0.268750
0.548750 0.768750 0.268750
0.705000 0.768750 0.268750
0.861250 0.768750 0.268750
1.000000 0.768750 0.268750
1.000000 0.768750 0.268750
1.000000 0.768750 0.268750
0.080000 0.912500 0.268750
0.236250 0.912500 0.268750
0.392500 0.912500 0.268750
0.548750 0.912500 0.268750
0.705000 0.912500 0.268750
0.861250 0.912500 0.268750
1.000000 0.912500 0.268750
1.000000 0.912500 0.268750
1.000000 0.912500 0.268750
0.080000 1.000000 0.268750
0.236250 1.000000 0.268750
0.392500 1.000000 0.268750
0.548750 1.000000 0.268750
0.705000 1.000000 0.268750
0.861250 1.000000 0.268750
1.000000 1.000000 0.268750
1.000000 1.000000 0.268750
1.000000 1.000000 0.268750
0.080000 1.000000 0.268750
0.236250 1.000000 0.268750
0.392500 1.000000 0.268750
0.548750 1.000000 0.268750
0.705000 1.000000 0.268750
0.861250 1.000000 0.268750
1.000000 1.000000 0.268750
1.000000 1.000000 0.268750
1.000000 1.000000 0.268750
0.080000 0.050000 0.375000
0.236250 0.050000 0.375000
0.392500 0.050000 0.375000
0.548750 0.050000 0.375000
0.705000 0.050000 0.375000
0.861250 0.050000 0.375000
1.000000 0.050000 0.375000
1.000000 0.050000 0.375000
1.000000 0.050000 0.375000
0.080000 0.193750 0.375000
0.236250 0.193750 0.375000
0.392500 0.193750 0.375000
0.548750 0.193750 0.375000
0.705000 0.193750 0.375000
0.861250 0.193750 0.375000
1.000000 0.193750 0.375000
1.000000 0.193750 0.375000
1.000000 0.193750 0.375000
0.080000 0.337500 0.375000
0.236250 0.337500 0.375000
0.392500 0.337500 0.375000
0.548750 0.337500 0.375000
0.705000 0.337500 0.375000
0.861250 0.337500 0.375000
1.000000 0.337500 0.375000
1.000000 0.337500 0.375000
1.000000 0.337500 0.375000
0.080000 0.481250 0.375000
0.236250 0.481250 0.375000
0.392500 0.481250 0.375000
0.548750 0.481250 0.375000
0.705000 0.481250 0.375000
0.861250 0.481250 0.375000
1.000000 0.481250 0.375000
1.000000 0.481250 0.375000
1.000000 0.481250 0.375000
0.080000 0.625000 0.375000
0.236250 0.625000 0.375000
0.392500 0.625000 0.375000
0.548750 0.625000 0.375000
0.705000 0.625000 0.375000
0.861250 0.625000 0.375000
1.000000 0.625000 0.375000
1.000000 0.625000 0.375000
1.000000 0.625000 0.375000
0.080000 0.768750 0.375000
0.236250 0.768750 0.375000
0.392500 0.768750 0.375000
0.548750 0.768750 0.375000
0.705000 0.768750 0.375000
0.861250 0.768750 0.375000
1.000000 0.768750 0.375000
1.000000 0.768750 0.375000
1.000000 0.768750 0.375000
0.080000 0.912500 0.375000
0.236250 0.912500 0.375000
0.392500 0.912500 0.375000
0.548750 0.912500 0.375000
0.705000 0.912500 0.375000
0.861250 0.912500 0.375000
1.000000 0.912500 0.375000
1.000000 0.912500 0.375000
1.000000 0.912500 0.375000
0.080000 1.000000 0.375000
0.236250 1.000000 0.375000
0.392500 1.000000 0.375000
0.548750 1.000000 0.375000
0.705000 1.000000 0.375000
0.861250 1.000000 0.375000
1.000000 1.000000 0.375000
1.000000 1.000000 0.375000
1.000000 1.000000 0.375000
0.080000 1.000000 0.375000
0.236250 1.000000 0.375000
0.392500 1.000000 0.375000
0.548750 1.000000 0.375000
0.705000 1.000000 0.375000
0.861250 1.000000 0.375000
1.000000 1.000000 0.375000
1.000000 1.000000 0.375000
1.000000 1.000000 0.375000
0.080000 0.050000 0.481250
0.236250 0.050000 0.481250
0.392500 0.050000 0.481250
0.548750 0.050000 0.481250
0.705000 0.050000 0.481250
0.861250 0.050000 0.481250
1.000000 0.050000 0.481250
1.000000 0.050000 0.481250
1.000000 0.050000 0.481250
0.080000 0.193750 0.481250
0.236250 0.193750 0.481250
0.392500 0.193750 0.481250
0.548750 0.193750 0.481250
0.705000 0.193750 0.481250
0.861250 0.193750 0.481250
1.000000 0.193750 0.481250
1.000000 0.193750 0.481250
1.000000 0.193750 0.481250
0.080000 0.337500 0.481250
0.236250 0.337500 0.481250
0.392500 0.337500 0.481250
0.548750 0.337500 0.481250
0.705000 0.337500 0.481250
0.861250 0.337500 0.481250
1.000000 0.337500 0.481250
1.000000 0.337500 0.481250
1.000000 0.337500 0.481250
0.080000 0.481250 0.481250
0.236250 0.481250 0.481250
0.392500 0.481250 0.481250
0.548750 0.481250 0.481250
0.705000 0.481250 0.481250
0.861250 0.481250 0.481250
1.000000 0.481250 0.481250
1.000000 0.481250 0.481250
1.000000 0.481250 0.481250
0.080000 0.625000 0.481250
0.236250 0.625000 0.481250
0.392500 0.625000 0.481250
0.548750 0.625000 0.481250
0.705000 0.625000 0.481250
0.861250 0.625000 0.481250
1.000000 0.625000 0.481250
1.000000 0.625000 0.481250
1.000000 0.625000 0.481250
0.080000 0.768750 0.481250
0.236250 0.768750 0.481250
0.392500 0.768750 0.481250
0.548750 0.768750 0.481250
0.705000 0.768750 0.481250
0.861250 0.768750 0.481250
1.000000 0.768750 0.481250
1.000000 0.768750 0.481250
1.000000 0.768750 0.481250
0.080000 0.912500 0.481250
0.236250 0.912500 0.481250
0.392500 0.912500 0.481250
0.548750 0.912500 0.481250
0.705000 0.912500 0.481250
0.861250 0.912500 0.481250
1.000000 0.912500 0.481250
1.000000 0.912500 0.481250
1.000000 0.912500 0.481250
0.080000 1.000000 0.481250
0.236250 1.000000 0.481250
0.392500 1.000000 0.481250
0.548750 1.000000 0.481250
0.705000 1.000000 0.481250
0.861250 1.000000 0.481250
1.000000 1.000000 0.481250
1.000000 1.000000 0.481250
1.000000 1.000000 0.481250
0.080000 1.000000 0.481250
0.236250 1.000000 0.481250
0.392500 1.000000 0.481250
0.548750 1.000000 0.481250
0.705000 1.000000 0.481250
0.861250 1.000000 0.481250
1.000000 1.000000 0.481250
1.000000 1.000000 0.481250
1.000000 1.000000 0.481250
0.080000 0.050000 0.587500
0.236250 0.050000 0.587500
0.392500 0.050000 0.587500
0.548750 0.050000 0.587500
0.705000 0.050000 0.587500
0.861250 0.050000 0.587500
1.000000 0.050000 0.587500
1.000000 0.050000 0.587500
1.000000 0.050000 0.587500
0.080000 0.193750 0.587500
0.236250 0.193750 0.587500
0.392500 0.193750 0.587500
0.548750 0.193750 0.587500
0.705000 0.193750 0.587500
0.861250 0.193750 0.587500
1.000000 0.193750 0.587500
1.000000 0.193750 0.587500
1.000000 0.193750 0.587500
0.080000 0.337500 0.587500
0.236250 0.337500 0.587500
0.392500 0.337500 0.587500
0.548750 0.337500 0.587500
0.705000 0.337500 0.587500
0.861250 0.337500 0.587500
1.000000 0.337500 0.587500
1.000000 0.337500 0.587500
1.000000 0.337500 0.587500
0.080000 0.481250 0.587500
0.236250 0.481250 0.587500
0.392500 0.481250 0.587500
0.548750 0.481250 0.587500
0.705000 0.481250 0.587500
0.861250 0.481250 0.587500
1.000000 0.481250 0.587500
1.000000 0.481250 0.587500
1.000000 0.481250 0.587500
0.080000 0.625000 0.587500
0.236250 0.625000 0.587500
0.392500 0.625000 0.587500
0.548750 0.625000 0.587500
0.705000 0.625000 0.587500
0.861250 0.625000 0.587500
1.000000 0.625000 0.587500
1.000000 0.625000 0.587500
1.000000 0.625000 0.587500
0.080000 0.768750 0.587500
0.236250 0.768750 0.587500
0.392500 0.768750 0.587500
0.548750 0.768750 0.587500
0.705000 0.768750 0.587500
0.861250 0.768750 0.587500
1.000000 0.768750 0.587500
1.000000 0.768750 0.587500
1.000000 0.768750 0.587500
0.080000 0.912500 0.587500
0.236250 0.912500 0.587500
0.392500 0.912500 0.587500
0.548750 0.912500 0.587500
0.705000 0.912500 0.587500
0.861250 0.912500 0.587500
1.000000 0.912500 0.587500
1.000000 0.912500 0.587500
1.000000 0.912500 0.587500
0.080000 1.000000 0.587500
0.236250 1.000000 0.587500
0.392500 1.000000 0.587500
0.548750 1.000000 0.587500
0.705000 1.000000 0.587500
0.861250 1.000000 0.587500
1.000000 1.000000 0.587500
1.000000 1.000000 0.587500
1.000000 1.000000 0.587500
0.080000 1.000000 0.587500
0.236250 1.000000 0.587500
0.392500 1.000000 0.587500
0.548750 1.000000 0.587500
0.705000 1.000000 0.587500
0.861250 1.000000 0.587500
1.000000 1.000000 0.587500
1.000000 1.000000 0.587500
1.000000 1.000000 0.587500
0.080000 0.050000 0.693750
0.236250 0.050000 0.693750
0.392500 0.050000 0.693750
0.548750 0.050000 0.693750
0.705000 0.050000 0.693750
0.861250 0.050000 0.693750
1.000000 0.050000 0.693750
1.000000 0.050000 0.693750
1.000000 0.050000 0.693750
0.080000 0.193750 0.693750
0.236250 0.193750 0.693750
0.392500 0.193750 0.693750
0.548750 0.193750 0.693750
0.705000 0.193750 0.693750
0.861250 0.193750 0.693750
1.000000 0.193750 0.693750
1.000000 0.193750 0.693750
1.000000 0.193750 0.693750
0.080000 0.337500 0.693750
0.236250 0.337500 0.693750
0.392500 0.337500 0.693750
0.548750 0.337500 0.693750
0.705000 0.337500 0.693750
0.861250 0.337500 0.693750
1.000000 0.337500 0.693750
1.000000 0.337500 0.693750
1.000000 0.337500 0.693750
0.080000 0.481250 0.693750
0.236250 0.481250 0.693750
0.392500 0.481250 0.693750
0.548750 0.481250 0.693750
0.705000 0.481250 0.693750
0.861250 0.481250 0.693750
1.000000 0.481250 0.693750
1.000000 0.481250 0.693750
1.000000 0.481250 0.693750
0.080000 0.625000 0.693750
0.236250 0.625000 0.693750
0.392500 0.625000 0.693750
0.548750 0.625000 0.693750
0.705000 0.625000 0.693750
0.861250 0.625000 0.693750
1.000000 0.625000 0.693750
1.000000 0.625000 0.693750
1.000000 0.625000 0.693750
0.080000 0.768750 0.693750
0.236250 0.768750 0.693750
0.392500 0.768750 0.693750
0.548750 0.768750 0.693750
0.705000 0.768750 0.693750
0.861250 0.768750 0.693750
1.000000 0.768750 0.693750
1.000000 0.768750 0.693750
1.000000 0.768750 0.693750
0.080000 0.912500 0.693750
0.236250 0.912500 0.693750
0.392500 0.912500 0.693750
0.548750 0.912500 0.693750
0.705000 0.912500 0.693750
0.861250 0.912500 0.693750
1.000000 0.912500 0.693750
1.000000 0.912500 0.693750
1.000000 0.912500 0.693750
0.080000 1.000000 0.693750
0.236250 1.000000 0.693750
0.392500 1.000000 0.693750
0.548750 1.000000 0.693750
0.705000 1.000000 0.693750
0.861250 1.000000 0.693750
1.000000 1.000000 0.693750
1.000000 1.000000 0.693750
1.000000 1.000000 0.693750
0.080000 1.000000 0.693750
0.236250 1.000000 0.693750
0.392500 1.000000 0.693750
0.548750 1.000000 0.693750
0.705000 1.000000 0.693750
0.861250 1.000000 0.693750
1.000000 1.000000 0.693750
1.000000 1.000000 0.693750
1.000000 1.000000 0.693750
0.080000 0.050000 0.800000
0.236250 0.050000 0.800000
0.392500 0.050000 0.800000
0.548750 0.050000 0.800000
0.705000 0.050000 0.800000
0.861250 0.050000 0.800000
1.000000 0.050000 0.800000
1.000000 0.050000 0.800000
1.000000 0.050000 0.800000
0.080000 0.193750 0.800000
0.236250 0.193750 0.800000
0.392500 0.193750 0.800000
0.548750 0.193750 0.800000
0.705000 0.193750 0.800000
0.861250 0.193750 0.800000
1.000000 0.193750 0.800000
1.000000 0.193750 0.800000
1.000000 0.193750 0.800000
0.080000 0.337500 0.800000
0.236250 0.337500 0.800000
0.392500 0.337500 0.800000
0.548750 0.337500 0.800000
0.705000 0.337500 0.800000
0.861250 0.337500 0.800000
1.000000 0.337500 0.800000
1.000000 0.337500 0.800000
1.000000 0.337500 0.800000
0.080000 0.481250 0.800000
0.236250 0.481250 0.800000
0.392500 0.481250 0.800000
0.548750 0.481250 0.800000
0.705000 0.481250 0.800000
0.861250 0.481250 0.800000
1.000000 0.481250 0.800000
1.000000 0.481250 0.800000
1.000000 0.481250 0.800000
0.080000 0.625000 0.800000
0.236250 0.625000 0.800000
0.392500 0.625000 0.800000
0.548750 0.625000 0.800000
0.705000 0.625000 0.800000
0.861250 0.625000 0.800000
1.000000 0.625000 0.800000
1.000000 0.625000 0.800000
1.000000 0.625000 0.800000
0.080000 0.768750 0.800000
0.236250 0.768750 0.800000
0.392500 0.768750 0.800000
0.548750 0.768750 0.800000
0.705000 0.768750 0.800000
0.861250 0.768750 0.800000
1.000000 0.768750 0.800000
1.000000 0.768750 0.800000
1.000000 0.768750 0.800000
0.080000 0.912500 0.800000
0.236250 0.912500 0.800000
0.392500 0.912500 0.800000
0.548750 0.912500 0.800000
0.705000 0.912500 0.800000
0.861250 0.912500 0.800000
1.000000 0.912500 0.800000
1.000000 0.912500 0.800000
1.000000 0.912500 0.800000
0.080000 1.000000 0.800000
0.236250 1.000000 0.800000
0.392500 1.000000 0.800000
0.548750 1.000000 0.800000
0.705000 1.000000 0.800000
0.861250 1.000000 0.800000
1.000000 1.000000 0.800000
1.000000 1.000000 0.800000
1.000000 1.000000 0.800000
0.080000 1.000000 0.800000
0.236250 1.000000 0.800000
0.392500 1.000000 0.800000
0.548750 1.000000 0.800000
0.705000 1.000000 0.800000
0.861250 1.000000 0.800000
1.000000 1.000000 0.800000
1.000000 1.000000 0.800000
1.000000 1.000000 0.800000
