app/src/main/assets/luts/metallic_bronze.cube
# ApexStudio filter: metallic_bronze
LUT_3D_SIZE 17
DOMAIN_MIN 0.0 0.0 0.0
DOMAIN_MAX 1.0 1.0 1.0
0.080000 0.050000 0.000000
0.158125 0.050000 0.000000
0.236250 0.050000 0.000000
0.314375 0.050000 0.000000
0.392500 0.050000 0.000000
0.470625 0.050000 0.000000
0.548750 0.050000 0.000000
0.626875 0.050000 0.000000
0.705000 0.050000 0.000000
0.783125 0.050000 0.000000
0.861250 0.050000 0.000000
0.939375 0.050000 0.000000
1.000000 0.050000 0.000000
1.000000 0.050000 0.000000
1.000000 0.050000 0.000000
1.000000 0.050000 0.000000
1.000000 0.050000 0.000000
0.080000 0.121875 0.000000
0.158125 0.121875 0.000000
0.236250 0.121875 0.000000
0.314375 0.121875 0.000000
0.392500 0.121875 0.000000
0.470625 0.121875 0.000000
0.548750 0.121875 0.000000
0.626875 0.121875 0.000000
0.705000 0.121875 0.000000
0.783125 0.121875 0.000000
0.861250 0.121875 0.000000
0.939375 0.121875 0.000000
1.000000 0.121875 0.000000
1.000000 0.121875 0.000000
1.000000 0.121875 0.000000
1.000000 0.121875 0.000000
1.000000 0.121875 0.000000
0.080000 0.193750 0.000000
0.158125 0.193750 0.000000
0.236250 0.193750 0.000000
0.314375 0.193750 0.000000
0.392500 0.193750 0.000000
0.470625 0.193750 0.000000
0.548750 0.193750 0.000000
0.626875 0.193750 0.000000
0.705000 0.193750 0.000000
0.783125 0.193750 0.000000
0.861250 0.193750 0.000000
0.939375 0.193750 0.000000
1.000000 0.193750 0.000000
1.000000 0.193750 0.000000
1.000000 0.193750 0.000000
1.000000 0.193750 0.000000
1.000000 0.193750 0.000000
0.080000 0.265625 0.000000
0.158125 0.265625 0.000000
0.236250 0.265625 0.000000
0.314375 0.265625 0.000000
0.392500 0.265625 0.000000
0.470625 0.265625 0.000000
0.548750 0.265625 0.000000
0.626875 0.265625 0.000000
0.705000 0.265625 0.000000
0.783125 0.265625 0.000000
0.861250 0.265625 0.000000
0.939375 0.265625 0.000000
1.000000 0.265625 0.000000
1.000000 0.265625 0.000000
1.000000 0.265625 0.000000
1.000000 0.265625 0.000000
1.000000 0.265625 0.000000
0.080000 0.337500 0.000000
0.158125 0.337500 0.000000
0.236250 0.337500 0.000000
0.314375 0.337500 0.000000
0.392500 0.337500 0.000000
0.470625 0.337500 0.000000
0.548750 0.337500 0.000000
0.626875 0.337500 0.000000
0.705000 0.337500 0.000000
0.783125 0.337500 0.000000
0.861250 0.337500 0.000000
0.939375 0.337500 0.000000
1.000000 0.337500 0.000000
1.000000 0.337500 0.000000
1.000000 0.337500 0.000000
1.000000 0.337500 0.000000
1.000000 0.337500 0.000000
0.080000 0.409375 0.000000
0.158125 0.409375 0.000000
0.236250 0.409375 0.000000
0.314375 0.409375 0.000000
0.392500 0.409375 0.000000
0.470625 0.409375 0.000000
0.548750 0.409375 0.000000
0.626875 0.409375 0.000000
0.705000 0.409375 0.000000
0.783125 0.409375 0.000000
0.861250 0.409375 0.000000
0.939375 0.409375 0.000000
1.000000 0.409375 0.000000
1.000000 0.409375 0.000000
1.000000 0.409375 0.000000
1.000000 0.409375 0.000000
1.000000 0.409375 0.000000
0.080000 0.481250 0.000000
0.158125 0.481250 0.000000
0.236250 0.481250 0.000000
0.314375 0.481250 0.000000
0.392500 0.481250 0.000000
0.470625 0.481250 0.000000
0.548750 0.481250 0.000000
0.626875 0.481250 0.000000
0.705000 0.481250 0.000000
0.783125 0.481250 0.000000
0.861250 0.481250 0.000000
0.939375 0.481250 0.000000
1.000000 0.481250 0.000000
1.000000 0.481250 0.000000
1.000000 0.481250 0.000000
1.000000 0.481250 0.000000
1.000000 0.481250 0.000000
0.080000 0.553125 0.000000
0.158125 0.553125 0.000000
0.236250 0.553125 0.000000
0.314375 0.553125 0.000000
0.392500 0.553125 0.000000
0.470625 0.553125 0.000000
0.548750 0.553125 0.000000
0.626875 0.553125 0.000000
0.705000 0.553125 0.000000
0.783125 0.553125 0.000000
0.861250 0.553125 0.000000
0.939375 0.553125 0.000000
1.000000 0.553125 0.000000
1.000000 0.553125 0.000000
1.000000 0.553125 0.000000
1.000000 0.553125 0.000000
1.000000 0.553125 0.000000
0.080000 0.625000 0.000000
0.158125 0.625000 0.000000
0.236250 0.625000 0.000000
0.314375 0.625000 0.000000
0.392500 0.625000 0.000000
0.470625 0.625000 0.000000
0.548750 0.625000 0.000000
0.626875 0.625000 0.000000
0.705000 0.625000 0.000000
0.783125 0.625000 0.000000
0.861250 0.625000 0.000000
0.939375 0.625000 0.000000
1.000000 0.625000 0.000000
1.000000 0.625000 0.000000
1.000000 0.625000 0.000000
1.000000 0.625000 0.000000
1.000000 0.625000 0.000000
0.080000 0.696875 0.000000
0.158125 0.696875 0.000000
0.236250 0.696875 0.000000
0.314375 0.696875 0.000000
0.392500 0.696875 0.000000
0.470625 0.696875 0.000000
0.548750 0.696875 0.000000
0.626875 0.696875 0.000000
0.705000 0.696875 0.000000
0.783125 0.696875 0.000000
0.861250 0.696875 0.000000
0.939375 0.696875 0.000000
1.000000 0.696875 0.000000
1.000000 0.696875 0.000000
1.000000 0.696875 0.000000
1.000000 0.696875 0.000000
1.000000 0.696875 0.000000
0.080000 0.768750 0.000000
0.158125 0.768750 0.000000
0.236250 0.768750 0.000000
0.314375 0.768750 0.000000
0.392500 0.768750 0.000000
0.470625 0.768750 0.000000
0.548750 0.768750 0.000000
0.626875 0.768750 0.000000
0.705000 0.768750 0.000000
0.783125 0.768750 0.000000
0.861250 0.768750 0.000000
0.939375 0.768750 0.000000
1.000000 0.768750 0.000000
1.000000 0.768750 0.000000
1.000000 0.768750 0.000000
1.000000 0.768750 0.000000
1.000000 0.768750 0.000000
0.080000 0.840625 0.000000
0.158125 0.840625 0.000000
0.236250 0.840625 0.000000
0.314375 0.840625 0.000000
0.392500 0.840625 0.000000
0.470625 0.840625 0.000000
0.548750 0.840625 0.000000
0.626875 0.840625 0.000000
0.705000 0.840625 0.000000
0.783125 0.840625 0.000000
0.861250 0.840625 0.000000
0.939375 0.840625 0.000000
1.000000 0.840625 0.000000
1.000000 0.840625 0.000000
1.000000 0.840625 0.000000
1.000000 0.840625 0.000000
1.000000 0.840625 0.000000
0.080000 0.912500 0.000000
0.158125 0.912500 0.000000
0.236250 0.912500 0.000000
0.314375 0.912500 0.000000
0.392500 0.912500 0.000000
0.470625 0.912500 0.000000
0.548750 0.912500 0.000000
0.626875 0.912500 0.000000
0.705000 0.912500 0.000000
0.783125 0.912500 0.000000
0.861250 0.912500 0.000000
0.939375 0.912500 0.000000
1.000000 0.912500 0.000000
1.000000 0.912500 0.000000
1.000000 0.912500 0.000000
1.000000 0.912500 0.000000
1.000000 0.912500 0.000000
0.080000 0.984375 0.000000
0.158125 0.984375 0.000000
0.236250 0.984375 0.000000
0.314375 0.984375 0.000000
0.392500 0.984375 0.000000
0.470625 0.984375 0.000000
0.548750 0.984375 0.000000
0.626875 0.984375 0.000000
0.705000 0.984375 0.000000
0.783125 0.984375 0.000000
0.861250 0.984375 0.000000
0.939375 0.984375 0.000000
1.000000 0.984375 0.000000
1.000000 0.984375 0.000000
1.000000 0.984375 0.000000
1.000000 0.984375 0.000000
1.000000 0.984375 0.000000
0.080000 1.000000 0.000000
0.158125 1.000000 0.000000
0.236250 1.000000 0.000000
0.314375 1.000000 0.000000
0.392500 1.000000 0.000000
0.470625 1.000000 0.000000
0.548750 1.000000 0.000000
0.626875 1.000000 0.000000
0.705000 1.000000 0.000000
0.783125 1.000000 0.000000
0.861250 1.000000 0.000000
0.939375 1.000000 0.000000
1.000000 1.000000 0.000000
1.000000 1.000000 0.000000
1.000000 1.000000 0.000000
1.000000 1.000000 0.000000
1.000000 1.000000 0.000000
0.080000 1.000000 0.000000
0.158125 1.000000 0.000000
0.236250 1.000000 0.000000
0.314375 1.000000 0.000000
0.392500 1.000000 0.000000
0.470625 1.000000 0.000000
0.548750 1.000000 0.000000
0.626875 1.000000 0.000000
0.705000 1.000000 0.000000
0.783125 1.000000 0.000000
0.861250 1.000000 0.000000
0.939375 1.000000 0.000000
1.000000 1.000000 0.000000
1.000000 1.000000 0.000000
1.000000 1.000000 0.000000
1.000000 1.000000 0.000000
1.000000 1.000000 0.000000
0.080000 1.000000 0.000000
0.158125 1.000000 0.000000
0.236250 1.000000 0.000000
0.314375 1.000000 0.000000
0.392500 1.000000 0.000000
0.470625 1.000000 0.000000
0.548750 1.000000 0.000000
0.626875 1.000000 0.000000
0.705000 1.000000 0.000000
0.783125 1.000000 0.000000
0.861250 1.000000 0.000000
0.939375 1.000000 0.000000
1.000000 1.000000 0.000000
1.000000 1.000000 0.000000
1.000000 1.000000 0.000000
1.000000 1.000000 0.000000
1.000000 1.000000 0.000000
0.080000 0.050000 0.003125
0.158125 0.050000 0.003125
0.236250 0.050000 0.003125
0.314375 0.050000 0.003125
0.392500 0.050000 0.003125
0.470625 0.050000 0.003125
0.548750 0.050000 0.003125
0.626875 0.050000 0.003125
0.705000 0.050000 0.003125
0.783125 0.050000 0.003125
0.861250 0.050000 0.003125
0.939375 0.050000 0.003125
1.000000 0.050000 0.003125
1.000000 0.050000 0.003125
1.000000 0.050000 0.003125
1.000000 0.050000 0.003125
1.000000 0.050000 0.003125
0.080000 0.121875 0.003125
0.158125 0.121875 0.003125
0.236250 0.121875 0.003125
0.314375 0.121875 0.003125
0.392500 0.121875 0.003125
0.470625 0.121875 0.003125
0.548750 0.121875 0.003125
0.626875 0.121875 0.003125
0.705000 0.121875 0.003125
0.783125 0.121875 0.003125
0.861250 0.121875 0.003125
0.939375 0.121875 0.003125
1.000000 0.121875 0.003125
1.000000 0.121875 0.003125
1.000000 0.121875 0.003125
1.000000 0.121875 0.003125
1.000000 0.121875 0.003125
0.080000 0.193750 0.003125
0.158125 0.193750 0.003125
0.236250 0.193750 0.003125
0.314375 0.193750 0.003125
0.392500 0.193750 0.003125
0.470625 0.193750 0.003125
0.548750 0.193750 0.003125
0.626875 0.193750 0.003125
0.705000 0.193750 0.003125
0.783125 0.193750 0.003125
0.861250 0.193750 0.003125
0.939375 0.193750 0.003125
1.000000 0.193750 0.003125
1.000000 0.193750 0.003125
1.000000 0.193750 0.003125
1.000000 0.193750 0.003125
1.000000 0.193750 0.003125
0.080000 0.265625 0.003125
0.158125 0.265625 0.003125
0.236250 0.265625 0.003125
0.314375 0.265625 0.003125
0.392500 0.265625 0.003125
0.470625 0.265625 0.003125
0.548750 0.265625 0.003125
0.626875 0.265625 0.003125
0.705000 0.265625 0.003125
0.783125 0.265625 0.003125
0.861250 0.265625 0.003125
0.939375 0.265625 0.003125
1.000000 0.265625 0.003125
1.000000 0.265625 0.003125
1.000000 0.265625 0.003125
1.000000 0.265625 0.003125
1.000000 0.265625 0.003125
0.080000 0.337500 0.003125
0.158125 0.337500 0.003125
0.236250 0.337500 0.003125
0.314375 0.337500 0.003125
0.392500 0.337500 0.003125
0.470625 0.337500 0.003125
0.548750 0.337500 0.003125
0.626875 0.337500 0.003125
0.705000 0.337500 0.003125
0.783125 0.337500 0.003125
0.861250 0.337500 0.003125
0.939375 0.337500 0.003125
1.000000 0.337500 0.003125
1.000000 0.337500 0.003125
1.000000 0.337500 0.003125
1.000000 0.337500 0.003125
1.000000 0.337500 0.003125
0.080000 0.409375 0.003125
0.158125 0.409375 0.003125
0.236250 0.409375 0.003125
0.314375 0.409375 0.003125
0.392500 0.409375 0.003125
0.470625 0.409375 0.003125
0.548750 0.409375 0.003125
0.626875 0.409375 0.003125
0.705000 0.409375 0.003125
0.783125 0.409375 0.003125
0.861250 0.409375 0.003125
0.939375 0.409375 0.003125
1.000000 0.409375 0.003125
1.000000 0.409375 0.003125
1.000000 0.409375 0.003125
1.000000 0.409375 0.003125
1.000000 0.409375 0.003125
0.080000 0.481250 0.003125
0.158125 0.481250 0.003125
0.236250 0.481250 0.003125
0.314375 0.481250 0.003125
0.392500 0.481250 0.003125
0.470625 0.481250 0.003125
0.548750 0.481250 0.003125
0.626875 0.481250 0.003125
0.705000 0.481250 0.003125
0.783125 0.481250 0.003125
0.861250 0.481250 0.003125
0.939375 0.481250 0.003125
1.000000 0.481250 0.003125
1.000000 0.481250 0.003125
1.000000 0.481250 0.003125
1.000000 0.481250 0.003125
1.000000 0.481250 0.003125
0.080000 0.553125 0.003125
0.158125 0.553125 0.003125
0.236250 0.553125 0.003125
0.314375 0.553125 0.003125
0.392500 0.553125 0.003125
0.470625 0.553125 0.003125
0.548750 0.553125 0.003125
0.626875 0.553125 0.003125
0.705000 0.553125 0.003125
0.783125 0.553125 0.003125
0.861250 0.553125 0.003125
0.939375 0.553125 0.003125
1.000000 0.553125 0.003125
1.000000 0.553125 0.003125
1.000000 0.553125 0.003125
1.000000 0.553125 0.003125
1.000000 0.553125 0.003125
0.080000 0.625000 0.003125
0.158125 0.625000 0.003125
0.236250 0.625000 0.003125
0.314375 0.625000 0.003125
0.392500 0.625000 0.003125
0.470625 0.625000 0.003125
0.548750 0.625000 0.003125
0.626875 0.625000 0.003125
0.705000 0.625000 0.003125
0.783125 0.625000 0.003125
0.861250 0.625000 0.003125
0.939375 0.625000 0.003125
1.000000 0.625000 0.003125
1.000000 0.625000 0.003125
1.000000 0.625000 0.003125
1.000000 0.625000 0.003125
1.000000 0.625000 0.003125
0.080000 0.696875 0.003125
0.158125 0.696875 0.003125
0.236250 0.696875 0.003125
0.314375 0.696875 0.003125
0.392500 0.696875 0.003125
0.470625 0.696875 0.003125
0.548750 0.696875 0.003125
0.626875 0.696875 0.003125
0.705000 0.696875 0.003125
0.783125 0.696875 0.003125
0.861250 0.696875 0.003125
0.939375 0.696875 0.003125
1.000000 0.696875 0.003125
1.000000 0.696875 0.003125
1.000000 0.696875 0.003125
1.000000 0.696875 0.003125
1.000000 0.696875 0.003125
0.080000 0.768750 0.003125
0.158125 0.768750 0.003125
0.236250 0.768750 0.003125
0.314375 0.768750 0.003125
0.392500 0.768750 0.003125
0.470625 0.768750 0.003125
0.548750 0.768750 0.003125
0.626875 0.768750 0.003125
0.705000 0.768750 0.003125
0.783125 0.768750 0.003125
0.861250 0.768750 0.003125
0.939375 0.768750 0.003125
1.000000 0.768750 0.003125
1.000000 0.768750 0.003125
1.000000 0.768750 0.003125
1.000000 0.768750 0.003125
1.000000 0.768750 0.003125
0.080000 0.840625 0.003125
0.158125 0.840625 0.003125
0.236250 0.840625 0.003125
0.314375 0.840625 0.003125
0.392500 0.840625 0.003125
0.470625 0.840625 0.003125
0.548750 0.840625 0.003125
0.626875 0.840625 0.003125
0.705000 0.840625 0.003125
0.783125 0.840625 0.003125
0.861250 0.840625 0.003125
0.939375 0.840625 0.003125
1.000000 0.840625 0.003125
1.000000 0.840625 0.003125
1.000000 0.840625 0.003125
1.000000 0.840625 0.003125
1.000000 0.840625 0.003125
0.080000 0.912500 0.003125
0.158125 0.912500 0.003125
0.236250 0.912500 0.003125
0.314375 0.912500 0.003125
0.392500 0.912500 0.003125
0.470625 0.912500 0.003125
0.548750 0.912500 0.003125
0.626875 0.912500 0.003125
0.705000 0.912500 0.003125
0.783125 0.912500 0.003125
0.861250 0.912500 0.003125
0.939375 0.912500 0.003125
1.000000 0.912500 0.003125
1.000000 0.912500 0.003125
1.000000 0.912500 0.003125
1.000000 0.912500 0.003125
1.000000 0.912500 0.003125
0.080000 0.984375 0.003125
0.158125 0.984375 0.003125
0.236250 0.984375 0.003125
0.314375 0.984375 0.003125
0.392500 0.984375 0.003125
0.470625 0.984375 0.003125
0.548750 0.984375 0.003125
0.626875 0.984375 0.003125
0.705000 0.984375 0.003125
0.783125 0.984375 0.003125
0.861250 0.984375 0.003125
0.939375 0.984375 0.003125
1.000000 0.984375 0.003125
1.000000 0.984375 0.003125
1.000000 0.984375 0.003125
1.000000 0.984375 0.003125
1.000000 0.984375 0.003125
0.080000 1.000000 0.003125
0.158125 1.000000 0.003125
0.236250 1.000000 0.003125
0.314375 1.000000 0.003125
0.392500 1.000000 0.003125
0.470625 1.000000 0.003125
0.548750 1.000000 0.003125
0.626875 1.000000 0.003125
0.705000 1.000000 0.003125
0.783125 1.000000 0.003125
0.861250 1.000000 0.003125
0.939375 1.000000 0.003125
1.000000 1.000000 0.003125
1.000000 1.000000 0.003125
1.000000 1.000000 0.003125
1.000000 1.000000 0.003125
1.000000 1.000000 0.003125
0.080000 1.000000 0.003125
0.158125 1.000000 0.003125
0.236250 1.000000 0.003125
0.314375 1.000000 0.003125
0.392500 1.000000 0.003125
0.470625 1.000000 0.003125
0.548750 1.000000 0.003125
0.626875 1.000000 0.003125
0.705000 1.000000 0.003125
0.783125 1.000000 0.003125
0.861250 1.000000 0.003125
0.939375 1.000000 0.003125
1.000000 1.000000 0.003125
1.000000 1.000000 0.003125
1.000000 1.000000 0.003125
1.000000 1.000000 0.003125
1.000000 1.000000 0.003125
0.080000 1.000000 0.003125
0.158125 1.000000 0.003125
0.236250 1.000000 0.003125
0.314375 1.000000 0.003125
0.392500 1.000000 0.003125
0.470625 1.000000 0.003125
0.548750 1.000000 0.003125
0.626875 1.000000 0.003125
0.705000 1.000000 0.003125
0.783125 1.000000 0.003125
0.861250 1.000000 0.003125
0.939375 1.000000 0.003125
1.000000 1.000000 0.003125
1.000000 1.000000 0.003125
1.000000 1.000000 0.003125
1.000000 1.000000 0.003125
1.000000 1.000000 0.003125
0.080000 0.050000 0.056250
0.158125 0.050000 0.056250
0.236250 0.050000 0.056250
0.314375 0.050000 0.056250
0.392500 0.050000 0.056250
0.470625 0.050000 0.056250
0.548750 0.050000 0.056250
0.626875 0.050000 0.056250
0.705000 0.050000 0.056250
0.783125 0.050000 0.056250
0.861250 0.050000 0.056250
0.939375 0.050000 0.056250
1.000000 0.050000 0.056250
1.000000 0.050000 0.056250
1.000000 0.050000 0.056250
1.000000 0.050000 0.056250
1.000000 0.050000 0.056250
0.080000 0.121875 0.056250
0.158125 0.121875 0.056250
0.236250 0.121875 0.056250
0.314375 0.121875 0.056250
0.392500 0.121875 0.056250
0.470625 0.121875 0.056250
0.548750 0.121875 0.056250
0.626875 0.121875 0.056250
0.705000 0.121875 0.056250
0.783125 0.121875 0.056250
0.861250 0.121875 0.056250
0.939375 0.121875 0.056250
1.000000 0.121875 0.056250
1.000000 0.121875 0.056250
1.000000 0.121875 0.056250
1.000000 0.121875 0.056250
1.000000 0.121875 0.056250
0.080000 0.193750 0.056250
0.158125 0.193750 0.056250
0.236250 0.193750 0.056250
0.314375 0.193750 0.056250
0.392500 0.193750 0.056250
0.470625 0.193750 0.056250
0.548750 0.193750 0.056250
0.626875 0.193750 0.056250
0.705000 0.193750 0.056250
0.783125 0.193750 0.056250
0.861250 0.193750 0.056250
0.939375 0.193750 0.056250
1.000000 0.193750 0.056250
1.000000 0.193750 0.056250
1.000000 0.193750 0.056250
1.000000 0.193750 0.056250
1.000000 0.193750 0.056250
0.080000 0.265625 0.056250
0.158125 0.265625 0.056250
0.236250 0.265625 0.056250
0.314375 0.265625 0.056250
0.392500 0.265625 0.056250
0.470625 0.265625 0.056250
0.548750 0.265625 0.056250
0.626875 0.265625 0.056250
0.705000 0.265625 0.056250
0.783125 0.265625 0.056250
0.861250 0.265625 0.056250
0.939375 0.265625 0.056250
1.000000 0.265625 0.056250
1.000000 0.265625 0.056250
1.000000 0.265625 0.056250
1.000000 0.265625 0.056250
1.000000 0.265625 0.056250
0.080000 0.337500 0.056250
0.158125 0.337500 0.056250
0.236250 0.337500 0.056250
0.314375 0.337500 0.056250
0.392500 0.337500 0.056250
0.470625 0.337500 0.056250
0.548750 0.337500 0.056250
0.626875 0.337500 0.056250
0.705000 0.337500 0.056250
0.783125 0.337500 0.056250
0.861250 0.337500 0.056250
0.939375 0.337500 0.056250
1.000000 0.337500 0.056250
1.000000 0.337500 0.056250
1.000000 0.337500 0.056250
1.000000 0.337500 0.056250
1.000000 0.337500 0.056250
0.080000 0.409375 0.056250
0.158125 0.409375 0.056250
0.236250 0.409375 0.056250
0.314375 0.409375 0.056250
0.392500 0.409375 0.056250
0.470625 0.409375 0.056250
0.548750 0.409375 0.056250
0.626875 0.409375 0.056250
0.705000 0.409375 0.056250
0.783125 0.409375 0.056250
0.861250 0.409375 0.056250
0.939375 0.409375 0.056250
1.000000 0.409375 0.056250
1.000000 0.409375 0.056250
1.000000 0.409375 0.056250
1.000000 0.409375 0.056250
1.000000 0.409375 0.056250
0.080000 0.481250 0.056250
0.158125 0.481250 0.056250
0.236250 0.481250 0.056250
0.314375 0.481250 0.056250
0.392500 0.481250 0.056250
0.470625 0.481250 0.056250
0.548750 0.481250 0.056250
0.626875 0.481250 0.056250
0.705000 0.481250 0.056250
0.783125 0.481250 0.056250
0.861250 0.481250 0.056250
0.939375 0.481250 0.056250
1.000000 0.481250 0.056250
1.000000 0.481250 0.056250
1.000000 0.481250 0.056250
1.000000 0.481250 0.056250
1.000000 0.481250 0.056250
0.080000 0.553125 0.056250
0.158125 0.553125 0.056250
0.236250 0.553125 0.056250
0.314375 0.553125 0.056250
0.392500 0.553125 0.056250
0.470625 0.553125 0.056250
0.548750 0.553125 0.056250
0.626875 0.553125 0.056250
0.705000 0.553125 0.056250
0.783125 0.553125 0.056250
0.861250 0.553125 0.056250
0.939375 0.553125 0.056250
1.000000 0.553125 0.056250
1.000000 0.553125 0.056250
1.000000 0.553125 0.056250
1.000000 0.553125 0.056250
1.000000 0.553125 0.056250
0.080000 0.625000 0.056250
0.158125 0.625000 0.056250
0.236250 0.625000 0.056250
0.314375 0.625000 0.056250
0.392500 0.625000 0.056250
0.470625 0.625000 0.056250
0.548750 0.625000 0.056250
0.626875 0.625000 0.056250
0.705000 0.625000 0.056250
0.783125 0.625000 0.056250
0.861250 0.625000 0.056250
0.939375 0.625000 0.056250
1.000000 0.625000 0.056250
1.000000 0.625000 0.056250
1.000000 0.625000 0.056250
1.000000 0.625000 0.056250
1.000000 0.625000 0.056250
0.080000 0.696875 0.056250
0.158125 0.696875 0.056250
0.236250 0.696875 0.056250
0.314375 0.696875 0.056250
0.392500 0.696875 0.056250
0.470625 0.696875 0.056250
0.548750 0.696875 0.056250
0.626875 0.696875 0.056250
0.705000 0.696875 0.056250
0.783125 0.696875 0.056250
0.861250 0.696875 0.056250
0.939375 0.696875 0.056250
1.000000 0.696875 0.056250
1.000000 0.696875 0.056250
1.000000 0.696875 0.056250
1.000000 0.696875 0.056250
1.000000 0.696875 0.056250
0.080000 0.768750 0.056250
0.158125 0.768750 0.056250
0.236250 0.768750 0.056250
0.314375 0.768750 0.056250
0.392500 0.768750 0.056250
0.470625 0.768750 0.056250
0.548750 0.768750 0.056250
0.626875 0.768750 0.056250
0.705000 0.768750 0.056250
0.783125 0.768750 0.056250
0.861250 0.768750 0.056250
0.939375 0.768750 0.056250
1.000000 0.768750 0.056250
1.000000 0.768750 0.056250
1.000000 0.768750 0.056250
1.000000 0.768750 0.056250
1.000000 0.768750 0.056250
0.080000 0.840625 0.056250
0.158125 0.840625 0.056250
0.236250 0.840625 0.056250
0.314375 0.840625 0.056250
0.392500 0.840625 0.056250
0.470625 0.840625 0.056250
0.548750 0.840625 0.056250
0.626875 0.840625 0.056250
0.705000 0.840625 0.056250
0.783125 0.840625 0.056250
0.861250 0.840625 0.056250
0.939375 0.840625 0.056250
1.000000 0.840625 0.056250
1.000000 0.840625 0.056250
1.000000 0.840625 0.056250
1.000000 0.840625 0.056250
1.000000 0.840625 0.056250
0.080000 0.912500 0.056250
0.158125 0.912500 0.056250
0.236250 0.912500 0.056250
0.314375 0.912500 0.056250
0.392500 0.912500 0.056250
0.470625 0.912500 0.056250
0.548750 0.912500 0.056250
0.626875 0.912500 0.056250
0.705000 0.912500 0.056250
0.783125 0.912500 0.056250
0.861250 0.912500 0.056250
0.939375 0.912500 0.056250
1.000000 0.912500 0.056250
1.000000 0.912500 0.056250
1.000000 0.912500 0.056250
1.000000 0.912500 0.056250
1.000000 0.912500 0.056250
0.080000 0.984375 0.056250
0.158125 0.984375 0.056250
0.236250 0.984375 0.056250
0.314375 0.984375 0.056250
0.392500 0.984375 0.056250
0.470625 0.984375 0.056250
0.548750 0.984375 0.056250
0.626875 0.984375 0.056250
0.705000 0.984375 0.056250
0.783125 0.984375 0.056250
0.861250 0.984375 0.056250
0.939375 0.984375 0.056250
1.000000 0.984375 0.056250
1.000000 0.984375 0.056250
1.000000 0.984375 0.056250
1.000000 0.984375 0.056250
1.000000 0.984375 0.056250
0.080000 1.000000 0.056250
0.158125 1.000000 0.056250
0.236250 1.000000 0.056250
0.314375 1.000000 0.056250
0.392500 1.000000 0.056250
0.470625 1.000000 0.056250
0.548750 1.000000 0.056250
0.626875 1.000000 0.056250
0.705000 1.000000 0.056250
0.783125 1.000000 0.056250
0.861250 1.000000 0.056250
0.939375 1.000000 0.056250
1.000000 1.000000 0.056250
1.000000 1.000000 0.056250
1.000000 1.000000 0.056250
1.000000 1.000000 0.056250
1.000000 1.000000 0.056250
0.080000 1.000000 0.056250
0.158125 1.000000 0.056250
0.236250 1.000000 0.056250
0.314375 1.000000 0.056250
0.392500 1.000000 0.056250
0.470625 1.000000 0.056250
0.548750 1.000000 0.056250
0.626875 1.000000 0.056250
0.705000 1.000000 0.056250
0.783125 1.000000 0.056250
0.861250 1.000000 0.056250
0.939375 1.000000 0.056250
1.000000 1.000000 0.056250
1.000000 1.000000 0.056250
1.000000 1.000000 0.056250
1.000000 1.000000 0.056250
1.000000 1.000000 0.056250
0.080000 1.000000 0.056250
0.158125 1.000000 0.056250
0.236250 1.000000 0.056250
0.314375 1.000000 0.056250
0.392500 1.000000 0.056250
0.470625 1.000000 0.056250
0.548750 1.000000 0.056250
0.626875 1.000000 0.056250
0.705000 1.000000 0.056250
0.783125 1.000000 0.056250
0.861250 1.000000 0.056250
0.939375 1.000000 0.056250
1.000000 1.000000 0.056250
1.000000 1.000000 0.056250
1.000000 1.000000 0.056250
1.000000 1.000000 0.056250
1.000000 1.000000 0.056250
0.080000 0.050000 0.109375
0.158125 0.050000 0.109375
0.236250 0.050000 0.109375
0.314375 0.050000 0.109375
0.392500 0.050000 0.109375
0.470625 0.050000 0.109375
0.548750 0.050000 0.109375
0.626875 0.050000 0.109375
0.705000 0.050000 0.109375
0.783125 0.050000 0.109375
0.861250 0.050000 0.109375
0.939375 0.050000 0.109375
1.000000 0.050000 0.109375
1.000000 0.050000 0.109375
1.000000 0.050000 0.109375
1.000000 0.050000 0.109375
1.000000 0.050000 0.109375
0.080000 0.121875 0.109375
