app/src/main/assets/luts/metallic_bronze.cube
# ApexStudio filter: metallic_bronze
LUT_3D_SIZE 5
DOMAIN_MIN 0.0 0.0 0.0
DOMAIN_MAX 1.0 1.0 1.0
0.080000 0.050000 0.000000
0.392500 0.050000 0.000000
0.705000 0.050000 0.000000
1.000000 0.050000 0.000000
1.000000 0.050000 0.000000
0.080000 0.337500 0.000000
0.392500 0.337500 0.000000
0.705000 0.337500 0.000000
1.000000 0.337500 0.000000
1.000000 0.337500 0.000000
0.080000 0.625000 0.000000
0.392500 0.625000 0.000000
0.705000 0.625000 0.000000
1.000000 0.625000 0.000000
1.000000 0.625000 0.000000
0.080000 0.912500 0.000000
0.392500 0.912500 0.000000
0.705000 0.912500 0.000000
1.000000 0.912500 0.000000
1.000000 0.912500 0.000000
0.080000 1.000000 0.000000
0.392500 1.000000 0.000000
0.705000 1.000000 0.000000
1.000000 1.000000 0.000000
1.000000 1.000000 0.000000
0.080000 0.050000 0.162500
0.392500 0.050000 0.162500
0.705000 0.050000 0.162500
1.000000 0.050000 0.162500
1.000000 0.050000 0.162500
0.080000 0.337500 0.162500
0.392500 0.337500 0.162500
0.705000 0.337500 0.162500
1.000000 0.337500 0.162500
1.000000 0.337500 0.162500
0.080000 0.625000 0.162500
0.392500 0.625000 0.162500
0.705000 0.625000 0.162500
1.000000 0.625000 0.162500
1.000000 0.625000 0.162500
0.080000 0.912500 0.162500
0.392500 0.912500 0.162500
0.705000 0.912500 0.162500
1.000000 0.912500 0.162500
1.000000 0.912500 0.162500
0.080000 1.000000 0.162500
0.392500 1.000000 0.162500
0.705000 1.000000 0.162500
1.000000 1.000000 0.162500
1.000000 1.000000 0.162500
0.080000 0.050000 0.375000
0.392500 0.050000 0.375000
0.705000 0.050000 0.375000
1.000000 0.050000 0.375000
1.000000 0.050000 0.375000
0.080000 0.337500 0.375000
0.392500 0.337500 0.375000
0.705000 0.337500 0.375000
1.000000 0.337500 0.375000
1.000000 0.337500 0.375000
0.080000 0.625000 0.375000
0.392500 0.625000 0.375000
0.705000 0.625000 0.375000
1.000000 0.625000 0.375000
1.000000 0.625000 0.375000
0.080000 0.912500 0.375000
0.392500 0.912500 0.375000
0.705000 0.912500 0.375000
1.000000 0.912500 0.375000
1.000000 0.912500 0.375000
0.080000 1.000000 0.375000
0.392500 1.000000 0.375000
0.705000 1.000000 0.375000
1.000000 1.000000 0.375000
1.000000 1.000000 0.375000
0.080000 0.050000 0.587500
0.392500 0.050000 0.587500
0.705000 0.050000 0.587500
1.000000 0.050000 0.587500
1.000000 0.050000 0.587500
0.080000 0.337500 0.587500
0.392500 0.337500 0.587500
0.705000 0.337500 0.587500
1.000000 0.337500 0.587500
1.000000 0.337500 0.587500
0.080000 0.625000 0.587500
0.392500 0.625000 0.587500
0.705000 0.625000 0.587500
1.000000 0.625000 0.587500
1.000000 0.625000 0.587500
0.080000 0.912500 0.587500
0.392500 0.912500 0.587500
0.705000 0.912500 0.587500
1.000000 0.912500 0.587500
1.000000 0.912500 0.587500
0.080000 1.000000 0.587500
0.392500 1.000000 0.587500
0.705000 1.000000 0.587500
1.000000 1.000000 0.587500
1.000000 1.000000 0.587500
0.080000 0.050000 0.800000
0.392500 0.050000 0.800000
0.705000 0.050000 0.800000
1.000000 0.050000 0.800000
1.000000 0.050000 0.800000
0.080000 0.337500 0.800000
0.392500 0.337500 0.800000
0.705000 0.337500 0.800000
1.000000 0.337500 0.800000
1.000000 0.337500 0.800000
0.080000 0.625000 0.800000
0.392500 0.625000 0.800000
0.705000 0.625000 0.800000
1.000000 0.625000 0.800000
1.000000 0.625000 0.800000
0.080000 0.912500 0.800000
0.392500 0.912500 0.800000
0.705000 0.912500 0.800000
1.000000 0.912500 0.800000
1.000000 0.912500 0.800000
0.080000 1.000000 0.800000
0.392500 1.000000 0.800000
0.705000 1.000000 0.800000
1.000000 1.000000 0.800000
1.000000 1.000000 0.800000
