app/src/main/assets/luts/midnight_sun_nordic.cube
# ApexStudio filter: midnight_sun_nordic
LUT_3D_SIZE 17
DOMAIN_MIN 0.0 0.0 0.0
DOMAIN_MAX 1.0 1.0 1.0
0.080000 0.040000 0.000000
0.155000 0.040000 0.000000
0.230000 0.040000 0.000000
0.305000 0.040000 0.000000
0.380000 0.040000 0.000000
0.455000 0.040000 0.000000
0.530000 0.040000 0.000000
0.605000 0.040000 0.000000
0.680000 0.040000 0.000000
0.755000 0.040000 0.000000
0.830000 0.040000 0.000000
0.905000 0.040000 0.000000
0.980000 0.040000 0.000000
1.000000 0.040000 0.000000
1.000000 0.040000 0.000000
1.000000 0.040000 0.000000
1.000000 0.040000 0.000000
0.080000 0.105625 0.000000
0.155000 0.105625 0.000000
0.230000 0.105625 0.000000
0.305000 0.105625 0.000000
0.380000 0.105625 0.000000
0.455000 0.105625 0.000000
0.530000 0.105625 0.000000
0.605000 0.105625 0.000000
0.680000 0.105625 0.000000
0.755000 0.105625 0.000000
0.830000 0.105625 0.000000
0.905000 0.105625 0.000000
0.980000 0.105625 0.000000
1.000000 0.105625 0.000000
1.000000 0.105625 0.000000
1.000000 0.105625 0.000000
1.000000 0.105625 0.000000
0.080000 0.171250 0.000000
0.155000 0.171250 0.000000
0.230000 0.171250 0.000000
0.305000 0.171250 0.000000
0.380000 0.171250 0.000000
0.455000 0.171250 0.000000
0.530000 0.171250 0.000000
0.605000 0.171250 0.000000
0.680000 0.171250 0.000000
0.755000 0.171250 0.000000
0.830000 0.171250 0.000000
0.905000 0.171250 0.000000
0.980000 0.171250 0.000000
1.000000 0.171250 0.000000
1.000000 0.171250 0.000000
1.000000 0.171250 0.000000
1.000000 0.171250 0.000000
0.080000 0.236875 0.000000
0.155000 0.236875 0.000000
0.230000 0.236875 0.000000
0.305000 0.236875 0.000000
0.380000 0.236875 0.000000
0.455000 0.236875 0.000000
0.530000 0.236875 0.000000
0.605000 0.236875 0.000000
0.680000 0.236875 0.000000
0.755000 0.236875 0.000000
0.830000 0.236875 0.000000
0.905000 0.236875 0.000000
0.980000 0.236875 0.000000
1.000000 0.236875 0.000000
1.000000 0.236875 0.000000
1.000000 0.236875 0.000000
1.000000 0.236875 0.000000
0.080000 0.302500 0.000000
0.155000 0.302500 0.000000
0.230000 0.302500 0.000000
0.305000 0.302500 0.000000
0.380000 0.302500 0.000000
0.455000 0.302500 0.000000
0.530000 0.302500 0.000000
0.605000 0.302500 0.000000
0.680000 0.302500 0.000000
0.755000 0.302500 0.000000
0.830000 0.302500 0.000000
0.905000 0.302500 0.000000
0.980000 0.302500 0.000000
1.000000 0.302500 0.000000
1.000000 0.302500 0.000000
1.000000 0.302500 0.000000
1.000000 0.302500 0.000000
0.080000 0.368125 0.000000
0.155000 0.368125 0.000000
0.230000 0.368125 0.000000
0.305000 0.368125 0.000000
0.380000 0.368125 0.000000
0.455000 0.368125 0.000000
0.530000 0.368125 0.000000
0.605000 0.368125 0.000000
0.680000 0.368125 0.000000
0.755000 0.368125 0.000000
0.830000 0.368125 0.000000
0.905000 0.368125 0.000000
0.980000 0.368125 0.000000
1.000000 0.368125 0.000000
1.000000 0.368125 0.000000
1.000000 0.368125 0.000000
1.000000 0.368125 0.000000
0.080000 0.433750 0.000000
0.155000 0.433750 0.000000
0.230000 0.433750 0.000000
0.305000 0.433750 0.000000
0.380000 0.433750 0.000000
0.455000 0.433750 0.000000
0.530000 0.433750 0.000000
0.605000 0.433750 0.000000
0.680000 0.433750 0.000000
0.755000 0.433750 0.000000
0.830000 0.433750 0.000000
0.905000 0.433750 0.000000
0.980000 0.433750 0.000000
1.000000 0.433750 0.000000
1.000000 0.433750 0.000000
1.000000 0.433750 0.000000
1.000000 0.433750 0.000000
0.080000 0.499375 0.000000
0.155000 0.499375 0.000000
0.230000 0.499375 0.000000
0.305000 0.499375 0.000000
0.380000 0.499375 0.000000
0.455000 0.499375 0.000000
0.530000 0.499375 0.000000
0.605000 0.499375 0.000000
0.680000 0.499375 0.000000
0.755000 0.499375 0.000000
0.830000 0.499375 0.000000
0.905000 0.499375 0.000000
0.980000 0.499375 0.000000
1.000000 0.499375 0.000000
1.000000 0.499375 0.000000
1.000000 0.499375 0.000000
1.000000 0.499375 0.000000
0.080000 0.565000 0.000000
0.155000 0.565000 0.000000
0.230000 0.565000 0.000000
0.305000 0.565000 0.000000
0.380000 0.565000 0.000000
0.455000 0.565000 0.000000
0.530000 0.565000 0.000000
0.605000 0.565000 0.000000
0.680000 0.565000 0.000000
0.755000 0.565000 0.000000
0.830000 0.565000 0.000000
0.905000 0.565000 0.000000
0.980000 0.565000 0.000000
1.000000 0.565000 0.000000
1.000000 0.565000 0.000000
1.000000 0.565000 0.000000
1.000000 0.565000 0.000000
0.080000 0.630625 0.000000
0.155000 0.630625 0.000000
0.230000 0.630625 0.000000
0.305000 0.630625 0.000000
0.380000 0.630625 0.000000
0.455000 0.630625 0.000000
0.530000 0.630625 0.000000
0.605000 0.630625 0.000000
0.680000 0.630625 0.000000
0.755000 0.630625 0.000000
0.830000 0.630625 0.000000
0.905000 0.630625 0.000000
0.980000 0.630625 0.000000
1.000000 0.630625 0.000000
1.000000 0.630625 0.000000
1.000000 0.630625 0.000000
1.000000 0.630625 0.000000
0.080000 0.696250 0.000000
0.155000 0.696250 0.000000
0.230000 0.696250 0.000000
0.305000 0.696250 0.000000
0.380000 0.696250 0.000000
0.455000 0.696250 0.000000
0.530000 0.696250 0.000000
0.605000 0.696250 0.000000
0.680000 0.696250 0.000000
0.755000 0.696250 0.000000
0.830000 0.696250 0.000000
0.905000 0.696250 0.000000
0.980000 0.696250 0.000000
1.000000 0.696250 0.000000
1.000000 0.696250 0.000000
1.000000 0.696250 0.000000
1.000000 0.696250 0.000000
0.080000 0.761875 0.000000
0.155000 0.761875 0.000000
0.230000 0.761875 0.000000
0.305000 0.761875 0.000000
0.380000 0.761875 0.000000
0.455000 0.761875 0.000000
0.530000 0.761875 0.000000
0.605000 0.761875 0.000000
0.680000 0.761875 0.000000
0.755000 0.761875 0.000000
0.830000 0.761875 0.000000
0.905000 0.761875 0.000000
0.980000 0.761875 0.000000
1.000000 0.761875 0.000000
1.000000 0.761875 0.000000
1.000000 0.761875 0.000000
1.000000 0.761875 0.000000
0.080000 0.827500 0.000000
0.155000 0.827500 0.000000
0.230000 0.827500 0.000000
0.305000 0.827500 0.000000
0.380000 0.827500 0.000000
0.455000 0.827500 0.000000
0.530000 0.827500 0.000000
0.605000 0.827500 0.000000
0.680000 0.827500 0.000000
0.755000 0.827500 0.000000
0.830000 0.827500 0.000000
0.905000 0.827500 0.000000
0.980000 0.827500 0.000000
1.000000 0.827500 0.000000
1.000000 0.827500 0.000000
1.000000 0.827500 0.000000
1.000000 0.827500 0.000000
0.080000 0.893125 0.000000
0.155000 0.893125 0.000000
0.230000 0.893125 0.000000
0.305000 0.893125 0.000000
0.380000 0.893125 0.000000
0.455000 0.893125 0.000000
0.530000 0.893125 0.000000
0.605000 0.893125 0.000000
0.680000 0.893125 0.000000
0.755000 0.893125 0.000000
0.830000 0.893125 0.000000
0.905000 0.893125 0.000000
0.980000 0.893125 0.000000
1.000000 0.893125 0.000000
1.000000 0.893125 0.000000
1.000000 0.893125 0.000000
1.000000 0.893125 0.000000
0.080000 0.958750 0.000000
0.155000 0.958750 0.000000
0.230000 0.958750 0.000000
0.305000 0.958750 0.000000
0.380000 0.958750 0.000000
0.455000 0.958750 0.000000
0.530000 0.958750 0.000000
0.605000 0.958750 0.000000
0.680000 0.958750 0.000000
0.755000 0.958750 0.000000
0.830000 0.958750 0.000000
0.905000 0.958750 0.000000
0.980000 0.958750 0.000000
1.000000 0.958750 0.000000
1.000000 0.958750 0.000000
1.000000 0.958750 0.000000
1.000000 0.958750 0.000000
0.080000 1.000000 0.000000
0.155000 1.000000 0.000000
0.230000 1.000000 0.000000
0.305000 1.000000 0.000000
0.380000 1.000000 0.000000
0.455000 1.000000 0.000000
0.530000 1.000000 0.000000
0.605000 1.000000 0.000000
0.680000 1.000000 0.000000
0.755000 1.000000 0.000000
0.830000 1.000000 0.000000
0.905000 1.000000 0.000000
0.980000 1.000000 0.000000
1.000000 1.000000 0.000000
1.000000 1.000000 0.000000
1.000000 1.000000 0.000000
1.000000 1.000000 0.000000
0.080000 1.000000 0.000000
0.155000 1.000000 0.000000
0.230000 1.000000 0.000000
0.305000 1.000000 0.000000
0.380000 1.000000 0.000000
0.455000 1.000000 0.000000
0.530000 1.000000 0.000000
0.605000 1.000000 0.000000
0.680000 1.000000 0.000000
0.755000 1.000000 0.000000
0.830000 1.000000 0.000000
0.905000 1.000000 0.000000
0.980000 1.000000 0.000000
1.000000 1.000000 0.000000
1.000000 1.000000 0.000000
1.000000 1.000000 0.000000
1.000000 1.000000 0.000000
0.080000 0.040000 0.039375
0.155000 0.040000 0.039375
0.230000 0.040000 0.039375
0.305000 0.040000 0.039375
0.380000 0.040000 0.039375
0.455000 0.040000 0.039375
0.530000 0.040000 0.039375
0.605000 0.040000 0.039375
0.680000 0.040000 0.039375
0.755000 0.040000 0.039375
0.830000 0.040000 0.039375
0.905000 0.040000 0.039375
0.980000 0.040000 0.039375
1.000000 0.040000 0.039375
1.000000 0.040000 0.039375
1.000000 0.040000 0.039375
1.000000 0.040000 0.039375
0.080000 0.105625 0.039375
0.155000 0.105625 0.039375
0.230000 0.105625 0.039375
0.305000 0.105625 0.039375
0.380000 0.105625 0.039375
0.455000 0.105625 0.039375
0.530000 0.105625 0.039375
0.605000 0.105625 0.039375
0.680000 0.105625 0.039375
0.755000 0.105625 0.039375
0.830000 0.105625 0.039375
0.905000 0.105625 0.039375
0.980000 0.105625 0.039375
1.000000 0.105625 0.039375
1.000000 0.105625 0.039375
1.000000 0.105625 0.039375
1.000000 0.105625 0.039375
0.080000 0.171250 0.039375
0.155000 0.171250 0.039375
0.230000 0.171250 0.039375
0.305000 0.171250 0.039375
0.380000 0.171250 0.039375
0.455000 0.171250 0.039375
0.530000 0.171250 0.039375
0.605000 0.171250 0.039375
0.680000 0.171250 0.039375
0.755000 0.171250 0.039375
0.830000 0.171250 0.039375
0.905000 0.171250 0.039375
0.980000 0.171250 0.039375
1.000000 0.171250 0.039375
1.000000 0.171250 0.039375
1.000000 0.171250 0.039375
1.000000 0.171250 0.039375
0.080000 0.236875 0.039375
0.155000 0.236875 0.039375
0.230000 0.236875 0.039375
0.305000 0.236875 0.039375
0.380000 0.236875 0.039375
0.455000 0.236875 0.039375
0.530000 0.236875 0.039375
0.605000 0.236875 0.039375
0.680000 0.236875 0.039375
0.755000 0.236875 0.039375
0.830000 0.236875 0.039375
0.905000 0.236875 0.039375
0.980000 0.236875 0.039375
1.000000 0.236875 0.039375
1.000000 0.236875 0.039375
1.000000 0.236875 0.039375
1.000000 0.236875 0.039375
0.080000 0.302500 0.039375
0.155000 0.302500 0.039375
0.230000 0.302500 0.039375
0.305000 0.302500 0.039375
0.380000 0.302500 0.039375
0.455000 0.302500 0.039375
0.530000 0.302500 0.039375
0.605000 0.302500 0.039375
0.680000 0.302500 0.039375
0.755000 0.302500 0.039375
0.830000 0.302500 0.039375
0.905000 0.302500 0.039375
0.980000 0.302500 0.039375
1.000000 0.302500 0.039375
1.000000 0.302500 0.039375
1.000000 0.302500 0.039375
1.000000 0.302500 0.039375
0.080000 0.368125 0.039375
0.155000 0.368125 0.039375
0.230000 0.368125 0.039375
0.305000 0.368125 0.039375
0.380000 0.368125 0.039375
0.455000 0.368125 0.039375
0.530000 0.368125 0.039375
0.605000 0.368125 0.039375
0.680000 0.368125 0.039375
0.755000 0.368125 0.039375
0.830000 0.368125 0.039375
0.905000 0.368125 0.039375
0.980000 0.368125 0.039375
1.000000 0.368125 0.039375
1.000000 0.368125 0.039375
1.000000 0.368125 0.039375
1.000000 0.368125 0.039375
0.080000 0.433750 0.039375
0.155000 0.433750 0.039375
0.230000 0.433750 0.039375
0.305000 0.433750 0.039375
0.380000 0.433750 0.039375
0.455000 0.433750 0.039375
0.530000 0.433750 0.039375
0.605000 0.433750 0.039375
0.680000 0.433750 0.039375
0.755000 0.433750 0.039375
0.830000 0.433750 0.039375
0.905000 0.433750 0.039375
0.980000 0.433750 0.039375
1.000000 0.433750 0.039375
1.000000 0.433750 0.039375
1.000000 0.433750 0.039375
1.000000 0.433750 0.039375
0.080000 0.499375 0.039375
0.155000 0.499375 0.039375
0.230000 0.499375 0.039375
0.305000 0.499375 0.039375
0.380000 0.499375 0.039375
0.455000 0.499375 0.039375
0.530000 0.499375 0.039375
0.605000 0.499375 0.039375
0.680000 0.499375 0.039375
0.755000 0.499375 0.039375
0.830000 0.499375 0.039375
0.905000 0.499375 0.039375
0.980000 0.499375 0.039375
1.000000 0.499375 0.039375
1.000000 0.499375 0.039375
1.000000 0.499375 0.039375
1.000000 0.499375 0.039375
0.080000 0.565000 0.039375
0.155000 0.565000 0.039375
0.230000 0.565000 0.039375
0.305000 0.565000 0.039375
0.380000 0.565000 0.039375
0.455000 0.565000 0.039375
0.530000 0.565000 0.039375
0.605000 0.565000 0.039375
0.680000 0.565000 0.039375
0.755000 0.565000 0.039375
0.830000 0.565000 0.039375
0.905000 0.565000 0.039375
0.980000 0.565000 0.039375
1.000000 0.565000 0.039375
1.000000 0.565000 0.039375
1.000000 0.565000 0.039375
1.000000 0.565000 0.039375
0.080000 0.630625 0.039375
0.155000 0.630625 0.039375
0.230000 0.630625 0.039375
0.305000 0.630625 0.039375
0.380000 0.630625 0.039375
0.455000 0.630625 0.039375
0.530000 0.630625 0.039375
0.605000 0.630625 0.039375
0.680000 0.630625 0.039375
0.755000 0.630625 0.039375
0.830000 0.630625 0.039375
0.905000 0.630625 0.039375
0.980000 0.630625 0.039375
1.000000 0.630625 0.039375
1.000000 0.630625 0.039375
1.000000 0.630625 0.039375
1.000000 0.630625 0.039375
0.080000 0.696250 0.039375
0.155000 0.696250 0.039375
0.230000 0.696250 0.039375
0.305000 0.696250 0.039375
0.380000 0.696250 0.039375
0.455000 0.696250 0.039375
0.530000 0.696250 0.039375
0.605000 0.696250 0.039375
0.680000 0.696250 0.039375
0.755000 0.696250 0.039375
0.830000 0.696250 0.039375
0.905000 0.696250 0.039375
0.980000 0.696250 0.039375
1.000000 0.696250 0.039375
1.000000 0.696250 0.039375
1.000000 0.696250 0.039375
1.000000 0.696250 0.039375
0.080000 0.761875 0.039375
0.155000 0.761875 0.039375
0.230000 0.761875 0.039375
0.305000 0.761875 0.039375
0.380000 0.761875 0.039375
0.455000 0.761875 0.039375
0.530000 0.761875 0.039375
0.605000 0.761875 0.039375
0.680000 0.761875 0.039375
0.755000 0.761875 0.039375
0.830000 0.761875 0.039375
0.905000 0.761875 0.039375
0.980000 0.761875 0.039375
1.000000 0.761875 0.039375
1.000000 0.761875 0.039375
1.000000 0.761875 0.039375
1.000000 0.761875 0.039375
0.080000 0.827500 0.039375
0.155000 0.827500 0.039375
0.230000 0.827500 0.039375
0.305000 0.827500 0.039375
0.380000 0.827500 0.039375
0.455000 0.827500 0.039375
0.530000 0.827500 0.039375
0.605000 0.827500 0.039375
0.680000 0.827500 0.039375
0.755000 0.827500 0.039375
0.830000 0.827500 0.039375
0.905000 0.827500 0.039375
0.980000 0.827500 0.039375
1.000000 0.827500 0.039375
1.000000 0.827500 0.039375
1.000000 0.827500 0.039375
1.000000 0.827500 0.039375
0.080000 0.893125 0.039375
0.155000 0.893125 0.039375
0.230000 0.893125 0.039375
0.305000 0.893125 0.039375
0.380000 0.893125 0.039375
0.455000 0.893125 0.039375
0.530000 0.893125 0.039375
0.605000 0.893125 0.039375
0.680000 0.893125 0.039375
0.755000 0.893125 0.039375
0.830000 0.893125 0.039375
0.905000 0.893125 0.039375
0.980000 0.893125 0.039375
1.000000 0.893125 0.039375
1.000000 0.893125 0.039375
1.000000 0.893125 0.039375
1.000000 0.893125 0.039375
0.080000 0.958750 0.039375
0.155000 0.958750 0.039375
0.230000 0.958750 0.039375
0.305000 0.958750 0.039375
0.380000 0.958750 0.039375
0.455000 0.958750 0.039375
0.530000 0.958750 0.039375
0.605000 0.958750 0.039375
0.680000 0.958750 0.039375
0.755000 0.958750 0.039375
0.830000 0.958750 0.039375
0.905000 0.958750 0.039375
0.980000 0.958750 0.039375
1.000000 0.958750 0.039375
1.000000 0.958750 0.039375
1.000000 0.958750 0.039375
1.000000 0.958750 0.039375
0.080000 1.000000 0.039375
0.155000 1.000000 0.039375
0.230000 1.000000 0.039375
0.305000 1.000000 0.039375
0.380000 1.000000 0.039375
0.455000 1.000000 0.039375
0.530000 1.000000 0.039375
0.605000 1.000000 0.039375
0.680000 1.000000 0.039375
0.755000 1.000000 0.039375
0.830000 1.000000 0.039375
0.905000 1.000000 0.039375
0.980000 1.000000 0.039375
1.000000 1.000000 0.039375
1.000000 1.000000 0.039375
1.000000 1.000000 0.039375
1.000000 1.000000 0.039375
0.080000 1.000000 0.039375
0.155000 1.000000 0.039375
0.230000 1.000000 0.039375
0.305000 1.000000 0.039375
0.380000 1.000000 0.039375
0.455000 1.000000 0.039375
0.530000 1.000000 0.039375
0.605000 1.000000 0.039375
0.680000 1.000000 0.039375
0.755000 1.000000 0.039375
0.830000 1.000000 0.039375
0.905000 1.000000 0.039375
0.980000 1.000000 0.039375
1.000000 1.000000 0.039375
1.000000 1.000000 0.039375
1.000000 1.000000 0.039375
1.000000 1.000000 0.039375
0.080000 0.040000 0.098750
0.155000 0.040000 0.098750
0.230000 0.040000 0.098750
0.305000 0.040000 0.098750
0.380000 0.040000 0.098750
0.455000 0.040000 0.098750
0.530000 0.040000 0.098750
0.605000 0.040000 0.098750
0.680000 0.040000 0.098750
0.755000 0.040000 0.098750
0.830000 0.040000 0.098750
0.905000 0.040000 0.098750
0.980000 0.040000 0.098750
1.000000 0.040000 0.098750
1.000000 0.040000 0.098750
1.000000 0.040000 0.098750
1.000000 0.040000 0.098750
0.080000 0.105625 0.098750
0.155000 0.105625 0.098750
0.230000 0.105625 0.098750
0.305000 0.105625 0.098750
0.380000 0.105625 0.098750
0.455000 0.105625 0.098750
0.530000 0.105625 0.098750
0.605000 0.105625 0.098750
0.680000 0.105625 0.098750
0.755000 0.105625 0.098750
0.830000 0.105625 0.098750
0.905000 0.105625 0.098750
0.980000 0.105625 0.098750
1.000000 0.105625 0.098750
1.000000 0.105625 0.098750
1.000000 0.105625 0.098750
1.000000 0.105625 0.098750
0.080000 0.171250 0.098750
0.155000 0.171250 0.098750
0.230000 0.171250 0.098750
0.305000 0.171250 0.098750
0.380000 0.171250 0.098750
0.455000 0.171250 0.098750
0.530000 0.171250 0.098750
0.605000 0.171250 0.098750
0.680000 0.171250 0.098750
0.755000 0.171250 0.098750
0.830000 0.171250 0.098750
0.905000 0.171250 0.098750
0.980000 0.171250 0.098750
1.000000 0.171250 0.098750
1.000000 0.171250 0.098750
1.000000 0.171250 0.098750
1.000000 0.171250 0.098750
0.080000 0.236875 0.098750
0.155000 0.236875 0.098750
0.230000 0.236875 0.098750
0.305000 0.236875 0.098750
0.380000 0.236875 0.098750
0.455000 0.236875 0.098750
0.530000 0.236875 0.098750
0.605000 0.236875 0.098750
0.680000 0.236875 0.098750
0.755000 0.236875 0.098750
0.830000 0.236875 0.098750
0.905000 0.236875 0.098750
0.980000 0.236875 0.098750
1.000000 0.236875 0.098750
1.000000 0.236875 0.098750
1.000000 0.236875 0.098750
1.000000 0.236875 0.098750
0.080000 0.302500 0.098750
0.155000 0.302500 0.098750
0.230000 0.302500 0.098750
0.305000 0.302500 0.098750
0.380000 0.302500 0.098750
0.455000 0.302500 0.098750
0.530000 0.302500 0.098750
0.605000 0.302500 0.098750
0.680000 0.302500 0.098750
0.755000 0.302500 0.098750
0.830000 0.302500 0.098750
0.905000 0.302500 0.098750
0.980000 0.302500 0.098750
1.000000 0.302500 0.098750
1.000000 0.302500 0.098750
1.000000 0.302500 0.098750
1.000000 0.302500 0.098750
0.080000 0.368125 0.098750
0.155000 0.368125 0.098750
0.230000 0.368125 0.098750
0.305000 0.368125 0.098750
0.380000 0.368125 0.098750
0.455000 0.368125 0.098750
0.530000 0.368125 0.098750
0.605000 0.368125 0.098750
0.680000 0.368125 0.098750
0.755000 0.368125 0.098750
0.830000 0.368125 0.098750
0.905000 0.368125 0.098750
0.980000 0.368125 0.098750
1.000000 0.368125 0.098750
1.000000 0.368125 0.098750
1.000000 0.368125 0.098750
1.000000 0.368125 0.098750
0.080000 0.433750 0.098750
0.155000 0.433750 0.098750
0.230000 0.433750 0.098750
0.305000 0.433750 0.098750
0.380000 0.433750 0.098750
0.455000 0.433750 0.098750
0.530000 0.433750 0.098750
0.605000 0.433750 0.098750
0.680000 0.433750 0.098750
0.755000 0.433750 0.098750
0.830000 0.433750 0.098750
0.905000 0.433750 0.098750
0.980000 0.433750 0.098750
1.000000 0.433750 0.098750
1.000000 0.433750 0.098750
1.000000 0.433750 0.098750
1.000000 0.433750 0.098750
0.080000 0.499375 0.098750
0.155000 0.499375 0.098750
0.230000 0.499375 0.098750
0.305000 0.499375 0.098750
0.380000 0.499375 0.098750
0.455000 0.499375 0.098750
0.530000 0.499375 0.098750
0.605000 0.499375 0.098750
0.680000 0.499375 0.098750
0.755000 0.499375 0.098750
0.830000 0.499375 0.098750
0.905000 0.499375 0.098750
0.980000 0.499375 0.098750
1.000000 0.499375 0.098750
1.000000 0.499375 0.098750
1.000000 0.499375 0.098750
1.000000 0.499375 0.098750
0.080000 0.565000 0.098750
0.155000 0.565000 0.098750
0.230000 0.565000 0.098750
0.305000 0.565000 0.098750
0.380000 0.565000 0.098750
0.455000 0.565000 0.098750
0.530000 0.565000 0.098750
0.605000 0.565000 0.098750
0.680000 0.565000 0.098750
0.755000 0.565000 0.098750
0.830000 0.565000 0.098750
0.905000 0.565000 0.098750
0.980000 0.565000 0.098750
1.000000 0.565000 0.098750
1.000000 0.565000 0.098750
1.000000 0.565000 0.098750
1.000000 0.565000 0.098750
0.080000 0.630625 0.098750
0.155000 0.630625 0.098750
0.230000 0.630625 0.098750
0.305000 0.630625 0.098750
0.380000 0.630625 0.098750
0.455000 0.630625 0.098750
0.530000 0.630625 0.098750
0.605000 0.630625 0.098750
0.680000 0.630625 0.098750
0.755000 0.630625 0.098750
0.830000 0.630625 0.098750
0.905000 0.630625 0.098750
0.980000 0.630625 0.098750
1.000000 0.630625 0.098750
1.000000 0.630625 0.098750
1.000000 0.630625 0.098750
1.000000 0.630625 0.098750
0.080000 0.696250 0.098750
0.155000 0.696250 0.098750
0.230000 0.696250 0.098750
0.305000 0.696250 0.098750
0.380000 0.696250 0.098750
0.455000 0.696250 0.098750
0.530000 0.696250 0.098750
0.605000 0.696250 0.098750
0.680000 0.696250 0.098750
0.755000 0.696250 0.098750
0.830000 0.696250 0.098750
0.905000 0.696250 0.098750
0.980000 0.696250 0.098750
1.000000 0.696250 0.098750
1.000000 0.696250 0.098750
1.000000 0.696250 0.098750
1.000000 0.696250 0.098750
0.080000 0.761875 0.098750
0.155000 0.761875 0.098750
0.230000 0.761875 0.098750
0.305000 0.761875 0.098750
0.380000 0.761875 0.098750
0.455000 0.761875 0.098750
0.530000 0.761875 0.098750
0.605000 0.761875 0.098750
0.680000 0.761875 0.098750
0.755000 0.761875 0.098750
0.830000 0.761875 0.098750
0.905000 0.761875 0.098750
0.980000 0.761875 0.098750
1.000000 0.761875 0.098750
1.000000 0.761875 0.098750
1.000000 0.761875 0.098750
1.000000 0.761875 0.098750
0.080000 0.827500 0.098750
0.155000 0.827500 0.098750
0.230000 0.827500 0.098750
0.305000 0.827500 0.098750
0.380000 0.827500 0.098750
0.455000 0.827500 0.098750
0.530000 0.827500 0.098750
0.605000 0.827500 0.098750
0.680000 0.827500 0.098750
0.755000 0.827500 0.098750
0.830000 0.827500 0.098750
0.905000 0.827500 0.098750
0.980000 0.827500 0.098750
1.000000 0.827500 0.098750
1.000000 0.827500 0.098750
1.000000 0.827500 0.098750
1.000000 0.827500 0.098750
0.080000 0.893125 0.098750
0.155000 0.893125 0.098750
0.230000 0.893125 0.098750
0.305000 0.893125 0.098750
0.380000 0.893125 0.098750
0.455000 0.893125 0.098750
0.530000 0.893125 0.098750
0.605000 0.893125 0.098750
0.680000 0.893125 0.098750
0.755000 0.893125 0.098750
0.830000 0.893125 0.098750
0.905000 0.893125 0.098750
0.980000 0.893125 0.098750
1.000000 0.893125 0.098750
1.000000 0.893125 0.098750
1.000000 0.893125 0.098750
1.000000 0.893125 0.098750
0.080000 0.958750 0.098750
0.155000 0.958750 0.098750
0.230000 0.958750 0.098750
0.305000 0.958750 0.098750
0.380000 0.958750 0.098750
0.455000 0.958750 0.098750
0.530000 0.958750 0.098750
0.605000 0.958750 0.098750
0.680000 0.958750 0.098750
0.755000 0.958750 0.098750
0.830000 0.958750 0.098750
0.905000 0.958750 0.098750
0.980000 0.958750 0.098750
1.000000 0.958750 0.098750
1.000000 0.958750 0.098750
1.000000 0.958750 0.098750
1.000000 0.958750 0.098750
0.080000 1.000000 0.098750
0.155000 1.000000 0.098750
0.230000 1.000000 0.098750
0.305000 1.000000 0.098750
0.380000 1.000000 0.098750
0.455000 1.000000 0.098750
0.530000 1.000000 0.098750
0.605000 1.000000 0.098750
0.680000 1.000000 0.098750
0.755000 1.000000 0.098750
0.830000 1.000000 0.098750
0.905000 1.000000 0.098750
0.980000 1.000000 0.098750
1.000000 1.000000 0.098750
1.000000 1.000000 0.098750
1.000000 1.000000 0.098750
1.000000 1.000000 0.098750
0.080000 1.000000 0.098750
0.155000 1.000000 0.098750
0.230000 1.000000 0.098750
0.305000 1.000000 0.098750
0.380000 1.000000 0.098750
0.455000 1.000000 0.098750
0.530000 1.000000 0.098750
0.605000 1.000000 0.098750
0.680000 1.000000 0.098750
0.755000 1.000000 0.098750
0.830000 1.000000 0.098750
0.905000 1.000000 0.098750
0.980000 1.000000 0.098750
1.000000 1.000000 0.098750
1.000000 1.000000 0.098750
1.000000 1.000000 0.098750
1.000000 1.000000 0.098750
0.080000 0.040000 0.158125
0.155000 0.040000 0.158125
0.230000 0.040000 0.158125
0.305000 0.040000 0.158125
0.380000 0.040000 0.158125
0.455000 0.040000 0.158125
0.530000 0.040000 0.158125
0.605000 0.040000 0.158125
0.680000 0.040000 0.158125
0.755000 0.040000 0.158125
0.830000 0.040000 0.158125
0.905000 0.040000 0.158125
0.980000 0.040000 0.158125
1.000000 0.040000 0.158125
1.000000 0.040000 0.158125
1.000000 0.040000 0.158125
1.000000 0.040000 0.158125
0.080000 0.105625 0.158125
