app/src/main/assets/luts/midnight_sun_nordic.cube
# ApexStudio filter: midnight_sun_nordic
LUT_3D_SIZE 5
DOMAIN_MIN 0.0 0.0 0.0
DOMAIN_MAX 1.0 1.0 1.0
0.080000 0.040000 0.000000
0.380000 0.040000 0.000000
0.680000 0.040000 0.000000
0.980000 0.040000 0.000000
1.000000 0.040000 0.000000
0.080000 0.302500 0.000000
0.380000 0.302500 0.000000
0.680000 0.302500 0.000000
0.980000 0.302500 0.000000
1.000000 0.302500 0.000000
0.080000 0.565000 0.000000
0.380000 0.565000 0.000000
0.680000 0.565000 0.000000
0.980000 0.565000 0.000000
1.000000 0.565000 0.000000
0.080000 0.827500 0.000000
0.380000 0.827500 0.000000
0.680000 0.827500 0.000000
0.980000 0.827500 0.000000
1.000000 0.827500 0.000000
0.080000 1.000000 0.000000
0.380000 1.000000 0.000000
0.680000 1.000000 0.000000
0.980000 1.000000 0.000000
1.000000 1.000000 0.000000
0.080000 0.040000 0.217500
0.380000 0.040000 0.217500
0.680000 0.040000 0.217500
0.980000 0.040000 0.217500
1.000000 0.040000 0.217500
0.080000 0.302500 0.217500
0.380000 0.302500 0.217500
0.680000 0.302500 0.217500
0.980000 0.302500 0.217500
1.000000 0.302500 0.217500
0.080000 0.565000 0.217500
0.380000 0.565000 0.217500
0.680000 0.565000 0.217500
0.980000 0.565000 0.217500
1.000000 0.565000 0.217500
0.080000 0.827500 0.217500
0.380000 0.827500 0.217500
0.680000 0.827500 0.217500
0.980000 0.827500 0.217500
1.000000 0.827500 0.217500
0.080000 1.000000 0.217500
0.380000 1.000000 0.217500
0.680000 1.000000 0.217500
0.980000 1.000000 0.217500
1.000000 1.000000 0.217500
0.080000 0.040000 0.455000
0.380000 0.040000 0.455000
0.680000 0.040000 0.455000
0.980000 0.040000 0.455000
1.000000 0.040000 0.455000
0.080000 0.302500 0.455000
0.380000 0.302500 0.455000
0.680000 0.302500 0.455000
0.980000 0.302500 0.455000
1.000000 0.302500 0.455000
0.080000 0.565000 0.455000
0.380000 0.565000 0.455000
0.680000 0.565000 0.455000
0.980000 0.565000 0.455000
1.000000 0.565000 0.455000
0.080000 0.827500 0.455000
0.380000 0.827500 0.455000
0.680000 0.827500 0.455000
0.980000 0.827500 0.455000
1.000000 0.827500 0.455000
0.080000 1.000000 0.455000
0.380000 1.000000 0.455000
0.680000 1.000000 0.455000
0.980000 1.000000 0.455000
1.000000 1.000000 0.455000
0.080000 0.040000 0.692500
0.380000 0.040000 0.692500
0.680000 0.040000 0.692500
0.980000 0.040000 0.692500
1.000000 0.040000 0.692500
0.080000 0.302500 0.692500
0.380000 0.302500 0.692500
0.680000 0.302500 0.692500
0.980000 0.302500 0.692500
1.000000 0.302500 0.692500
0.080000 0.565000 0.692500
0.380000 0.565000 0.692500
0.680000 0.565000 0.692500
0.980000 0.565000 0.692500
1.000000 0.565000 0.692500
0.080000 0.827500 0.692500
0.380000 0.827500 0.692500
0.680000 0.827500 0.692500
0.980000 0.827500 0.692500
1.000000 0.827500 0.692500
0.080000 1.000000 0.692500
0.380000 1.000000 0.692500
0.680000 1.000000 0.692500
0.980000 1.000000 0.692500
1.000000 1.000000 0.692500
0.080000 0.040000 0.930000
0.380000 0.040000 0.930000
0.680000 0.040000 0.930000
0.980000 0.040000 0.930000
1.000000 0.040000 0.930000
0.080000 0.302500 0.930000
0.380000 0.302500 0.930000
0.680000 0.302500 0.930000
0.980000 0.302500 0.930000
1.000000 0.302500 0.930000
0.080000 0.565000 0.930000
0.380000 0.565000 0.930000
0.680000 0.565000 0.930000
0.980000 0.565000 0.930000
1.000000 0.565000 0.930000
0.080000 0.827500 0.930000
0.380000 0.827500 0.930000
0.680000 0.827500 0.930000
0.980000 0.827500 0.930000
1.000000 0.827500 0.930000
0.080000 1.000000 0.930000
0.380000 1.000000 0.930000
0.680000 1.000000 0.930000
0.980000 1.000000 0.930000
1.000000 1.000000 0.930000
