app/src/main/assets/luts/midnight_sun_nordic.cube
# ApexStudio filter: midnight_sun_nordic
LUT_3D_SIZE 9
DOMAIN_MIN 0.0 0.0 0.0
DOMAIN_MAX 1.0 1.0 1.0
0.080000 0.040000 0.000000
0.230000 0.040000 0.000000
0.380000 0.040000 0.000000
0.530000 0.040000 0.000000
0.680000 0.040000 0.000000
0.830000 0.040000 0.000000
0.980000 0.040000 0.000000
1.000000 0.040000 0.000000
1.000000 0.040000 0.000000
0.080000 0.171250 0.000000
0.230000 0.171250 0.000000
0.380000 0.171250 0.000000
0.530000 0.171250 0.000000
0.680000 0.171250 0.000000
0.830000 0.171250 0.000000
0.980000 0.171250 0.000000
1.000000 0.171250 0.000000
1.000000 0.171250 0.000000
0.080000 0.302500 0.000000
0.230000 0.302500 0.000000
0.380000 0.302500 0.000000
0.530000 0.302500 0.000000
0.680000 0.302500 0.000000
0.830000 0.302500 0.000000
0.980000 0.302500 0.000000
1.000000 0.302500 0.000000
1.000000 0.302500 0.000000
0.080000 0.433750 0.000000
0.230000 0.433750 0.000000
0.380000 0.433750 0.000000
0.530000 0.433750 0.000000
0.680000 0.433750 0.000000
0.830000 0.433750 0.000000
0.980000 0.433750 0.000000
1.000000 0.433750 0.000000
1.000000 0.433750 0.000000
0.080000 0.565000 0.000000
0.230000 0.565000 0.000000
0.380000 0.565000 0.000000
0.530000 0.565000 0.000000
0.680000 0.565000 0.000000
0.830000 0.565000 0.000000
0.980000 0.565000 0.000000
1.000000 0.565000 0.000000
1.000000 0.565000 0.000000
0.080000 0.696250 0.000000
0.230000 0.696250 0.000000
0.380000 0.696250 0.000000
0.530000 0.696250 0.000000
0.680000 0.696250 0.000000
0.830000 0.696250 0.000000
0.980000 0.696250 0.000000
1.000000 0.696250 0.000000
1.000000 0.696250 0.000000
0.080000 0.827500 0.000000
0.230000 0.827500 0.000000
0.380000 0.827500 0.000000
0.530000 0.827500 0.000000
0.680000 0.827500 0.000000
0.830000 0.827500 0.000000
0.980000 0.827500 0.000000
1.000000 0.827500 0.000000
1.000000 0.827500 0.000000
0.080000 0.958750 0.000000
0.230000 0.958750 0.000000
0.380000 0.958750 0.000000
0.530000 0.958750 0.000000
0.680000 0.958750 0.000000
0.830000 0.958750 0.000000
0.980000 0.958750 0.000000
1.000000 0.958750 0.000000
1.000000 0.958750 0.000000
0.080000 1.000000 0.000000
0.230000 1.000000 0.000000
0.380000 1.000000 0.000000
0.530000 1.000000 0.000000
0.680000 1.000000 0.000000
0.830000 1.000000 0.000000
0.980000 1.000000 0.000000
1.000000 1.000000 0.000000
1.000000 1.000000 0.000000
0.080000 0.040000 0.098750
0.230000 0.040000 0.098750
0.380000 0.040000 0.098750
0.530000 0.040000 0.098750
0.680000 0.040000 0.098750
0.830000 0.040000 0.098750
0.980000 0.040000 0.098750
1.000000 0.040000 0.098750
1.000000 0.040000 0.098750
0.080000 0.171250 0.098750
0.230000 0.171250 0.098750
0.380000 0.171250 0.098750
0.530000 0.171250 0.098750
0.680000 0.171250 0.098750
0.830000 0.171250 0.098750
0.980000 0.171250 0.098750
1.000000 0.171250 0.098750
1.000000 0.171250 0.098750
0.080000 0.302500 0.098750
0.230000 0.302500 0.098750
0.380000 0.302500 0.098750
0.530000 0.302500 0.098750
0.680000 0.302500 0.098750
0.830000 0.302500 0.098750
0.980000 0.302500 0.098750
1.000000 0.302500 0.098750
1.000000 0.302500 0.098750
0.080000 0.433750 0.098750
0.230000 0.433750 0.098750
0.380000 0.433750 0.098750
0.530000 0.433750 0.098750
0.680000 0.433750 0.098750
0.830000 0.433750 0.098750
0.980000 0.433750 0.098750
1.000000 0.433750 0.098750
1.000000 0.433750 0.098750
0.080000 0.565000 0.098750
0.230000 0.565000 0.098750
0.380000 0.565000 0.098750
0.530000 0.565000 0.098750
0.680000 0.565000 0.098750
0.830000 0.565000 0.098750
0.980000 0.565000 0.098750
1.000000 0.565000 0.098750
1.000000 0.565000 0.098750
0.080000 0.696250 0.098750
0.230000 0.696250 0.098750
0.380000 0.696250 0.098750
0.530000 0.696250 0.098750
0.680000 0.696250 0.098750
0.830000 0.696250 0.098750
0.980000 0.696250 0.098750
1.000000 0.696250 0.098750
1.000000 0.696250 0.098750
0.080000 0.827500 0.098750
0.230000 0.827500 0.098750
0.380000 0.827500 0.098750
0.530000 0.827500 0.098750
0.680000 0.827500 0.098750
0.830000 0.827500 0.098750
0.980000 0.827500 0.098750
1.000000 0.827500 0.098750
1.000000 0.827500 0.098750
0.080000 0.958750 0.098750
0.230000 0.958750 0.098750
0.380000 0.958750 0.098750
0.530000 0.958750 0.098750
0.680000 0.958750 0.098750
0.830000 0.958750 0.098750
0.980000 0.958750 0.098750
1.000000 0.958750 0.098750
1.000000 0.958750 0.098750
0.080000 1.000000 0.098750
0.230000 1.000000 0.098750
0.380000 1.000000 0.098750
0.530000 1.000000 0.098750
0.680000 1.000000 0.098750
0.830000 1.000000 0.098750
0.980000 1.000000 0.098750
1.000000 1.000000 0.098750
1.000000 1.000000 0.098750
0.080000 0.040000 0.217500
0.230000 0.040000 0.217500
0.380000 0.040000 0.217500
0.530000 0.040000 0.217500
0.680000 0.040000 0.217500
0.830000 0.040000 0.217500
0.980000 0.040000 0.217500
1.000000 0.040000 0.217500
1.000000 0.040000 0.217500
0.080000 0.171250 0.217500
0.230000 0.171250 0.217500
0.380000 0.171250 0.217500
0.530000 0.171250 0.217500
0.680000 0.171250 0.217500
0.830000 0.171250 0.217500
0.980000 0.171250 0.217500
1.000000 0.171250 0.217500
1.000000 0.171250 0.217500
0.080000 0.302500 0.217500
0.230000 0.302500 0.217500
0.380000 0.302500 0.217500
0.530000 0.302500 0.217500
0.680000 0.302500 0.217500
0.830000 0.302500 0.217500
0.980000 0.302500 0.217500
1.000000 0.302500 0.217500
1.000000 0.302500 0.217500
0.080000 0.433750 0.217500
0.230000 0.433750 0.217500
0.380000 0.433750 0.217500
0.530000 0.433750 0.217500
0.680000 0.433750 0.217500
0.830000 0.433750 0.217500
0.980000 0.433750 0.217500
1.000000 0.433750 0.217500
1.000000 0.433750 0.217500
0.080000 0.565000 0.217500
0.230000 0.565000 0.217500
0.380000 0.565000 0.217500
0.530000 0.565000 0.217500
0.680000 0.565000 0.217500
0.830000 0.565000 0.217500
0.980000 0.565000 0.217500
1.000000 0.565000 0.217500
1.000000 0.565000 0.217500
0.080000 0.696250 0.217500
0.230000 0.696250 0.217500
0.380000 0.696250 0.217500
0.530000 0.696250 0.217500
0.680000 0.696250 0.217500
0.830000 0.696250 0.217500
0.980000 0.696250 0.217500
1.000000 0.696250 0.217500
1.000000 0.696250 0.217500
0.080000 0.827500 0.217500
0.230000 0.827500 0.217500
0.380000 0.827500 0.217500
0.530000 0.827500 0.217500
0.680000 0.827500 0.217500
0.830000 0.827500 0.217500
0.980000 0.827500 0.217500
1.000000 0.827500 0.217500
1.000000 0.827500 0.217500
0.080000 0.958750 0.217500
0.230000 0.958750 0.217500
0.380000 0.958750 0.217500
0.530000 0.958750 0.217500
0.680000 0.958750 0.217500
0.830000 0.958750 0.217500
0.980000 0.958750 0.217500
1.000000 0.958750 0.217500
1.000000 0.958750 0.217500
0.080000 1.000000 0.217500
0.230000 1.000000 0.217500
0.380000 1.000000 0.217500
0.530000 1.000000 0.217500
0.680000 1.000000 0.217500
0.830000 1.000000 0.217500
0.980000 1.000000 0.217500
1.000000 1.000000 0.217500
1.000000 1.000000 0.217500
0.080000 0.040000 0.336250
0.230000 0.040000 0.336250
0.380000 0.040000 0.336250
0.530000 0.040000 0.336250
0.680000 0.040000 0.336250
0.830000 0.040000 0.336250
0.980000 0.040000 0.336250
1.000000 0.040000 0.336250
1.000000 0.040000 0.336250
0.080000 0.171250 0.336250
0.230000 0.171250 0.336250
0.380000 0.171250 0.336250
0.530000 0.171250 0.336250
0.680000 0.171250 0.336250
0.830000 0.171250 0.336250
0.980000 0.171250 0.336250
1.000000 0.171250 0.336250
1.000000 0.171250 0.336250
0.080000 0.302500 0.336250
0.230000 0.302500 0.336250
0.380000 0.302500 0.336250
0.530000 0.302500 0.336250
0.680000 0.302500 0.336250
0.830000 0.302500 0.336250
0.980000 0.302500 0.336250
1.000000 0.302500 0.336250
1.000000 0.302500 0.336250
0.080000 0.433750 0.336250
0.230000 0.433750 0.336250
0.380000 0.433750 0.336250
0.530000 0.433750 0.336250
0.680000 0.433750 0.336250
0.830000 0.433750 0.336250
0.980000 0.433750 0.336250
1.000000 0.433750 0.336250
1.000000 0.433750 0.336250
0.080000 0.565000 0.336250
0.230000 0.565000 0.336250
0.380000 0.565000 0.336250
0.530000 0.565000 0.336250
0.680000 0.565000 0.336250
0.830000 0.565000 0.336250
0.980000 0.565000 0.336250
1.000000 0.565000 0.336250
1.000000 0.565000 0.336250
0.080000 0.696250 0.336250
0.230000 0.696250 0.336250
0.380000 0.696250 0.336250
0.530000 0.696250 0.336250
0.680000 0.696250 0.336250
0.830000 0.696250 0.336250
0.980000 0.696250 0.336250
1.000000 0.696250 0.336250
1.000000 0.696250 0.336250
0.080000 0.827500 0.336250
0.230000 0.827500 0.336250
0.380000 0.827500 0.336250
0.530000 0.827500 0.336250
0.680000 0.827500 0.336250
0.830000 0.827500 0.336250
0.980000 0.827500 0.336250
1.000000 0.827500 0.336250
1.000000 0.827500 0.336250
0.080000 0.958750 0.336250
0.230000 0.958750 0.336250
0.380000 0.958750 0.336250
0.530000 0.958750 0.336250
0.680000 0.958750 0.336250
0.830000 0.958750 0.336250
0.980000 0.958750 0.336250
1.000000 0.958750 0.336250
1.000000 0.958750 0.336250
0.080000 1.000000 0.336250
0.230000 1.000000 0.336250
0.380000 1.000000 0.336250
0.530000 1.000000 0.336250
0.680000 1.000000 0.336250
0.830000 1.000000 0.336250
0.980000 1.000000 0.336250
1.000000 1.000000 0.336250
1.000000 1.000000 0.336250
0.080000 0.040000 0.455000
0.230000 0.040000 0.455000
0.380000 0.040000 0.455000
0.530000 0.040000 0.455000
0.680000 0.040000 0.455000
0.830000 0.040000 0.455000
0.980000 0.040000 0.455000
1.000000 0.040000 0.455000
1.000000 0.040000 0.455000
0.080000 0.171250 0.455000
0.230000 0.171250 0.455000
0.380000 0.171250 0.455000
0.530000 0.171250 0.455000
0.680000 0.171250 0.455000
0.830000 0.171250 0.455000
0.980000 0.171250 0.455000
1.000000 0.171250 0.455000
1.000000 0.171250 0.455000
0.080000 0.302500 0.455000
0.230000 0.302500 0.455000
0.380000 0.302500 0.455000
0.530000 0.302500 0.455000
0.680000 0.302500 0.455000
0.830000 0.302500 0.455000
0.980000 0.302500 0.455000
1.000000 0.302500 0.455000
1.000000 0.302500 0.455000
0.080000 0.433750 0.455000
0.230000 0.433750 0.455000
0.380000 0.433750 0.455000
0.530000 0.433750 0.455000
0.680000 0.433750 0.455000
0.830000 0.433750 0.455000
0.980000 0.433750 0.455000
1.000000 0.433750 0.455000
1.000000 0.433750 0.455000
0.080000 0.565000 0.455000
0.230000 0.565000 0.455000
0.380000 0.565000 0.455000
0.530000 0.565000 0.455000
0.680000 0.565000 0.455000
0.830000 0.565000 0.455000
0.980000 0.565000 0.455000
1.000000 0.565000 0.455000
1.000000 0.565000 0.455000
0.080000 0.696250 0.455000
0.230000 0.696250 0.455000
0.380000 0.696250 0.455000
0.530000 0.696250 0.455000
0.680000 0.696250 0.455000
0.830000 0.696250 0.455000
0.980000 0.696250 0.455000
1.000000 0.696250 0.455000
1.000000 0.696250 0.455000
0.080000 0.827500 0.455000
0.230000 0.827500 0.455000
0.380000 0.827500 0.455000
0.530000 0.827500 0.455000
0.680000 0.827500 0.455000
0.830000 0.827500 0.455000
0.980000 0.827500 0.455000
1.000000 0.827500 0.455000
1.000000 0.827500 0.455000
0.080000 0.958750 0.455000
0.230000 0.958750 0.455000
0.380000 0.958750 0.455000
0.530000 0.958750 0.455000
0.680000 0.958750 0.455000
0.830000 0.958750 0.455000
0.980000 0.958750 0.455000
1.000000 0.958750 0.455000
1.000000 0.958750 0.455000
0.080000 1.000000 0.455000
0.230000 1.000000 0.455000
0.380000 1.000000 0.455000
0.530000 1.000000 0.455000
0.680000 1.000000 0.455000
0.830000 1.000000 0.455000
0.980000 1.000000 0.455000
1.000000 1.000000 0.455000
1.000000 1.000000 0.455000
0.080000 0.040000 0.573750
0.230000 0.040000 0.573750
0.380000 0.040000 0.573750
0.530000 0.040000 0.573750
0.680000 0.040000 0.573750
0.830000 0.040000 0.573750
0.980000 0.040000 0.573750
1.000000 0.040000 0.573750
1.000000 0.040000 0.573750
0.080000 0.171250 0.573750
0.230000 0.171250 0.573750
0.380000 0.171250 0.573750
0.530000 0.171250 0.573750
0.680000 0.171250 0.573750
0.830000 0.171250 0.573750
0.980000 0.171250 0.573750
1.000000 0.171250 0.573750
1.000000 0.171250 0.573750
0.080000 0.302500 0.573750
0.230000 0.302500 0.573750
0.380000 0.302500 0.573750
0.530000 0.302500 0.573750
0.680000 0.302500 0.573750
0.830000 0.302500 0.573750
0.980000 0.302500 0.573750
1.000000 0.302500 0.573750
1.000000 0.302500 0.573750
0.080000 0.433750 0.573750
0.230000 0.433750 0.573750
0.380000 0.433750 0.573750
0.530000 0.433750 0.573750
0.680000 0.433750 0.573750
0.830000 0.433750 0.573750
0.980000 0.433750 0.573750
1.000000 0.433750 0.573750
1.000000 0.433750 0.573750
0.080000 0.565000 0.573750
0.230000 0.565000 0.573750
0.380000 0.565000 0.573750
0.530000 0.565000 0.573750
0.680000 0.565000 0.573750
0.830000 0.565000 0.573750
0.980000 0.565000 0.573750
1.000000 0.565000 0.573750
1.000000 0.565000 0.573750
0.080000 0.696250 0.573750
0.230000 0.696250 0.573750
0.380000 0.696250 0.573750
0.530000 0.696250 0.573750
0.680000 0.696250 0.573750
0.830000 0.696250 0.573750
0.980000 0.696250 0.573750
1.000000 0.696250 0.573750
1.000000 0.696250 0.573750
0.080000 0.827500 0.573750
0.230000 0.827500 0.573750
0.380000 0.827500 0.573750
0.530000 0.827500 0.573750
0.680000 0.827500 0.573750
0.830000 0.827500 0.573750
0.980000 0.827500 0.573750
1.000000 0.827500 0.573750
1.000000 0.827500 0.573750
0.080000 0.958750 0.573750
0.230000 0.958750 0.573750
0.380000 0.958750 0.573750
0.530000 0.958750 0.573750
0.680000 0.958750 0.573750
0.830000 0.958750 0.573750
0.980000 0.958750 0.573750
1.000000 0.958750 0.573750
1.000000 0.958750 0.573750
0.080000 1.000000 0.573750
0.230000 1.000000 0.573750
0.380000 1.000000 0.573750
0.530000 1.000000 0.573750
0.680000 1.000000 0.573750
0.830000 1.000000 0.573750
0.980000 1.000000 0.573750
1.000000 1.000000 0.573750
1.000000 1.000000 0.573750
0.080000 0.040000 0.692500
0.230000 0.040000 0.692500
0.380000 0.040000 0.692500
0.530000 0.040000 0.692500
0.680000 0.040000 0.692500
0.830000 0.040000 0.692500
0.980000 0.040000 0.692500
1.000000 0.040000 0.692500
1.000000 0.040000 0.692500
0.080000 0.171250 0.692500
0.230000 0.171250 0.692500
0.380000 0.171250 0.692500
0.530000 0.171250 0.692500
0.680000 0.171250 0.692500
0.830000 0.171250 0.692500
0.980000 0.171250 0.692500
1.000000 0.171250 0.692500
1.000000 0.171250 0.692500
0.080000 0.302500 0.692500
0.230000 0.302500 0.692500
0.380000 0.302500 0.692500
0.530000 0.302500 0.692500
0.680000 0.302500 0.692500
0.830000 0.302500 0.692500
0.980000 0.302500 0.692500
1.000000 0.302500 0.692500
1.000000 0.302500 0.692500
0.080000 0.433750 0.692500
0.230000 0.433750 0.692500
0.380000 0.433750 0.692500
0.530000 0.433750 0.692500
0.680000 0.433750 0.692500
0.830000 0.433750 0.692500
0.980000 0.433750 0.692500
1.000000 0.433750 0.692500
1.000000 0.433750 0.692500
0.080000 0.565000 0.692500
0.230000 0.565000 0.692500
0.380000 0.565000 0.692500
0.530000 0.565000 0.692500
0.680000 0.565000 0.692500
0.830000 0.565000 0.692500
0.980000 0.565000 0.692500
1.000000 0.565000 0.692500
1.000000 0.565000 0.692500
0.080000 0.696250 0.692500
0.230000 0.696250 0.692500
0.380000 0.696250 0.692500
0.530000 0.696250 0.692500
0.680000 0.696250 0.692500
0.830000 0.696250 0.692500
0.980000 0.696250 0.692500
1.000000 0.696250 0.692500
1.000000 0.696250 0.692500
0.080000 0.827500 0.692500
0.230000 0.827500 0.692500
0.380000 0.827500 0.692500
0.530000 0.827500 0.692500
0.680000 0.827500 0.692500
0.830000 0.827500 0.692500
0.980000 0.827500 0.692500
1.000000 0.827500 0.692500
1.000000 0.827500 0.692500
0.080000 0.958750 0.692500
0.230000 0.958750 0.692500
0.380000 0.958750 0.692500
0.530000 0.958750 0.692500
0.680000 0.958750 0.692500
0.830000 0.958750 0.692500
0.980000 0.958750 0.692500
1.000000 0.958750 0.692500
1.000000 0.958750 0.692500
0.080000 1.000000 0.692500
0.230000 1.000000 0.692500
0.380000 1.000000 0.692500
0.530000 1.000000 0.692500
0.680000 1.000000 0.692500
0.830000 1.000000 0.692500
0.980000 1.000000 0.692500
1.000000 1.000000 0.692500
1.000000 1.000000 0.692500
0.080000 0.040000 0.811250
0.230000 0.040000 0.811250
0.380000 0.040000 0.811250
0.530000 0.040000 0.811250
0.680000 0.040000 0.811250
0.830000 0.040000 0.811250
0.980000 0.040000 0.811250
1.000000 0.040000 0.811250
1.000000 0.040000 0.811250
0.080000 0.171250 0.811250
0.230000 0.171250 0.811250
0.380000 0.171250 0.811250
0.530000 0.171250 0.811250
0.680000 0.171250 0.811250
0.830000 0.171250 0.811250
0.980000 0.171250 0.811250
1.000000 0.171250 0.811250
1.000000 0.171250 0.811250
0.080000 0.302500 0.811250
0.230000 0.302500 0.811250
0.380000 0.302500 0.811250
0.530000 0.302500 0.811250
0.680000 0.302500 0.811250
0.830000 0.302500 0.811250
0.980000 0.302500 0.811250
1.000000 0.302500 0.811250
1.000000 0.302500 0.811250
0.080000 0.433750 0.811250
0.230000 0.433750 0.811250
0.380000 0.433750 0.811250
0.530000 0.433750 0.811250
0.680000 0.433750 0.811250
0.830000 0.433750 0.811250
0.980000 0.433750 0.811250
1.000000 0.433750 0.811250
1.000000 0.433750 0.811250
0.080000 0.565000 0.811250
0.230000 0.565000 0.811250
0.380000 0.565000 0.811250
0.530000 0.565000 0.811250
0.680000 0.565000 0.811250
0.830000 0.565000 0.811250
0.980000 0.565000 0.811250
1.000000 0.565000 0.811250
1.000000 0.565000 0.811250
0.080000 0.696250 0.811250
0.230000 0.696250 0.811250
0.380000 0.696250 0.811250
0.530000 0.696250 0.811250
0.680000 0.696250 0.811250
0.830000 0.696250 0.811250
0.980000 0.696250 0.811250
1.000000 0.696250 0.811250
1.000000 0.696250 0.811250
0.080000 0.827500 0.811250
0.230000 0.827500 0.811250
0.380000 0.827500 0.811250
0.530000 0.827500 0.811250
0.680000 0.827500 0.811250
0.830000 0.827500 0.811250
0.980000 0.827500 0.811250
1.000000 0.827500 0.811250
1.000000 0.827500 0.811250
0.080000 0.958750 0.811250
0.230000 0.958750 0.811250
0.380000 0.958750 0.811250
0.530000 0.958750 0.811250
0.680000 0.958750 0.811250
0.830000 0.958750 0.811250
0.980000 0.958750 0.811250
1.000000 0.958750 0.811250
1.000000 0.958750 0.811250
0.080000 1.000000 0.811250
0.230000 1.000000 0.811250
0.380000 1.000000 0.811250
0.530000 1.000000 0.811250
0.680000 1.000000 0.811250
0.830000 1.000000 0.811250
0.980000 1.000000 0.811250
1.000000 1.000000 0.811250
1.000000 1.000000 0.811250
0.080000 0.040000 0.930000
0.230000 0.040000 0.930000
0.380000 0.040000 0.930000
0.530000 0.040000 0.930000
0.680000 0.040000 0.930000
0.830000 0.040000 0.930000
0.980000 0.040000 0.930000
1.000000 0.040000 0.930000
1.000000 0.040000 0.930000
0.080000 0.171250 0.930000
0.230000 0.171250 0.930000
0.380000 0.171250 0.930000
0.530000 0.171250 0.930000
0.680000 0.171250 0.930000
0.830000 0.171250 0.930000
0.980000 0.171250 0.930000
1.000000 0.171250 0.930000
1.000000 0.171250 0.930000
0.080000 0.302500 0.930000
0.230000 0.302500 0.930000
0.380000 0.302500 0.930000
0.530000 0.302500 0.930000
0.680000 0.302500 0.930000
0.830000 0.302500 0.930000
0.980000 0.302500 0.930000
1.000000 0.302500 0.930000
1.000000 0.302500 0.930000
0.080000 0.433750 0.930000
0.230000 0.433750 0.930000
0.380000 0.433750 0.930000
0.530000 0.433750 0.930000
0.680000 0.433750 0.930000
0.830000 0.433750 0.930000
0.980000 0.433750 0.930000
1.000000 0.433750 0.930000
1.000000 0.433750 0.930000
0.080000 0.565000 0.930000
0.230000 0.565000 0.930000
0.380000 0.565000 0.930000
0.530000 0.565000 0.930000
0.680000 0.565000 0.930000
0.830000 0.565000 0.930000
0.980000 0.565000 0.930000
1.000000 0.565000 0.930000
1.000000 0.565000 0.930000
0.080000 0.696250 0.930000
0.230000 0.696250 0.930000
0.380000 0.696250 0.930000
0.530000 0.696250 0.930000
0.680000 0.696250 0.930000
0.830000 0.696250 0.930000
0.980000 0.696250 0.930000
1.000000 0.696250 0.930000
1.000000 0.696250 0.930000
0.080000 0.827500 0.930000
0.230000 0.827500 0.930000
0.380000 0.827500 0.930000
0.530000 0.827500 0.930000
0.680000 0.827500 0.930000
0.830000 0.827500 0.930000
0.980000 0.827500 0.930000
1.000000 0.827500 0.930000
1.000000 0.827500 0.930000
0.080000 0.958750 0.930000
0.230000 0.958750 0.930000
0.380000 0.958750 0.930000
0.530000 0.958750 0.930000
0.680000 0.958750 0.930000
0.830000 0.958750 0.930000
0.980000 0.958750 0.930000
1.000000 0.958750 0.930000
1.000000 0.958750 0.930000
0.080000 1.000000 0.930000
0.230000 1.000000 0.930000
0.380000 1.000000 0.930000
0.530000 1.000000 0.930000
0.680000 1.000000 0.930000
0.830000 1.000000 0.930000
0.980000 1.000000 0.930000
1.000000 1.000000 0.930000
1.000000 1.000000 0.930000
