app/src/main/assets/luts/mountain_air.cube
# ApexStudio filter: mountain_air
LUT_3D_SIZE 5
DOMAIN_MIN 0.0 0.0 0.0
DOMAIN_MAX 1.0 1.0 1.0
0.000000 0.000000 0.000000
0.237500 0.000000 0.000000
0.475000 0.000000 0.000000
0.712500 0.000000 0.000000
0.950000 0.000000 0.000000
0.000000 0.250000 0.000000
0.237500 0.250000 0.000000
0.475000 0.250000 0.000000
0.712500 0.250000 0.000000
0.950000 0.250000 0.000000
0.000000 0.500000 0.000000
0.237500 0.500000 0.000000
0.475000 0.500000 0.000000
0.712500 0.500000 0.000000
0.950000 0.500000 0.000000
0.000000 0.750000 0.000000
0.237500 0.750000 0.000000
0.475000 0.750000 0.000000
0.712500 0.750000 0.000000
0.950000 0.750000 0.000000
0.000000 1.000000 0.000000
0.237500 1.000000 0.000000
0.475000 1.000000 0.000000
0.712500 1.000000 0.000000
0.950000 1.000000 0.000000
0.000000 0.000000 0.275000
0.237500 0.000000 0.275000
0.475000 0.000000 0.275000
0.712500 0.000000 0.275000
0.950000 0.000000 0.275000
0.000000 0.250000 0.275000
0.237500 0.250000 0.275000
0.475000 0.250000 0.275000
0.712500 0.250000 0.275000
0.950000 0.250000 0.275000
0.000000 0.500000 0.275000
0.237500 0.500000 0.275000
0.475000 0.500000 0.275000
0.712500 0.500000 0.275000
0.950000 0.500000 0.275000
0.000000 0.750000 0.275000
0.237500 0.750000 0.275000
0.475000 0.750000 0.275000
0.712500 0.750000 0.275000
0.950000 0.750000 0.275000
0.000000 1.000000 0.275000
0.237500 1.000000 0.275000
0.475000 1.000000 0.275000
0.712500 1.000000 0.275000
0.950000 1.000000 0.275000
0.000000 0.000000 0.550000
0.237500 0.000000 0.550000
0.475000 0.000000 0.550000
0.712500 0.000000 0.550000
0.950000 0.000000 0.550000
0.000000 0.250000 0.550000
0.237500 0.250000 0.550000
0.475000 0.250000 0.550000
0.712500 0.250000 0.550000
0.950000 0.250000 0.550000
0.000000 0.500000 0.550000
0.237500 0.500000 0.550000
0.475000 0.500000 0.550000
0.712500 0.500000 0.550000
0.950000 0.500000 0.550000
0.000000 0.750000 0.550000
0.237500 0.750000 0.550000
0.475000 0.750000 0.550000
0.712500 0.750000 0.550000
0.950000 0.750000 0.550000
0.000000 1.000000 0.550000
0.237500 1.000000 0.550000
0.475000 1.000000 0.550000
0.712500 1.000000 0.550000
0.950000 1.000000 0.550000
0.000000 0.000000 0.825000
0.237500 0.000000 0.825000
0.475000 0.000000 0.825000
0.712500 0.000000 0.825000
0.950000 0.000000 0.825000
0.000000 0.250000 0.825000
0.237500 0.250000 0.825000
0.475000 0.250000 0.825000
0.712500 0.250000 0.825000
0.950000 0.250000 0.825000
0.000000 0.500000 0.825000
0.237500 0.500000 0.825000
0.475000 0.500000 0.825000
0.712500 0.500000 0.825000
0.950000 0.500000 0.825000
0.000000 0.750000 0.825000
0.237500 0.750000 0.825000
0.475000 0.750000 0.825000
0.712500 0.750000 0.825000
0.950000 0.750000 0.825000
0.000000 1.000000 0.825000
0.237500 1.000000 0.825000
0.475000 1.000000 0.825000
0.712500 1.000000 0.825000
0.950000 1.000000 0.825000
0.000000 0.000000 1.000000
0.237500 0.000000 1.000000
0.475000 0.000000 1.000000
0.712500 0.000000 1.000000
0.950000 0.000000 1.000000
0.000000 0.250000 1.000000
0.237500 0.250000 1.000000
0.475000 0.250000 1.000000
0.712500 0.250000 1.000000
0.950000 0.250000 1.000000
0.000000 0.500000 1.000000
0.237500 0.500000 1.000000
0.475000 0.500000 1.000000
0.712500 0.500000 1.000000
0.950000 0.500000 1.000000
0.000000 0.750000 1.000000
0.237500 0.750000 1.000000
0.475000 0.750000 1.000000
0.712500 0.750000 1.000000
0.950000 0.750000 1.000000
0.000000 1.000000 1.000000
0.237500 1.000000 1.000000
0.475000 1.000000 1.000000
0.712500 1.000000 1.000000
0.950000 1.000000 1.000000
