app/src/main/assets/luts/mountain_air.cube
# ApexStudio filter: mountain_air
LUT_3D_SIZE 9
DOMAIN_MIN 0.0 0.0 0.0
DOMAIN_MAX 1.0 1.0 1.0
0.000000 0.000000 0.000000
0.118750 0.000000 0.000000
0.237500 0.000000 0.000000
0.356250 0.000000 0.000000
0.475000 0.000000 0.000000
0.593750 0.000000 0.000000
0.712500 0.000000 0.000000
0.831250 0.000000 0.000000
0.950000 0.000000 0.000000
0.000000 0.125000 0.000000
0.118750 0.125000 0.000000
0.237500 0.125000 0.000000
0.356250 0.125000 0.000000
0.475000 0.125000 0.000000
0.593750 0.125000 0.000000
0.712500 0.125000 0.000000
0.831250 0.125000 0.000000
0.950000 0.125000 0.000000
0.000000 0.250000 0.000000
0.118750 0.250000 0.000000
0.237500 0.250000 0.000000
0.356250 0.250000 0.000000
0.475000 0.250000 0.000000
0.593750 0.250000 0.000000
0.712500 0.250000 0.000000
0.831250 0.250000 0.000000
0.950000 0.250000 0.000000
0.000000 0.375000 0.000000
0.118750 0.375000 0.000000
0.237500 0.375000 0.000000
0.356250 0.375000 0.000000
0.475000 0.375000 0.000000
0.593750 0.375000 0.000000
0.712500 0.375000 0.000000
0.831250 0.375000 0.000000
0.950000 0.375000 0.000000
0.000000 0.500000 0.000000
0.118750 0.500000 0.000000
0.237500 0.500000 0.000000
0.356250 0.500000 0.000000
0.475000 0.500000 0.000000
0.593750 0.500000 0.000000
0.712500 0.500000 0.000000
0.831250 0.500000 0.000000
0.950000 0.500000 0.000000
0.000000 0.625000 0.000000
0.118750 0.625000 0.000000
0.237500 0.625000 0.000000
0.356250 0.625000 0.000000
0.475000 0.625000 0.000000
0.593750 0.625000 0.000000
0.712500 0.625000 0.000000
0.831250 0.625000 0.000000
0.950000 0.625000 0.000000
0.000000 0.750000 0.000000
0.118750 0.750000 0.000000
0.237500 0.750000 0.000000
0.356250 0.750000 0.000000
0.475000 0.750000 0.000000
0.593750 0.750000 0.000000
0.712500 0.750000 0.000000
0.831250 0.750000 0.000000
0.950000 0.750000 0.000000
0.000000 0.875000 0.000000
0.118750 0.875000 0.000000
0.237500 0.875000 0.000000
0.356250 0.875000 0.000000
0.475000 0.875000 0.000000
0.593750 0.875000 0.000000
0.712500 0.875000 0.000000
0.831250 0.875000 0.000000
0.950000 0.875000 0.000000
0.000000 1.000000 0.000000
0.118750 1.000000 0.000000
0.237500 1.000000 0.000000
0.356250 1.000000 0.000000
0.475000 1.000000 0.000000
0.593750 1.000000 0.000000
0.712500 1.000000 0.000000
0.831250 1.000000 0.000000
0.950000 1.000000 0.000000
0.000000 0.000000 0.137500
0.118750 0.000000 0.137500
0.237500 0.000000 0.137500
0.356250 0.000000 0.137500
0.475000 0.000000 0.137500
0.593750 0.000000 0.137500
0.712500 0.000000 0.137500
0.831250 0.000000 0.137500
0.950000 0.000000 0.137500
0.000000 0.125000 0.137500
0.118750 0.125000 0.137500
0.237500 0.125000 0.137500
0.356250 0.125000 0.137500
0.475000 0.125000 0.137500
0.593750 0.125000 0.137500
0.712500 0.125000 0.137500
0.831250 0.125000 0.137500
0.950000 0.125000 0.137500
0.000000 0.250000 0.137500
0.118750 0.250000 0.137500
0.237500 0.250000 0.137500
0.356250 0.250000 0.137500
0.475000 0.250000 0.137500
0.593750 0.250000 0.137500
0.712500 0.250000 0.137500
0.831250 0.250000 0.137500
0.950000 0.250000 0.137500
0.000000 0.375000 0.137500
0.118750 0.375000 0.137500
0.237500 0.375000 0.137500
0.356250 0.375000 0.137500
0.475000 0.375000 0.137500
0.593750 0.375000 0.137500
0.712500 0.375000 0.137500
0.831250 0.375000 0.137500
0.950000 0.375000 0.137500
0.000000 0.500000 0.137500
0.118750 0.500000 0.137500
0.237500 0.500000 0.137500
0.356250 0.500000 0.137500
0.475000 0.500000 0.137500
0.593750 0.500000 0.137500
0.712500 0.500000 0.137500
0.831250 0.500000 0.137500
0.950000 0.500000 0.137500
0.000000 0.625000 0.137500
0.118750 0.625000 0.137500
0.237500 0.625000 0.137500
0.356250 0.625000 0.137500
0.475000 0.625000 0.137500
0.593750 0.625000 0.137500
0.712500 0.625000 0.137500
0.831250 0.625000 0.137500
0.950000 0.625000 0.137500
0.000000 0.750000 0.137500
0.118750 0.750000 0.137500
0.237500 0.750000 0.137500
0.356250 0.750000 0.137500
0.475000 0.750000 0.137500
0.593750 0.750000 0.137500
0.712500 0.750000 0.137500
0.831250 0.750000 0.137500
0.950000 0.750000 0.137500
0.000000 0.875000 0.137500
0.118750 0.875000 0.137500
0.237500 0.875000 0.137500
0.356250 0.875000 0.137500
0.475000 0.875000 0.137500
0.593750 0.875000 0.137500
0.712500 0.875000 0.137500
0.831250 0.875000 0.137500
0.950000 0.875000 0.137500
0.000000 1.000000 0.137500
0.118750 1.000000 0.137500
0.237500 1.000000 0.137500
0.356250 1.000000 0.137500
0.475000 1.000000 0.137500
0.593750 1.000000 0.137500
0.712500 1.000000 0.137500
0.831250 1.000000 0.137500
0.950000 1.000000 0.137500
0.000000 0.000000 0.275000
0.118750 0.000000 0.275000
0.237500 0.000000 0.275000
0.356250 0.000000 0.275000
0.475000 0.000000 0.275000
0.593750 0.000000 0.275000
0.712500 0.000000 0.275000
0.831250 0.000000 0.275000
0.950000 0.000000 0.275000
0.000000 0.125000 0.275000
0.118750 0.125000 0.275000
0.237500 0.125000 0.275000
0.356250 0.125000 0.275000
0.475000 0.125000 0.275000
0.593750 0.125000 0.275000
0.712500 0.125000 0.275000
0.831250 0.125000 0.275000
0.950000 0.125000 0.275000
0.000000 0.250000 0.275000
0.118750 0.250000 0.275000
0.237500 0.250000 0.275000
0.356250 0.250000 0.275000
0.475000 0.250000 0.275000
0.593750 0.250000 0.275000
0.712500 0.250000 0.275000
0.831250 0.250000 0.275000
0.950000 0.250000 0.275000
0.000000 0.375000 0.275000
0.118750 0.375000 0.275000
0.237500 0.375000 0.275000
0.356250 0.375000 0.275000
0.475000 0.375000 0.275000
0.593750 0.375000 0.275000
0.712500 0.375000 0.275000
0.831250 0.375000 0.275000
0.950000 0.375000 0.275000
0.000000 0.500000 0.275000
0.118750 0.500000 0.275000
0.237500 0.500000 0.275000
0.356250 0.500000 0.275000
0.475000 0.500000 0.275000
0.593750 0.500000 0.275000
0.712500 0.500000 0.275000
0.831250 0.500000 0.275000
0.950000 0.500000 0.275000
0.000000 0.625000 0.275000
0.118750 0.625000 0.275000
0.237500 0.625000 0.275000
0.356250 0.625000 0.275000
0.475000 0.625000 0.275000
0.593750 0.625000 0.275000
0.712500 0.625000 0.275000
0.831250 0.625000 0.275000
0.950000 0.625000 0.275000
0.000000 0.750000 0.275000
0.118750 0.750000 0.275000
0.237500 0.750000 0.275000
0.356250 0.750000 0.275000
0.475000 0.750000 0.275000
0.593750 0.750000 0.275000
0.712500 0.750000 0.275000
0.831250 0.750000 0.275000
0.950000 0.750000 0.275000
0.000000 0.875000 0.275000
0.118750 0.875000 0.275000
0.237500 0.875000 0.275000
0.356250 0.875000 0.275000
0.475000 0.875000 0.275000
0.593750 0.875000 0.275000
0.712500 0.875000 0.275000
0.831250 0.875000 0.275000
0.950000 0.875000 0.275000
0.000000 1.000000 0.275000
0.118750 1.000000 0.275000
0.237500 1.000000 0.275000
0.356250 1.000000 0.275000
0.475000 1.000000 0.275000
0.593750 1.000000 0.275000
0.712500 1.000000 0.275000
0.831250 1.000000 0.275000
0.950000 1.000000 0.275000
0.000000 0.000000 0.412500
0.118750 0.000000 0.412500
0.237500 0.000000 0.412500
0.356250 0.000000 0.412500
0.475000 0.000000 0.412500
0.593750 0.000000 0.412500
0.712500 0.000000 0.412500
0.831250 0.000000 0.412500
0.950000 0.000000 0.412500
0.000000 0.125000 0.412500
0.118750 0.125000 0.412500
0.237500 0.125000 0.412500
0.356250 0.125000 0.412500
0.475000 0.125000 0.412500
0.593750 0.125000 0.412500
0.712500 0.125000 0.412500
0.831250 0.125000 0.412500
0.950000 0.125000 0.412500
0.000000 0.250000 0.412500
0.118750 0.250000 0.412500
0.237500 0.250000 0.412500
0.356250 0.250000 0.412500
0.475000 0.250000 0.412500
0.593750 0.250000 0.412500
0.712500 0.250000 0.412500
0.831250 0.250000 0.412500
0.950000 0.250000 0.412500
0.000000 0.375000 0.412500
0.118750 0.375000 0.412500
0.237500 0.375000 0.412500
0.356250 0.375000 0.412500
0.475000 0.375000 0.412500
0.593750 0.375000 0.412500
0.712500 0.375000 0.412500
0.831250 0.375000 0.412500
0.950000 0.375000 0.412500
0.000000 0.500000 0.412500
0.118750 0.500000 0.412500
0.237500 0.500000 0.412500
0.356250 0.500000 0.412500
0.475000 0.500000 0.412500
0.593750 0.500000 0.412500
0.712500 0.500000 0.412500
0.831250 0.500000 0.412500
0.950000 0.500000 0.412500
0.000000 0.625000 0.412500
0.118750 0.625000 0.412500
0.237500 0.625000 0.412500
0.356250 0.625000 0.412500
0.475000 0.625000 0.412500
0.593750 0.625000 0.412500
0.712500 0.625000 0.412500
0.831250 0.625000 0.412500
0.950000 0.625000 0.412500
0.000000 0.750000 0.412500
0.118750 0.750000 0.412500
0.237500 0.750000 0.412500
0.356250 0.750000 0.412500
0.475000 0.750000 0.412500
0.593750 0.750000 0.412500
0.712500 0.750000 0.412500
0.831250 0.750000 0.412500
0.950000 0.750000 0.412500
0.000000 0.875000 0.412500
0.118750 0.875000 0.412500
0.237500 0.875000 0.412500
0.356250 0.875000 0.412500
0.475000 0.875000 0.412500
0.593750 0.875000 0.412500
0.712500 0.875000 0.412500
0.831250 0.875000 0.412500
0.950000 0.875000 0.412500
0.000000 1.000000 0.412500
0.118750 1.000000 0.412500
0.237500 1.000000 0.412500
0.356250 1.000000 0.412500
0.475000 1.000000 0.412500
0.593750 1.000000 0.412500
0.712500 1.000000 0.412500
0.831250 1.000000 0.412500
0.950000 1.000000 0.412500
0.000000 0.000000 0.550000
0.118750 0.000000 0.550000
0.237500 0.000000 0.550000
0.356250 0.000000 0.550000
0.475000 0.000000 0.550000
0.593750 0.000000 0.550000
0.712500 0.000000 0.550000
0.831250 0.000000 0.550000
0.950000 0.000000 0.550000
0.000000 0.125000 0.550000
0.118750 0.125000 0.550000
0.237500 0.125000 0.550000
0.356250 0.125000 0.550000
0.475000 0.125000 0.550000
0.593750 0.125000 0.550000
0.712500 0.125000 0.550000
0.831250 0.125000 0.550000
0.950000 0.125000 0.550000
0.000000 0.250000 0.550000
0.118750 0.250000 0.550000
0.237500 0.250000 0.550000
0.356250 0.250000 0.550000
0.475000 0.250000 0.550000
0.593750 0.250000 0.550000
0.712500 0.250000 0.550000
0.831250 0.250000 0.550000
0.950000 0.250000 0.550000
0.000000 0.375000 0.550000
0.118750 0.375000 0.550000
0.237500 0.375000 0.550000
0.356250 0.375000 0.550000
0.475000 0.375000 0.550000
0.593750 0.375000 0.550000
0.712500 0.375000 0.550000
0.831250 0.375000 0.550000
0.950000 0.375000 0.550000
0.000000 0.500000 0.550000
0.118750 0.500000 0.550000
0.237500 0.500000 0.550000
0.356250 0.500000 0.550000
0.475000 0.500000 0.550000
0.593750 0.500000 0.550000
0.712500 0.500000 0.550000
0.831250 0.500000 0.550000
0.950000 0.500000 0.550000
0.000000 0.625000 0.550000
0.118750 0.625000 0.550000
0.237500 0.625000 0.550000
0.356250 0.625000 0.550000
0.475000 0.625000 0.550000
0.593750 0.625000 0.550000
0.712500 0.625000 0.550000
0.831250 0.625000 0.550000
0.950000 0.625000 0.550000
0.000000 0.750000 0.550000
0.118750 0.750000 0.550000
0.237500 0.750000 0.550000
0.356250 0.750000 0.550000
0.475000 0.750000 0.550000
0.593750 0.750000 0.550000
0.712500 0.750000 0.550000
0.831250 0.750000 0.550000
0.950000 0.750000 0.550000
0.000000 0.875000 0.550000
0.118750 0.875000 0.550000
0.237500 0.875000 0.550000
0.356250 0.875000 0.550000
0.475000 0.875000 0.550000
0.593750 0.875000 0.550000
0.712500 0.875000 0.550000
0.831250 0.875000 0.550000
0.950000 0.875000 0.550000
0.000000 1.000000 0.550000
0.118750 1.000000 0.550000
0.237500 1.000000 0.550000
0.356250 1.000000 0.550000
0.475000 1.000000 0.550000
0.593750 1.000000 0.550000
0.712500 1.000000 0.550000
0.831250 1.000000 0.550000
0.950000 1.000000 0.550000
0.000000 0.000000 0.687500
0.118750 0.000000 0.687500
0.237500 0.000000 0.687500
0.356250 0.000000 0.687500
0.475000 0.000000 0.687500
0.593750 0.000000 0.687500
0.712500 0.000000 0.687500
0.831250 0.000000 0.687500
0.950000 0.000000 0.687500
0.000000 0.125000 0.687500
0.118750 0.125000 0.687500
0.237500 0.125000 0.687500
0.356250 0.125000 0.687500
0.475000 0.125000 0.687500
0.593750 0.125000 0.687500
0.712500 0.125000 0.687500
0.831250 0.125000 0.687500
0.950000 0.125000 0.687500
0.000000 0.250000 0.687500
0.118750 0.250000 0.687500
0.237500 0.250000 0.687500
0.356250 0.250000 0.687500
0.475000 0.250000 0.687500
0.593750 0.250000 0.687500
0.712500 0.250000 0.687500
0.831250 0.250000 0.687500
0.950000 0.250000 0.687500
0.000000 0.375000 0.687500
0.118750 0.375000 0.687500
0.237500 0.375000 0.687500
0.356250 0.375000 0.687500
0.475000 0.375000 0.687500
0.593750 0.375000 0.687500
0.712500 0.375000 0.687500
0.831250 0.375000 0.687500
0.950000 0.375000 0.687500
0.000000 0.500000 0.687500
0.118750 0.500000 0.687500
0.237500 0.500000 0.687500
0.356250 0.500000 0.687500
0.475000 0.500000 0.687500
0.593750 0.500000 0.687500
0.712500 0.500000 0.687500
0.831250 0.500000 0.687500
0.950000 0.500000 0.687500
0.000000 0.625000 0.687500
0.118750 0.625000 0.687500
0.237500 0.625000 0.687500
0.356250 0.625000 0.687500
0.475000 0.625000 0.687500
0.593750 0.625000 0.687500
0.712500 0.625000 0.687500
0.831250 0.625000 0.687500
0.950000 0.625000 0.687500
0.000000 0.750000 0.687500
0.118750 0.750000 0.687500
0.237500 0.750000 0.687500
0.356250 0.750000 0.687500
0.475000 0.750000 0.687500
0.593750 0.750000 0.687500
0.712500 0.750000 0.687500
0.831250 0.750000 0.687500
0.950000 0.750000 0.687500
0.000000 0.875000 0.687500
0.118750 0.875000 0.687500
0.237500 0.875000 0.687500
0.356250 0.875000 0.687500
0.475000 0.875000 0.687500
0.593750 0.875000 0.687500
0.712500 0.875000 0.687500
0.831250 0.875000 0.687500
0.950000 0.875000 0.687500
0.000000 1.000000 0.687500
0.118750 1.000000 0.687500
0.237500 1.000000 0.687500
0.356250 1.000000 0.687500
0.475000 1.000000 0.687500
0.593750 1.000000 0.687500
0.712500 1.000000 0.687500
0.831250 1.000000 0.687500
0.950000 1.000000 0.687500
0.000000 0.000000 0.825000
0.118750 0.000000 0.825000
0.237500 0.000000 0.825000
0.356250 0.000000 0.825000
0.475000 0.000000 0.825000
0.593750 0.000000 0.825000
0.712500 0.000000 0.825000
0.831250 0.000000 0.825000
0.950000 0.000000 0.825000
0.000000 0.125000 0.825000
0.118750 0.125000 0.825000
0.237500 0.125000 0.825000
0.356250 0.125000 0.825000
0.475000 0.125000 0.825000
0.593750 0.125000 0.825000
0.712500 0.125000 0.825000
0.831250 0.125000 0.825000
0.950000 0.125000 0.825000
0.000000 0.250000 0.825000
0.118750 0.250000 0.825000
0.237500 0.250000 0.825000
0.356250 0.250000 0.825000
0.475000 0.250000 0.825000
0.593750 0.250000 0.825000
0.712500 0.250000 0.825000
0.831250 0.250000 0.825000
0.950000 0.250000 0.825000
0.000000 0.375000 0.825000
0.118750 0.375000 0.825000
0.237500 0.375000 0.825000
0.356250 0.375000 0.825000
0.475000 0.375000 0.825000
0.593750 0.375000 0.825000
0.712500 0.375000 0.825000
0.831250 0.375000 0.825000
0.950000 0.375000 0.825000
0.000000 0.500000 0.825000
0.118750 0.500000 0.825000
0.237500 0.500000 0.825000
0.356250 0.500000 0.825000
0.475000 0.500000 0.825000
0.593750 0.500000 0.825000
0.712500 0.500000 0.825000
0.831250 0.500000 0.825000
0.950000 0.500000 0.825000
0.000000 0.625000 0.825000
0.118750 0.625000 0.825000
0.237500 0.625000 0.825000
0.356250 0.625000 0.825000
0.475000 0.625000 0.825000
0.593750 0.625000 0.825000
0.712500 0.625000 0.825000
0.831250 0.625000 0.825000
0.950000 0.625000 0.825000
0.000000 0.750000 0.825000
0.118750 0.750000 0.825000
0.237500 0.750000 0.825000
0.356250 0.750000 0.825000
0.475000 0.750000 0.825000
0.593750 0.750000 0.825000
0.712500 0.750000 0.825000
0.831250 0.750000 0.825000
0.950000 0.750000 0.825000
0.000000 0.875000 0.825000
0.118750 0.875000 0.825000
0.237500 0.875000 0.825000
0.356250 0.875000 0.825000
0.475000 0.875000 0.825000
0.593750 0.875000 0.825000
0.712500 0.875000 0.825000
0.831250 0.875000 0.825000
0.950000 0.875000 0.825000
0.000000 1.000000 0.825000
0.118750 1.000000 0.825000
0.237500 1.000000 0.825000
0.356250 1.000000 0.825000
0.475000 1.000000 0.825000
0.593750 1.000000 0.825000
0.712500 1.000000 0.825000
0.831250 1.000000 0.825000
0.950000 1.000000 0.825000
0.000000 0.000000 0.962500
0.118750 0.000000 0.962500
0.237500 0.000000 0.962500
0.356250 0.000000 0.962500
0.475000 0.000000 0.962500
0.593750 0.000000 0.962500
0.712500 0.000000 0.962500
0.831250 0.000000 0.962500
0.950000 0.000000 0.962500
0.000000 0.125000 0.962500
0.118750 0.125000 0.962500
0.237500 0.125000 0.962500
0.356250 0.125000 0.962500
0.475000 0.125000 0.962500
0.593750 0.125000 0.962500
0.712500 0.125000 0.962500
0.831250 0.125000 0.962500
0.950000 0.125000 0.962500
0.000000 0.250000 0.962500
0.118750 0.250000 0.962500
0.237500 0.250000 0.962500
0.356250 0.250000 0.962500
0.475000 0.250000 0.962500
0.593750 0.250000 0.962500
0.712500 0.250000 0.962500
0.831250 0.250000 0.962500
0.950000 0.250000 0.962500
0.000000 0.375000 0.962500
0.118750 0.375000 0.962500
0.237500 0.375000 0.962500
0.356250 0.375000 0.962500
0.475000 0.375000 0.962500
0.593750 0.375000 0.962500
0.712500 0.375000 0.962500
0.831250 0.375000 0.962500
0.950000 0.375000 0.962500
0.000000 0.500000 0.962500
0.118750 0.500000 0.962500
0.237500 0.500000 0.962500
0.356250 0.500000 0.962500
0.475000 0.500000 0.962500
0.593750 0.500000 0.962500
0.712500 0.500000 0.962500
0.831250 0.500000 0.962500
0.950000 0.500000 0.962500
0.000000 0.625000 0.962500
0.118750 0.625000 0.962500
0.237500 0.625000 0.962500
0.356250 0.625000 0.962500
0.475000 0.625000 0.962500
0.593750 0.625000 0.962500
0.712500 0.625000 0.962500
0.831250 0.625000 0.962500
0.950000 0.625000 0.962500
0.000000 0.750000 0.962500
0.118750 0.750000 0.962500
0.237500 0.750000 0.962500
0.356250 0.750000 0.962500
0.475000 0.750000 0.962500
0.593750 0.750000 0.962500
0.712500 0.750000 0.962500
0.831250 0.750000 0.962500
0.950000 0.750000 0.962500
0.000000 0.875000 0.962500
0.118750 0.875000 0.962500
0.237500 0.875000 0.962500
0.356250 0.875000 0.962500
0.475000 0.875000 0.962500
0.593750 0.875000 0.962500
0.712500 0.875000 0.962500
0.831250 0.875000 0.962500
0.950000 0.875000 0.962500
0.000000 1.000000 0.962500
0.118750 1.000000 0.962500
0.237500 1.000000 0.962500
0.356250 1.000000 0.962500
0.475000 1.000000 0.962500
0.593750 1.000000 0.962500
0.712500 1.000000 0.962500
0.831250 1.000000 0.962500
0.950000 1.000000 0.962500
0.000000 0.000000 1.000000
0.118750 0.000000 1.000000
0.237500 0.000000 1.000000
0.356250 0.000000 1.000000
0.475000 0.000000 1.000000
0.593750 0.000000 1.000000
0.712500 0.000000 1.000000
0.831250 0.000000 1.000000
0.950000 0.000000 1.000000
0.000000 0.125000 1.000000
0.118750 0.125000 1.000000
0.237500 0.125000 1.000000
0.356250 0.125000 1.000000
0.475000 0.125000 1.000000
0.593750 0.125000 1.000000
0.712500 0.125000 1.000000
0.831250 0.125000 1.000000
0.950000 0.125000 1.000000
0.000000 0.250000 1.000000
0.118750 0.250000 1.000000
0.237500 0.250000 1.000000
0.356250 0.250000 1.000000
0.475000 0.250000 1.000000
0.593750 0.250000 1.000000
0.712500 0.250000 1.000000
0.831250 0.250000 1.000000
0.950000 0.250000 1.000000
0.000000 0.375000 1.000000
0.118750 0.375000 1.000000
0.237500 0.375000 1.000000
0.356250 0.375000 1.000000
0.475000 0.375000 1.000000
0.593750 0.375000 1.000000
0.712500 0.375000 1.000000
0.831250 0.375000 1.000000
0.950000 0.375000 1.000000
0.000000 0.500000 1.000000
0.118750 0.500000 1.000000
0.237500 0.500000 1.000000
0.356250 0.500000 1.000000
0.475000 0.500000 1.000000
0.593750 0.500000 1.000000
0.712500 0.500000 1.000000
0.831250 0.500000 1.000000
0.950000 0.500000 1.000000
0.000000 0.625000 1.000000
0.118750 0.625000 1.000000
0.237500 0.625000 1.000000
0.356250 0.625000 1.000000
0.475000 0.625000 1.000000
0.593750 0.625000 1.000000
0.712500 0.625000 1.000000
0.831250 0.625000 1.000000
0.950000 0.625000 1.000000
0.000000 0.750000 1.000000
0.118750 0.750000 1.000000
0.237500 0.750000 1.000000
0.356250 0.750000 1.000000
0.475000 0.750000 1.000000
0.593750 0.750000 1.000000
0.712500 0.750000 1.000000
0.831250 0.750000 1.000000
0.950000 0.750000 1.000000
0.000000 0.875000 1.000000
0.118750 0.875000 1.000000
0.237500 0.875000 1.000000
0.356250 0.875000 1.000000
0.475000 0.875000 1.000000
0.593750 0.875000 1.000000
0.712500 0.875000 1.000000
0.831250 0.875000 1.000000
0.950000 0.875000 1.000000
0.000000 1.000000 1.000000
0.118750 1.000000 1.000000
0.237500 1.000000 1.000000
0.356250 1.000000 1.000000
0.475000 1.000000 1.000000
0.593750 1.000000 1.000000
0.712500 1.000000 1.000000
0.831250 1.000000 1.000000
0.950000 1.000000 1.000000
