app/src/main/assets/luts/muted_tones.cube
# ApexStudio filter: muted_tones
LUT_3D_SIZE 17
DOMAIN_MIN 0.0 0.0 0.0
DOMAIN_MAX 1.0 1.0 1.0
0.000000 0.000000 0.000000
0.042784 0.008409 0.008409
0.085569 0.016819 0.016819
0.128353 0.025228 0.025228
0.171137 0.033637 0.033637
0.213922 0.042047 0.042047
0.256706 0.050456 0.050456
0.299491 0.058866 0.058866
0.342275 0.067275 0.067275
0.385059 0.075684 0.075684
0.427844 0.084094 0.084094
0.470628 0.092503 0.092503
0.513413 0.100912 0.100912
0.556197 0.109322 0.109322
0.598981 0.117731 0.117731
0.641766 0.126141 0.126141
0.684550 0.134550 0.134550
0.016509 0.050884 0.016509
0.059294 0.059294 0.024919
0.102078 0.067703 0.033328
0.144863 0.076112 0.041737
0.187647 0.084522 0.050147
0.230431 0.092931 0.058556
0.273216 0.101341 0.066966
0.316000 0.109750 0.075375
0.358784 0.118159 0.083784
0.401569 0.126569 0.092194
0.444353 0.134978 0.100603
0.487138 0.143387 0.109012
0.529922 0.151797 0.117422
0.572706 0.160206 0.125831
0.615491 0.168616 0.134241
0.658275 0.177025 0.142650
0.701059 0.185434 0.151059
0.033019 0.101769 0.033019
0.075803 0.110178 0.041428
0.118587 0.118587 0.049837
0.161372 0.126997 0.058247
0.204156 0.135406 0.066656
0.246941 0.143816 0.075066
0.289725 0.152225 0.083475
0.332509 0.160634 0.091884
0.375294 0.169044 0.100294
0.418078 0.177453 0.108703
0.460863 0.185862 0.117112
0.503647 0.194272 0.125522
0.546431 0.202681 0.133931
0.589216 0.211091 0.142341
0.632000 0.219500 0.150750
0.674784 0.227909 0.159159
0.717569 0.236319 0.167569
0.049528 0.152653 0.049528
0.092312 0.161062 0.057937
0.135097 0.169472 0.066347
0.177881 0.177881 0.074756
0.220666 0.186291 0.083166
0.263450 0.194700 0.091575
0.306234 0.203109 0.099984
0.349019 0.211519 0.108394
0.391803 0.219928 0.116803
0.434588 0.228337 0.125212
0.477372 0.236747 0.133622
0.520156 0.245156 0.142031
0.562941 0.253566 0.150441
0.605725 0.261975 0.158850
0.648509 0.270384 0.167259
0.691294 0.278794 0.175669
0.734078 0.287203 0.184078
0.066037 0.203538 0.066037
0.108822 0.211947 0.074447
0.151606 0.220356 0.082856
0.194391 0.228766 0.091266
0.237175 0.237175 0.099675
0.279959 0.245584 0.108084
0.322744 0.253994 0.116494
0.365528 0.262403 0.124903
0.408313 0.270813 0.133313
0.451097 0.279222 0.141722
0.493881 0.287631 0.150131
0.536666 0.296041 0.158541
0.579450 0.304450 0.166950
0.622234 0.312859 0.175359
0.665019 0.321269 0.183769
0.707803 0.329678 0.192178
0.750587 0.338087 0.200587
0.082547 0.254422 0.082547
0.125331 0.262831 0.090956
0.168116 0.271241 0.099366
0.210900 0.279650 0.107775
0.253684 0.288059 0.116184
0.296469 0.296469 0.124594
0.339253 0.304878 0.133003
0.382037 0.313287 0.141412
0.424822 0.321697 0.149822
0.467606 0.330106 0.158231
0.510391 0.338516 0.166641
0.553175 0.346925 0.175050
0.595959 0.355334 0.183459
0.638744 0.363744 0.191869
0.681528 0.372153 0.200278
0.724312 0.380562 0.208687
0.767097 0.388972 0.217097
0.099056 0.305306 0.099056
0.141841 0.313716 0.107466
0.184625 0.322125 0.115875
0.227409 0.330534 0.124284
0.270194 0.338944 0.132694
0.312978 0.347353 0.141103
0.355762 0.355762 0.149512
0.398547 0.364172 0.157922
0.441331 0.372581 0.166331
0.484116 0.380991 0.174741
0.526900 0.389400 0.183150
0.569684 0.397809 0.191559
0.612469 0.406219 0.199969
0.655253 0.414628 0.208378
0.698038 0.423038 0.216787
0.740822 0.431447 0.225197
0.783606 0.439856 0.233606
0.115566 0.356191 0.115566
0.158350 0.364600 0.123975
0.201134 0.373009 0.132384
0.243919 0.381419 0.140794
0.286703 0.389828 0.149203
0.329487 0.398238 0.157612
0.372272 0.406647 0.166022
0.415056 0.415056 0.174431
0.457841 0.423466 0.182841
0.500625 0.431875 0.191250
0.543409 0.440284 0.199659
0.586194 0.448694 0.208069
0.628978 0.457103 0.216478
0.671763 0.465512 0.224888
0.714547 0.473922 0.233297
0.757331 0.482331 0.241706
0.800116 0.490741 0.250116
0.132075 0.407075 0.132075
0.174859 0.415484 0.140484
0.217644 0.423894 0.148894
0.260428 0.432303 0.157303
0.303212 0.440713 0.165712
0.345997 0.449122 0.174122
0.388781 0.457531 0.182531
0.431566 0.465941 0.190941
0.474350 0.474350 0.199350
0.517134 0.482759 0.207759
0.559919 0.491169 0.216169
0.602703 0.499578 0.224578
0.645487 0.507987 0.232987
0.688272 0.516397 0.241397
0.731056 0.524806 0.249806
0.773841 0.533216 0.258216
0.816625 0.541625 0.266625
0.148584 0.457959 0.148584
0.191369 0.466369 0.156994
0.234153 0.474778 0.165403
0.276938 0.483187 0.173812
0.319722 0.491597 0.182222
0.362506 0.500006 0.190631
0.405291 0.508416 0.199041
0.448075 0.516825 0.207450
0.490859 0.525234 0.215859
0.533644 0.533644 0.224269
0.576428 0.542053 0.232678
0.619212 0.550462 0.241087
0.661997 0.558872 0.249497
0.704781 0.567281 0.257906
0.747566 0.575691 0.266316
0.790350 0.584100 0.274725
0.833134 0.592509 0.283134
0.165094 0.508844 0.165094
0.207878 0.517253 0.173503
0.250662 0.525663 0.181912
0.293447 0.534072 0.190322
0.336231 0.542481 0.198731
0.379016 0.550891 0.207141
0.421800 0.559300 0.215550
0.464584 0.567709 0.223959
0.507369 0.576119 0.232369
0.550153 0.584528 0.240778
0.592938 0.592938 0.249187
0.635722 0.601347 0.257597
0.678506 0.609756 0.266006
0.721291 0.618166 0.274416
0.764075 0.626575 0.282825
0.806859 0.634984 0.291234
0.849644 0.643394 0.299644
0.181603 0.559728 0.181603
0.224387 0.568137 0.190013
0.267172 0.576547 0.198422
0.309956 0.584956 0.206831
0.352741 0.593366 0.215241
0.395525 0.601775 0.223650
0.438309 0.610184 0.232059
0.481094 0.618594 0.240469
0.523878 0.627003 0.248878
0.566662 0.635412 0.257287
0.609447 0.643822 0.265697
0.652231 0.652231 0.274106
0.695016 0.660641 0.282516
0.737800 0.669050 0.290925
0.780584 0.677459 0.299334
0.823369 0.685869 0.307744
0.866153 0.694278 0.316153
0.198112 0.610613 0.198112
0.240897 0.619022 0.206522
0.283681 0.627431 0.214931
0.326466 0.635841 0.223341
0.369250 0.644250 0.231750
0.412034 0.652659 0.240159
0.454819 0.661069 0.248569
0.497603 0.669478 0.256978
0.540388 0.677887 0.265387
0.583172 0.686297 0.273797
0.625956 0.694706 0.282206
0.668741 0.703116 0.290616
0.711525 0.711525 0.299025
0.754309 0.719934 0.307434
0.797094 0.728344 0.315844
0.839878 0.736753 0.324253
0.882663 0.745162 0.332662
0.214622 0.661497 0.214622
0.257406 0.669906 0.223031
0.300191 0.678316 0.231441
0.342975 0.686725 0.239850
0.385759 0.695134 0.248259
0.428544 0.703544 0.256669
0.471328 0.711953 0.265078
0.514112 0.720363 0.273487
0.556897 0.728772 0.281897
0.599681 0.737181 0.290306
0.642466 0.745591 0.298716
0.685250 0.754000 0.307125
0.728034 0.762409 0.315534
0.770819 0.770819 0.323944
0.813603 0.779228 0.332353
0.856387 0.787637 0.340762
0.899172 0.796047 0.349172
0.231131 0.712381 0.231131
0.273916 0.720791 0.239541
0.316700 0.729200 0.247950
0.359484 0.737609 0.256359
0.402269 0.746019 0.264769
0.445053 0.754428 0.273178
0.487838 0.762838 0.281587
0.530622 0.771247 0.289997
0.573406 0.779656 0.298406
0.616191 0.788066 0.306816
0.658975 0.796475 0.315225
0.701759 0.804884 0.323634
0.744544 0.813294 0.332044
0.787328 0.821703 0.340453
0.830113 0.830113 0.348862
0.872897 0.838522 0.357272
0.915681 0.846931 0.365681
0.247641 0.763266 0.247641
0.290425 0.771675 0.256050
0.333209 0.780084 0.264459
0.375994 0.788494 0.272869
0.418778 0.796903 0.281278
0.461562 0.805312 0.289687
0.504347 0.813722 0.298097
0.547131 0.822131 0.306506
0.589916 0.830541 0.314916
0.632700 0.838950 0.323325
0.675484 0.847359 0.331734
0.718269 0.855769 0.340144
0.761053 0.864178 0.348553
0.803837 0.872588 0.356962
0.846622 0.880997 0.365372
0.889406 0.889406 0.373781
0.932191 0.897816 0.382191
0.264150 0.814150 0.264150
0.306934 0.822559 0.272559
0.349719 0.830969 0.280969
0.392503 0.839378 0.289378
0.435287 0.847788 0.297787
0.478072 0.856197 0.306197
0.520856 0.864606 0.314606
0.563641 0.873016 0.323016
0.606425 0.881425 0.331425
0.649209 0.889834 0.339834
0.691994 0.898244 0.348244
0.734778 0.906653 0.356653
0.777563 0.915063 0.365062
0.820347 0.923472 0.373472
0.863131 0.931881 0.381881
0.905916 0.940291 0.390291
0.948700 0.948700 0.398700
0.003206 0.003206 0.037581
0.045991 0.011616 0.045991
0.088775 0.020025 0.054400
0.131559 0.028434 0.062809
0.174344 0.036844 0.071219
0.217128 0.045253 0.079628
0.259912 0.053663 0.088038
0.302697 0.062072 0.096447
0.345481 0.070481 0.104856
0.388266 0.078891 0.113266
0.431050 0.087300 0.121675
0.473834 0.095709 0.130084
0.516619 0.104119 0.138494
0.559403 0.112528 0.146903
0.602187 0.120937 0.155312
0.644972 0.129347 0.163722
0.687756 0.137756 0.172131
0.019716 0.054091 0.054091
0.062500 0.062500 0.062500
0.105284 0.070909 0.070909
0.148069 0.079319 0.079319
0.190853 0.087728 0.087728
0.233637 0.096137 0.096137
0.276422 0.104547 0.104547
0.319206 0.112956 0.112956
0.361991 0.121366 0.121366
0.404775 0.129775 0.129775
0.447559 0.138184 0.138184
0.490344 0.146594 0.146594
0.533128 0.155003 0.155003
0.575913 0.163412 0.163412
0.618697 0.171822 0.171822
0.661481 0.180231 0.180231
0.704266 0.188641 0.188641
0.036225 0.104975 0.070600
0.079009 0.113384 0.079009
0.121794 0.121794 0.087419
0.164578 0.130203 0.095828
0.207363 0.138612 0.104237
0.250147 0.147022 0.112647
0.292931 0.155431 0.121056
0.335716 0.163841 0.129466
0.378500 0.172250 0.137875
0.421284 0.180659 0.146284
0.464069 0.189069 0.154694
0.506853 0.197478 0.163103
0.549638 0.205888 0.171513
0.592422 0.214297 0.179922
0.635206 0.222706 0.188331
0.677991 0.231116 0.196741
0.720775 0.239525 0.205150
0.052734 0.155859 0.087109
0.095519 0.164269 0.095519
0.138303 0.172678 0.103928
0.181087 0.181087 0.112337
0.223872 0.189497 0.120747
0.266656 0.197906 0.129156
0.309441 0.206316 0.137566
0.352225 0.214725 0.145975
0.395009 0.223134 0.154384
0.437794 0.231544 0.162794
0.480578 0.239953 0.171203
0.523362 0.248362 0.179612
0.566147 0.256772 0.188022
0.608931 0.265181 0.196431
0.651716 0.273591 0.204841
0.694500 0.282000 0.213250
0.737284 0.290409 0.221659
0.069244 0.206744 0.103619
0.112028 0.215153 0.112028
0.154812 0.223562 0.120437
0.197597 0.231972 0.128847
0.240381 0.240381 0.137256
0.283166 0.248791 0.145666
0.325950 0.257200 0.154075
0.368734 0.265609 0.162484
0.411519 0.274019 0.170894
0.454303 0.282428 0.179303
0.497088 0.290837 0.187712
0.539872 0.299247 0.196122
0.582656 0.307656 0.204531
0.625441 0.316066 0.212941
0.668225 0.324475 0.221350
0.711009 0.332884 0.229759
0.753794 0.341294 0.238169
0.085753 0.257628 0.120128
0.128537 0.266037 0.128537
0.171322 0.274447 0.136947
0.214106 0.282856 0.145356
0.256891 0.291266 0.153766
0.299675 0.299675 0.162175
0.342459 0.308084 0.170584
0.385244 0.316494 0.178994
0.428028 0.324903 0.187403
0.470812 0.333312 0.195812
0.513597 0.341722 0.204222
0.556381 0.350131 0.212631
0.599166 0.358541 0.221041
0.641950 0.366950 0.229450
0.684734 0.375359 0.237859
0.727519 0.383769 0.246269
0.770303 0.392178 0.254678
0.102262 0.308512 0.136637
0.145047 0.316922 0.145047
0.187831 0.325331 0.153456
0.230616 0.333741 0.161866
0.273400 0.342150 0.170275
0.316184 0.350559 0.178684
0.358969 0.358969 0.187094
0.401753 0.367378 0.195503
0.444537 0.375787 0.203912
0.487322 0.384197 0.212322
0.530106 0.392606 0.220731
0.572891 0.401016 0.229141
0.615675 0.409425 0.237550
0.658459 0.417834 0.245959
0.701244 0.426244 0.254369
0.744028 0.434653 0.262778
0.786813 0.443063 0.271187
0.118772 0.359397 0.153147
0.161556 0.367806 0.161556
0.204341 0.376216 0.169966
0.247125 0.384625 0.178375
0.289909 0.393034 0.186784
0.332694 0.401444 0.195194
0.375478 0.409853 0.203603
0.418262 0.418262 0.212012
0.461047 0.426672 0.220422
0.503831 0.435081 0.228831
0.546616 0.443491 0.237241
0.589400 0.451900 0.245650
0.632184 0.460309 0.254059
0.674969 0.468719 0.262469
0.717753 0.477128 0.270878
0.760538 0.485538 0.279287
0.803322 0.493947 0.287697
0.135281 0.410281 0.169656
0.178066 0.418691 0.178066
0.220850 0.427100 0.186475
0.263634 0.435509 0.194884
0.306419 0.443919 0.203294
0.349203 0.452328 0.211703
0.391987 0.460738 0.220112
0.434772 0.469147 0.228522
0.477556 0.477556 0.236931
0.520341 0.485966 0.245341
0.563125 0.494375 0.253750
0.605909 0.502784 0.262159
0.648694 0.511194 0.270569
0.691478 0.519603 0.278978
0.734263 0.528012 0.287388
0.777047 0.536422 0.295797
0.819831 0.544831 0.304206
0.151791 0.461166 0.186166
0.194575 0.469575 0.194575
0.237359 0.477984 0.202984
0.280144 0.486394 0.211394
0.322928 0.494803 0.219803
0.365712 0.503212 0.228212
0.408497 0.511622 0.236622
0.451281 0.520031 0.245031
0.494066 0.528441 0.253441
0.536850 0.536850 0.261850
0.579634 0.545259 0.270259
0.622419 0.553669 0.278669
0.665203 0.562078 0.287078
0.707987 0.570488 0.295488
0.750772 0.578897 0.303897
0.793556 0.587306 0.312306
0.836341 0.595716 0.320716
0.168300 0.512050 0.202675
0.211084 0.520459 0.211084
0.253869 0.528869 0.219494
0.296653 0.537278 0.227903
0.339437 0.545687 0.236312
0.382222 0.554097 0.244722
0.425006 0.562506 0.253131
0.467791 0.570916 0.261541
0.510575 0.579325 0.269950
0.553359 0.587734 0.278359
0.596144 0.596144 0.286769
0.638928 0.604553 0.295178
0.681712 0.612962 0.303587
0.724497 0.621372 0.311997
0.767281 0.629781 0.320406
0.810066 0.638191 0.328816
0.852850 0.646600 0.337225
0.184809 0.562934 0.219184
0.227594 0.571344 0.227594
0.270378 0.579753 0.236003
0.313163 0.588163 0.244412
0.355947 0.596572 0.252822
0.398731 0.604981 0.261231
0.441516 0.613391 0.269641
0.484300 0.621800 0.278050
0.527084 0.630209 0.286459
0.569869 0.638619 0.294869
0.612653 0.647028 0.303278
0.655438 0.655438 0.311687
0.698222 0.663847 0.320097
0.741006 0.672256 0.328506
0.783791 0.680666 0.336916
0.826575 0.689075 0.345325
0.869359 0.697484 0.353734
0.201319 0.613819 0.235694
0.244103 0.622228 0.244103
0.286887 0.630637 0.252512
0.329672 0.639047 0.260922
0.372456 0.647456 0.269331
0.415241 0.655866 0.277741
0.458025 0.664275 0.286150
0.500809 0.672684 0.294559
0.543594 0.681094 0.302969
0.586378 0.689503 0.311378
0.629162 0.697912 0.319787
0.671947 0.706322 0.328197
0.714731 0.714731 0.336606
0.757516 0.723141 0.345016
0.800300 0.731550 0.353425
0.843084 0.739959 0.361834
0.885869 0.748369 0.370244
0.217828 0.664703 0.252203
0.260613 0.673113 0.260613
0.303397 0.681522 0.269022
0.346181 0.689931 0.277431
0.388966 0.698341 0.285841
0.431750 0.706750 0.294250
0.474534 0.715159 0.302659
0.517319 0.723569 0.311069
0.560103 0.731978 0.319478
0.602888 0.740387 0.327887
0.645672 0.748797 0.336297
0.688456 0.757206 0.344706
0.731241 0.765616 0.353116
0.774025 0.774025 0.361525
0.816809 0.782434 0.369934
0.859594 0.790844 0.378344
0.902378 0.799253 0.386753
0.234337 0.715588 0.268713
0.277122 0.723997 0.277122
0.319906 0.732406 0.285531
0.362691 0.740816 0.293941
0.405475 0.749225 0.302350
0.448259 0.757634 0.310759
0.491044 0.766044 0.319169
0.533828 0.774453 0.327578
0.576612 0.782863 0.335987
0.619397 0.791272 0.344397
0.662181 0.799681 0.352806
0.704966 0.808091 0.361216
0.747750 0.816500 0.369625
0.790534 0.824909 0.378034
0.833319 0.833319 0.386444
0.876103 0.841728 0.394853
0.918887 0.850137 0.403262
0.250847 0.766472 0.285222
0.293631 0.774881 0.293631
0.336416 0.783291 0.302041
0.379200 0.791700 0.310450
0.421984 0.800109 0.318859
0.464769 0.808519 0.327269
0.507553 0.816928 0.335678
0.550338 0.825338 0.344087
0.593122 0.833747 0.352497
0.635906 0.842156 0.360906
0.678691 0.850566 0.369316
0.721475 0.858975 0.377725
0.764259 0.867384 0.386134
0.807044 0.875794 0.394544
0.849828 0.884203 0.402953
0.892613 0.892613 0.411362
0.935397 0.901022 0.419772
0.267356 0.817356 0.301731
0.310141 0.825766 0.310141
0.352925 0.834175 0.318550
0.395709 0.842584 0.326959
0.438494 0.850994 0.335369
0.481278 0.859403 0.343778
0.524062 0.867813 0.352187
0.566847 0.876222 0.360597
0.609631 0.884631 0.369006
0.652416 0.893041 0.377416
0.695200 0.901450 0.385825
0.737984 0.909859 0.394234
0.780769 0.918269 0.402644
0.823553 0.926678 0.411053
0.866337 0.935088 0.419462
0.909122 0.943497 0.427872
0.951906 0.951906 0.436281
0.006412 0.006412 0.075163
0.049197 0.014822 0.083572
0.091981 0.023231 0.091981
0.134766 0.031641 0.100391
0.177550 0.040050 0.108800
0.220334 0.048459 0.117209
0.263119 0.056869 0.125619
0.305903 0.065278 0.134028
0.348688 0.073687 0.142437
0.391472 0.082097 0.150847
0.434256 0.090506 0.159256
0.477041 0.098916 0.167666
0.519825 0.107325 0.176075
0.562609 0.115734 0.184484
0.605394 0.124144 0.192894
0.648178 0.132553 0.201303
0.690962 0.140962 0.209712
0.022922 0.057297 0.091672
0.065706 0.065706 0.100081
0.108491 0.074116 0.108491
0.151275 0.082525 0.116900
0.194059 0.090934 0.125309
0.236844 0.099344 0.133719
0.279628 0.107753 0.142128
0.322412 0.116162 0.150537
0.365197 0.124572 0.158947
0.407981 0.132981 0.167356
0.450766 0.141391 0.175766
0.493550 0.149800 0.184175
0.536334 0.158209 0.192584
0.579119 0.166619 0.200994
0.621903 0.175028 0.209403
0.664687 0.183437 0.217812
0.707472 0.191847 0.226222
0.039431 0.108181 0.108181
0.082216 0.116591 0.116591
0.125000 0.125000 0.125000
0.167784 0.133409 0.133409
0.210569 0.141819 0.141819
0.253353 0.150228 0.150228
0.296137 0.158637 0.158637
0.338922 0.167047 0.167047
0.381706 0.175456 0.175456
0.424491 0.183866 0.183866
0.467275 0.192275 0.192275
0.510059 0.200684 0.200684
0.552844 0.209094 0.209094
0.595628 0.217503 0.217503
0.638413 0.225912 0.225912
0.681197 0.234322 0.234322
0.723981 0.242731 0.242731
0.055941 0.159066 0.124691
0.098725 0.167475 0.133100
0.141509 0.175884 0.141509
0.184294 0.184294 0.149919
0.227078 0.192703 0.158328
0.269863 0.201112 0.166737
0.312647 0.209522 0.175147
0.355431 0.217931 0.183556
0.398216 0.226341 0.191966
0.441000 0.234750 0.200375
0.483784 0.243159 0.208784
0.526569 0.251569 0.217194
0.569353 0.259978 0.225603
0.612138 0.268388 0.234012
0.654922 0.276797 0.242422
0.697706 0.285206 0.250831
0.740491 0.293616 0.259241
0.072450 0.209950 0.141200
0.115234 0.218359 0.149609
0.158019 0.226769 0.158019
0.200803 0.235178 0.166428
0.243587 0.243587 0.174837
0.286372 0.251997 0.183247
0.329156 0.260406 0.191656
0.371941 0.268816 0.200066
0.414725 0.277225 0.208475
0.457509 0.285634 0.216884
0.500294 0.294044 0.225294
0.543078 0.302453 0.233703
0.585862 0.310862 0.242112
0.628647 0.319272 0.250522
0.671431 0.327681 0.258931
0.714216 0.336091 0.267341
0.757000 0.344500 0.275750
0.088959 0.260834 0.157709
0.131744 0.269244 0.166119
0.174528 0.277653 0.174528
0.217312 0.286062 0.182937
0.260097 0.294472 0.191347
0.302881 0.302881 0.199756
0.345666 0.311291 0.208166
0.388450 0.319700 0.216575
0.431234 0.328109 0.224984
0.474019 0.336519 0.233394
0.516803 0.344928 0.241803
0.559588 0.353337 0.250212
0.602372 0.361747 0.258622
0.645156 0.370156 0.267031
0.687941 0.378566 0.275441
0.730725 0.386975 0.283850
0.773509 0.395384 0.292259
0.105469 0.311719 0.174219
0.148253 0.320128 0.182628
0.191037 0.328537 0.191037
0.233822 0.336947 0.199447
0.276606 0.345356 0.207856
0.319391 0.353766 0.216266
0.362175 0.362175 0.224675
0.404959 0.370584 0.233084
0.447744 0.378994 0.241494
0.490528 0.387403 0.249903
0.533312 0.395812 0.258312
0.576097 0.404222 0.266722
0.618881 0.412631 0.275131
0.661666 0.421041 0.283541
0.704450 0.429450 0.291950
0.747234 0.437859 0.300359
0.790019 0.446269 0.308769
0.121978 0.362603 0.190728
0.164762 0.371013 0.199137
0.207547 0.379422 0.207547
0.250331 0.387831 0.215956
0.293116 0.396241 0.224366
0.335900 0.404650 0.232775
0.378684 0.413059 0.241184
0.421469 0.421469 0.249594
0.464253 0.429878 0.258003
0.507038 0.438287 0.266412
0.549822 0.446697 0.274822
0.592606 0.455106 0.283231
0.635391 0.463516 0.291641
0.678175 0.471925 0.300050
0.720959 0.480334 0.308459
0.763744 0.488744 0.316869
0.806528 0.497153 0.325278
0.138487 0.413488 0.207237
0.181272 0.421897 0.215647
0.224056 0.430306 0.224056
0.266841 0.438716 0.232466
0.309625 0.447125 0.240875
0.352409 0.455534 0.249284
0.395194 0.463944 0.257694
0.437978 0.472353 0.266103
0.480762 0.480762 0.274512
0.523547 0.489172 0.282922
0.566331 0.497581 0.291331
0.609116 0.505991 0.299741
0.651900 0.514400 0.308150
0.694684 0.522809 0.316559
0.737469 0.531219 0.324969
0.780253 0.539628 0.333378
0.823038 0.548037 0.341787
0.154997 0.464372 0.223747
0.197781 0.472781 0.232156
0.240566 0.481191 0.240566
0.283350 0.489600 0.248975
0.326134 0.498009 0.257384
0.368919 0.506419 0.265794
0.411703 0.514828 0.274203
0.454487 0.523238 0.282612
0.497272 0.531647 0.291022
0.540056 0.540056 0.299431
0.582841 0.548466 0.307841
0.625625 0.556875 0.316250
0.668409 0.565284 0.324659
0.711194 0.573694 0.333069
0.753978 0.582103 0.341478
0.796763 0.590512 0.349887
0.839547 0.598922 0.358297
0.171506 0.515256 0.240256
0.214291 0.523666 0.248666
0.257075 0.532075 0.257075
0.299859 0.540484 0.265484
0.342644 0.548894 0.273894
0.385428 0.557303 0.282303
0.428212 0.565712 0.290712
0.470997 0.574122 0.299122
0.513781 0.582531 0.307531
0.556566 0.590941 0.315941
0.599350 0.599350 0.324350
0.642134 0.607759 0.332759
0.684919 0.616169 0.341169
0.727703 0.624578 0.349578
0.770487 0.632987 0.357987
0.813272 0.641397 0.366397
0.856056 0.649806 0.374806
0.188016 0.566141 0.256766
0.230800 0.574550 0.265175
0.273584 0.582959 0.273584
0.316369 0.591369 0.281994
0.359153 0.599778 0.290403
0.401938 0.608187 0.298812
0.444722 0.616597 0.307222
0.487506 0.625006 0.315631
0.530291 0.633416 0.324041
0.573075 0.641825 0.332450
0.615859 0.650234 0.340859
0.658644 0.658644 0.349269
0.701428 0.667053 0.357678
0.744212 0.675462 0.366087
0.786997 0.683872 0.374497
0.829781 0.692281 0.382906
0.872566 0.700691 0.391316
0.204525 0.617025 0.273275
0.247309 0.625434 0.281684
0.290094 0.633844 0.290094
0.332878 0.642253 0.298503
0.375663 0.650663 0.306912
0.418447 0.659072 0.315322
0.461231 0.667481 0.323731
0.504016 0.675891 0.332141
0.546800 0.684300 0.340550
0.589584 0.692709 0.348959
0.632369 0.701119 0.357369
0.675153 0.709528 0.365778
0.717938 0.717938 0.374187
0.760722 0.726347 0.382597
0.803506 0.734756 0.391006
0.846291 0.743166 0.399416
0.889075 0.751575 0.407825
0.221034 0.667909 0.289784
0.263819 0.676319 0.298194
0.306603 0.684728 0.306603
0.349387 0.693137 0.315012
0.392172 0.701547 0.323422
0.434956 0.709956 0.331831
0.477741 0.718366 0.340241
0.520525 0.726775 0.348650
0.563309 0.735184 0.357059
0.606094 0.743594 0.365469
0.648878 0.752003 0.373878
0.691662 0.760412 0.382287
0.734447 0.768822 0.390697
0.777231 0.777231 0.399106
0.820016 0.785641 0.407516
0.862800 0.794050 0.415925
0.905584 0.802459 0.424334
0.237544 0.718794 0.306294
0.280328 0.727203 0.314703
0.323113 0.735613 0.323113
0.365897 0.744022 0.331522
0.408681 0.752431 0.339931
0.451466 0.760841 0.348341
0.494250 0.769250 0.356750
0.537034 0.777659 0.365159
0.579819 0.786069 0.373569
0.622603 0.794478 0.381978
0.665388 0.802887 0.390387
0.708172 0.811297 0.398797
0.750956 0.819706 0.407206
0.793741 0.828116 0.415616
0.836525 0.836525 0.424025
0.879309 0.844934 0.432434
0.922094 0.853344 0.440844
0.254053 0.769678 0.322803
0.296837 0.778088 0.331212
0.339622 0.786497 0.339622
0.382406 0.794906 0.348031
0.425191 0.803316 0.356441
0.467975 0.811725 0.364850
0.510759 0.820134 0.373259
0.553544 0.828544 0.381669
0.596328 0.836953 0.390078
0.639112 0.845363 0.398487
0.681897 0.853772 0.406897
0.724681 0.862181 0.415306
0.767466 0.870591 0.423716
0.810250 0.879000 0.432125
0.853034 0.887409 0.440534
0.895819 0.895819 0.448944
0.938603 0.904228 0.457353
0.270562 0.820562 0.339312
0.313347 0.828972 0.347722
0.356131 0.837381 0.356131
0.398916 0.845791 0.364541
0.441700 0.854200 0.372950
0.484484 0.862609 0.381359
0.527269 0.871019 0.389769
0.570053 0.879428 0.398178
0.612837 0.887837 0.406587
0.655622 0.896247 0.414997
0.698406 0.904656 0.423406
0.741191 0.913066 0.431816
0.783975 0.921475 0.440225
0.826759 0.929884 0.448634
0.869544 0.938294 0.457044
0.912328 0.946703 0.465453
0.955112 0.955112 0.473862
0.009619 0.009619 0.112744
0.052403 0.018028 0.121153
0.095188 0.026437 0.129563
0.137972 0.034847 0.137972
0.180756 0.043256 0.146381
0.223541 0.051666 0.154791
0.266325 0.060075 0.163200
0.309109 0.068484 0.171609
0.351894 0.076894 0.180019
0.394678 0.085303 0.188428
0.437462 0.093712 0.196837
0.480247 0.102122 0.205247
0.523031 0.110531 0.213656
0.565816 0.118941 0.222066
0.608600 0.127350 0.230475
0.651384 0.135759 0.238884
0.694169 0.144169 0.247294
0.026128 0.060503 0.129253
