app/src/main/assets/luts/muted_tones.cube
# ApexStudio filter: muted_tones
LUT_3D_SIZE 9
DOMAIN_MIN 0.0 0.0 0.0
DOMAIN_MAX 1.0 1.0 1.0
0.000000 0.000000 0.000000
0.085569 0.016819 0.016819
0.171137 0.033637 0.033637
0.256706 0.050456 0.050456
0.342275 0.067275 0.067275
0.427844 0.084094 0.084094
0.513413 0.100912 0.100912
0.598981 0.117731 0.117731
0.684550 0.134550 0.134550
0.033019 0.101769 0.033019
0.118587 0.118587 0.049837
0.204156 0.135406 0.066656
0.289725 0.152225 0.083475
0.375294 0.169044 0.100294
0.460863 0.185862 0.117112
0.546431 0.202681 0.133931
0.632000 0.219500 0.150750
0.717569 0.236319 0.167569
0.066037 0.203538 0.066037
0.151606 0.220356 0.082856
0.237175 0.237175 0.099675
0.322744 0.253994 0.116494
0.408313 0.270813 0.133313
0.493881 0.287631 0.150131
0.579450 0.304450 0.166950
0.665019 0.321269 0.183769
0.750587 0.338087 0.200587
0.099056 0.305306 0.099056
0.184625 0.322125 0.115875
0.270194 0.338944 0.132694
0.355762 0.355762 0.149512
0.441331 0.372581 0.166331
0.526900 0.389400 0.183150
0.612469 0.406219 0.199969
0.698038 0.423038 0.216787
0.783606 0.439856 0.233606
0.132075 0.407075 0.132075
0.217644 0.423894 0.148894
0.303212 0.440713 0.165712
0.388781 0.457531 0.182531
0.474350 0.474350 0.199350
0.559919 0.491169 0.216169
0.645487 0.507987 0.232987
0.731056 0.524806 0.249806
0.816625 0.541625 0.266625
0.165094 0.508844 0.165094
0.250662 0.525663 0.181912
0.336231 0.542481 0.198731
0.421800 0.559300 0.215550
0.507369 0.576119 0.232369
0.592938 0.592938 0.249187
0.678506 0.609756 0.266006
0.764075 0.626575 0.282825
0.849644 0.643394 0.299644
0.198112 0.610613 0.198112
0.283681 0.627431 0.214931
0.369250 0.644250 0.231750
0.454819 0.661069 0.248569
0.540388 0.677887 0.265387
0.625956 0.694706 0.282206
0.711525 0.711525 0.299025
0.797094 0.728344 0.315844
0.882663 0.745162 0.332662
0.231131 0.712381 0.231131
0.316700 0.729200 0.247950
0.402269 0.746019 0.264769
0.487838 0.762838 0.281587
0.573406 0.779656 0.298406
0.658975 0.796475 0.315225
0.744544 0.813294 0.332044
0.830113 0.830113 0.348862
0.915681 0.846931 0.365681
0.264150 0.814150 0.264150
0.349719 0.830969 0.280969
0.435287 0.847788 0.297787
0.520856 0.864606 0.314606
0.606425 0.881425 0.331425
0.691994 0.898244 0.348244
0.777563 0.915063 0.365062
0.863131 0.931881 0.381881
0.948700 0.948700 0.398700
0.006412 0.006412 0.075163
0.091981 0.023231 0.091981
0.177550 0.040050 0.108800
0.263119 0.056869 0.125619
0.348688 0.073687 0.142437
0.434256 0.090506 0.159256
0.519825 0.107325 0.176075
0.605394 0.124144 0.192894
0.690962 0.140962 0.209712
0.039431 0.108181 0.108181
0.125000 0.125000 0.125000
0.210569 0.141819 0.141819
0.296137 0.158637 0.158637
0.381706 0.175456 0.175456
0.467275 0.192275 0.192275
0.552844 0.209094 0.209094
0.638413 0.225912 0.225912
0.723981 0.242731 0.242731
0.072450 0.209950 0.141200
0.158019 0.226769 0.158019
0.243587 0.243587 0.174837
0.329156 0.260406 0.191656
0.414725 0.277225 0.208475
0.500294 0.294044 0.225294
0.585862 0.310862 0.242112
0.671431 0.327681 0.258931
0.757000 0.344500 0.275750
0.105469 0.311719 0.174219
0.191037 0.328537 0.191037
0.276606 0.345356 0.207856
0.362175 0.362175 0.224675
0.447744 0.378994 0.241494
0.533312 0.395812 0.258312
0.618881 0.412631 0.275131
0.704450 0.429450 0.291950
0.790019 0.446269 0.308769
0.138487 0.413488 0.207237
0.224056 0.430306 0.224056
0.309625 0.447125 0.240875
0.395194 0.463944 0.257694
0.480762 0.480762 0.274512
0.566331 0.497581 0.291331
0.651900 0.514400 0.308150
0.737469 0.531219 0.324969
0.823038 0.548037 0.341787
0.171506 0.515256 0.240256
0.257075 0.532075 0.257075
0.342644 0.548894 0.273894
0.428212 0.565712 0.290712
0.513781 0.582531 0.307531
0.599350 0.599350 0.324350
0.684919 0.616169 0.341169
0.770487 0.632987 0.357987
0.856056 0.649806 0.374806
0.204525 0.617025 0.273275
0.290094 0.633844 0.290094
0.375663 0.650663 0.306912
0.461231 0.667481 0.323731
0.546800 0.684300 0.340550
0.632369 0.701119 0.357369
0.717938 0.717938 0.374187
0.803506 0.734756 0.391006
0.889075 0.751575 0.407825
0.237544 0.718794 0.306294
0.323113 0.735613 0.323113
0.408681 0.752431 0.339931
0.494250 0.769250 0.356750
0.579819 0.786069 0.373569
0.665388 0.802887 0.390387
0.750956 0.819706 0.407206
0.836525 0.836525 0.424025
0.922094 0.853344 0.440844
0.270562 0.820562 0.339312
0.356131 0.837381 0.356131
0.441700 0.854200 0.372950
0.527269 0.871019 0.389769
0.612837 0.887837 0.406587
0.698406 0.904656 0.423406
0.783975 0.921475 0.440225
0.869544 0.938294 0.457044
0.955112 0.955112 0.473862
0.012825 0.012825 0.150325
0.098394 0.029644 0.167144
0.183963 0.046462 0.183963
0.269531 0.063281 0.200781
0.355100 0.080100 0.217600
0.440669 0.096919 0.234419
0.526238 0.113737 0.251238
0.611806 0.130556 0.268056
0.697375 0.147375 0.284875
0.045844 0.114594 0.183344
0.131412 0.131412 0.200162
0.216981 0.148231 0.216981
0.302550 0.165050 0.233800
0.388119 0.181869 0.250619
0.473688 0.198687 0.267437
0.559256 0.215506 0.284256
0.644825 0.232325 0.301075
0.730394 0.249144 0.317894
0.078862 0.216363 0.216363
0.164431 0.233181 0.233181
0.250000 0.250000 0.250000
0.335569 0.266819 0.266819
0.421138 0.283637 0.283637
0.506706 0.300456 0.300456
0.592275 0.317275 0.317275
0.677844 0.334094 0.334094
0.763413 0.350912 0.350912
0.111881 0.318131 0.249381
0.197450 0.334950 0.266200
0.283019 0.351769 0.283019
0.368588 0.368588 0.299837
0.454156 0.385406 0.316656
0.539725 0.402225 0.333475
0.625294 0.419044 0.350294
0.710862 0.435862 0.367112
0.796431 0.452681 0.383931
0.144900 0.419900 0.282400
0.230469 0.436719 0.299219
0.316037 0.453537 0.316037
0.401606 0.470356 0.332856
0.487175 0.487175 0.349675
0.572744 0.503994 0.366494
0.658312 0.520812 0.383312
0.743881 0.537631 0.400131
0.829450 0.554450 0.416950
0.177919 0.521669 0.315419
0.263487 0.538488 0.332237
0.349056 0.555306 0.349056
0.434625 0.572125 0.365875
0.520194 0.588944 0.382694
0.605762 0.605762 0.399512
0.691331 0.622581 0.416331
0.776900 0.639400 0.433150
0.862469 0.656219 0.449969
0.210938 0.623437 0.348437
0.296506 0.640256 0.365256
0.382075 0.657075 0.382075
0.467644 0.673894 0.398894
0.553212 0.690712 0.415712
0.638781 0.707531 0.432531
0.724350 0.724350 0.449350
0.809919 0.741169 0.466169
0.895487 0.757987 0.482987
0.243956 0.725206 0.381456
0.329525 0.742025 0.398275
0.415094 0.758844 0.415094
0.500663 0.775663 0.431912
0.586231 0.792481 0.448731
0.671800 0.809300 0.465550
0.757369 0.826119 0.482369
0.842938 0.842938 0.499187
0.928506 0.859756 0.516006
0.276975 0.826975 0.414475
0.362544 0.843794 0.431294
0.448112 0.860613 0.448112
0.533681 0.877431 0.464931
0.619250 0.894250 0.481750
0.704819 0.911069 0.498569
0.790388 0.927887 0.515387
0.875956 0.944706 0.532206
0.961525 0.961525 0.549025
0.019238 0.019238 0.225488
0.104806 0.036056 0.242306
0.190375 0.052875 0.259125
0.275944 0.069694 0.275944
0.361513 0.086512 0.292763
0.447081 0.103331 0.309581
0.532650 0.120150 0.326400
0.618219 0.136969 0.343219
0.703788 0.153787 0.360038
0.052256 0.121006 0.258506
0.137825 0.137825 0.275325
0.223394 0.154644 0.292144
0.308963 0.171462 0.308963
0.394531 0.188281 0.325781
0.480100 0.205100 0.342600
0.565669 0.221919 0.359419
0.651238 0.238737 0.376238
0.736806 0.255556 0.393056
0.085275 0.222775 0.291525
0.170844 0.239594 0.308344
0.256412 0.256412 0.325163
0.341981 0.273231 0.341981
0.427550 0.290050 0.358800
0.513119 0.306869 0.375619
0.598688 0.323688 0.392437
0.684256 0.340506 0.409256
0.769825 0.357325 0.426075
0.118294 0.324544 0.324544
0.203863 0.341363 0.341363
0.289431 0.358181 0.358181
0.375000 0.375000 0.375000
0.460569 0.391819 0.391819
0.546137 0.408637 0.408637
0.631706 0.425456 0.425456
0.717275 0.442275 0.442275
0.802844 0.459094 0.459094
0.151312 0.426312 0.357563
0.236881 0.443131 0.374381
0.322450 0.459950 0.391200
0.408019 0.476769 0.408019
0.493587 0.493587 0.424837
0.579156 0.510406 0.441656
0.664725 0.527225 0.458475
0.750294 0.544044 0.475294
0.835862 0.560863 0.492112
0.184331 0.528081 0.390581
0.269900 0.544900 0.407400
0.355469 0.561719 0.424219
0.441037 0.578537 0.441037
0.526606 0.595356 0.457856
0.612175 0.612175 0.474675
0.697744 0.628994 0.491494
0.783312 0.645812 0.508312
0.868881 0.662631 0.525131
0.217350 0.629850 0.423600
0.302919 0.646669 0.440419
0.388487 0.663488 0.457237
0.474056 0.680306 0.474056
0.559625 0.697125 0.490875
0.645194 0.713944 0.507694
0.730762 0.730762 0.524512
0.816331 0.747581 0.541331
0.901900 0.764400 0.558150
0.250369 0.731619 0.456619
0.335938 0.748437 0.473437
0.421506 0.765256 0.490256
0.507075 0.782075 0.507075
0.592644 0.798894 0.523894
0.678212 0.815712 0.540712
0.763781 0.832531 0.557531
0.849350 0.849350 0.574350
0.934919 0.866169 0.591169
0.283387 0.833387 0.489637
0.368956 0.850206 0.506456
0.454525 0.867025 0.523275
0.540094 0.883844 0.540094
0.625662 0.900662 0.556912
0.711231 0.917481 0.573731
0.796800 0.934300 0.590550
0.882369 0.951119 0.607369
0.967937 0.967937 0.624187
0.025650 0.025650 0.300650
0.111219 0.042469 0.317469
0.196788 0.059287 0.334288
0.282356 0.076106 0.351106
0.367925 0.092925 0.367925
0.453494 0.109744 0.384744
0.539062 0.126562 0.401563
0.624631 0.143381 0.418381
0.710200 0.160200 0.435200
0.058669 0.127419 0.333669
0.144237 0.144237 0.350488
0.229806 0.161056 0.367306
0.315375 0.177875 0.384125
0.400944 0.194694 0.400944
0.486513 0.211512 0.417762
0.572081 0.228331 0.434581
0.657650 0.245150 0.451400
0.743219 0.261969 0.468219
0.091687 0.229187 0.366687
0.177256 0.246006 0.383506
0.262825 0.262825 0.400325
0.348394 0.279644 0.417144
0.433963 0.296463 0.433963
0.519531 0.313281 0.450781
0.605100 0.330100 0.467600
0.690669 0.346919 0.484419
0.776238 0.363737 0.501238
0.124706 0.330956 0.399706
0.210275 0.347775 0.416525
0.295844 0.364594 0.433344
0.381412 0.381412 0.450163
0.466981 0.398231 0.466981
0.552550 0.415050 0.483800
0.638119 0.431869 0.500619
0.723688 0.448688 0.517437
0.809256 0.465506 0.534256
0.157725 0.432725 0.432725
0.243294 0.449544 0.449544
0.328862 0.466363 0.466363
0.414431 0.483181 0.483181
0.500000 0.500000 0.500000
0.585569 0.516819 0.516819
0.671137 0.533637 0.533637
0.756706 0.550456 0.550456
0.842275 0.567275 0.567275
0.190744 0.534494 0.465744
0.276312 0.551312 0.482562
0.361881 0.568131 0.499381
0.447450 0.584950 0.516200
0.533019 0.601769 0.533019
0.618587 0.618587 0.549837
0.704156 0.635406 0.566656
0.789725 0.652225 0.583475
0.875294 0.669044 0.600294
0.223762 0.636262 0.498762
0.309331 0.653081 0.515581
0.394900 0.669900 0.532400
0.480469 0.686719 0.549219
0.566037 0.703538 0.566037
0.651606 0.720356 0.582856
0.737175 0.737175 0.599675
0.822744 0.753994 0.616494
0.908312 0.770813 0.633312
0.256781 0.738031 0.531781
0.342350 0.754850 0.548600
0.427919 0.771669 0.565419
0.513487 0.788488 0.582238
0.599056 0.805306 0.599056
0.684625 0.822125 0.615875
0.770194 0.838944 0.632694
0.855762 0.855762 0.649512
0.941331 0.872581 0.666331
0.289800 0.839800 0.564800
0.375369 0.856619 0.581619
0.460938 0.873437 0.598437
0.546506 0.890256 0.615256
0.632075 0.907075 0.632075
0.717644 0.923894 0.648894
0.803212 0.940713 0.665713
0.888781 0.957531 0.682531
0.974350 0.974350 0.699350
0.032063 0.032063 0.375812
0.117631 0.048881 0.392631
0.203200 0.065700 0.409450
0.288769 0.082519 0.426269
0.374337 0.099337 0.443088
0.459906 0.116156 0.459906
0.545475 0.132975 0.476725
0.631044 0.149794 0.493544
0.716613 0.166612 0.510363
0.065081 0.133831 0.408831
0.150650 0.150650 0.425650
0.236219 0.167469 0.442469
0.321788 0.184287 0.459288
0.407356 0.201106 0.476106
0.492925 0.217925 0.492925
0.578494 0.234744 0.509744
0.664062 0.251563 0.526563
0.749631 0.268381 0.543381
0.098100 0.235600 0.441850
0.183669 0.252419 0.458669
0.269237 0.269237 0.475488
0.354806 0.286056 0.492306
0.440375 0.302875 0.509125
0.525944 0.319694 0.525944
0.611513 0.336512 0.542763
0.697081 0.353331 0.559581
0.782650 0.370150 0.576400
0.131119 0.337369 0.474869
0.216687 0.354187 0.491687
0.302256 0.371006 0.508506
0.387825 0.387825 0.525325
0.473394 0.404644 0.542144
0.558963 0.421462 0.558963
0.644531 0.438281 0.575781
0.730100 0.455100 0.592600
0.815669 0.471919 0.609419
0.164137 0.439138 0.507888
0.249706 0.455956 0.524706
0.335275 0.472775 0.541525
0.420844 0.489594 0.558344
0.506413 0.506413 0.575163
0.591981 0.523231 0.591981
0.677550 0.540050 0.608800
0.763119 0.556869 0.625619
0.848688 0.573688 0.642437
0.197156 0.540906 0.540906
0.282725 0.557725 0.557725
0.368294 0.574544 0.574544
0.453863 0.591363 0.591363
0.539431 0.608181 0.608181
0.625000 0.625000 0.625000
0.710569 0.641819 0.641819
0.796137 0.658637 0.658637
0.881706 0.675456 0.675456
0.230175 0.642675 0.573925
0.315744 0.659494 0.590744
0.401313 0.676312 0.607563
0.486881 0.693131 0.624381
0.572450 0.709950 0.641200
0.658019 0.726769 0.658019
0.743587 0.743587 0.674837
0.829156 0.760406 0.691656
0.914725 0.777225 0.708475
0.263194 0.744444 0.606944
0.348763 0.761263 0.623762
0.434331 0.778081 0.640581
0.519900 0.794900 0.657400
0.605469 0.811719 0.674219
0.691037 0.828538 0.691037
0.776606 0.845356 0.707856
0.862175 0.862175 0.724675
0.947744 0.878994 0.741494
0.296212 0.846213 0.639962
0.381781 0.863031 0.656781
0.467350 0.879850 0.673600
0.552919 0.896669 0.690419
0.638487 0.913488 0.707237
0.724056 0.930306 0.724056
0.809625 0.947125 0.740875
0.895194 0.963944 0.757694
0.980762 0.980762 0.774512
0.038475 0.038475 0.450975
0.124044 0.055294 0.467794
0.209613 0.072112 0.484613
0.295181 0.088931 0.501431
0.380750 0.105750 0.518250
0.466319 0.122569 0.535069
0.551888 0.139387 0.551888
0.637456 0.156206 0.568706
0.723025 0.173025 0.585525
0.071494 0.140244 0.483994
0.157062 0.157062 0.500812
0.242631 0.173881 0.517631
0.328200 0.190700 0.534450
0.413769 0.207519 0.551269
0.499337 0.224337 0.568088
0.584906 0.241156 0.584906
0.670475 0.257975 0.601725
0.756044 0.274794 0.618544
0.104513 0.242013 0.517012
0.190081 0.258831 0.533831
0.275650 0.275650 0.550650
0.361219 0.292469 0.567469
0.446788 0.309287 0.584288
0.532356 0.326106 0.601106
0.617925 0.342925 0.617925
0.703494 0.359744 0.634744
0.789062 0.376563 0.651563
0.137531 0.343781 0.550031
0.223100 0.360600 0.566850
0.308669 0.377419 0.583669
0.394238 0.394238 0.600488
0.479806 0.411056 0.617306
0.565375 0.427875 0.634125
0.650944 0.444694 0.650944
0.736513 0.461512 0.667763
0.822081 0.478331 0.684581
0.170550 0.445550 0.583050
0.256119 0.462369 0.599869
0.341687 0.479187 0.616688
0.427256 0.496006 0.633506
0.512825 0.512825 0.650325
0.598394 0.529644 0.667144
0.683963 0.546462 0.683963
0.769531 0.563281 0.700781
0.855100 0.580100 0.717600
0.203569 0.547319 0.616069
0.289137 0.564137 0.632888
0.374706 0.580956 0.649706
0.460275 0.597775 0.666525
0.545844 0.614594 0.683344
0.631413 0.631413 0.700163
0.716981 0.648231 0.716981
0.802550 0.665050 0.733800
0.888119 0.681869 0.750619
0.236587 0.649088 0.649088
0.322156 0.665906 0.665906
0.407725 0.682725 0.682725
0.493294 0.699544 0.699544
0.578863 0.716363 0.716363
0.664431 0.733181 0.733181
0.750000 0.750000 0.750000
0.835569 0.766819 0.766819
0.921137 0.783637 0.783637
0.269606 0.750856 0.682106
0.355175 0.767675 0.698925
0.440744 0.784494 0.715744
0.526312 0.801312 0.732563
0.611881 0.818131 0.749381
0.697450 0.834950 0.766200
0.783019 0.851769 0.783019
0.868587 0.868587 0.799837
0.954156 0.885406 0.816656
0.302625 0.852625 0.715125
0.388194 0.869444 0.731944
0.473762 0.886262 0.748762
0.559331 0.903081 0.765581
0.644900 0.919900 0.782400
0.730469 0.936719 0.799219
0.816037 0.953538 0.816037
0.901606 0.970356 0.832856
0.987175 0.987175 0.849675
0.044887 0.044887 0.526138
0.130456 0.061706 0.542956
0.216025 0.078525 0.559775
0.301594 0.095344 0.576594
0.387163 0.112162 0.593413
0.472731 0.128981 0.610231
0.558300 0.145800 0.627050
0.643869 0.162619 0.643869
0.729438 0.179437 0.660688
0.077906 0.146656 0.559156
0.163475 0.163475 0.575975
0.249044 0.180294 0.592794
0.334612 0.197112 0.609613
0.420181 0.213931 0.626431
0.505750 0.230750 0.643250
0.591319 0.247569 0.660069
0.676887 0.264387 0.676887
0.762456 0.281206 0.693706
0.110925 0.248425 0.592175
0.196494 0.265244 0.608994
0.282062 0.282062 0.625812
0.367631 0.298881 0.642631
0.453200 0.315700 0.659450
0.538769 0.332519 0.676269
0.624337 0.349337 0.693088
0.709906 0.366156 0.709906
0.795475 0.382975 0.726725
0.143944 0.350194 0.625194
0.229513 0.367013 0.642012
0.315081 0.383831 0.658831
0.400650 0.400650 0.675650
0.486219 0.417469 0.692469
0.571788 0.434287 0.709288
0.657356 0.451106 0.726106
0.742925 0.467925 0.742925
0.828494 0.484744 0.759744
0.176962 0.451962 0.658213
0.262531 0.468781 0.675031
0.348100 0.485600 0.691850
0.433669 0.502419 0.708669
0.519238 0.519238 0.725488
0.604806 0.536056 0.742306
0.690375 0.552875 0.759125
0.775944 0.569694 0.775944
0.861513 0.586512 0.792763
0.209981 0.553731 0.691231
0.295550 0.570550 0.708050
0.381119 0.587369 0.724869
0.466687 0.604187 0.741688
0.552256 0.621006 0.758506
0.637825 0.637825 0.775325
0.723394 0.654644 0.792144
0.808963 0.671462 0.808963
0.894531 0.688281 0.825781
0.243000 0.655500 0.724250
0.328569 0.672319 0.741069
0.414137 0.689137 0.757888
0.499706 0.705956 0.774706
0.585275 0.722775 0.791525
0.670844 0.739594 0.808344
0.756413 0.756413 0.825163
0.841981 0.773231 0.841981
0.927550 0.790050 0.858800
0.276019 0.757269 0.757269
0.361588 0.774088 0.774088
0.447156 0.790906 0.790906
0.532725 0.807725 0.807725
0.618294 0.824544 0.824544
0.703863 0.841363 0.841363
0.789431 0.858181 0.858181
0.875000 0.875000 0.875000
0.960569 0.891819 0.891819
0.309037 0.859038 0.790288
0.394606 0.875856 0.807106
0.480175 0.892675 0.823925
0.565744 0.909494 0.840744
0.651312 0.926312 0.857563
0.736881 0.943131 0.874381
0.822450 0.959950 0.891200
0.908019 0.976769 0.908019
0.993587 0.993587 0.924837
0.051300 0.051300 0.601300
0.136869 0.068119 0.618119
0.222438 0.084937 0.634938
0.308006 0.101756 0.651756
0.393575 0.118575 0.668575
0.479144 0.135394 0.685394
0.564712 0.152212 0.702213
0.650281 0.169031 0.719031
0.735850 0.185850 0.735850
0.084319 0.153069 0.634319
0.169887 0.169887 0.651138
0.255456 0.186706 0.667956
0.341025 0.203525 0.684775
0.426594 0.220344 0.701594
0.512162 0.237162 0.718413
0.597731 0.253981 0.735231
0.683300 0.270800 0.752050
0.768869 0.287619 0.768869
0.117337 0.254837 0.667337
0.202906 0.271656 0.684156
0.288475 0.288475 0.700975
0.374044 0.305294 0.717794
0.459612 0.322113 0.734613
0.545181 0.338931 0.751431
0.630750 0.355750 0.768250
0.716319 0.372569 0.785069
0.801887 0.389387 0.801887
0.150356 0.356606 0.700356
0.235925 0.373425 0.717175
0.321494 0.390244 0.733994
0.407062 0.407062 0.750812
0.492631 0.423881 0.767631
0.578200 0.440700 0.784450
0.663769 0.457519 0.801269
0.749337 0.474337 0.818088
0.834906 0.491156 0.834906
0.183375 0.458375 0.733375
0.268944 0.475194 0.750194
0.354513 0.492012 0.767012
0.440081 0.508831 0.783831
0.525650 0.525650 0.800650
0.611219 0.542469 0.817469
0.696788 0.559287 0.834287
0.782356 0.576106 0.851106
0.867925 0.592925 0.867925
0.216394 0.560144 0.766394
0.301962 0.576963 0.783213
0.387531 0.593781 0.800031
0.473100 0.610600 0.816850
0.558669 0.627419 0.833669
0.644238 0.644238 0.850488
0.729806 0.661056 0.867306
0.815375 0.677875 0.884125
0.900944 0.694694 0.900944
0.249412 0.661913 0.799413
0.334981 0.678731 0.816231
0.420550 0.695550 0.833050
0.506119 0.712369 0.849869
0.591688 0.729187 0.866688
0.677256 0.746006 0.883506
0.762825 0.762825 0.900325
0.848394 0.779644 0.917144
0.933963 0.796462 0.933963
0.282431 0.763681 0.832431
0.368000 0.780500 0.849250
0.453569 0.797319 0.866069
0.539138 0.814137 0.882888
0.624706 0.830956 0.899706
0.710275 0.847775 0.916525
0.795844 0.864594 0.933344
0.881413 0.881413 0.950163
0.966981 0.898231 0.966981
0.315450 0.865450 0.865450
0.401019 0.882269 0.882269
0.486587 0.899088 0.899088
0.572156 0.915906 0.915906
0.657725 0.932725 0.932725
0.743294 0.949544 0.949544
0.828863 0.966363 0.966363
0.914431 0.983181 0.983181
1.000000 1.000000 1.000000
