app/src/main/assets/luts/muted_tones.cube
# ApexStudio filter: muted_tones
LUT_3D_SIZE 5
DOMAIN_MIN 0.0 0.0 0.0
DOMAIN_MAX 1.0 1.0 1.0
0.000000 0.000000 0.000000
0.171137 0.033637 0.033637
0.342275 0.067275 0.067275
0.513413 0.100912 0.100912
0.684550 0.134550 0.134550
0.066037 0.203538 0.066037
0.237175 0.237175 0.099675
0.408313 0.270813 0.133313
0.579450 0.304450 0.166950
0.750587 0.338087 0.200587
0.132075 0.407075 0.132075
0.303212 0.440713 0.165712
0.474350 0.474350 0.199350
0.645487 0.507987 0.232987
0.816625 0.541625 0.266625
0.198112 0.610613 0.198112
0.369250 0.644250 0.231750
0.540388 0.677887 0.265387
0.711525 0.711525 0.299025
0.882663 0.745162 0.332662
0.264150 0.814150 0.264150
0.435287 0.847788 0.297787
0.606425 0.881425 0.331425
0.777563 0.915063 0.365062
0.948700 0.948700 0.398700
0.012825 0.012825 0.150325
0.183963 0.046462 0.183963
0.355100 0.080100 0.217600
0.526238 0.113737 0.251238
0.697375 0.147375 0.284875
0.078862 0.216363 0.216363
0.250000 0.250000 0.250000
0.421138 0.283637 0.283637
0.592275 0.317275 0.317275
0.763413 0.350912 0.350912
0.144900 0.419900 0.282400
0.316037 0.453537 0.316037
0.487175 0.487175 0.349675
0.658312 0.520812 0.383312
0.829450 0.554450 0.416950
0.210938 0.623437 0.348437
0.382075 0.657075 0.382075
0.553212 0.690712 0.415712
0.724350 0.724350 0.449350
0.895487 0.757987 0.482987
0.276975 0.826975 0.414475
0.448112 0.860613 0.448112
0.619250 0.894250 0.481750
0.790388 0.927887 0.515387
0.961525 0.961525 0.549025
0.025650 0.025650 0.300650
0.196788 0.059287 0.334288
0.367925 0.092925 0.367925
0.539062 0.126562 0.401563
0.710200 0.160200 0.435200
0.091687 0.229187 0.366687
0.262825 0.262825 0.400325
0.433963 0.296463 0.433963
0.605100 0.330100 0.467600
0.776238 0.363737 0.501238
0.157725 0.432725 0.432725
0.328862 0.466363 0.466363
0.500000 0.500000 0.500000
0.671137 0.533637 0.533637
0.842275 0.567275 0.567275
0.223762 0.636262 0.498762
0.394900 0.669900 0.532400
0.566037 0.703538 0.566037
0.737175 0.737175 0.599675
0.908312 0.770813 0.633312
0.289800 0.839800 0.564800
0.460938 0.873437 0.598437
0.632075 0.907075 0.632075
0.803212 0.940713 0.665713
0.974350 0.974350 0.699350
0.038475 0.038475 0.450975
0.209613 0.072112 0.484613
0.380750 0.105750 0.518250
0.551888 0.139387 0.551888
0.723025 0.173025 0.585525
0.104513 0.242013 0.517012
0.275650 0.275650 0.550650
0.446788 0.309287 0.584288
0.617925 0.342925 0.617925
0.789062 0.376563 0.651563
0.170550 0.445550 0.583050
0.341687 0.479187 0.616688
0.512825 0.512825 0.650325
0.683963 0.546462 0.683963
0.855100 0.580100 0.717600
0.236587 0.649088 0.649088
0.407725 0.682725 0.682725
0.578863 0.716363 0.716363
0.750000 0.750000 0.750000
0.921137 0.783637 0.783637
0.302625 0.852625 0.715125
0.473762 0.886262 0.748762
0.644900 0.919900 0.782400
0.816037 0.953538 0.816037
0.987175 0.987175 0.849675
0.051300 0.051300 0.601300
0.222438 0.084937 0.634938
0.393575 0.118575 0.668575
0.564712 0.152212 0.702213
0.735850 0.185850 0.735850
0.117337 0.254837 0.667337
0.288475 0.288475 0.700975
0.459612 0.322113 0.734613
0.630750 0.355750 0.768250
0.801887 0.389387 0.801887
0.183375 0.458375 0.733375
0.354513 0.492012 0.767012
0.525650 0.525650 0.800650
0.696788 0.559287 0.834287
0.867925 0.592925 0.867925
0.249412 0.661913 0.799413
0.420550 0.695550 0.833050
0.591688 0.729187 0.866688
0.762825 0.762825 0.900325
0.933963 0.796462 0.933963
0.315450 0.865450 0.865450
0.486587 0.899088 0.899088
0.657725 0.932725 0.932725
0.828863 0.966363 0.966363
1.000000 1.000000 1.000000
