app/src/main/assets/luts/natural_warmth.cube
# ApexStudio filter: natural_warmth
LUT_3D_SIZE 17
DOMAIN_MIN 0.0 0.0 0.0
DOMAIN_MAX 1.0 1.0 1.0
0.030000 0.000000 0.000000
0.092500 0.000000 0.000000
0.155000 0.000000 0.000000
0.217500 0.000000 0.000000
0.280000 0.000000 0.000000
0.342500 0.000000 0.000000
0.405000 0.000000 0.000000
0.467500 0.000000 0.000000
0.530000 0.000000 0.000000
0.592500 0.000000 0.000000
0.655000 0.000000 0.000000
0.717500 0.000000 0.000000
0.780000 0.000000 0.000000
0.842500 0.000000 0.000000
0.905000 0.000000 0.000000
0.967500 0.000000 0.000000
1.000000 0.000000 0.000000
0.030000 0.052500 0.000000
0.092500 0.052500 0.000000
0.155000 0.052500 0.000000
0.217500 0.052500 0.000000
0.280000 0.052500 0.000000
0.342500 0.052500 0.000000
0.405000 0.052500 0.000000
0.467500 0.052500 0.000000
0.530000 0.052500 0.000000
0.592500 0.052500 0.000000
0.655000 0.052500 0.000000
0.717500 0.052500 0.000000
0.780000 0.052500 0.000000
0.842500 0.052500 0.000000
0.905000 0.052500 0.000000
0.967500 0.052500 0.000000
1.000000 0.052500 0.000000
0.030000 0.115000 0.000000
0.092500 0.115000 0.000000
0.155000 0.115000 0.000000
0.217500 0.115000 0.000000
0.280000 0.115000 0.000000
0.342500 0.115000 0.000000
0.405000 0.115000 0.000000
0.467500 0.115000 0.000000
0.530000 0.115000 0.000000
0.592500 0.115000 0.000000
0.655000 0.115000 0.000000
0.717500 0.115000 0.000000
0.780000 0.115000 0.000000
0.842500 0.115000 0.000000
0.905000 0.115000 0.000000
0.967500 0.115000 0.000000
1.000000 0.115000 0.000000
0.030000 0.177500 0.000000
0.092500 0.177500 0.000000
0.155000 0.177500 0.000000
0.217500 0.177500 0.000000
0.280000 0.177500 0.000000
0.342500 0.177500 0.000000
0.405000 0.177500 0.000000
0.467500 0.177500 0.000000
0.530000 0.177500 0.000000
0.592500 0.177500 0.000000
0.655000 0.177500 0.000000
0.717500 0.177500 0.000000
0.780000 0.177500 0.000000
0.842500 0.177500 0.000000
0.905000 0.177500 0.000000
0.967500 0.177500 0.000000
1.000000 0.177500 0.000000
0.030000 0.240000 0.000000
0.092500 0.240000 0.000000
0.155000 0.240000 0.000000
0.217500 0.240000 0.000000
0.280000 0.240000 0.000000
0.342500 0.240000 0.000000
0.405000 0.240000 0.000000
0.467500 0.240000 0.000000
0.530000 0.240000 0.000000
0.592500 0.240000 0.000000
0.655000 0.240000 0.000000
0.717500 0.240000 0.000000
0.780000 0.240000 0.000000
0.842500 0.240000 0.000000
0.905000 0.240000 0.000000
0.967500 0.240000 0.000000
1.000000 0.240000 0.000000
0.030000 0.302500 0.000000
0.092500 0.302500 0.000000
0.155000 0.302500 0.000000
0.217500 0.302500 0.000000
0.280000 0.302500 0.000000
0.342500 0.302500 0.000000
0.405000 0.302500 0.000000
0.467500 0.302500 0.000000
0.530000 0.302500 0.000000
0.592500 0.302500 0.000000
0.655000 0.302500 0.000000
0.717500 0.302500 0.000000
0.780000 0.302500 0.000000
0.842500 0.302500 0.000000
0.905000 0.302500 0.000000
0.967500 0.302500 0.000000
1.000000 0.302500 0.000000
0.030000 0.365000 0.000000
0.092500 0.365000 0.000000
0.155000 0.365000 0.000000
0.217500 0.365000 0.000000
0.280000 0.365000 0.000000
0.342500 0.365000 0.000000
0.405000 0.365000 0.000000
0.467500 0.365000 0.000000
0.530000 0.365000 0.000000
0.592500 0.365000 0.000000
0.655000 0.365000 0.000000
0.717500 0.365000 0.000000
0.780000 0.365000 0.000000
0.842500 0.365000 0.000000
0.905000 0.365000 0.000000
0.967500 0.365000 0.000000
1.000000 0.365000 0.000000
0.030000 0.427500 0.000000
0.092500 0.427500 0.000000
0.155000 0.427500 0.000000
0.217500 0.427500 0.000000
0.280000 0.427500 0.000000
0.342500 0.427500 0.000000
0.405000 0.427500 0.000000
0.467500 0.427500 0.000000
0.530000 0.427500 0.000000
0.592500 0.427500 0.000000
0.655000 0.427500 0.000000
0.717500 0.427500 0.000000
0.780000 0.427500 0.000000
0.842500 0.427500 0.000000
0.905000 0.427500 0.000000
0.967500 0.427500 0.000000
1.000000 0.427500 0.000000
0.030000 0.490000 0.000000
0.092500 0.490000 0.000000
0.155000 0.490000 0.000000
0.217500 0.490000 0.000000
0.280000 0.490000 0.000000
0.342500 0.490000 0.000000
0.405000 0.490000 0.000000
0.467500 0.490000 0.000000
0.530000 0.490000 0.000000
0.592500 0.490000 0.000000
0.655000 0.490000 0.000000
0.717500 0.490000 0.000000
0.780000 0.490000 0.000000
0.842500 0.490000 0.000000
0.905000 0.490000 0.000000
0.967500 0.490000 0.000000
1.000000 0.490000 0.000000
0.030000 0.552500 0.000000
0.092500 0.552500 0.000000
0.155000 0.552500 0.000000
0.217500 0.552500 0.000000
0.280000 0.552500 0.000000
0.342500 0.552500 0.000000
0.405000 0.552500 0.000000
0.467500 0.552500 0.000000
0.530000 0.552500 0.000000
0.592500 0.552500 0.000000
0.655000 0.552500 0.000000
0.717500 0.552500 0.000000
0.780000 0.552500 0.000000
0.842500 0.552500 0.000000
0.905000 0.552500 0.000000
0.967500 0.552500 0.000000
1.000000 0.552500 0.000000
0.030000 0.615000 0.000000
0.092500 0.615000 0.000000
0.155000 0.615000 0.000000
0.217500 0.615000 0.000000
0.280000 0.615000 0.000000
0.342500 0.615000 0.000000
0.405000 0.615000 0.000000
0.467500 0.615000 0.000000
0.530000 0.615000 0.000000
0.592500 0.615000 0.000000
0.655000 0.615000 0.000000
0.717500 0.615000 0.000000
0.780000 0.615000 0.000000
0.842500 0.615000 0.000000
0.905000 0.615000 0.000000
0.967500 0.615000 0.000000
1.000000 0.615000 0.000000
0.030000 0.677500 0.000000
0.092500 0.677500 0.000000
0.155000 0.677500 0.000000
0.217500 0.677500 0.000000
0.280000 0.677500 0.000000
0.342500 0.677500 0.000000
0.405000 0.677500 0.000000
0.467500 0.677500 0.000000
0.530000 0.677500 0.000000
0.592500 0.677500 0.000000
0.655000 0.677500 0.000000
0.717500 0.677500 0.000000
0.780000 0.677500 0.000000
0.842500 0.677500 0.000000
0.905000 0.677500 0.000000
0.967500 0.677500 0.000000
1.000000 0.677500 0.000000
0.030000 0.740000 0.000000
0.092500 0.740000 0.000000
0.155000 0.740000 0.000000
0.217500 0.740000 0.000000
0.280000 0.740000 0.000000
0.342500 0.740000 0.000000
0.405000 0.740000 0.000000
0.467500 0.740000 0.000000
0.530000 0.740000 0.000000
0.592500 0.740000 0.000000
0.655000 0.740000 0.000000
0.717500 0.740000 0.000000
0.780000 0.740000 0.000000
0.842500 0.740000 0.000000
0.905000 0.740000 0.000000
0.967500 0.740000 0.000000
1.000000 0.740000 0.000000
0.030000 0.802500 0.000000
0.092500 0.802500 0.000000
0.155000 0.802500 0.000000
0.217500 0.802500 0.000000
0.280000 0.802500 0.000000
0.342500 0.802500 0.000000
0.405000 0.802500 0.000000
0.467500 0.802500 0.000000
0.530000 0.802500 0.000000
0.592500 0.802500 0.000000
0.655000 0.802500 0.000000
0.717500 0.802500 0.000000
0.780000 0.802500 0.000000
0.842500 0.802500 0.000000
0.905000 0.802500 0.000000
0.967500 0.802500 0.000000
1.000000 0.802500 0.000000
0.030000 0.865000 0.000000
0.092500 0.865000 0.000000
0.155000 0.865000 0.000000
0.217500 0.865000 0.000000
0.280000 0.865000 0.000000
0.342500 0.865000 0.000000
0.405000 0.865000 0.000000
0.467500 0.865000 0.000000
0.530000 0.865000 0.000000
0.592500 0.865000 0.000000
0.655000 0.865000 0.000000
0.717500 0.865000 0.000000
0.780000 0.865000 0.000000
0.842500 0.865000 0.000000
0.905000 0.865000 0.000000
0.967500 0.865000 0.000000
1.000000 0.865000 0.000000
0.030000 0.927500 0.000000
0.092500 0.927500 0.000000
0.155000 0.927500 0.000000
0.217500 0.927500 0.000000
0.280000 0.927500 0.000000
0.342500 0.927500 0.000000
0.405000 0.927500 0.000000
0.467500 0.927500 0.000000
0.530000 0.927500 0.000000
0.592500 0.927500 0.000000
0.655000 0.927500 0.000000
0.717500 0.927500 0.000000
0.780000 0.927500 0.000000
0.842500 0.927500 0.000000
0.905000 0.927500 0.000000
0.967500 0.927500 0.000000
1.000000 0.927500 0.000000
0.030000 0.990000 0.000000
0.092500 0.990000 0.000000
0.155000 0.990000 0.000000
0.217500 0.990000 0.000000
0.280000 0.990000 0.000000
0.342500 0.990000 0.000000
0.405000 0.990000 0.000000
0.467500 0.990000 0.000000
0.530000 0.990000 0.000000
0.592500 0.990000 0.000000
0.655000 0.990000 0.000000
0.717500 0.990000 0.000000
0.780000 0.990000 0.000000
0.842500 0.990000 0.000000
0.905000 0.990000 0.000000
0.967500 0.990000 0.000000
1.000000 0.990000 0.000000
0.030000 0.000000 0.032500
0.092500 0.000000 0.032500
0.155000 0.000000 0.032500
0.217500 0.000000 0.032500
0.280000 0.000000 0.032500
0.342500 0.000000 0.032500
0.405000 0.000000 0.032500
0.467500 0.000000 0.032500
0.530000 0.000000 0.032500
0.592500 0.000000 0.032500
0.655000 0.000000 0.032500
0.717500 0.000000 0.032500
0.780000 0.000000 0.032500
0.842500 0.000000 0.032500
0.905000 0.000000 0.032500
0.967500 0.000000 0.032500
1.000000 0.000000 0.032500
0.030000 0.052500 0.032500
0.092500 0.052500 0.032500
0.155000 0.052500 0.032500
0.217500 0.052500 0.032500
0.280000 0.052500 0.032500
0.342500 0.052500 0.032500
0.405000 0.052500 0.032500
0.467500 0.052500 0.032500
0.530000 0.052500 0.032500
0.592500 0.052500 0.032500
0.655000 0.052500 0.032500
0.717500 0.052500 0.032500
0.780000 0.052500 0.032500
0.842500 0.052500 0.032500
0.905000 0.052500 0.032500
0.967500 0.052500 0.032500
1.000000 0.052500 0.032500
0.030000 0.115000 0.032500
0.092500 0.115000 0.032500
0.155000 0.115000 0.032500
0.217500 0.115000 0.032500
0.280000 0.115000 0.032500
0.342500 0.115000 0.032500
0.405000 0.115000 0.032500
0.467500 0.115000 0.032500
0.530000 0.115000 0.032500
0.592500 0.115000 0.032500
0.655000 0.115000 0.032500
0.717500 0.115000 0.032500
0.780000 0.115000 0.032500
0.842500 0.115000 0.032500
0.905000 0.115000 0.032500
0.967500 0.115000 0.032500
1.000000 0.115000 0.032500
0.030000 0.177500 0.032500
0.092500 0.177500 0.032500
0.155000 0.177500 0.032500
0.217500 0.177500 0.032500
0.280000 0.177500 0.032500
0.342500 0.177500 0.032500
0.405000 0.177500 0.032500
0.467500 0.177500 0.032500
0.530000 0.177500 0.032500
0.592500 0.177500 0.032500
0.655000 0.177500 0.032500
0.717500 0.177500 0.032500
0.780000 0.177500 0.032500
0.842500 0.177500 0.032500
0.905000 0.177500 0.032500
0.967500 0.177500 0.032500
1.000000 0.177500 0.032500
0.030000 0.240000 0.032500
0.092500 0.240000 0.032500
0.155000 0.240000 0.032500
0.217500 0.240000 0.032500
0.280000 0.240000 0.032500
0.342500 0.240000 0.032500
0.405000 0.240000 0.032500
0.467500 0.240000 0.032500
0.530000 0.240000 0.032500
0.592500 0.240000 0.032500
0.655000 0.240000 0.032500
0.717500 0.240000 0.032500
0.780000 0.240000 0.032500
0.842500 0.240000 0.032500
0.905000 0.240000 0.032500
0.967500 0.240000 0.032500
1.000000 0.240000 0.032500
0.030000 0.302500 0.032500
0.092500 0.302500 0.032500
0.155000 0.302500 0.032500
0.217500 0.302500 0.032500
0.280000 0.302500 0.032500
0.342500 0.302500 0.032500
0.405000 0.302500 0.032500
0.467500 0.302500 0.032500
0.530000 0.302500 0.032500
0.592500 0.302500 0.032500
0.655000 0.302500 0.032500
0.717500 0.302500 0.032500
0.780000 0.302500 0.032500
0.842500 0.302500 0.032500
0.905000 0.302500 0.032500
0.967500 0.302500 0.032500
1.000000 0.302500 0.032500
0.030000 0.365000 0.032500
0.092500 0.365000 0.032500
0.155000 0.365000 0.032500
0.217500 0.365000 0.032500
0.280000 0.365000 0.032500
0.342500 0.365000 0.032500
0.405000 0.365000 0.032500
0.467500 0.365000 0.032500
0.530000 0.365000 0.032500
0.592500 0.365000 0.032500
0.655000 0.365000 0.032500
0.717500 0.365000 0.032500
0.780000 0.365000 0.032500
0.842500 0.365000 0.032500
0.905000 0.365000 0.032500
0.967500 0.365000 0.032500
1.000000 0.365000 0.032500
0.030000 0.427500 0.032500
0.092500 0.427500 0.032500
0.155000 0.427500 0.032500
0.217500 0.427500 0.032500
0.280000 0.427500 0.032500
0.342500 0.427500 0.032500
0.405000 0.427500 0.032500
0.467500 0.427500 0.032500
0.530000 0.427500 0.032500
0.592500 0.427500 0.032500
0.655000 0.427500 0.032500
0.717500 0.427500 0.032500
0.780000 0.427500 0.032500
0.842500 0.427500 0.032500
0.905000 0.427500 0.032500
0.967500 0.427500 0.032500
1.000000 0.427500 0.032500
0.030000 0.490000 0.032500
0.092500 0.490000 0.032500
0.155000 0.490000 0.032500
0.217500 0.490000 0.032500
0.280000 0.490000 0.032500
0.342500 0.490000 0.032500
0.405000 0.490000 0.032500
0.467500 0.490000 0.032500
0.530000 0.490000 0.032500
0.592500 0.490000 0.032500
0.655000 0.490000 0.032500
0.717500 0.490000 0.032500
0.780000 0.490000 0.032500
0.842500 0.490000 0.032500
0.905000 0.490000 0.032500
0.967500 0.490000 0.032500
1.000000 0.490000 0.032500
0.030000 0.552500 0.032500
0.092500 0.552500 0.032500
0.155000 0.552500 0.032500
0.217500 0.552500 0.032500
0.280000 0.552500 0.032500
0.342500 0.552500 0.032500
0.405000 0.552500 0.032500
0.467500 0.552500 0.032500
0.530000 0.552500 0.032500
0.592500 0.552500 0.032500
0.655000 0.552500 0.032500
0.717500 0.552500 0.032500
0.780000 0.552500 0.032500
0.842500 0.552500 0.032500
0.905000 0.552500 0.032500
0.967500 0.552500 0.032500
1.000000 0.552500 0.032500
0.030000 0.615000 0.032500
0.092500 0.615000 0.032500
0.155000 0.615000 0.032500
0.217500 0.615000 0.032500
0.280000 0.615000 0.032500
0.342500 0.615000 0.032500
0.405000 0.615000 0.032500
0.467500 0.615000 0.032500
0.530000 0.615000 0.032500
0.592500 0.615000 0.032500
0.655000 0.615000 0.032500
0.717500 0.615000 0.032500
0.780000 0.615000 0.032500
0.842500 0.615000 0.032500
0.905000 0.615000 0.032500
0.967500 0.615000 0.032500
1.000000 0.615000 0.032500
0.030000 0.677500 0.032500
0.092500 0.677500 0.032500
0.155000 0.677500 0.032500
0.217500 0.677500 0.032500
0.280000 0.677500 0.032500
0.342500 0.677500 0.032500
0.405000 0.677500 0.032500
0.467500 0.677500 0.032500
0.530000 0.677500 0.032500
0.592500 0.677500 0.032500
0.655000 0.677500 0.032500
0.717500 0.677500 0.032500
0.780000 0.677500 0.032500
0.842500 0.677500 0.032500
0.905000 0.677500 0.032500
0.967500 0.677500 0.032500
1.000000 0.677500 0.032500
0.030000 0.740000 0.032500
0.092500 0.740000 0.032500
0.155000 0.740000 0.032500
0.217500 0.740000 0.032500
0.280000 0.740000 0.032500
0.342500 0.740000 0.032500
0.405000 0.740000 0.032500
0.467500 0.740000 0.032500
0.530000 0.740000 0.032500
0.592500 0.740000 0.032500
0.655000 0.740000 0.032500
0.717500 0.740000 0.032500
0.780000 0.740000 0.032500
0.842500 0.740000 0.032500
0.905000 0.740000 0.032500
0.967500 0.740000 0.032500
1.000000 0.740000 0.032500
0.030000 0.802500 0.032500
0.092500 0.802500 0.032500
0.155000 0.802500 0.032500
0.217500 0.802500 0.032500
0.280000 0.802500 0.032500
0.342500 0.802500 0.032500
0.405000 0.802500 0.032500
0.467500 0.802500 0.032500
0.530000 0.802500 0.032500
0.592500 0.802500 0.032500
0.655000 0.802500 0.032500
0.717500 0.802500 0.032500
0.780000 0.802500 0.032500
0.842500 0.802500 0.032500
0.905000 0.802500 0.032500
0.967500 0.802500 0.032500
1.000000 0.802500 0.032500
0.030000 0.865000 0.032500
0.092500 0.865000 0.032500
0.155000 0.865000 0.032500
0.217500 0.865000 0.032500
0.280000 0.865000 0.032500
0.342500 0.865000 0.032500
0.405000 0.865000 0.032500
0.467500 0.865000 0.032500
0.530000 0.865000 0.032500
0.592500 0.865000 0.032500
0.655000 0.865000 0.032500
0.717500 0.865000 0.032500
0.780000 0.865000 0.032500
0.842500 0.865000 0.032500
0.905000 0.865000 0.032500
0.967500 0.865000 0.032500
1.000000 0.865000 0.032500
0.030000 0.927500 0.032500
0.092500 0.927500 0.032500
0.155000 0.927500 0.032500
0.217500 0.927500 0.032500
0.280000 0.927500 0.032500
0.342500 0.927500 0.032500
0.405000 0.927500 0.032500
0.467500 0.927500 0.032500
0.530000 0.927500 0.032500
0.592500 0.927500 0.032500
0.655000 0.927500 0.032500
0.717500 0.927500 0.032500
0.780000 0.927500 0.032500
0.842500 0.927500 0.032500
0.905000 0.927500 0.032500
0.967500 0.927500 0.032500
1.000000 0.927500 0.032500
0.030000 0.990000 0.032500
0.092500 0.990000 0.032500
0.155000 0.990000 0.032500
0.217500 0.990000 0.032500
0.280000 0.990000 0.032500
0.342500 0.990000 0.032500
0.405000 0.990000 0.032500
0.467500 0.990000 0.032500
0.530000 0.990000 0.032500
0.592500 0.990000 0.032500
0.655000 0.990000 0.032500
0.717500 0.990000 0.032500
0.780000 0.990000 0.032500
0.842500 0.990000 0.032500
0.905000 0.990000 0.032500
0.967500 0.990000 0.032500
1.000000 0.990000 0.032500
0.030000 0.000000 0.095000
0.092500 0.000000 0.095000
0.155000 0.000000 0.095000
0.217500 0.000000 0.095000
0.280000 0.000000 0.095000
0.342500 0.000000 0.095000
0.405000 0.000000 0.095000
0.467500 0.000000 0.095000
0.530000 0.000000 0.095000
0.592500 0.000000 0.095000
0.655000 0.000000 0.095000
0.717500 0.000000 0.095000
0.780000 0.000000 0.095000
0.842500 0.000000 0.095000
0.905000 0.000000 0.095000
0.967500 0.000000 0.095000
1.000000 0.000000 0.095000
0.030000 0.052500 0.095000
0.092500 0.052500 0.095000
0.155000 0.052500 0.095000
0.217500 0.052500 0.095000
0.280000 0.052500 0.095000
0.342500 0.052500 0.095000
0.405000 0.052500 0.095000
0.467500 0.052500 0.095000
0.530000 0.052500 0.095000
0.592500 0.052500 0.095000
0.655000 0.052500 0.095000
0.717500 0.052500 0.095000
0.780000 0.052500 0.095000
0.842500 0.052500 0.095000
0.905000 0.052500 0.095000
0.967500 0.052500 0.095000
1.000000 0.052500 0.095000
0.030000 0.115000 0.095000
0.092500 0.115000 0.095000
0.155000 0.115000 0.095000
0.217500 0.115000 0.095000
0.280000 0.115000 0.095000
0.342500 0.115000 0.095000
0.405000 0.115000 0.095000
0.467500 0.115000 0.095000
0.530000 0.115000 0.095000
0.592500 0.115000 0.095000
0.655000 0.115000 0.095000
0.717500 0.115000 0.095000
0.780000 0.115000 0.095000
0.842500 0.115000 0.095000
0.905000 0.115000 0.095000
0.967500 0.115000 0.095000
1.000000 0.115000 0.095000
0.030000 0.177500 0.095000
0.092500 0.177500 0.095000
0.155000 0.177500 0.095000
0.217500 0.177500 0.095000
0.280000 0.177500 0.095000
0.342500 0.177500 0.095000
0.405000 0.177500 0.095000
0.467500 0.177500 0.095000
0.530000 0.177500 0.095000
0.592500 0.177500 0.095000
0.655000 0.177500 0.095000
0.717500 0.177500 0.095000
0.780000 0.177500 0.095000
0.842500 0.177500 0.095000
0.905000 0.177500 0.095000
0.967500 0.177500 0.095000
1.000000 0.177500 0.095000
0.030000 0.240000 0.095000
0.092500 0.240000 0.095000
0.155000 0.240000 0.095000
0.217500 0.240000 0.095000
0.280000 0.240000 0.095000
0.342500 0.240000 0.095000
0.405000 0.240000 0.095000
0.467500 0.240000 0.095000
0.530000 0.240000 0.095000
0.592500 0.240000 0.095000
0.655000 0.240000 0.095000
0.717500 0.240000 0.095000
0.780000 0.240000 0.095000
0.842500 0.240000 0.095000
0.905000 0.240000 0.095000
0.967500 0.240000 0.095000
1.000000 0.240000 0.095000
0.030000 0.302500 0.095000
0.092500 0.302500 0.095000
0.155000 0.302500 0.095000
0.217500 0.302500 0.095000
0.280000 0.302500 0.095000
0.342500 0.302500 0.095000
0.405000 0.302500 0.095000
0.467500 0.302500 0.095000
0.530000 0.302500 0.095000
0.592500 0.302500 0.095000
0.655000 0.302500 0.095000
0.717500 0.302500 0.095000
0.780000 0.302500 0.095000
0.842500 0.302500 0.095000
0.905000 0.302500 0.095000
0.967500 0.302500 0.095000
1.000000 0.302500 0.095000
0.030000 0.365000 0.095000
0.092500 0.365000 0.095000
0.155000 0.365000 0.095000
0.217500 0.365000 0.095000
0.280000 0.365000 0.095000
0.342500 0.365000 0.095000
0.405000 0.365000 0.095000
0.467500 0.365000 0.095000
0.530000 0.365000 0.095000
0.592500 0.365000 0.095000
0.655000 0.365000 0.095000
0.717500 0.365000 0.095000
0.780000 0.365000 0.095000
0.842500 0.365000 0.095000
0.905000 0.365000 0.095000
0.967500 0.365000 0.095000
1.000000 0.365000 0.095000
0.030000 0.427500 0.095000
0.092500 0.427500 0.095000
0.155000 0.427500 0.095000
0.217500 0.427500 0.095000
0.280000 0.427500 0.095000
0.342500 0.427500 0.095000
0.405000 0.427500 0.095000
0.467500 0.427500 0.095000
0.530000 0.427500 0.095000
0.592500 0.427500 0.095000
0.655000 0.427500 0.095000
0.717500 0.427500 0.095000
0.780000 0.427500 0.095000
0.842500 0.427500 0.095000
0.905000 0.427500 0.095000
0.967500 0.427500 0.095000
1.000000 0.427500 0.095000
0.030000 0.490000 0.095000
0.092500 0.490000 0.095000
0.155000 0.490000 0.095000
0.217500 0.490000 0.095000
0.280000 0.490000 0.095000
0.342500 0.490000 0.095000
0.405000 0.490000 0.095000
0.467500 0.490000 0.095000
0.530000 0.490000 0.095000
0.592500 0.490000 0.095000
0.655000 0.490000 0.095000
0.717500 0.490000 0.095000
0.780000 0.490000 0.095000
0.842500 0.490000 0.095000
0.905000 0.490000 0.095000
0.967500 0.490000 0.095000
1.000000 0.490000 0.095000
0.030000 0.552500 0.095000
0.092500 0.552500 0.095000
0.155000 0.552500 0.095000
0.217500 0.552500 0.095000
0.280000 0.552500 0.095000
0.342500 0.552500 0.095000
0.405000 0.552500 0.095000
0.467500 0.552500 0.095000
0.530000 0.552500 0.095000
0.592500 0.552500 0.095000
0.655000 0.552500 0.095000
0.717500 0.552500 0.095000
0.780000 0.552500 0.095000
0.842500 0.552500 0.095000
0.905000 0.552500 0.095000
0.967500 0.552500 0.095000
1.000000 0.552500 0.095000
0.030000 0.615000 0.095000
0.092500 0.615000 0.095000
0.155000 0.615000 0.095000
0.217500 0.615000 0.095000
0.280000 0.615000 0.095000
0.342500 0.615000 0.095000
0.405000 0.615000 0.095000
0.467500 0.615000 0.095000
0.530000 0.615000 0.095000
0.592500 0.615000 0.095000
0.655000 0.615000 0.095000
0.717500 0.615000 0.095000
0.780000 0.615000 0.095000
0.842500 0.615000 0.095000
0.905000 0.615000 0.095000
0.967500 0.615000 0.095000
1.000000 0.615000 0.095000
0.030000 0.677500 0.095000
0.092500 0.677500 0.095000
0.155000 0.677500 0.095000
0.217500 0.677500 0.095000
0.280000 0.677500 0.095000
0.342500 0.677500 0.095000
0.405000 0.677500 0.095000
0.467500 0.677500 0.095000
0.530000 0.677500 0.095000
0.592500 0.677500 0.095000
0.655000 0.677500 0.095000
0.717500 0.677500 0.095000
0.780000 0.677500 0.095000
0.842500 0.677500 0.095000
0.905000 0.677500 0.095000
0.967500 0.677500 0.095000
1.000000 0.677500 0.095000
0.030000 0.740000 0.095000
0.092500 0.740000 0.095000
0.155000 0.740000 0.095000
0.217500 0.740000 0.095000
0.280000 0.740000 0.095000
0.342500 0.740000 0.095000
0.405000 0.740000 0.095000
0.467500 0.740000 0.095000
0.530000 0.740000 0.095000
0.592500 0.740000 0.095000
0.655000 0.740000 0.095000
0.717500 0.740000 0.095000
0.780000 0.740000 0.095000
0.842500 0.740000 0.095000
0.905000 0.740000 0.095000
0.967500 0.740000 0.095000
1.000000 0.740000 0.095000
0.030000 0.802500 0.095000
0.092500 0.802500 0.095000
0.155000 0.802500 0.095000
0.217500 0.802500 0.095000
0.280000 0.802500 0.095000
0.342500 0.802500 0.095000
0.405000 0.802500 0.095000
0.467500 0.802500 0.095000
0.530000 0.802500 0.095000
0.592500 0.802500 0.095000
0.655000 0.802500 0.095000
0.717500 0.802500 0.095000
0.780000 0.802500 0.095000
0.842500 0.802500 0.095000
0.905000 0.802500 0.095000
0.967500 0.802500 0.095000
1.000000 0.802500 0.095000
0.030000 0.865000 0.095000
0.092500 0.865000 0.095000
0.155000 0.865000 0.095000
0.217500 0.865000 0.095000
0.280000 0.865000 0.095000
0.342500 0.865000 0.095000
0.405000 0.865000 0.095000
0.467500 0.865000 0.095000
0.530000 0.865000 0.095000
0.592500 0.865000 0.095000
0.655000 0.865000 0.095000
0.717500 0.865000 0.095000
0.780000 0.865000 0.095000
0.842500 0.865000 0.095000
0.905000 0.865000 0.095000
0.967500 0.865000 0.095000
1.000000 0.865000 0.095000
0.030000 0.927500 0.095000
0.092500 0.927500 0.095000
0.155000 0.927500 0.095000
0.217500 0.927500 0.095000
0.280000 0.927500 0.095000
0.342500 0.927500 0.095000
0.405000 0.927500 0.095000
0.467500 0.927500 0.095000
0.530000 0.927500 0.095000
0.592500 0.927500 0.095000
0.655000 0.927500 0.095000
0.717500 0.927500 0.095000
0.780000 0.927500 0.095000
0.842500 0.927500 0.095000
0.905000 0.927500 0.095000
0.967500 0.927500 0.095000
1.000000 0.927500 0.095000
0.030000 0.990000 0.095000
0.092500 0.990000 0.095000
0.155000 0.990000 0.095000
0.217500 0.990000 0.095000
0.280000 0.990000 0.095000
0.342500 0.990000 0.095000
0.405000 0.990000 0.095000
0.467500 0.990000 0.095000
0.530000 0.990000 0.095000
0.592500 0.990000 0.095000
0.655000 0.990000 0.095000
0.717500 0.990000 0.095000
0.780000 0.990000 0.095000
0.842500 0.990000 0.095000
0.905000 0.990000 0.095000
0.967500 0.990000 0.095000
1.000000 0.990000 0.095000
0.030000 0.000000 0.157500
0.092500 0.000000 0.157500
0.155000 0.000000 0.157500
0.217500 0.000000 0.157500
0.280000 0.000000 0.157500
0.342500 0.000000 0.157500
0.405000 0.000000 0.157500
0.467500 0.000000 0.157500
0.530000 0.000000 0.157500
0.592500 0.000000 0.157500
0.655000 0.000000 0.157500
0.717500 0.000000 0.157500
0.780000 0.000000 0.157500
0.842500 0.000000 0.157500
0.905000 0.000000 0.157500
0.967500 0.000000 0.157500
1.000000 0.000000 0.157500
0.030000 0.052500 0.157500
