app/src/main/assets/luts/natural_warmth.cube
# ApexStudio filter: natural_warmth
LUT_3D_SIZE 9
DOMAIN_MIN 0.0 0.0 0.0
DOMAIN_MAX 1.0 1.0 1.0
0.030000 0.000000 0.000000
0.155000 0.000000 0.000000
0.280000 0.000000 0.000000
0.405000 0.000000 0.000000
0.530000 0.000000 0.000000
0.655000 0.000000 0.000000
0.780000 0.000000 0.000000
0.905000 0.000000 0.000000
1.000000 0.000000 0.000000
0.030000 0.115000 0.000000
0.155000 0.115000 0.000000
0.280000 0.115000 0.000000
0.405000 0.115000 0.000000
0.530000 0.115000 0.000000
0.655000 0.115000 0.000000
0.780000 0.115000 0.000000
0.905000 0.115000 0.000000
1.000000 0.115000 0.000000
0.030000 0.240000 0.000000
0.155000 0.240000 0.000000
0.280000 0.240000 0.000000
0.405000 0.240000 0.000000
0.530000 0.240000 0.000000
0.655000 0.240000 0.000000
0.780000 0.240000 0.000000
0.905000 0.240000 0.000000
1.000000 0.240000 0.000000
0.030000 0.365000 0.000000
0.155000 0.365000 0.000000
0.280000 0.365000 0.000000
0.405000 0.365000 0.000000
0.530000 0.365000 0.000000
0.655000 0.365000 0.000000
0.780000 0.365000 0.000000
0.905000 0.365000 0.000000
1.000000 0.365000 0.000000
0.030000 0.490000 0.000000
0.155000 0.490000 0.000000
0.280000 0.490000 0.000000
0.405000 0.490000 0.000000
0.530000 0.490000 0.000000
0.655000 0.490000 0.000000
0.780000 0.490000 0.000000
0.905000 0.490000 0.000000
1.000000 0.490000 0.000000
0.030000 0.615000 0.000000
0.155000 0.615000 0.000000
0.280000 0.615000 0.000000
0.405000 0.615000 0.000000
0.530000 0.615000 0.000000
0.655000 0.615000 0.000000
0.780000 0.615000 0.000000
0.905000 0.615000 0.000000
1.000000 0.615000 0.000000
0.030000 0.740000 0.000000
0.155000 0.740000 0.000000
0.280000 0.740000 0.000000
0.405000 0.740000 0.000000
0.530000 0.740000 0.000000
0.655000 0.740000 0.000000
0.780000 0.740000 0.000000
0.905000 0.740000 0.000000
1.000000 0.740000 0.000000
0.030000 0.865000 0.000000
0.155000 0.865000 0.000000
0.280000 0.865000 0.000000
0.405000 0.865000 0.000000
0.530000 0.865000 0.000000
0.655000 0.865000 0.000000
0.780000 0.865000 0.000000
0.905000 0.865000 0.000000
1.000000 0.865000 0.000000
0.030000 0.990000 0.000000
0.155000 0.990000 0.000000
0.280000 0.990000 0.000000
0.405000 0.990000 0.000000
0.530000 0.990000 0.000000
0.655000 0.990000 0.000000
0.780000 0.990000 0.000000
0.905000 0.990000 0.000000
1.000000 0.990000 0.000000
0.030000 0.000000 0.095000
0.155000 0.000000 0.095000
0.280000 0.000000 0.095000
0.405000 0.000000 0.095000
0.530000 0.000000 0.095000
0.655000 0.000000 0.095000
0.780000 0.000000 0.095000
0.905000 0.000000 0.095000
1.000000 0.000000 0.095000
0.030000 0.115000 0.095000
0.155000 0.115000 0.095000
0.280000 0.115000 0.095000
0.405000 0.115000 0.095000
0.530000 0.115000 0.095000
0.655000 0.115000 0.095000
0.780000 0.115000 0.095000
0.905000 0.115000 0.095000
1.000000 0.115000 0.095000
0.030000 0.240000 0.095000
0.155000 0.240000 0.095000
0.280000 0.240000 0.095000
0.405000 0.240000 0.095000
0.530000 0.240000 0.095000
0.655000 0.240000 0.095000
0.780000 0.240000 0.095000
0.905000 0.240000 0.095000
1.000000 0.240000 0.095000
0.030000 0.365000 0.095000
0.155000 0.365000 0.095000
0.280000 0.365000 0.095000
0.405000 0.365000 0.095000
0.530000 0.365000 0.095000
0.655000 0.365000 0.095000
0.780000 0.365000 0.095000
0.905000 0.365000 0.095000
1.000000 0.365000 0.095000
0.030000 0.490000 0.095000
0.155000 0.490000 0.095000
0.280000 0.490000 0.095000
0.405000 0.490000 0.095000
0.530000 0.490000 0.095000
0.655000 0.490000 0.095000
0.780000 0.490000 0.095000
0.905000 0.490000 0.095000
1.000000 0.490000 0.095000
0.030000 0.615000 0.095000
0.155000 0.615000 0.095000
0.280000 0.615000 0.095000
0.405000 0.615000 0.095000
0.530000 0.615000 0.095000
0.655000 0.615000 0.095000
0.780000 0.615000 0.095000
0.905000 0.615000 0.095000
1.000000 0.615000 0.095000
0.030000 0.740000 0.095000
0.155000 0.740000 0.095000
0.280000 0.740000 0.095000
0.405000 0.740000 0.095000
0.530000 0.740000 0.095000
0.655000 0.740000 0.095000
0.780000 0.740000 0.095000
0.905000 0.740000 0.095000
1.000000 0.740000 0.095000
0.030000 0.865000 0.095000
0.155000 0.865000 0.095000
0.280000 0.865000 0.095000
0.405000 0.865000 0.095000
0.530000 0.865000 0.095000
0.655000 0.865000 0.095000
0.780000 0.865000 0.095000
0.905000 0.865000 0.095000
1.000000 0.865000 0.095000
0.030000 0.990000 0.095000
0.155000 0.990000 0.095000
0.280000 0.990000 0.095000
0.405000 0.990000 0.095000
0.530000 0.990000 0.095000
0.655000 0.990000 0.095000
0.780000 0.990000 0.095000
0.905000 0.990000 0.095000
1.000000 0.990000 0.095000
0.030000 0.000000 0.220000
0.155000 0.000000 0.220000
0.280000 0.000000 0.220000
0.405000 0.000000 0.220000
0.530000 0.000000 0.220000
0.655000 0.000000 0.220000
0.780000 0.000000 0.220000
0.905000 0.000000 0.220000
1.000000 0.000000 0.220000
0.030000 0.115000 0.220000
0.155000 0.115000 0.220000
0.280000 0.115000 0.220000
0.405000 0.115000 0.220000
0.530000 0.115000 0.220000
0.655000 0.115000 0.220000
0.780000 0.115000 0.220000
0.905000 0.115000 0.220000
1.000000 0.115000 0.220000
0.030000 0.240000 0.220000
0.155000 0.240000 0.220000
0.280000 0.240000 0.220000
0.405000 0.240000 0.220000
0.530000 0.240000 0.220000
0.655000 0.240000 0.220000
0.780000 0.240000 0.220000
0.905000 0.240000 0.220000
1.000000 0.240000 0.220000
0.030000 0.365000 0.220000
0.155000 0.365000 0.220000
0.280000 0.365000 0.220000
0.405000 0.365000 0.220000
0.530000 0.365000 0.220000
0.655000 0.365000 0.220000
0.780000 0.365000 0.220000
0.905000 0.365000 0.220000
1.000000 0.365000 0.220000
0.030000 0.490000 0.220000
0.155000 0.490000 0.220000
0.280000 0.490000 0.220000
0.405000 0.490000 0.220000
0.530000 0.490000 0.220000
0.655000 0.490000 0.220000
0.780000 0.490000 0.220000
0.905000 0.490000 0.220000
1.000000 0.490000 0.220000
0.030000 0.615000 0.220000
0.155000 0.615000 0.220000
0.280000 0.615000 0.220000
0.405000 0.615000 0.220000
0.530000 0.615000 0.220000
0.655000 0.615000 0.220000
0.780000 0.615000 0.220000
0.905000 0.615000 0.220000
1.000000 0.615000 0.220000
0.030000 0.740000 0.220000
0.155000 0.740000 0.220000
0.280000 0.740000 0.220000
0.405000 0.740000 0.220000
0.530000 0.740000 0.220000
0.655000 0.740000 0.220000
0.780000 0.740000 0.220000
0.905000 0.740000 0.220000
1.000000 0.740000 0.220000
0.030000 0.865000 0.220000
0.155000 0.865000 0.220000
0.280000 0.865000 0.220000
0.405000 0.865000 0.220000
0.530000 0.865000 0.220000
0.655000 0.865000 0.220000
0.780000 0.865000 0.220000
0.905000 0.865000 0.220000
1.000000 0.865000 0.220000
0.030000 0.990000 0.220000
0.155000 0.990000 0.220000
0.280000 0.990000 0.220000
0.405000 0.990000 0.220000
0.530000 0.990000 0.220000
0.655000 0.990000 0.220000
0.780000 0.990000 0.220000
0.905000 0.990000 0.220000
1.000000 0.990000 0.220000
0.030000 0.000000 0.345000
0.155000 0.000000 0.345000
0.280000 0.000000 0.345000
0.405000 0.000000 0.345000
0.530000 0.000000 0.345000
0.655000 0.000000 0.345000
0.780000 0.000000 0.345000
0.905000 0.000000 0.345000
1.000000 0.000000 0.345000
0.030000 0.115000 0.345000
0.155000 0.115000 0.345000
0.280000 0.115000 0.345000
0.405000 0.115000 0.345000
0.530000 0.115000 0.345000
0.655000 0.115000 0.345000
0.780000 0.115000 0.345000
0.905000 0.115000 0.345000
1.000000 0.115000 0.345000
0.030000 0.240000 0.345000
0.155000 0.240000 0.345000
0.280000 0.240000 0.345000
0.405000 0.240000 0.345000
0.530000 0.240000 0.345000
0.655000 0.240000 0.345000
0.780000 0.240000 0.345000
0.905000 0.240000 0.345000
1.000000 0.240000 0.345000
0.030000 0.365000 0.345000
0.155000 0.365000 0.345000
0.280000 0.365000 0.345000
0.405000 0.365000 0.345000
0.530000 0.365000 0.345000
0.655000 0.365000 0.345000
0.780000 0.365000 0.345000
0.905000 0.365000 0.345000
1.000000 0.365000 0.345000
0.030000 0.490000 0.345000
0.155000 0.490000 0.345000
0.280000 0.490000 0.345000
0.405000 0.490000 0.345000
0.530000 0.490000 0.345000
0.655000 0.490000 0.345000
0.780000 0.490000 0.345000
0.905000 0.490000 0.345000
1.000000 0.490000 0.345000
0.030000 0.615000 0.345000
0.155000 0.615000 0.345000
0.280000 0.615000 0.345000
0.405000 0.615000 0.345000
0.530000 0.615000 0.345000
0.655000 0.615000 0.345000
0.780000 0.615000 0.345000
0.905000 0.615000 0.345000
1.000000 0.615000 0.345000
0.030000 0.740000 0.345000
0.155000 0.740000 0.345000
0.280000 0.740000 0.345000
0.405000 0.740000 0.345000
0.530000 0.740000 0.345000
0.655000 0.740000 0.345000
0.780000 0.740000 0.345000
0.905000 0.740000 0.345000
1.000000 0.740000 0.345000
0.030000 0.865000 0.345000
0.155000 0.865000 0.345000
0.280000 0.865000 0.345000
0.405000 0.865000 0.345000
0.530000 0.865000 0.345000
0.655000 0.865000 0.345000
0.780000 0.865000 0.345000
0.905000 0.865000 0.345000
1.000000 0.865000 0.345000
0.030000 0.990000 0.345000
0.155000 0.990000 0.345000
0.280000 0.990000 0.345000
0.405000 0.990000 0.345000
0.530000 0.990000 0.345000
0.655000 0.990000 0.345000
0.780000 0.990000 0.345000
0.905000 0.990000 0.345000
1.000000 0.990000 0.345000
0.030000 0.000000 0.470000
0.155000 0.000000 0.470000
0.280000 0.000000 0.470000
0.405000 0.000000 0.470000
0.530000 0.000000 0.470000
0.655000 0.000000 0.470000
0.780000 0.000000 0.470000
0.905000 0.000000 0.470000
1.000000 0.000000 0.470000
0.030000 0.115000 0.470000
0.155000 0.115000 0.470000
0.280000 0.115000 0.470000
0.405000 0.115000 0.470000
0.530000 0.115000 0.470000
0.655000 0.115000 0.470000
0.780000 0.115000 0.470000
0.905000 0.115000 0.470000
1.000000 0.115000 0.470000
0.030000 0.240000 0.470000
0.155000 0.240000 0.470000
0.280000 0.240000 0.470000
0.405000 0.240000 0.470000
0.530000 0.240000 0.470000
0.655000 0.240000 0.470000
0.780000 0.240000 0.470000
0.905000 0.240000 0.470000
1.000000 0.240000 0.470000
0.030000 0.365000 0.470000
0.155000 0.365000 0.470000
0.280000 0.365000 0.470000
0.405000 0.365000 0.470000
0.530000 0.365000 0.470000
0.655000 0.365000 0.470000
0.780000 0.365000 0.470000
0.905000 0.365000 0.470000
1.000000 0.365000 0.470000
0.030000 0.490000 0.470000
0.155000 0.490000 0.470000
0.280000 0.490000 0.470000
0.405000 0.490000 0.470000
0.530000 0.490000 0.470000
0.655000 0.490000 0.470000
0.780000 0.490000 0.470000
0.905000 0.490000 0.470000
1.000000 0.490000 0.470000
0.030000 0.615000 0.470000
0.155000 0.615000 0.470000
0.280000 0.615000 0.470000
0.405000 0.615000 0.470000
0.530000 0.615000 0.470000
0.655000 0.615000 0.470000
0.780000 0.615000 0.470000
0.905000 0.615000 0.470000
1.000000 0.615000 0.470000
0.030000 0.740000 0.470000
0.155000 0.740000 0.470000
0.280000 0.740000 0.470000
0.405000 0.740000 0.470000
0.530000 0.740000 0.470000
0.655000 0.740000 0.470000
0.780000 0.740000 0.470000
0.905000 0.740000 0.470000
1.000000 0.740000 0.470000
0.030000 0.865000 0.470000
0.155000 0.865000 0.470000
0.280000 0.865000 0.470000
0.405000 0.865000 0.470000
0.530000 0.865000 0.470000
0.655000 0.865000 0.470000
0.780000 0.865000 0.470000
0.905000 0.865000 0.470000
1.000000 0.865000 0.470000
0.030000 0.990000 0.470000
0.155000 0.990000 0.470000
0.280000 0.990000 0.470000
0.405000 0.990000 0.470000
0.530000 0.990000 0.470000
0.655000 0.990000 0.470000
0.780000 0.990000 0.470000
0.905000 0.990000 0.470000
1.000000 0.990000 0.470000
0.030000 0.000000 0.595000
0.155000 0.000000 0.595000
0.280000 0.000000 0.595000
0.405000 0.000000 0.595000
0.530000 0.000000 0.595000
0.655000 0.000000 0.595000
0.780000 0.000000 0.595000
0.905000 0.000000 0.595000
1.000000 0.000000 0.595000
0.030000 0.115000 0.595000
0.155000 0.115000 0.595000
0.280000 0.115000 0.595000
0.405000 0.115000 0.595000
0.530000 0.115000 0.595000
0.655000 0.115000 0.595000
0.780000 0.115000 0.595000
0.905000 0.115000 0.595000
1.000000 0.115000 0.595000
0.030000 0.240000 0.595000
0.155000 0.240000 0.595000
0.280000 0.240000 0.595000
0.405000 0.240000 0.595000
0.530000 0.240000 0.595000
0.655000 0.240000 0.595000
0.780000 0.240000 0.595000
0.905000 0.240000 0.595000
1.000000 0.240000 0.595000
0.030000 0.365000 0.595000
0.155000 0.365000 0.595000
0.280000 0.365000 0.595000
0.405000 0.365000 0.595000
0.530000 0.365000 0.595000
0.655000 0.365000 0.595000
0.780000 0.365000 0.595000
0.905000 0.365000 0.595000
1.000000 0.365000 0.595000
0.030000 0.490000 0.595000
0.155000 0.490000 0.595000
0.280000 0.490000 0.595000
0.405000 0.490000 0.595000
0.530000 0.490000 0.595000
0.655000 0.490000 0.595000
0.780000 0.490000 0.595000
0.905000 0.490000 0.595000
1.000000 0.490000 0.595000
0.030000 0.615000 0.595000
0.155000 0.615000 0.595000
0.280000 0.615000 0.595000
0.405000 0.615000 0.595000
0.530000 0.615000 0.595000
0.655000 0.615000 0.595000
0.780000 0.615000 0.595000
0.905000 0.615000 0.595000
1.000000 0.615000 0.595000
0.030000 0.740000 0.595000
0.155000 0.740000 0.595000
0.280000 0.740000 0.595000
0.405000 0.740000 0.595000
0.530000 0.740000 0.595000
0.655000 0.740000 0.595000
0.780000 0.740000 0.595000
0.905000 0.740000 0.595000
1.000000 0.740000 0.595000
0.030000 0.865000 0.595000
0.155000 0.865000 0.595000
0.280000 0.865000 0.595000
0.405000 0.865000 0.595000
0.530000 0.865000 0.595000
0.655000 0.865000 0.595000
0.780000 0.865000 0.595000
0.905000 0.865000 0.595000
1.000000 0.865000 0.595000
0.030000 0.990000 0.595000
0.155000 0.990000 0.595000
0.280000 0.990000 0.595000
0.405000 0.990000 0.595000
0.530000 0.990000 0.595000
0.655000 0.990000 0.595000
0.780000 0.990000 0.595000
0.905000 0.990000 0.595000
1.000000 0.990000 0.595000
0.030000 0.000000 0.720000
0.155000 0.000000 0.720000
0.280000 0.000000 0.720000
0.405000 0.000000 0.720000
0.530000 0.000000 0.720000
0.655000 0.000000 0.720000
0.780000 0.000000 0.720000
0.905000 0.000000 0.720000
1.000000 0.000000 0.720000
0.030000 0.115000 0.720000
0.155000 0.115000 0.720000
0.280000 0.115000 0.720000
0.405000 0.115000 0.720000
0.530000 0.115000 0.720000
0.655000 0.115000 0.720000
0.780000 0.115000 0.720000
0.905000 0.115000 0.720000
1.000000 0.115000 0.720000
0.030000 0.240000 0.720000
0.155000 0.240000 0.720000
0.280000 0.240000 0.720000
0.405000 0.240000 0.720000
0.530000 0.240000 0.720000
0.655000 0.240000 0.720000
0.780000 0.240000 0.720000
0.905000 0.240000 0.720000
1.000000 0.240000 0.720000
0.030000 0.365000 0.720000
0.155000 0.365000 0.720000
0.280000 0.365000 0.720000
0.405000 0.365000 0.720000
0.530000 0.365000 0.720000
0.655000 0.365000 0.720000
0.780000 0.365000 0.720000
0.905000 0.365000 0.720000
1.000000 0.365000 0.720000
0.030000 0.490000 0.720000
0.155000 0.490000 0.720000
0.280000 0.490000 0.720000
0.405000 0.490000 0.720000
0.530000 0.490000 0.720000
0.655000 0.490000 0.720000
0.780000 0.490000 0.720000
0.905000 0.490000 0.720000
1.000000 0.490000 0.720000
0.030000 0.615000 0.720000
0.155000 0.615000 0.720000
0.280000 0.615000 0.720000
0.405000 0.615000 0.720000
0.530000 0.615000 0.720000
0.655000 0.615000 0.720000
0.780000 0.615000 0.720000
0.905000 0.615000 0.720000
1.000000 0.615000 0.720000
0.030000 0.740000 0.720000
0.155000 0.740000 0.720000
0.280000 0.740000 0.720000
0.405000 0.740000 0.720000
0.530000 0.740000 0.720000
0.655000 0.740000 0.720000
0.780000 0.740000 0.720000
0.905000 0.740000 0.720000
1.000000 0.740000 0.720000
0.030000 0.865000 0.720000
0.155000 0.865000 0.720000
0.280000 0.865000 0.720000
0.405000 0.865000 0.720000
0.530000 0.865000 0.720000
0.655000 0.865000 0.720000
0.780000 0.865000 0.720000
0.905000 0.865000 0.720000
1.000000 0.865000 0.720000
0.030000 0.990000 0.720000
0.155000 0.990000 0.720000
0.280000 0.990000 0.720000
0.405000 0.990000 0.720000
0.530000 0.990000 0.720000
0.655000 0.990000 0.720000
0.780000 0.990000 0.720000
0.905000 0.990000 0.720000
1.000000 0.990000 0.720000
0.030000 0.000000 0.845000
0.155000 0.000000 0.845000
0.280000 0.000000 0.845000
0.405000 0.000000 0.845000
0.530000 0.000000 0.845000
0.655000 0.000000 0.845000
0.780000 0.000000 0.845000
0.905000 0.000000 0.845000
1.000000 0.000000 0.845000
0.030000 0.115000 0.845000
0.155000 0.115000 0.845000
0.280000 0.115000 0.845000
0.405000 0.115000 0.845000
0.530000 0.115000 0.845000
0.655000 0.115000 0.845000
0.780000 0.115000 0.845000
0.905000 0.115000 0.845000
1.000000 0.115000 0.845000
0.030000 0.240000 0.845000
0.155000 0.240000 0.845000
0.280000 0.240000 0.845000
0.405000 0.240000 0.845000
0.530000 0.240000 0.845000
0.655000 0.240000 0.845000
0.780000 0.240000 0.845000
0.905000 0.240000 0.845000
1.000000 0.240000 0.845000
0.030000 0.365000 0.845000
0.155000 0.365000 0.845000
0.280000 0.365000 0.845000
0.405000 0.365000 0.845000
0.530000 0.365000 0.845000
0.655000 0.365000 0.845000
0.780000 0.365000 0.845000
0.905000 0.365000 0.845000
1.000000 0.365000 0.845000
0.030000 0.490000 0.845000
0.155000 0.490000 0.845000
0.280000 0.490000 0.845000
0.405000 0.490000 0.845000
0.530000 0.490000 0.845000
0.655000 0.490000 0.845000
0.780000 0.490000 0.845000
0.905000 0.490000 0.845000
1.000000 0.490000 0.845000
0.030000 0.615000 0.845000
0.155000 0.615000 0.845000
0.280000 0.615000 0.845000
0.405000 0.615000 0.845000
0.530000 0.615000 0.845000
0.655000 0.615000 0.845000
0.780000 0.615000 0.845000
0.905000 0.615000 0.845000
1.000000 0.615000 0.845000
0.030000 0.740000 0.845000
0.155000 0.740000 0.845000
0.280000 0.740000 0.845000
0.405000 0.740000 0.845000
0.530000 0.740000 0.845000
0.655000 0.740000 0.845000
0.780000 0.740000 0.845000
0.905000 0.740000 0.845000
1.000000 0.740000 0.845000
0.030000 0.865000 0.845000
0.155000 0.865000 0.845000
0.280000 0.865000 0.845000
0.405000 0.865000 0.845000
0.530000 0.865000 0.845000
0.655000 0.865000 0.845000
0.780000 0.865000 0.845000
0.905000 0.865000 0.845000
1.000000 0.865000 0.845000
0.030000 0.990000 0.845000
0.155000 0.990000 0.845000
0.280000 0.990000 0.845000
0.405000 0.990000 0.845000
0.530000 0.990000 0.845000
0.655000 0.990000 0.845000
0.780000 0.990000 0.845000
0.905000 0.990000 0.845000
1.000000 0.990000 0.845000
0.030000 0.000000 0.970000
0.155000 0.000000 0.970000
0.280000 0.000000 0.970000
0.405000 0.000000 0.970000
0.530000 0.000000 0.970000
0.655000 0.000000 0.970000
0.780000 0.000000 0.970000
0.905000 0.000000 0.970000
1.000000 0.000000 0.970000
0.030000 0.115000 0.970000
0.155000 0.115000 0.970000
0.280000 0.115000 0.970000
0.405000 0.115000 0.970000
0.530000 0.115000 0.970000
0.655000 0.115000 0.970000
0.780000 0.115000 0.970000
0.905000 0.115000 0.970000
1.000000 0.115000 0.970000
0.030000 0.240000 0.970000
0.155000 0.240000 0.970000
0.280000 0.240000 0.970000
0.405000 0.240000 0.970000
0.530000 0.240000 0.970000
0.655000 0.240000 0.970000
0.780000 0.240000 0.970000
0.905000 0.240000 0.970000
1.000000 0.240000 0.970000
0.030000 0.365000 0.970000
0.155000 0.365000 0.970000
0.280000 0.365000 0.970000
0.405000 0.365000 0.970000
0.530000 0.365000 0.970000
0.655000 0.365000 0.970000
0.780000 0.365000 0.970000
0.905000 0.365000 0.970000
1.000000 0.365000 0.970000
0.030000 0.490000 0.970000
0.155000 0.490000 0.970000
0.280000 0.490000 0.970000
0.405000 0.490000 0.970000
0.530000 0.490000 0.970000
0.655000 0.490000 0.970000
0.780000 0.490000 0.970000
0.905000 0.490000 0.970000
1.000000 0.490000 0.970000
0.030000 0.615000 0.970000
0.155000 0.615000 0.970000
0.280000 0.615000 0.970000
0.405000 0.615000 0.970000
0.530000 0.615000 0.970000
0.655000 0.615000 0.970000
0.780000 0.615000 0.970000
0.905000 0.615000 0.970000
1.000000 0.615000 0.970000
0.030000 0.740000 0.970000
0.155000 0.740000 0.970000
0.280000 0.740000 0.970000
0.405000 0.740000 0.970000
0.530000 0.740000 0.970000
0.655000 0.740000 0.970000
0.780000 0.740000 0.970000
0.905000 0.740000 0.970000
1.000000 0.740000 0.970000
0.030000 0.865000 0.970000
0.155000 0.865000 0.970000
0.280000 0.865000 0.970000
0.405000 0.865000 0.970000
0.530000 0.865000 0.970000
0.655000 0.865000 0.970000
0.780000 0.865000 0.970000
0.905000 0.865000 0.970000
1.000000 0.865000 0.970000
0.030000 0.990000 0.970000
0.155000 0.990000 0.970000
0.280000 0.990000 0.970000
0.405000 0.990000 0.970000
0.530000 0.990000 0.970000
0.655000 0.990000 0.970000
0.780000 0.990000 0.970000
0.905000 0.990000 0.970000
1.000000 0.990000 0.970000
