app/src/main/assets/luts/neon_green.cube
# ApexStudio filter: neon_green
LUT_3D_SIZE 5
DOMAIN_MIN 0.0 0.0 0.0
DOMAIN_MAX 1.0 1.0 1.0
0.000000 0.150000 0.000000
0.175000 0.150000 0.000000
0.350000 0.150000 0.000000
0.525000 0.150000 0.000000
0.700000 0.150000 0.000000
0.000000 0.400000 0.000000
0.175000 0.400000 0.000000
0.350000 0.400000 0.000000
0.525000 0.400000 0.000000
0.700000 0.400000 0.000000
0.000000 0.650000 0.000000
0.175000 0.650000 0.000000
0.350000 0.650000 0.000000
0.525000 0.650000 0.000000
0.700000 0.650000 0.000000
0.000000 0.900000 0.000000
0.175000 0.900000 0.000000
0.350000 0.900000 0.000000
0.525000 0.900000 0.000000
0.700000 0.900000 0.000000
0.000000 1.000000 0.000000
0.175000 1.000000 0.000000
0.350000 1.000000 0.000000
0.525000 1.000000 0.000000
0.700000 1.000000 0.000000
0.000000 0.150000 0.175000
0.175000 0.150000 0.175000
0.350000 0.150000 0.175000
0.525000 0.150000 0.175000
0.700000 0.150000 0.175000
0.000000 0.400000 0.175000
0.175000 0.400000 0.175000
0.350000 0.400000 0.175000
0.525000 0.400000 0.175000
0.700000 0.400000 0.175000
0.000000 0.650000 0.175000
0.175000 0.650000 0.175000
0.350000 0.650000 0.175000
0.525000 0.650000 0.175000
0.700000 0.650000 0.175000
0.000000 0.900000 0.175000
0.175000 0.900000 0.175000
0.350000 0.900000 0.175000
0.525000 0.900000 0.175000
0.700000 0.900000 0.175000
0.000000 1.000000 0.175000
0.175000 1.000000 0.175000
0.350000 1.000000 0.175000
0.525000 1.000000 0.175000
0.700000 1.000000 0.175000
0.000000 0.150000 0.350000
0.175000 0.150000 0.350000
0.350000 0.150000 0.350000
0.525000 0.150000 0.350000
0.700000 0.150000 0.350000
0.000000 0.400000 0.350000
0.175000 0.400000 0.350000
0.350000 0.400000 0.350000
0.525000 0.400000 0.350000
0.700000 0.400000 0.350000
0.000000 0.650000 0.350000
0.175000 0.650000 0.350000
0.350000 0.650000 0.350000
0.525000 0.650000 0.350000
0.700000 0.650000 0.350000
0.000000 0.900000 0.350000
0.175000 0.900000 0.350000
0.350000 0.900000 0.350000
0.525000 0.900000 0.350000
0.700000 0.900000 0.350000
0.000000 1.000000 0.350000
0.175000 1.000000 0.350000
0.350000 1.000000 0.350000
0.525000 1.000000 0.350000
0.700000 1.000000 0.350000
0.000000 0.150000 0.525000
0.175000 0.150000 0.525000
0.350000 0.150000 0.525000
0.525000 0.150000 0.525000
0.700000 0.150000 0.525000
0.000000 0.400000 0.525000
0.175000 0.400000 0.525000
0.350000 0.400000 0.525000
0.525000 0.400000 0.525000
0.700000 0.400000 0.525000
0.000000 0.650000 0.525000
0.175000 0.650000 0.525000
0.350000 0.650000 0.525000
0.525000 0.650000 0.525000
0.700000 0.650000 0.525000
0.000000 0.900000 0.525000
0.175000 0.900000 0.525000
0.350000 0.900000 0.525000
0.525000 0.900000 0.525000
0.700000 0.900000 0.525000
0.000000 1.000000 0.525000
0.175000 1.000000 0.525000
0.350000 1.000000 0.525000
0.525000 1.000000 0.525000
0.700000 1.000000 0.525000
0.000000 0.150000 0.700000
0.175000 0.150000 0.700000
0.350000 0.150000 0.700000
0.525000 0.150000 0.700000
0.700000 0.150000 0.700000
0.000000 0.400000 0.700000
0.175000 0.400000 0.700000
0.350000 0.400000 0.700000
0.525000 0.400000 0.700000
0.700000 0.400000 0.700000
0.000000 0.650000 0.700000
0.175000 0.650000 0.700000
0.350000 0.650000 0.700000
0.525000 0.650000 0.700000
0.700000 0.650000 0.700000
0.000000 0.900000 0.700000
0.175000 0.900000 0.700000
0.350000 0.900000 0.700000
0.525000 0.900000 0.700000
0.700000 0.900000 0.700000
0.000000 1.000000 0.700000
0.175000 1.000000 0.700000
0.350000 1.000000 0.700000
0.525000 1.000000 0.700000
0.700000 1.000000 0.700000
