app/src/main/assets/luts/neon_green.cube
# ApexStudio filter: neon_green
LUT_3D_SIZE 17
DOMAIN_MIN 0.0 0.0 0.0
DOMAIN_MAX 1.0 1.0 1.0
0.000000 0.150000 0.000000
0.043750 0.150000 0.000000
0.087500 0.150000 0.000000
0.131250 0.150000 0.000000
0.175000 0.150000 0.000000
0.218750 0.150000 0.000000
0.262500 0.150000 0.000000
0.306250 0.150000 0.000000
0.350000 0.150000 0.000000
0.393750 0.150000 0.000000
0.437500 0.150000 0.000000
0.481250 0.150000 0.000000
0.525000 0.150000 0.000000
0.568750 0.150000 0.000000
0.612500 0.150000 0.000000
0.656250 0.150000 0.000000
0.700000 0.150000 0.000000
0.000000 0.212500 0.000000
0.043750 0.212500 0.000000
0.087500 0.212500 0.000000
0.131250 0.212500 0.000000
0.175000 0.212500 0.000000
0.218750 0.212500 0.000000
0.262500 0.212500 0.000000
0.306250 0.212500 0.000000
0.350000 0.212500 0.000000
0.393750 0.212500 0.000000
0.437500 0.212500 0.000000
0.481250 0.212500 0.000000
0.525000 0.212500 0.000000
0.568750 0.212500 0.000000
0.612500 0.212500 0.000000
0.656250 0.212500 0.000000
0.700000 0.212500 0.000000
0.000000 0.275000 0.000000
0.043750 0.275000 0.000000
0.087500 0.275000 0.000000
0.131250 0.275000 0.000000
0.175000 0.275000 0.000000
0.218750 0.275000 0.000000
0.262500 0.275000 0.000000
0.306250 0.275000 0.000000
0.350000 0.275000 0.000000
0.393750 0.275000 0.000000
0.437500 0.275000 0.000000
0.481250 0.275000 0.000000
0.525000 0.275000 0.000000
0.568750 0.275000 0.000000
0.612500 0.275000 0.000000
0.656250 0.275000 0.000000
0.700000 0.275000 0.000000
0.000000 0.337500 0.000000
0.043750 0.337500 0.000000
0.087500 0.337500 0.000000
0.131250 0.337500 0.000000
0.175000 0.337500 0.000000
0.218750 0.337500 0.000000
0.262500 0.337500 0.000000
0.306250 0.337500 0.000000
0.350000 0.337500 0.000000
0.393750 0.337500 0.000000
0.437500 0.337500 0.000000
0.481250 0.337500 0.000000
0.525000 0.337500 0.000000
0.568750 0.337500 0.000000
0.612500 0.337500 0.000000
0.656250 0.337500 0.000000
0.700000 0.337500 0.000000
0.000000 0.400000 0.000000
0.043750 0.400000 0.000000
0.087500 0.400000 0.000000
0.131250 0.400000 0.000000
0.175000 0.400000 0.000000
0.218750 0.400000 0.000000
0.262500 0.400000 0.000000
0.306250 0.400000 0.000000
0.350000 0.400000 0.000000
0.393750 0.400000 0.000000
0.437500 0.400000 0.000000
0.481250 0.400000 0.000000
0.525000 0.400000 0.000000
0.568750 0.400000 0.000000
0.612500 0.400000 0.000000
0.656250 0.400000 0.000000
0.700000 0.400000 0.000000
0.000000 0.462500 0.000000
0.043750 0.462500 0.000000
0.087500 0.462500 0.000000
0.131250 0.462500 0.000000
0.175000 0.462500 0.000000
0.218750 0.462500 0.000000
0.262500 0.462500 0.000000
0.306250 0.462500 0.000000
0.350000 0.462500 0.000000
0.393750 0.462500 0.000000
0.437500 0.462500 0.000000
0.481250 0.462500 0.000000
0.525000 0.462500 0.000000
0.568750 0.462500 0.000000
0.612500 0.462500 0.000000
0.656250 0.462500 0.000000
0.700000 0.462500 0.000000
0.000000 0.525000 0.000000
0.043750 0.525000 0.000000
0.087500 0.525000 0.000000
0.131250 0.525000 0.000000
0.175000 0.525000 0.000000
0.218750 0.525000 0.000000
0.262500 0.525000 0.000000
0.306250 0.525000 0.000000
0.350000 0.525000 0.000000
0.393750 0.525000 0.000000
0.437500 0.525000 0.000000
0.481250 0.525000 0.000000
0.525000 0.525000 0.000000
0.568750 0.525000 0.000000
0.612500 0.525000 0.000000
0.656250 0.525000 0.000000
0.700000 0.525000 0.000000
0.000000 0.587500 0.000000
0.043750 0.587500 0.000000
0.087500 0.587500 0.000000
0.131250 0.587500 0.000000
0.175000 0.587500 0.000000
0.218750 0.587500 0.000000
0.262500 0.587500 0.000000
0.306250 0.587500 0.000000
0.350000 0.587500 0.000000
0.393750 0.587500 0.000000
0.437500 0.587500 0.000000
0.481250 0.587500 0.000000
0.525000 0.587500 0.000000
0.568750 0.587500 0.000000
0.612500 0.587500 0.000000
0.656250 0.587500 0.000000
0.700000 0.587500 0.000000
0.000000 0.650000 0.000000
0.043750 0.650000 0.000000
0.087500 0.650000 0.000000
0.131250 0.650000 0.000000
0.175000 0.650000 0.000000
0.218750 0.650000 0.000000
0.262500 0.650000 0.000000
0.306250 0.650000 0.000000
0.350000 0.650000 0.000000
0.393750 0.650000 0.000000
0.437500 0.650000 0.000000
0.481250 0.650000 0.000000
0.525000 0.650000 0.000000
0.568750 0.650000 0.000000
0.612500 0.650000 0.000000
0.656250 0.650000 0.000000
0.700000 0.650000 0.000000
0.000000 0.712500 0.000000
0.043750 0.712500 0.000000
0.087500 0.712500 0.000000
0.131250 0.712500 0.000000
0.175000 0.712500 0.000000
0.218750 0.712500 0.000000
0.262500 0.712500 0.000000
0.306250 0.712500 0.000000
0.350000 0.712500 0.000000
0.393750 0.712500 0.000000
0.437500 0.712500 0.000000
0.481250 0.712500 0.000000
0.525000 0.712500 0.000000
0.568750 0.712500 0.000000
0.612500 0.712500 0.000000
0.656250 0.712500 0.000000
0.700000 0.712500 0.000000
0.000000 0.775000 0.000000
0.043750 0.775000 0.000000
0.087500 0.775000 0.000000
0.131250 0.775000 0.000000
0.175000 0.775000 0.000000
0.218750 0.775000 0.000000
0.262500 0.775000 0.000000
0.306250 0.775000 0.000000
0.350000 0.775000 0.000000
0.393750 0.775000 0.000000
0.437500 0.775000 0.000000
0.481250 0.775000 0.000000
0.525000 0.775000 0.000000
0.568750 0.775000 0.000000
0.612500 0.775000 0.000000
0.656250 0.775000 0.000000
0.700000 0.775000 0.000000
0.000000 0.837500 0.000000
0.043750 0.837500 0.000000
0.087500 0.837500 0.000000
0.131250 0.837500 0.000000
0.175000 0.837500 0.000000
0.218750 0.837500 0.000000
0.262500 0.837500 0.000000
0.306250 0.837500 0.000000
0.350000 0.837500 0.000000
0.393750 0.837500 0.000000
0.437500 0.837500 0.000000
0.481250 0.837500 0.000000
0.525000 0.837500 0.000000
0.568750 0.837500 0.000000
0.612500 0.837500 0.000000
0.656250 0.837500 0.000000
0.700000 0.837500 0.000000
0.000000 0.900000 0.000000
0.043750 0.900000 0.000000
0.087500 0.900000 0.000000
0.131250 0.900000 0.000000
0.175000 0.900000 0.000000
0.218750 0.900000 0.000000
0.262500 0.900000 0.000000
0.306250 0.900000 0.000000
0.350000 0.900000 0.000000
0.393750 0.900000 0.000000
0.437500 0.900000 0.000000
0.481250 0.900000 0.000000
0.525000 0.900000 0.000000
0.568750 0.900000 0.000000
0.612500 0.900000 0.000000
0.656250 0.900000 0.000000
0.700000 0.900000 0.000000
0.000000 0.962500 0.000000
0.043750 0.962500 0.000000
0.087500 0.962500 0.000000
0.131250 0.962500 0.000000
0.175000 0.962500 0.000000
0.218750 0.962500 0.000000
0.262500 0.962500 0.000000
0.306250 0.962500 0.000000
0.350000 0.962500 0.000000
0.393750 0.962500 0.000000
0.437500 0.962500 0.000000
0.481250 0.962500 0.000000
0.525000 0.962500 0.000000
0.568750 0.962500 0.000000
0.612500 0.962500 0.000000
0.656250 0.962500 0.000000
0.700000 0.962500 0.000000
0.000000 1.000000 0.000000
0.043750 1.000000 0.000000
0.087500 1.000000 0.000000
0.131250 1.000000 0.000000
0.175000 1.000000 0.000000
0.218750 1.000000 0.000000
0.262500 1.000000 0.000000
0.306250 1.000000 0.000000
0.350000 1.000000 0.000000
0.393750 1.000000 0.000000
0.437500 1.000000 0.000000
0.481250 1.000000 0.000000
0.525000 1.000000 0.000000
0.568750 1.000000 0.000000
0.612500 1.000000 0.000000
0.656250 1.000000 0.000000
0.700000 1.000000 0.000000
0.000000 1.000000 0.000000
0.043750 1.000000 0.000000
0.087500 1.000000 0.000000
0.131250 1.000000 0.000000
0.175000 1.000000 0.000000
0.218750 1.000000 0.000000
0.262500 1.000000 0.000000
0.306250 1.000000 0.000000
0.350000 1.000000 0.000000
0.393750 1.000000 0.000000
0.437500 1.000000 0.000000
0.481250 1.000000 0.000000
0.525000 1.000000 0.000000
0.568750 1.000000 0.000000
0.612500 1.000000 0.000000
0.656250 1.000000 0.000000
0.700000 1.000000 0.000000
0.000000 1.000000 0.000000
0.043750 1.000000 0.000000
0.087500 1.000000 0.000000
0.131250 1.000000 0.000000
0.175000 1.000000 0.000000
0.218750 1.000000 0.000000
0.262500 1.000000 0.000000
0.306250 1.000000 0.000000
0.350000 1.000000 0.000000
0.393750 1.000000 0.000000
0.437500 1.000000 0.000000
0.481250 1.000000 0.000000
0.525000 1.000000 0.000000
0.568750 1.000000 0.000000
0.612500 1.000000 0.000000
0.656250 1.000000 0.000000
0.700000 1.000000 0.000000
0.000000 0.150000 0.043750
0.043750 0.150000 0.043750
0.087500 0.150000 0.043750
0.131250 0.150000 0.043750
0.175000 0.150000 0.043750
0.218750 0.150000 0.043750
0.262500 0.150000 0.043750
0.306250 0.150000 0.043750
0.350000 0.150000 0.043750
0.393750 0.150000 0.043750
0.437500 0.150000 0.043750
0.481250 0.150000 0.043750
0.525000 0.150000 0.043750
0.568750 0.150000 0.043750
0.612500 0.150000 0.043750
0.656250 0.150000 0.043750
0.700000 0.150000 0.043750
0.000000 0.212500 0.043750
0.043750 0.212500 0.043750
0.087500 0.212500 0.043750
0.131250 0.212500 0.043750
0.175000 0.212500 0.043750
0.218750 0.212500 0.043750
0.262500 0.212500 0.043750
0.306250 0.212500 0.043750
0.350000 0.212500 0.043750
0.393750 0.212500 0.043750
0.437500 0.212500 0.043750
0.481250 0.212500 0.043750
0.525000 0.212500 0.043750
0.568750 0.212500 0.043750
0.612500 0.212500 0.043750
0.656250 0.212500 0.043750
0.700000 0.212500 0.043750
0.000000 0.275000 0.043750
0.043750 0.275000 0.043750
0.087500 0.275000 0.043750
0.131250 0.275000 0.043750
0.175000 0.275000 0.043750
0.218750 0.275000 0.043750
0.262500 0.275000 0.043750
0.306250 0.275000 0.043750
0.350000 0.275000 0.043750
0.393750 0.275000 0.043750
0.437500 0.275000 0.043750
0.481250 0.275000 0.043750
0.525000 0.275000 0.043750
0.568750 0.275000 0.043750
0.612500 0.275000 0.043750
0.656250 0.275000 0.043750
0.700000 0.275000 0.043750
0.000000 0.337500 0.043750
0.043750 0.337500 0.043750
0.087500 0.337500 0.043750
0.131250 0.337500 0.043750
0.175000 0.337500 0.043750
0.218750 0.337500 0.043750
0.262500 0.337500 0.043750
0.306250 0.337500 0.043750
0.350000 0.337500 0.043750
0.393750 0.337500 0.043750
0.437500 0.337500 0.043750
0.481250 0.337500 0.043750
0.525000 0.337500 0.043750
0.568750 0.337500 0.043750
0.612500 0.337500 0.043750
0.656250 0.337500 0.043750
0.700000 0.337500 0.043750
0.000000 0.400000 0.043750
0.043750 0.400000 0.043750
0.087500 0.400000 0.043750
0.131250 0.400000 0.043750
0.175000 0.400000 0.043750
0.218750 0.400000 0.043750
0.262500 0.400000 0.043750
0.306250 0.400000 0.043750
0.350000 0.400000 0.043750
0.393750 0.400000 0.043750
0.437500 0.400000 0.043750
0.481250 0.400000 0.043750
0.525000 0.400000 0.043750
0.568750 0.400000 0.043750
0.612500 0.400000 0.043750
0.656250 0.400000 0.043750
0.700000 0.400000 0.043750
0.000000 0.462500 0.043750
0.043750 0.462500 0.043750
0.087500 0.462500 0.043750
0.131250 0.462500 0.043750
0.175000 0.462500 0.043750
0.218750 0.462500 0.043750
0.262500 0.462500 0.043750
0.306250 0.462500 0.043750
0.350000 0.462500 0.043750
0.393750 0.462500 0.043750
0.437500 0.462500 0.043750
0.481250 0.462500 0.043750
0.525000 0.462500 0.043750
0.568750 0.462500 0.043750
0.612500 0.462500 0.043750
0.656250 0.462500 0.043750
0.700000 0.462500 0.043750
0.000000 0.525000 0.043750
0.043750 0.525000 0.043750
0.087500 0.525000 0.043750
0.131250 0.525000 0.043750
0.175000 0.525000 0.043750
0.218750 0.525000 0.043750
0.262500 0.525000 0.043750
0.306250 0.525000 0.043750
0.350000 0.525000 0.043750
0.393750 0.525000 0.043750
0.437500 0.525000 0.043750
0.481250 0.525000 0.043750
0.525000 0.525000 0.043750
0.568750 0.525000 0.043750
0.612500 0.525000 0.043750
0.656250 0.525000 0.043750
0.700000 0.525000 0.043750
0.000000 0.587500 0.043750
0.043750 0.587500 0.043750
0.087500 0.587500 0.043750
0.131250 0.587500 0.043750
0.175000 0.587500 0.043750
0.218750 0.587500 0.043750
0.262500 0.587500 0.043750
0.306250 0.587500 0.043750
0.350000 0.587500 0.043750
0.393750 0.587500 0.043750
0.437500 0.587500 0.043750
0.481250 0.587500 0.043750
0.525000 0.587500 0.043750
0.568750 0.587500 0.043750
0.612500 0.587500 0.043750
0.656250 0.587500 0.043750
0.700000 0.587500 0.043750
0.000000 0.650000 0.043750
0.043750 0.650000 0.043750
0.087500 0.650000 0.043750
0.131250 0.650000 0.043750
0.175000 0.650000 0.043750
0.218750 0.650000 0.043750
0.262500 0.650000 0.043750
0.306250 0.650000 0.043750
0.350000 0.650000 0.043750
0.393750 0.650000 0.043750
0.437500 0.650000 0.043750
0.481250 0.650000 0.043750
0.525000 0.650000 0.043750
0.568750 0.650000 0.043750
0.612500 0.650000 0.043750
0.656250 0.650000 0.043750
0.700000 0.650000 0.043750
0.000000 0.712500 0.043750
0.043750 0.712500 0.043750
0.087500 0.712500 0.043750
0.131250 0.712500 0.043750
0.175000 0.712500 0.043750
0.218750 0.712500 0.043750
0.262500 0.712500 0.043750
0.306250 0.712500 0.043750
0.350000 0.712500 0.043750
0.393750 0.712500 0.043750
0.437500 0.712500 0.043750
0.481250 0.712500 0.043750
0.525000 0.712500 0.043750
0.568750 0.712500 0.043750
0.612500 0.712500 0.043750
0.656250 0.712500 0.043750
0.700000 0.712500 0.043750
0.000000 0.775000 0.043750
0.043750 0.775000 0.043750
0.087500 0.775000 0.043750
0.131250 0.775000 0.043750
0.175000 0.775000 0.043750
0.218750 0.775000 0.043750
0.262500 0.775000 0.043750
0.306250 0.775000 0.043750
0.350000 0.775000 0.043750
0.393750 0.775000 0.043750
0.437500 0.775000 0.043750
0.481250 0.775000 0.043750
0.525000 0.775000 0.043750
0.568750 0.775000 0.043750
0.612500 0.775000 0.043750
0.656250 0.775000 0.043750
0.700000 0.775000 0.043750
0.000000 0.837500 0.043750
0.043750 0.837500 0.043750
0.087500 0.837500 0.043750
0.131250 0.837500 0.043750
0.175000 0.837500 0.043750
0.218750 0.837500 0.043750
0.262500 0.837500 0.043750
0.306250 0.837500 0.043750
0.350000 0.837500 0.043750
0.393750 0.837500 0.043750
0.437500 0.837500 0.043750
0.481250 0.837500 0.043750
0.525000 0.837500 0.043750
0.568750 0.837500 0.043750
0.612500 0.837500 0.043750
0.656250 0.837500 0.043750
0.700000 0.837500 0.043750
0.000000 0.900000 0.043750
0.043750 0.900000 0.043750
0.087500 0.900000 0.043750
0.131250 0.900000 0.043750
0.175000 0.900000 0.043750
0.218750 0.900000 0.043750
0.262500 0.900000 0.043750
0.306250 0.900000 0.043750
0.350000 0.900000 0.043750
0.393750 0.900000 0.043750
0.437500 0.900000 0.043750
0.481250 0.900000 0.043750
0.525000 0.900000 0.043750
0.568750 0.900000 0.043750
0.612500 0.900000 0.043750
0.656250 0.900000 0.043750
0.700000 0.900000 0.043750
0.000000 0.962500 0.043750
0.043750 0.962500 0.043750
0.087500 0.962500 0.043750
0.131250 0.962500 0.043750
0.175000 0.962500 0.043750
0.218750 0.962500 0.043750
0.262500 0.962500 0.043750
0.306250 0.962500 0.043750
0.350000 0.962500 0.043750
0.393750 0.962500 0.043750
0.437500 0.962500 0.043750
0.481250 0.962500 0.043750
0.525000 0.962500 0.043750
0.568750 0.962500 0.043750
0.612500 0.962500 0.043750
0.656250 0.962500 0.043750
0.700000 0.962500 0.043750
0.000000 1.000000 0.043750
0.043750 1.000000 0.043750
0.087500 1.000000 0.043750
0.131250 1.000000 0.043750
0.175000 1.000000 0.043750
0.218750 1.000000 0.043750
0.262500 1.000000 0.043750
0.306250 1.000000 0.043750
0.350000 1.000000 0.043750
0.393750 1.000000 0.043750
0.437500 1.000000 0.043750
0.481250 1.000000 0.043750
0.525000 1.000000 0.043750
0.568750 1.000000 0.043750
0.612500 1.000000 0.043750
0.656250 1.000000 0.043750
0.700000 1.000000 0.043750
0.000000 1.000000 0.043750
0.043750 1.000000 0.043750
0.087500 1.000000 0.043750
0.131250 1.000000 0.043750
0.175000 1.000000 0.043750
0.218750 1.000000 0.043750
0.262500 1.000000 0.043750
0.306250 1.000000 0.043750
0.350000 1.000000 0.043750
0.393750 1.000000 0.043750
0.437500 1.000000 0.043750
0.481250 1.000000 0.043750
0.525000 1.000000 0.043750
0.568750 1.000000 0.043750
0.612500 1.000000 0.043750
0.656250 1.000000 0.043750
0.700000 1.000000 0.043750
0.000000 1.000000 0.043750
0.043750 1.000000 0.043750
0.087500 1.000000 0.043750
0.131250 1.000000 0.043750
0.175000 1.000000 0.043750
0.218750 1.000000 0.043750
0.262500 1.000000 0.043750
0.306250 1.000000 0.043750
0.350000 1.000000 0.043750
0.393750 1.000000 0.043750
0.437500 1.000000 0.043750
0.481250 1.000000 0.043750
0.525000 1.000000 0.043750
0.568750 1.000000 0.043750
0.612500 1.000000 0.043750
0.656250 1.000000 0.043750
0.700000 1.000000 0.043750
0.000000 0.150000 0.087500
0.043750 0.150000 0.087500
0.087500 0.150000 0.087500
0.131250 0.150000 0.087500
0.175000 0.150000 0.087500
0.218750 0.150000 0.087500
0.262500 0.150000 0.087500
0.306250 0.150000 0.087500
0.350000 0.150000 0.087500
0.393750 0.150000 0.087500
0.437500 0.150000 0.087500
0.481250 0.150000 0.087500
0.525000 0.150000 0.087500
0.568750 0.150000 0.087500
0.612500 0.150000 0.087500
0.656250 0.150000 0.087500
0.700000 0.150000 0.087500
0.000000 0.212500 0.087500
0.043750 0.212500 0.087500
0.087500 0.212500 0.087500
0.131250 0.212500 0.087500
0.175000 0.212500 0.087500
0.218750 0.212500 0.087500
0.262500 0.212500 0.087500
0.306250 0.212500 0.087500
0.350000 0.212500 0.087500
0.393750 0.212500 0.087500
0.437500 0.212500 0.087500
0.481250 0.212500 0.087500
0.525000 0.212500 0.087500
0.568750 0.212500 0.087500
0.612500 0.212500 0.087500
0.656250 0.212500 0.087500
0.700000 0.212500 0.087500
0.000000 0.275000 0.087500
0.043750 0.275000 0.087500
0.087500 0.275000 0.087500
0.131250 0.275000 0.087500
0.175000 0.275000 0.087500
0.218750 0.275000 0.087500
0.262500 0.275000 0.087500
0.306250 0.275000 0.087500
0.350000 0.275000 0.087500
0.393750 0.275000 0.087500
0.437500 0.275000 0.087500
0.481250 0.275000 0.087500
0.525000 0.275000 0.087500
0.568750 0.275000 0.087500
0.612500 0.275000 0.087500
0.656250 0.275000 0.087500
0.700000 0.275000 0.087500
0.000000 0.337500 0.087500
0.043750 0.337500 0.087500
0.087500 0.337500 0.087500
0.131250 0.337500 0.087500
0.175000 0.337500 0.087500
0.218750 0.337500 0.087500
0.262500 0.337500 0.087500
0.306250 0.337500 0.087500
0.350000 0.337500 0.087500
0.393750 0.337500 0.087500
0.437500 0.337500 0.087500
0.481250 0.337500 0.087500
0.525000 0.337500 0.087500
0.568750 0.337500 0.087500
0.612500 0.337500 0.087500
0.656250 0.337500 0.087500
0.700000 0.337500 0.087500
0.000000 0.400000 0.087500
0.043750 0.400000 0.087500
0.087500 0.400000 0.087500
0.131250 0.400000 0.087500
0.175000 0.400000 0.087500
0.218750 0.400000 0.087500
0.262500 0.400000 0.087500
0.306250 0.400000 0.087500
0.350000 0.400000 0.087500
0.393750 0.400000 0.087500
0.437500 0.400000 0.087500
0.481250 0.400000 0.087500
0.525000 0.400000 0.087500
0.568750 0.400000 0.087500
0.612500 0.400000 0.087500
0.656250 0.400000 0.087500
0.700000 0.400000 0.087500
0.000000 0.462500 0.087500
0.043750 0.462500 0.087500
0.087500 0.462500 0.087500
0.131250 0.462500 0.087500
0.175000 0.462500 0.087500
0.218750 0.462500 0.087500
0.262500 0.462500 0.087500
0.306250 0.462500 0.087500
0.350000 0.462500 0.087500
0.393750 0.462500 0.087500
0.437500 0.462500 0.087500
0.481250 0.462500 0.087500
0.525000 0.462500 0.087500
0.568750 0.462500 0.087500
0.612500 0.462500 0.087500
0.656250 0.462500 0.087500
0.700000 0.462500 0.087500
0.000000 0.525000 0.087500
0.043750 0.525000 0.087500
0.087500 0.525000 0.087500
0.131250 0.525000 0.087500
0.175000 0.525000 0.087500
0.218750 0.525000 0.087500
0.262500 0.525000 0.087500
0.306250 0.525000 0.087500
0.350000 0.525000 0.087500
0.393750 0.525000 0.087500
0.437500 0.525000 0.087500
0.481250 0.525000 0.087500
0.525000 0.525000 0.087500
0.568750 0.525000 0.087500
0.612500 0.525000 0.087500
0.656250 0.525000 0.087500
0.700000 0.525000 0.087500
0.000000 0.587500 0.087500
0.043750 0.587500 0.087500
0.087500 0.587500 0.087500
0.131250 0.587500 0.087500
0.175000 0.587500 0.087500
0.218750 0.587500 0.087500
0.262500 0.587500 0.087500
0.306250 0.587500 0.087500
0.350000 0.587500 0.087500
0.393750 0.587500 0.087500
0.437500 0.587500 0.087500
0.481250 0.587500 0.087500
0.525000 0.587500 0.087500
0.568750 0.587500 0.087500
0.612500 0.587500 0.087500
0.656250 0.587500 0.087500
0.700000 0.587500 0.087500
0.000000 0.650000 0.087500
0.043750 0.650000 0.087500
0.087500 0.650000 0.087500
0.131250 0.650000 0.087500
0.175000 0.650000 0.087500
0.218750 0.650000 0.087500
0.262500 0.650000 0.087500
0.306250 0.650000 0.087500
0.350000 0.650000 0.087500
0.393750 0.650000 0.087500
0.437500 0.650000 0.087500
0.481250 0.650000 0.087500
0.525000 0.650000 0.087500
0.568750 0.650000 0.087500
0.612500 0.650000 0.087500
0.656250 0.650000 0.087500
0.700000 0.650000 0.087500
0.000000 0.712500 0.087500
0.043750 0.712500 0.087500
0.087500 0.712500 0.087500
0.131250 0.712500 0.087500
0.175000 0.712500 0.087500
0.218750 0.712500 0.087500
0.262500 0.712500 0.087500
0.306250 0.712500 0.087500
0.350000 0.712500 0.087500
0.393750 0.712500 0.087500
0.437500 0.712500 0.087500
0.481250 0.712500 0.087500
0.525000 0.712500 0.087500
0.568750 0.712500 0.087500
0.612500 0.712500 0.087500
0.656250 0.712500 0.087500
0.700000 0.712500 0.087500
0.000000 0.775000 0.087500
0.043750 0.775000 0.087500
0.087500 0.775000 0.087500
0.131250 0.775000 0.087500
0.175000 0.775000 0.087500
0.218750 0.775000 0.087500
0.262500 0.775000 0.087500
0.306250 0.775000 0.087500
0.350000 0.775000 0.087500
0.393750 0.775000 0.087500
0.437500 0.775000 0.087500
0.481250 0.775000 0.087500
0.525000 0.775000 0.087500
0.568750 0.775000 0.087500
0.612500 0.775000 0.087500
0.656250 0.775000 0.087500
0.700000 0.775000 0.087500
0.000000 0.837500 0.087500
0.043750 0.837500 0.087500
0.087500 0.837500 0.087500
0.131250 0.837500 0.087500
0.175000 0.837500 0.087500
0.218750 0.837500 0.087500
0.262500 0.837500 0.087500
0.306250 0.837500 0.087500
0.350000 0.837500 0.087500
0.393750 0.837500 0.087500
0.437500 0.837500 0.087500
0.481250 0.837500 0.087500
0.525000 0.837500 0.087500
0.568750 0.837500 0.087500
0.612500 0.837500 0.087500
0.656250 0.837500 0.087500
0.700000 0.837500 0.087500
0.000000 0.900000 0.087500
0.043750 0.900000 0.087500
0.087500 0.900000 0.087500
0.131250 0.900000 0.087500
0.175000 0.900000 0.087500
0.218750 0.900000 0.087500
0.262500 0.900000 0.087500
0.306250 0.900000 0.087500
0.350000 0.900000 0.087500
0.393750 0.900000 0.087500
0.437500 0.900000 0.087500
0.481250 0.900000 0.087500
0.525000 0.900000 0.087500
0.568750 0.900000 0.087500
0.612500 0.900000 0.087500
0.656250 0.900000 0.087500
0.700000 0.900000 0.087500
0.000000 0.962500 0.087500
0.043750 0.962500 0.087500
0.087500 0.962500 0.087500
0.131250 0.962500 0.087500
0.175000 0.962500 0.087500
0.218750 0.962500 0.087500
0.262500 0.962500 0.087500
0.306250 0.962500 0.087500
0.350000 0.962500 0.087500
0.393750 0.962500 0.087500
0.437500 0.962500 0.087500
0.481250 0.962500 0.087500
0.525000 0.962500 0.087500
0.568750 0.962500 0.087500
0.612500 0.962500 0.087500
0.656250 0.962500 0.087500
0.700000 0.962500 0.087500
0.000000 1.000000 0.087500
0.043750 1.000000 0.087500
0.087500 1.000000 0.087500
0.131250 1.000000 0.087500
0.175000 1.000000 0.087500
0.218750 1.000000 0.087500
0.262500 1.000000 0.087500
0.306250 1.000000 0.087500
0.350000 1.000000 0.087500
0.393750 1.000000 0.087500
0.437500 1.000000 0.087500
0.481250 1.000000 0.087500
0.525000 1.000000 0.087500
0.568750 1.000000 0.087500
0.612500 1.000000 0.087500
0.656250 1.000000 0.087500
0.700000 1.000000 0.087500
0.000000 1.000000 0.087500
0.043750 1.000000 0.087500
0.087500 1.000000 0.087500
0.131250 1.000000 0.087500
0.175000 1.000000 0.087500
0.218750 1.000000 0.087500
0.262500 1.000000 0.087500
0.306250 1.000000 0.087500
0.350000 1.000000 0.087500
0.393750 1.000000 0.087500
0.437500 1.000000 0.087500
0.481250 1.000000 0.087500
0.525000 1.000000 0.087500
0.568750 1.000000 0.087500
0.612500 1.000000 0.087500
0.656250 1.000000 0.087500
0.700000 1.000000 0.087500
0.000000 1.000000 0.087500
0.043750 1.000000 0.087500
0.087500 1.000000 0.087500
0.131250 1.000000 0.087500
0.175000 1.000000 0.087500
0.218750 1.000000 0.087500
0.262500 1.000000 0.087500
0.306250 1.000000 0.087500
0.350000 1.000000 0.087500
0.393750 1.000000 0.087500
0.437500 1.000000 0.087500
0.481250 1.000000 0.087500
0.525000 1.000000 0.087500
0.568750 1.000000 0.087500
0.612500 1.000000 0.087500
0.656250 1.000000 0.087500
0.700000 1.000000 0.087500
0.000000 0.150000 0.131250
0.043750 0.150000 0.131250
0.087500 0.150000 0.131250
0.131250 0.150000 0.131250
0.175000 0.150000 0.131250
0.218750 0.150000 0.131250
0.262500 0.150000 0.131250
0.306250 0.150000 0.131250
0.350000 0.150000 0.131250
0.393750 0.150000 0.131250
0.437500 0.150000 0.131250
0.481250 0.150000 0.131250
0.525000 0.150000 0.131250
0.568750 0.150000 0.131250
0.612500 0.150000 0.131250
0.656250 0.150000 0.131250
0.700000 0.150000 0.131250
0.000000 0.212500 0.131250
