app/src/main/assets/luts/neon_overdrive.cube
# ApexStudio filter: neon_overdrive
LUT_3D_SIZE 9
DOMAIN_MIN 0.0 0.0 0.0
DOMAIN_MAX 1.0 1.0 1.0
0.050000 0.000000 0.150000
0.212500 0.000000 0.150000
0.375000 0.000000 0.150000
0.537500 0.000000 0.150000
0.700000 0.000000 0.150000
0.862500 0.000000 0.150000
1.000000 0.000000 0.150000
1.000000 0.000000 0.150000
1.000000 0.000000 0.150000
0.050000 0.020000 0.150000
0.212500 0.020000 0.150000
0.375000 0.020000 0.150000
0.537500 0.020000 0.150000
0.700000 0.020000 0.150000
0.862500 0.020000 0.150000
1.000000 0.020000 0.150000
1.000000 0.020000 0.150000
1.000000 0.020000 0.150000
0.050000 0.120000 0.150000
0.212500 0.120000 0.150000
0.375000 0.120000 0.150000
0.537500 0.120000 0.150000
0.700000 0.120000 0.150000
0.862500 0.120000 0.150000
1.000000 0.120000 0.150000
1.000000 0.120000 0.150000
1.000000 0.120000 0.150000
0.050000 0.220000 0.150000
0.212500 0.220000 0.150000
0.375000 0.220000 0.150000
0.537500 0.220000 0.150000
0.700000 0.220000 0.150000
0.862500 0.220000 0.150000
1.000000 0.220000 0.150000
1.000000 0.220000 0.150000
1.000000 0.220000 0.150000
0.050000 0.320000 0.150000
0.212500 0.320000 0.150000
0.375000 0.320000 0.150000
0.537500 0.320000 0.150000
0.700000 0.320000 0.150000
0.862500 0.320000 0.150000
1.000000 0.320000 0.150000
1.000000 0.320000 0.150000
1.000000 0.320000 0.150000
0.050000 0.420000 0.150000
0.212500 0.420000 0.150000
0.375000 0.420000 0.150000
0.537500 0.420000 0.150000
0.700000 0.420000 0.150000
0.862500 0.420000 0.150000
1.000000 0.420000 0.150000
1.000000 0.420000 0.150000
1.000000 0.420000 0.150000
0.050000 0.520000 0.150000
0.212500 0.520000 0.150000
0.375000 0.520000 0.150000
0.537500 0.520000 0.150000
0.700000 0.520000 0.150000
0.862500 0.520000 0.150000
1.000000 0.520000 0.150000
1.000000 0.520000 0.150000
1.000000 0.520000 0.150000
0.050000 0.620000 0.150000
0.212500 0.620000 0.150000
0.375000 0.620000 0.150000
0.537500 0.620000 0.150000
0.700000 0.620000 0.150000
0.862500 0.620000 0.150000
1.000000 0.620000 0.150000
1.000000 0.620000 0.150000
1.000000 0.620000 0.150000
0.050000 0.720000 0.150000
0.212500 0.720000 0.150000
0.375000 0.720000 0.150000
0.537500 0.720000 0.150000
0.700000 0.720000 0.150000
0.862500 0.720000 0.150000
1.000000 0.720000 0.150000
1.000000 0.720000 0.150000
1.000000 0.720000 0.150000
0.050000 0.000000 0.325000
0.212500 0.000000 0.325000
0.375000 0.000000 0.325000
0.537500 0.000000 0.325000
0.700000 0.000000 0.325000
0.862500 0.000000 0.325000
1.000000 0.000000 0.325000
1.000000 0.000000 0.325000
1.000000 0.000000 0.325000
0.050000 0.020000 0.325000
0.212500 0.020000 0.325000
0.375000 0.020000 0.325000
0.537500 0.020000 0.325000
0.700000 0.020000 0.325000
0.862500 0.020000 0.325000
1.000000 0.020000 0.325000
1.000000 0.020000 0.325000
1.000000 0.020000 0.325000
0.050000 0.120000 0.325000
0.212500 0.120000 0.325000
0.375000 0.120000 0.325000
0.537500 0.120000 0.325000
0.700000 0.120000 0.325000
0.862500 0.120000 0.325000
1.000000 0.120000 0.325000
1.000000 0.120000 0.325000
1.000000 0.120000 0.325000
0.050000 0.220000 0.325000
0.212500 0.220000 0.325000
0.375000 0.220000 0.325000
0.537500 0.220000 0.325000
0.700000 0.220000 0.325000
0.862500 0.220000 0.325000
1.000000 0.220000 0.325000
1.000000 0.220000 0.325000
1.000000 0.220000 0.325000
0.050000 0.320000 0.325000
0.212500 0.320000 0.325000
0.375000 0.320000 0.325000
0.537500 0.320000 0.325000
0.700000 0.320000 0.325000
0.862500 0.320000 0.325000
1.000000 0.320000 0.325000
1.000000 0.320000 0.325000
1.000000 0.320000 0.325000
0.050000 0.420000 0.325000
0.212500 0.420000 0.325000
0.375000 0.420000 0.325000
0.537500 0.420000 0.325000
0.700000 0.420000 0.325000
0.862500 0.420000 0.325000
1.000000 0.420000 0.325000
1.000000 0.420000 0.325000
1.000000 0.420000 0.325000
0.050000 0.520000 0.325000
0.212500 0.520000 0.325000
0.375000 0.520000 0.325000
0.537500 0.520000 0.325000
0.700000 0.520000 0.325000
0.862500 0.520000 0.325000
1.000000 0.520000 0.325000
1.000000 0.520000 0.325000
1.000000 0.520000 0.325000
0.050000 0.620000 0.325000
0.212500 0.620000 0.325000
0.375000 0.620000 0.325000
0.537500 0.620000 0.325000
0.700000 0.620000 0.325000
0.862500 0.620000 0.325000
1.000000 0.620000 0.325000
1.000000 0.620000 0.325000
1.000000 0.620000 0.325000
0.050000 0.720000 0.325000
0.212500 0.720000 0.325000
0.375000 0.720000 0.325000
0.537500 0.720000 0.325000
0.700000 0.720000 0.325000
0.862500 0.720000 0.325000
1.000000 0.720000 0.325000
1.000000 0.720000 0.325000
1.000000 0.720000 0.325000
0.050000 0.000000 0.500000
0.212500 0.000000 0.500000
0.375000 0.000000 0.500000
0.537500 0.000000 0.500000
0.700000 0.000000 0.500000
0.862500 0.000000 0.500000
1.000000 0.000000 0.500000
1.000000 0.000000 0.500000
1.000000 0.000000 0.500000
0.050000 0.020000 0.500000
0.212500 0.020000 0.500000
0.375000 0.020000 0.500000
0.537500 0.020000 0.500000
0.700000 0.020000 0.500000
0.862500 0.020000 0.500000
1.000000 0.020000 0.500000
1.000000 0.020000 0.500000
1.000000 0.020000 0.500000
0.050000 0.120000 0.500000
0.212500 0.120000 0.500000
0.375000 0.120000 0.500000
0.537500 0.120000 0.500000
0.700000 0.120000 0.500000
0.862500 0.120000 0.500000
1.000000 0.120000 0.500000
1.000000 0.120000 0.500000
1.000000 0.120000 0.500000
0.050000 0.220000 0.500000
0.212500 0.220000 0.500000
0.375000 0.220000 0.500000
0.537500 0.220000 0.500000
0.700000 0.220000 0.500000
0.862500 0.220000 0.500000
1.000000 0.220000 0.500000
1.000000 0.220000 0.500000
1.000000 0.220000 0.500000
0.050000 0.320000 0.500000
0.212500 0.320000 0.500000
0.375000 0.320000 0.500000
0.537500 0.320000 0.500000
0.700000 0.320000 0.500000
0.862500 0.320000 0.500000
1.000000 0.320000 0.500000
1.000000 0.320000 0.500000
1.000000 0.320000 0.500000
0.050000 0.420000 0.500000
0.212500 0.420000 0.500000
0.375000 0.420000 0.500000
0.537500 0.420000 0.500000
0.700000 0.420000 0.500000
0.862500 0.420000 0.500000
1.000000 0.420000 0.500000
1.000000 0.420000 0.500000
1.000000 0.420000 0.500000
0.050000 0.520000 0.500000
0.212500 0.520000 0.500000
0.375000 0.520000 0.500000
0.537500 0.520000 0.500000
0.700000 0.520000 0.500000
0.862500 0.520000 0.500000
1.000000 0.520000 0.500000
1.000000 0.520000 0.500000
1.000000 0.520000 0.500000
0.050000 0.620000 0.500000
0.212500 0.620000 0.500000
0.375000 0.620000 0.500000
0.537500 0.620000 0.500000
0.700000 0.620000 0.500000
0.862500 0.620000 0.500000
1.000000 0.620000 0.500000
1.000000 0.620000 0.500000
1.000000 0.620000 0.500000
0.050000 0.720000 0.500000
0.212500 0.720000 0.500000
0.375000 0.720000 0.500000
0.537500 0.720000 0.500000
0.700000 0.720000 0.500000
0.862500 0.720000 0.500000
1.000000 0.720000 0.500000
1.000000 0.720000 0.500000
1.000000 0.720000 0.500000
0.050000 0.000000 0.675000
0.212500 0.000000 0.675000
0.375000 0.000000 0.675000
0.537500 0.000000 0.675000
0.700000 0.000000 0.675000
0.862500 0.000000 0.675000
1.000000 0.000000 0.675000
1.000000 0.000000 0.675000
1.000000 0.000000 0.675000
0.050000 0.020000 0.675000
0.212500 0.020000 0.675000
0.375000 0.020000 0.675000
0.537500 0.020000 0.675000
0.700000 0.020000 0.675000
0.862500 0.020000 0.675000
1.000000 0.020000 0.675000
1.000000 0.020000 0.675000
1.000000 0.020000 0.675000
0.050000 0.120000 0.675000
0.212500 0.120000 0.675000
0.375000 0.120000 0.675000
0.537500 0.120000 0.675000
0.700000 0.120000 0.675000
0.862500 0.120000 0.675000
1.000000 0.120000 0.675000
1.000000 0.120000 0.675000
1.000000 0.120000 0.675000
0.050000 0.220000 0.675000
0.212500 0.220000 0.675000
0.375000 0.220000 0.675000
0.537500 0.220000 0.675000
0.700000 0.220000 0.675000
0.862500 0.220000 0.675000
1.000000 0.220000 0.675000
1.000000 0.220000 0.675000
1.000000 0.220000 0.675000
0.050000 0.320000 0.675000
0.212500 0.320000 0.675000
0.375000 0.320000 0.675000
0.537500 0.320000 0.675000
0.700000 0.320000 0.675000
0.862500 0.320000 0.675000
1.000000 0.320000 0.675000
1.000000 0.320000 0.675000
1.000000 0.320000 0.675000
0.050000 0.420000 0.675000
0.212500 0.420000 0.675000
0.375000 0.420000 0.675000
0.537500 0.420000 0.675000
0.700000 0.420000 0.675000
0.862500 0.420000 0.675000
1.000000 0.420000 0.675000
1.000000 0.420000 0.675000
1.000000 0.420000 0.675000
0.050000 0.520000 0.675000
0.212500 0.520000 0.675000
0.375000 0.520000 0.675000
0.537500 0.520000 0.675000
0.700000 0.520000 0.675000
0.862500 0.520000 0.675000
1.000000 0.520000 0.675000
1.000000 0.520000 0.675000
1.000000 0.520000 0.675000
0.050000 0.620000 0.675000
0.212500 0.620000 0.675000
0.375000 0.620000 0.675000
0.537500 0.620000 0.675000
0.700000 0.620000 0.675000
0.862500 0.620000 0.675000
1.000000 0.620000 0.675000
1.000000 0.620000 0.675000
1.000000 0.620000 0.675000
0.050000 0.720000 0.675000
0.212500 0.720000 0.675000
0.375000 0.720000 0.675000
0.537500 0.720000 0.675000
0.700000 0.720000 0.675000
0.862500 0.720000 0.675000
1.000000 0.720000 0.675000
1.000000 0.720000 0.675000
1.000000 0.720000 0.675000
0.050000 0.000000 0.850000
0.212500 0.000000 0.850000
0.375000 0.000000 0.850000
0.537500 0.000000 0.850000
0.700000 0.000000 0.850000
0.862500 0.000000 0.850000
1.000000 0.000000 0.850000
1.000000 0.000000 0.850000
1.000000 0.000000 0.850000
0.050000 0.020000 0.850000
0.212500 0.020000 0.850000
0.375000 0.020000 0.850000
0.537500 0.020000 0.850000
0.700000 0.020000 0.850000
0.862500 0.020000 0.850000
1.000000 0.020000 0.850000
1.000000 0.020000 0.850000
1.000000 0.020000 0.850000
0.050000 0.120000 0.850000
0.212500 0.120000 0.850000
0.375000 0.120000 0.850000
0.537500 0.120000 0.850000
0.700000 0.120000 0.850000
0.862500 0.120000 0.850000
1.000000 0.120000 0.850000
1.000000 0.120000 0.850000
1.000000 0.120000 0.850000
0.050000 0.220000 0.850000
0.212500 0.220000 0.850000
0.375000 0.220000 0.850000
0.537500 0.220000 0.850000
0.700000 0.220000 0.850000
0.862500 0.220000 0.850000
1.000000 0.220000 0.850000
1.000000 0.220000 0.850000
1.000000 0.220000 0.850000
0.050000 0.320000 0.850000
0.212500 0.320000 0.850000
0.375000 0.320000 0.850000
0.537500 0.320000 0.850000
0.700000 0.320000 0.850000
0.862500 0.320000 0.850000
1.000000 0.320000 0.850000
1.000000 0.320000 0.850000
1.000000 0.320000 0.850000
0.050000 0.420000 0.850000
0.212500 0.420000 0.850000
0.375000 0.420000 0.850000
0.537500 0.420000 0.850000
0.700000 0.420000 0.850000
0.862500 0.420000 0.850000
1.000000 0.420000 0.850000
1.000000 0.420000 0.850000
1.000000 0.420000 0.850000
0.050000 0.520000 0.850000
0.212500 0.520000 0.850000
0.375000 0.520000 0.850000
0.537500 0.520000 0.850000
0.700000 0.520000 0.850000
0.862500 0.520000 0.850000
1.000000 0.520000 0.850000
1.000000 0.520000 0.850000
1.000000 0.520000 0.850000
0.050000 0.620000 0.850000
0.212500 0.620000 0.850000
0.375000 0.620000 0.850000
0.537500 0.620000 0.850000
0.700000 0.620000 0.850000
0.862500 0.620000 0.850000
1.000000 0.620000 0.850000
1.000000 0.620000 0.850000
1.000000 0.620000 0.850000
0.050000 0.720000 0.850000
0.212500 0.720000 0.850000
0.375000 0.720000 0.850000
0.537500 0.720000 0.850000
0.700000 0.720000 0.850000
0.862500 0.720000 0.850000
1.000000 0.720000 0.850000
1.000000 0.720000 0.850000
1.000000 0.720000 0.850000
0.050000 0.000000 1.000000
0.212500 0.000000 1.000000
0.375000 0.000000 1.000000
0.537500 0.000000 1.000000
0.700000 0.000000 1.000000
0.862500 0.000000 1.000000
1.000000 0.000000 1.000000
1.000000 0.000000 1.000000
1.000000 0.000000 1.000000
0.050000 0.020000 1.000000
0.212500 0.020000 1.000000
0.375000 0.020000 1.000000
0.537500 0.020000 1.000000
0.700000 0.020000 1.000000
0.862500 0.020000 1.000000
1.000000 0.020000 1.000000
1.000000 0.020000 1.000000
1.000000 0.020000 1.000000
0.050000 0.120000 1.000000
0.212500 0.120000 1.000000
0.375000 0.120000 1.000000
0.537500 0.120000 1.000000
0.700000 0.120000 1.000000
0.862500 0.120000 1.000000
1.000000 0.120000 1.000000
1.000000 0.120000 1.000000
1.000000 0.120000 1.000000
0.050000 0.220000 1.000000
0.212500 0.220000 1.000000
0.375000 0.220000 1.000000
0.537500 0.220000 1.000000
0.700000 0.220000 1.000000
0.862500 0.220000 1.000000
1.000000 0.220000 1.000000
1.000000 0.220000 1.000000
1.000000 0.220000 1.000000
0.050000 0.320000 1.000000
0.212500 0.320000 1.000000
0.375000 0.320000 1.000000
0.537500 0.320000 1.000000
0.700000 0.320000 1.000000
0.862500 0.320000 1.000000
1.000000 0.320000 1.000000
1.000000 0.320000 1.000000
1.000000 0.320000 1.000000
0.050000 0.420000 1.000000
0.212500 0.420000 1.000000
0.375000 0.420000 1.000000
0.537500 0.420000 1.000000
0.700000 0.420000 1.000000
0.862500 0.420000 1.000000
1.000000 0.420000 1.000000
1.000000 0.420000 1.000000
1.000000 0.420000 1.000000
0.050000 0.520000 1.000000
0.212500 0.520000 1.000000
0.375000 0.520000 1.000000
0.537500 0.520000 1.000000
0.700000 0.520000 1.000000
0.862500 0.520000 1.000000
1.000000 0.520000 1.000000
1.000000 0.520000 1.000000
1.000000 0.520000 1.000000
0.050000 0.620000 1.000000
0.212500 0.620000 1.000000
0.375000 0.620000 1.000000
0.537500 0.620000 1.000000
0.700000 0.620000 1.000000
0.862500 0.620000 1.000000
1.000000 0.620000 1.000000
1.000000 0.620000 1.000000
1.000000 0.620000 1.000000
0.050000 0.720000 1.000000
0.212500 0.720000 1.000000
0.375000 0.720000 1.000000
0.537500 0.720000 1.000000
0.700000 0.720000 1.000000
0.862500 0.720000 1.000000
1.000000 0.720000 1.000000
1.000000 0.720000 1.000000
1.000000 0.720000 1.000000
0.050000 0.000000 1.000000
0.212500 0.000000 1.000000
0.375000 0.000000 1.000000
0.537500 0.000000 1.000000
0.700000 0.000000 1.000000
0.862500 0.000000 1.000000
1.000000 0.000000 1.000000
1.000000 0.000000 1.000000
1.000000 0.000000 1.000000
0.050000 0.020000 1.000000
0.212500 0.020000 1.000000
0.375000 0.020000 1.000000
0.537500 0.020000 1.000000
0.700000 0.020000 1.000000
0.862500 0.020000 1.000000
1.000000 0.020000 1.000000
1.000000 0.020000 1.000000
1.000000 0.020000 1.000000
0.050000 0.120000 1.000000
0.212500 0.120000 1.000000
0.375000 0.120000 1.000000
0.537500 0.120000 1.000000
0.700000 0.120000 1.000000
0.862500 0.120000 1.000000
1.000000 0.120000 1.000000
1.000000 0.120000 1.000000
1.000000 0.120000 1.000000
0.050000 0.220000 1.000000
0.212500 0.220000 1.000000
0.375000 0.220000 1.000000
0.537500 0.220000 1.000000
0.700000 0.220000 1.000000
0.862500 0.220000 1.000000
1.000000 0.220000 1.000000
1.000000 0.220000 1.000000
1.000000 0.220000 1.000000
0.050000 0.320000 1.000000
0.212500 0.320000 1.000000
0.375000 0.320000 1.000000
0.537500 0.320000 1.000000
0.700000 0.320000 1.000000
0.862500 0.320000 1.000000
1.000000 0.320000 1.000000
1.000000 0.320000 1.000000
1.000000 0.320000 1.000000
0.050000 0.420000 1.000000
0.212500 0.420000 1.000000
0.375000 0.420000 1.000000
0.537500 0.420000 1.000000
0.700000 0.420000 1.000000
0.862500 0.420000 1.000000
1.000000 0.420000 1.000000
1.000000 0.420000 1.000000
1.000000 0.420000 1.000000
0.050000 0.520000 1.000000
0.212500 0.520000 1.000000
0.375000 0.520000 1.000000
0.537500 0.520000 1.000000
0.700000 0.520000 1.000000
0.862500 0.520000 1.000000
1.000000 0.520000 1.000000
1.000000 0.520000 1.000000
1.000000 0.520000 1.000000
0.050000 0.620000 1.000000
0.212500 0.620000 1.000000
0.375000 0.620000 1.000000
0.537500 0.620000 1.000000
0.700000 0.620000 1.000000
0.862500 0.620000 1.000000
1.000000 0.620000 1.000000
1.000000 0.620000 1.000000
1.000000 0.620000 1.000000
0.050000 0.720000 1.000000
0.212500 0.720000 1.000000
0.375000 0.720000 1.000000
0.537500 0.720000 1.000000
0.700000 0.720000 1.000000
0.862500 0.720000 1.000000
1.000000 0.720000 1.000000
1.000000 0.720000 1.000000
1.000000 0.720000 1.000000
0.050000 0.000000 1.000000
0.212500 0.000000 1.000000
0.375000 0.000000 1.000000
0.537500 0.000000 1.000000
0.700000 0.000000 1.000000
0.862500 0.000000 1.000000
1.000000 0.000000 1.000000
1.000000 0.000000 1.000000
1.000000 0.000000 1.000000
0.050000 0.020000 1.000000
0.212500 0.020000 1.000000
0.375000 0.020000 1.000000
0.537500 0.020000 1.000000
0.700000 0.020000 1.000000
0.862500 0.020000 1.000000
1.000000 0.020000 1.000000
1.000000 0.020000 1.000000
1.000000 0.020000 1.000000
0.050000 0.120000 1.000000
0.212500 0.120000 1.000000
0.375000 0.120000 1.000000
0.537500 0.120000 1.000000
0.700000 0.120000 1.000000
0.862500 0.120000 1.000000
1.000000 0.120000 1.000000
1.000000 0.120000 1.000000
1.000000 0.120000 1.000000
0.050000 0.220000 1.000000
0.212500 0.220000 1.000000
0.375000 0.220000 1.000000
0.537500 0.220000 1.000000
0.700000 0.220000 1.000000
0.862500 0.220000 1.000000
1.000000 0.220000 1.000000
1.000000 0.220000 1.000000
1.000000 0.220000 1.000000
0.050000 0.320000 1.000000
0.212500 0.320000 1.000000
0.375000 0.320000 1.000000
0.537500 0.320000 1.000000
0.700000 0.320000 1.000000
0.862500 0.320000 1.000000
1.000000 0.320000 1.000000
1.000000 0.320000 1.000000
1.000000 0.320000 1.000000
0.050000 0.420000 1.000000
0.212500 0.420000 1.000000
0.375000 0.420000 1.000000
0.537500 0.420000 1.000000
0.700000 0.420000 1.000000
0.862500 0.420000 1.000000
1.000000 0.420000 1.000000
1.000000 0.420000 1.000000
1.000000 0.420000 1.000000
0.050000 0.520000 1.000000
0.212500 0.520000 1.000000
0.375000 0.520000 1.000000
0.537500 0.520000 1.000000
0.700000 0.520000 1.000000
0.862500 0.520000 1.000000
1.000000 0.520000 1.000000
1.000000 0.520000 1.000000
1.000000 0.520000 1.000000
0.050000 0.620000 1.000000
0.212500 0.620000 1.000000
0.375000 0.620000 1.000000
0.537500 0.620000 1.000000
0.700000 0.620000 1.000000
0.862500 0.620000 1.000000
1.000000 0.620000 1.000000
1.000000 0.620000 1.000000
1.000000 0.620000 1.000000
0.050000 0.720000 1.000000
0.212500 0.720000 1.000000
0.375000 0.720000 1.000000
0.537500 0.720000 1.000000
0.700000 0.720000 1.000000
0.862500 0.720000 1.000000
1.000000 0.720000 1.000000
1.000000 0.720000 1.000000
1.000000 0.720000 1.000000
0.050000 0.000000 1.000000
0.212500 0.000000 1.000000
0.375000 0.000000 1.000000
0.537500 0.000000 1.000000
0.700000 0.000000 1.000000
0.862500 0.000000 1.000000
1.000000 0.000000 1.000000
1.000000 0.000000 1.000000
1.000000 0.000000 1.000000
0.050000 0.020000 1.000000
0.212500 0.020000 1.000000
0.375000 0.020000 1.000000
0.537500 0.020000 1.000000
0.700000 0.020000 1.000000
0.862500 0.020000 1.000000
1.000000 0.020000 1.000000
1.000000 0.020000 1.000000
1.000000 0.020000 1.000000
0.050000 0.120000 1.000000
0.212500 0.120000 1.000000
0.375000 0.120000 1.000000
0.537500 0.120000 1.000000
0.700000 0.120000 1.000000
0.862500 0.120000 1.000000
1.000000 0.120000 1.000000
1.000000 0.120000 1.000000
1.000000 0.120000 1.000000
0.050000 0.220000 1.000000
0.212500 0.220000 1.000000
0.375000 0.220000 1.000000
0.537500 0.220000 1.000000
0.700000 0.220000 1.000000
0.862500 0.220000 1.000000
1.000000 0.220000 1.000000
1.000000 0.220000 1.000000
1.000000 0.220000 1.000000
0.050000 0.320000 1.000000
0.212500 0.320000 1.000000
0.375000 0.320000 1.000000
0.537500 0.320000 1.000000
0.700000 0.320000 1.000000
0.862500 0.320000 1.000000
1.000000 0.320000 1.000000
1.000000 0.320000 1.000000
1.000000 0.320000 1.000000
0.050000 0.420000 1.000000
0.212500 0.420000 1.000000
0.375000 0.420000 1.000000
0.537500 0.420000 1.000000
0.700000 0.420000 1.000000
0.862500 0.420000 1.000000
1.000000 0.420000 1.000000
1.000000 0.420000 1.000000
1.000000 0.420000 1.000000
0.050000 0.520000 1.000000
0.212500 0.520000 1.000000
0.375000 0.520000 1.000000
0.537500 0.520000 1.000000
0.700000 0.520000 1.000000
0.862500 0.520000 1.000000
1.000000 0.520000 1.000000
1.000000 0.520000 1.000000
1.000000 0.520000 1.000000
0.050000 0.620000 1.000000
0.212500 0.620000 1.000000
0.375000 0.620000 1.000000
0.537500 0.620000 1.000000
0.700000 0.620000 1.000000
0.862500 0.620000 1.000000
1.000000 0.620000 1.000000
1.000000 0.620000 1.000000
1.000000 0.620000 1.000000
0.050000 0.720000 1.000000
0.212500 0.720000 1.000000
0.375000 0.720000 1.000000
0.537500 0.720000 1.000000
0.700000 0.720000 1.000000
0.862500 0.720000 1.000000
1.000000 0.720000 1.000000
1.000000 0.720000 1.000000
1.000000 0.720000 1.000000
