app/src/main/assets/luts/neon_overdrive.cube
# ApexStudio filter: neon_overdrive
LUT_3D_SIZE 17
DOMAIN_MIN 0.0 0.0 0.0
DOMAIN_MAX 1.0 1.0 1.0
0.050000 0.000000 0.150000
0.131250 0.000000 0.150000
0.212500 0.000000 0.150000
0.293750 0.000000 0.150000
0.375000 0.000000 0.150000
0.456250 0.000000 0.150000
0.537500 0.000000 0.150000
0.618750 0.000000 0.150000
0.700000 0.000000 0.150000
0.781250 0.000000 0.150000
0.862500 0.000000 0.150000
0.943750 0.000000 0.150000
1.000000 0.000000 0.150000
1.000000 0.000000 0.150000
1.000000 0.000000 0.150000
1.000000 0.000000 0.150000
1.000000 0.000000 0.150000
0.050000 0.000000 0.150000
0.131250 0.000000 0.150000
0.212500 0.000000 0.150000
0.293750 0.000000 0.150000
0.375000 0.000000 0.150000
0.456250 0.000000 0.150000
0.537500 0.000000 0.150000
0.618750 0.000000 0.150000
0.700000 0.000000 0.150000
0.781250 0.000000 0.150000
0.862500 0.000000 0.150000
0.943750 0.000000 0.150000
1.000000 0.000000 0.150000
1.000000 0.000000 0.150000
1.000000 0.000000 0.150000
1.000000 0.000000 0.150000
1.000000 0.000000 0.150000
0.050000 0.020000 0.150000
0.131250 0.020000 0.150000
0.212500 0.020000 0.150000
0.293750 0.020000 0.150000
0.375000 0.020000 0.150000
0.456250 0.020000 0.150000
0.537500 0.020000 0.150000
0.618750 0.020000 0.150000
0.700000 0.020000 0.150000
0.781250 0.020000 0.150000
0.862500 0.020000 0.150000
0.943750 0.020000 0.150000
1.000000 0.020000 0.150000
1.000000 0.020000 0.150000
1.000000 0.020000 0.150000
1.000000 0.020000 0.150000
1.000000 0.020000 0.150000
0.050000 0.070000 0.150000
0.131250 0.070000 0.150000
0.212500 0.070000 0.150000
0.293750 0.070000 0.150000
0.375000 0.070000 0.150000
0.456250 0.070000 0.150000
0.537500 0.070000 0.150000
0.618750 0.070000 0.150000
0.700000 0.070000 0.150000
0.781250 0.070000 0.150000
0.862500 0.070000 0.150000
0.943750 0.070000 0.150000
1.000000 0.070000 0.150000
1.000000 0.070000 0.150000
1.000000 0.070000 0.150000
1.000000 0.070000 0.150000
1.000000 0.070000 0.150000
0.050000 0.120000 0.150000
0.131250 0.120000 0.150000
0.212500 0.120000 0.150000
0.293750 0.120000 0.150000
0.375000 0.120000 0.150000
0.456250 0.120000 0.150000
0.537500 0.120000 0.150000
0.618750 0.120000 0.150000
0.700000 0.120000 0.150000
0.781250 0.120000 0.150000
0.862500 0.120000 0.150000
0.943750 0.120000 0.150000
1.000000 0.120000 0.150000
1.000000 0.120000 0.150000
1.000000 0.120000 0.150000
1.000000 0.120000 0.150000
1.000000 0.120000 0.150000
0.050000 0.170000 0.150000
0.131250 0.170000 0.150000
0.212500 0.170000 0.150000
0.293750 0.170000 0.150000
0.375000 0.170000 0.150000
0.456250 0.170000 0.150000
0.537500 0.170000 0.150000
0.618750 0.170000 0.150000
0.700000 0.170000 0.150000
0.781250 0.170000 0.150000
0.862500 0.170000 0.150000
0.943750 0.170000 0.150000
1.000000 0.170000 0.150000
1.000000 0.170000 0.150000
1.000000 0.170000 0.150000
1.000000 0.170000 0.150000
1.000000 0.170000 0.150000
0.050000 0.220000 0.150000
0.131250 0.220000 0.150000
0.212500 0.220000 0.150000
0.293750 0.220000 0.150000
0.375000 0.220000 0.150000
0.456250 0.220000 0.150000
0.537500 0.220000 0.150000
0.618750 0.220000 0.150000
0.700000 0.220000 0.150000
0.781250 0.220000 0.150000
0.862500 0.220000 0.150000
0.943750 0.220000 0.150000
1.000000 0.220000 0.150000
1.000000 0.220000 0.150000
1.000000 0.220000 0.150000
1.000000 0.220000 0.150000
1.000000 0.220000 0.150000
0.050000 0.270000 0.150000
0.131250 0.270000 0.150000
0.212500 0.270000 0.150000
0.293750 0.270000 0.150000
0.375000 0.270000 0.150000
0.456250 0.270000 0.150000
0.537500 0.270000 0.150000
0.618750 0.270000 0.150000
0.700000 0.270000 0.150000
0.781250 0.270000 0.150000
0.862500 0.270000 0.150000
0.943750 0.270000 0.150000
1.000000 0.270000 0.150000
1.000000 0.270000 0.150000
1.000000 0.270000 0.150000
1.000000 0.270000 0.150000
1.000000 0.270000 0.150000
0.050000 0.320000 0.150000
0.131250 0.320000 0.150000
0.212500 0.320000 0.150000
0.293750 0.320000 0.150000
0.375000 0.320000 0.150000
0.456250 0.320000 0.150000
0.537500 0.320000 0.150000
0.618750 0.320000 0.150000
0.700000 0.320000 0.150000
0.781250 0.320000 0.150000
0.862500 0.320000 0.150000
0.943750 0.320000 0.150000
1.000000 0.320000 0.150000
1.000000 0.320000 0.150000
1.000000 0.320000 0.150000
1.000000 0.320000 0.150000
1.000000 0.320000 0.150000
0.050000 0.370000 0.150000
0.131250 0.370000 0.150000
0.212500 0.370000 0.150000
0.293750 0.370000 0.150000
0.375000 0.370000 0.150000
0.456250 0.370000 0.150000
0.537500 0.370000 0.150000
0.618750 0.370000 0.150000
0.700000 0.370000 0.150000
0.781250 0.370000 0.150000
0.862500 0.370000 0.150000
0.943750 0.370000 0.150000
1.000000 0.370000 0.150000
1.000000 0.370000 0.150000
1.000000 0.370000 0.150000
1.000000 0.370000 0.150000
1.000000 0.370000 0.150000
0.050000 0.420000 0.150000
0.131250 0.420000 0.150000
0.212500 0.420000 0.150000
0.293750 0.420000 0.150000
0.375000 0.420000 0.150000
0.456250 0.420000 0.150000
0.537500 0.420000 0.150000
0.618750 0.420000 0.150000
0.700000 0.420000 0.150000
0.781250 0.420000 0.150000
0.862500 0.420000 0.150000
0.943750 0.420000 0.150000
1.000000 0.420000 0.150000
1.000000 0.420000 0.150000
1.000000 0.420000 0.150000
1.000000 0.420000 0.150000
1.000000 0.420000 0.150000
0.050000 0.470000 0.150000
0.131250 0.470000 0.150000
0.212500 0.470000 0.150000
0.293750 0.470000 0.150000
0.375000 0.470000 0.150000
0.456250 0.470000 0.150000
0.537500 0.470000 0.150000
0.618750 0.470000 0.150000
0.700000 0.470000 0.150000
0.781250 0.470000 0.150000
0.862500 0.470000 0.150000
0.943750 0.470000 0.150000
1.000000 0.470000 0.150000
1.000000 0.470000 0.150000
1.000000 0.470000 0.150000
1.000000 0.470000 0.150000
1.000000 0.470000 0.150000
0.050000 0.520000 0.150000
0.131250 0.520000 0.150000
0.212500 0.520000 0.150000
0.293750 0.520000 0.150000
0.375000 0.520000 0.150000
0.456250 0.520000 0.150000
0.537500 0.520000 0.150000
0.618750 0.520000 0.150000
0.700000 0.520000 0.150000
0.781250 0.520000 0.150000
0.862500 0.520000 0.150000
0.943750 0.520000 0.150000
1.000000 0.520000 0.150000
1.000000 0.520000 0.150000
1.000000 0.520000 0.150000
1.000000 0.520000 0.150000
1.000000 0.520000 0.150000
0.050000 0.570000 0.150000
0.131250 0.570000 0.150000
0.212500 0.570000 0.150000
0.293750 0.570000 0.150000
0.375000 0.570000 0.150000
0.456250 0.570000 0.150000
0.537500 0.570000 0.150000
0.618750 0.570000 0.150000
0.700000 0.570000 0.150000
0.781250 0.570000 0.150000
0.862500 0.570000 0.150000
0.943750 0.570000 0.150000
1.000000 0.570000 0.150000
1.000000 0.570000 0.150000
1.000000 0.570000 0.150000
1.000000 0.570000 0.150000
1.000000 0.570000 0.150000
0.050000 0.620000 0.150000
0.131250 0.620000 0.150000
0.212500 0.620000 0.150000
0.293750 0.620000 0.150000
0.375000 0.620000 0.150000
0.456250 0.620000 0.150000
0.537500 0.620000 0.150000
0.618750 0.620000 0.150000
0.700000 0.620000 0.150000
0.781250 0.620000 0.150000
0.862500 0.620000 0.150000
0.943750 0.620000 0.150000
1.000000 0.620000 0.150000
1.000000 0.620000 0.150000
1.000000 0.620000 0.150000
1.000000 0.620000 0.150000
1.000000 0.620000 0.150000
0.050000 0.670000 0.150000
0.131250 0.670000 0.150000
0.212500 0.670000 0.150000
0.293750 0.670000 0.150000
0.375000 0.670000 0.150000
0.456250 0.670000 0.150000
0.537500 0.670000 0.150000
0.618750 0.670000 0.150000
0.700000 0.670000 0.150000
0.781250 0.670000 0.150000
0.862500 0.670000 0.150000
0.943750 0.670000 0.150000
1.000000 0.670000 0.150000
1.000000 0.670000 0.150000
1.000000 0.670000 0.150000
1.000000 0.670000 0.150000
1.000000 0.670000 0.150000
0.050000 0.720000 0.150000
0.131250 0.720000 0.150000
0.212500 0.720000 0.150000
0.293750 0.720000 0.150000
0.375000 0.720000 0.150000
0.456250 0.720000 0.150000
0.537500 0.720000 0.150000
0.618750 0.720000 0.150000
0.700000 0.720000 0.150000
0.781250 0.720000 0.150000
0.862500 0.720000 0.150000
0.943750 0.720000 0.150000
1.000000 0.720000 0.150000
1.000000 0.720000 0.150000
1.000000 0.720000 0.150000
1.000000 0.720000 0.150000
1.000000 0.720000 0.150000
0.050000 0.000000 0.237500
0.131250 0.000000 0.237500
0.212500 0.000000 0.237500
0.293750 0.000000 0.237500
0.375000 0.000000 0.237500
0.456250 0.000000 0.237500
0.537500 0.000000 0.237500
0.618750 0.000000 0.237500
0.700000 0.000000 0.237500
0.781250 0.000000 0.237500
0.862500 0.000000 0.237500
0.943750 0.000000 0.237500
1.000000 0.000000 0.237500
1.000000 0.000000 0.237500
1.000000 0.000000 0.237500
1.000000 0.000000 0.237500
1.000000 0.000000 0.237500
0.050000 0.000000 0.237500
0.131250 0.000000 0.237500
0.212500 0.000000 0.237500
0.293750 0.000000 0.237500
0.375000 0.000000 0.237500
0.456250 0.000000 0.237500
0.537500 0.000000 0.237500
0.618750 0.000000 0.237500
0.700000 0.000000 0.237500
0.781250 0.000000 0.237500
0.862500 0.000000 0.237500
0.943750 0.000000 0.237500
1.000000 0.000000 0.237500
1.000000 0.000000 0.237500
1.000000 0.000000 0.237500
1.000000 0.000000 0.237500
1.000000 0.000000 0.237500
0.050000 0.020000 0.237500
0.131250 0.020000 0.237500
0.212500 0.020000 0.237500
0.293750 0.020000 0.237500
0.375000 0.020000 0.237500
0.456250 0.020000 0.237500
0.537500 0.020000 0.237500
0.618750 0.020000 0.237500
0.700000 0.020000 0.237500
0.781250 0.020000 0.237500
0.862500 0.020000 0.237500
0.943750 0.020000 0.237500
1.000000 0.020000 0.237500
1.000000 0.020000 0.237500
1.000000 0.020000 0.237500
1.000000 0.020000 0.237500
1.000000 0.020000 0.237500
0.050000 0.070000 0.237500
0.131250 0.070000 0.237500
0.212500 0.070000 0.237500
0.293750 0.070000 0.237500
0.375000 0.070000 0.237500
0.456250 0.070000 0.237500
0.537500 0.070000 0.237500
0.618750 0.070000 0.237500
0.700000 0.070000 0.237500
0.781250 0.070000 0.237500
0.862500 0.070000 0.237500
0.943750 0.070000 0.237500
1.000000 0.070000 0.237500
1.000000 0.070000 0.237500
1.000000 0.070000 0.237500
1.000000 0.070000 0.237500
1.000000 0.070000 0.237500
0.050000 0.120000 0.237500
0.131250 0.120000 0.237500
0.212500 0.120000 0.237500
0.293750 0.120000 0.237500
0.375000 0.120000 0.237500
0.456250 0.120000 0.237500
0.537500 0.120000 0.237500
0.618750 0.120000 0.237500
0.700000 0.120000 0.237500
0.781250 0.120000 0.237500
0.862500 0.120000 0.237500
0.943750 0.120000 0.237500
1.000000 0.120000 0.237500
1.000000 0.120000 0.237500
1.000000 0.120000 0.237500
1.000000 0.120000 0.237500
1.000000 0.120000 0.237500
0.050000 0.170000 0.237500
0.131250 0.170000 0.237500
0.212500 0.170000 0.237500
0.293750 0.170000 0.237500
0.375000 0.170000 0.237500
0.456250 0.170000 0.237500
0.537500 0.170000 0.237500
0.618750 0.170000 0.237500
0.700000 0.170000 0.237500
0.781250 0.170000 0.237500
0.862500 0.170000 0.237500
0.943750 0.170000 0.237500
1.000000 0.170000 0.237500
1.000000 0.170000 0.237500
1.000000 0.170000 0.237500
1.000000 0.170000 0.237500
1.000000 0.170000 0.237500
0.050000 0.220000 0.237500
0.131250 0.220000 0.237500
0.212500 0.220000 0.237500
0.293750 0.220000 0.237500
0.375000 0.220000 0.237500
0.456250 0.220000 0.237500
0.537500 0.220000 0.237500
0.618750 0.220000 0.237500
0.700000 0.220000 0.237500
0.781250 0.220000 0.237500
0.862500 0.220000 0.237500
0.943750 0.220000 0.237500
1.000000 0.220000 0.237500
1.000000 0.220000 0.237500
1.000000 0.220000 0.237500
1.000000 0.220000 0.237500
1.000000 0.220000 0.237500
0.050000 0.270000 0.237500
0.131250 0.270000 0.237500
0.212500 0.270000 0.237500
0.293750 0.270000 0.237500
0.375000 0.270000 0.237500
0.456250 0.270000 0.237500
0.537500 0.270000 0.237500
0.618750 0.270000 0.237500
0.700000 0.270000 0.237500
0.781250 0.270000 0.237500
0.862500 0.270000 0.237500
0.943750 0.270000 0.237500
1.000000 0.270000 0.237500
1.000000 0.270000 0.237500
1.000000 0.270000 0.237500
1.000000 0.270000 0.237500
1.000000 0.270000 0.237500
0.050000 0.320000 0.237500
0.131250 0.320000 0.237500
0.212500 0.320000 0.237500
0.293750 0.320000 0.237500
0.375000 0.320000 0.237500
0.456250 0.320000 0.237500
0.537500 0.320000 0.237500
0.618750 0.320000 0.237500
0.700000 0.320000 0.237500
0.781250 0.320000 0.237500
0.862500 0.320000 0.237500
0.943750 0.320000 0.237500
1.000000 0.320000 0.237500
1.000000 0.320000 0.237500
1.000000 0.320000 0.237500
1.000000 0.320000 0.237500
1.000000 0.320000 0.237500
0.050000 0.370000 0.237500
0.131250 0.370000 0.237500
0.212500 0.370000 0.237500
0.293750 0.370000 0.237500
0.375000 0.370000 0.237500
0.456250 0.370000 0.237500
0.537500 0.370000 0.237500
0.618750 0.370000 0.237500
0.700000 0.370000 0.237500
0.781250 0.370000 0.237500
0.862500 0.370000 0.237500
0.943750 0.370000 0.237500
1.000000 0.370000 0.237500
1.000000 0.370000 0.237500
1.000000 0.370000 0.237500
1.000000 0.370000 0.237500
1.000000 0.370000 0.237500
0.050000 0.420000 0.237500
0.131250 0.420000 0.237500
0.212500 0.420000 0.237500
0.293750 0.420000 0.237500
0.375000 0.420000 0.237500
0.456250 0.420000 0.237500
0.537500 0.420000 0.237500
0.618750 0.420000 0.237500
0.700000 0.420000 0.237500
0.781250 0.420000 0.237500
0.862500 0.420000 0.237500
0.943750 0.420000 0.237500
1.000000 0.420000 0.237500
1.000000 0.420000 0.237500
1.000000 0.420000 0.237500
1.000000 0.420000 0.237500
1.000000 0.420000 0.237500
0.050000 0.470000 0.237500
0.131250 0.470000 0.237500
0.212500 0.470000 0.237500
0.293750 0.470000 0.237500
0.375000 0.470000 0.237500
0.456250 0.470000 0.237500
0.537500 0.470000 0.237500
0.618750 0.470000 0.237500
0.700000 0.470000 0.237500
0.781250 0.470000 0.237500
0.862500 0.470000 0.237500
0.943750 0.470000 0.237500
1.000000 0.470000 0.237500
1.000000 0.470000 0.237500
1.000000 0.470000 0.237500
1.000000 0.470000 0.237500
1.000000 0.470000 0.237500
0.050000 0.520000 0.237500
0.131250 0.520000 0.237500
0.212500 0.520000 0.237500
0.293750 0.520000 0.237500
0.375000 0.520000 0.237500
0.456250 0.520000 0.237500
0.537500 0.520000 0.237500
0.618750 0.520000 0.237500
0.700000 0.520000 0.237500
0.781250 0.520000 0.237500
0.862500 0.520000 0.237500
0.943750 0.520000 0.237500
1.000000 0.520000 0.237500
1.000000 0.520000 0.237500
1.000000 0.520000 0.237500
1.000000 0.520000 0.237500
1.000000 0.520000 0.237500
0.050000 0.570000 0.237500
0.131250 0.570000 0.237500
0.212500 0.570000 0.237500
0.293750 0.570000 0.237500
0.375000 0.570000 0.237500
0.456250 0.570000 0.237500
0.537500 0.570000 0.237500
0.618750 0.570000 0.237500
0.700000 0.570000 0.237500
0.781250 0.570000 0.237500
0.862500 0.570000 0.237500
0.943750 0.570000 0.237500
1.000000 0.570000 0.237500
1.000000 0.570000 0.237500
1.000000 0.570000 0.237500
1.000000 0.570000 0.237500
1.000000 0.570000 0.237500
0.050000 0.620000 0.237500
0.131250 0.620000 0.237500
0.212500 0.620000 0.237500
0.293750 0.620000 0.237500
0.375000 0.620000 0.237500
0.456250 0.620000 0.237500
0.537500 0.620000 0.237500
0.618750 0.620000 0.237500
0.700000 0.620000 0.237500
0.781250 0.620000 0.237500
0.862500 0.620000 0.237500
0.943750 0.620000 0.237500
1.000000 0.620000 0.237500
1.000000 0.620000 0.237500
1.000000 0.620000 0.237500
1.000000 0.620000 0.237500
1.000000 0.620000 0.237500
0.050000 0.670000 0.237500
0.131250 0.670000 0.237500
0.212500 0.670000 0.237500
0.293750 0.670000 0.237500
0.375000 0.670000 0.237500
0.456250 0.670000 0.237500
0.537500 0.670000 0.237500
0.618750 0.670000 0.237500
0.700000 0.670000 0.237500
0.781250 0.670000 0.237500
0.862500 0.670000 0.237500
0.943750 0.670000 0.237500
1.000000 0.670000 0.237500
1.000000 0.670000 0.237500
1.000000 0.670000 0.237500
1.000000 0.670000 0.237500
1.000000 0.670000 0.237500
0.050000 0.720000 0.237500
0.131250 0.720000 0.237500
0.212500 0.720000 0.237500
0.293750 0.720000 0.237500
0.375000 0.720000 0.237500
0.456250 0.720000 0.237500
0.537500 0.720000 0.237500
0.618750 0.720000 0.237500
0.700000 0.720000 0.237500
0.781250 0.720000 0.237500
0.862500 0.720000 0.237500
0.943750 0.720000 0.237500
1.000000 0.720000 0.237500
1.000000 0.720000 0.237500
1.000000 0.720000 0.237500
1.000000 0.720000 0.237500
1.000000 0.720000 0.237500
0.050000 0.000000 0.325000
0.131250 0.000000 0.325000
0.212500 0.000000 0.325000
0.293750 0.000000 0.325000
0.375000 0.000000 0.325000
0.456250 0.000000 0.325000
0.537500 0.000000 0.325000
0.618750 0.000000 0.325000
0.700000 0.000000 0.325000
0.781250 0.000000 0.325000
0.862500 0.000000 0.325000
0.943750 0.000000 0.325000
1.000000 0.000000 0.325000
1.000000 0.000000 0.325000
1.000000 0.000000 0.325000
1.000000 0.000000 0.325000
1.000000 0.000000 0.325000
0.050000 0.000000 0.325000
0.131250 0.000000 0.325000
0.212500 0.000000 0.325000
0.293750 0.000000 0.325000
0.375000 0.000000 0.325000
0.456250 0.000000 0.325000
0.537500 0.000000 0.325000
0.618750 0.000000 0.325000
0.700000 0.000000 0.325000
0.781250 0.000000 0.325000
0.862500 0.000000 0.325000
0.943750 0.000000 0.325000
1.000000 0.000000 0.325000
1.000000 0.000000 0.325000
1.000000 0.000000 0.325000
1.000000 0.000000 0.325000
1.000000 0.000000 0.325000
0.050000 0.020000 0.325000
0.131250 0.020000 0.325000
0.212500 0.020000 0.325000
0.293750 0.020000 0.325000
0.375000 0.020000 0.325000
0.456250 0.020000 0.325000
0.537500 0.020000 0.325000
0.618750 0.020000 0.325000
0.700000 0.020000 0.325000
0.781250 0.020000 0.325000
0.862500 0.020000 0.325000
0.943750 0.020000 0.325000
1.000000 0.020000 0.325000
1.000000 0.020000 0.325000
1.000000 0.020000 0.325000
1.000000 0.020000 0.325000
1.000000 0.020000 0.325000
0.050000 0.070000 0.325000
0.131250 0.070000 0.325000
0.212500 0.070000 0.325000
0.293750 0.070000 0.325000
0.375000 0.070000 0.325000
0.456250 0.070000 0.325000
0.537500 0.070000 0.325000
0.618750 0.070000 0.325000
0.700000 0.070000 0.325000
0.781250 0.070000 0.325000
0.862500 0.070000 0.325000
0.943750 0.070000 0.325000
1.000000 0.070000 0.325000
1.000000 0.070000 0.325000
1.000000 0.070000 0.325000
1.000000 0.070000 0.325000
1.000000 0.070000 0.325000
0.050000 0.120000 0.325000
0.131250 0.120000 0.325000
0.212500 0.120000 0.325000
0.293750 0.120000 0.325000
0.375000 0.120000 0.325000
0.456250 0.120000 0.325000
0.537500 0.120000 0.325000
0.618750 0.120000 0.325000
0.700000 0.120000 0.325000
0.781250 0.120000 0.325000
0.862500 0.120000 0.325000
0.943750 0.120000 0.325000
1.000000 0.120000 0.325000
1.000000 0.120000 0.325000
1.000000 0.120000 0.325000
1.000000 0.120000 0.325000
1.000000 0.120000 0.325000
0.050000 0.170000 0.325000
0.131250 0.170000 0.325000
0.212500 0.170000 0.325000
0.293750 0.170000 0.325000
0.375000 0.170000 0.325000
0.456250 0.170000 0.325000
0.537500 0.170000 0.325000
0.618750 0.170000 0.325000
0.700000 0.170000 0.325000
0.781250 0.170000 0.325000
0.862500 0.170000 0.325000
0.943750 0.170000 0.325000
1.000000 0.170000 0.325000
1.000000 0.170000 0.325000
1.000000 0.170000 0.325000
1.000000 0.170000 0.325000
1.000000 0.170000 0.325000
0.050000 0.220000 0.325000
0.131250 0.220000 0.325000
0.212500 0.220000 0.325000
0.293750 0.220000 0.325000
0.375000 0.220000 0.325000
0.456250 0.220000 0.325000
0.537500 0.220000 0.325000
0.618750 0.220000 0.325000
0.700000 0.220000 0.325000
0.781250 0.220000 0.325000
0.862500 0.220000 0.325000
0.943750 0.220000 0.325000
1.000000 0.220000 0.325000
1.000000 0.220000 0.325000
1.000000 0.220000 0.325000
1.000000 0.220000 0.325000
1.000000 0.220000 0.325000
0.050000 0.270000 0.325000
0.131250 0.270000 0.325000
0.212500 0.270000 0.325000
0.293750 0.270000 0.325000
0.375000 0.270000 0.325000
0.456250 0.270000 0.325000
0.537500 0.270000 0.325000
0.618750 0.270000 0.325000
0.700000 0.270000 0.325000
0.781250 0.270000 0.325000
0.862500 0.270000 0.325000
0.943750 0.270000 0.325000
1.000000 0.270000 0.325000
1.000000 0.270000 0.325000
1.000000 0.270000 0.325000
1.000000 0.270000 0.325000
1.000000 0.270000 0.325000
0.050000 0.320000 0.325000
0.131250 0.320000 0.325000
0.212500 0.320000 0.325000
0.293750 0.320000 0.325000
0.375000 0.320000 0.325000
0.456250 0.320000 0.325000
0.537500 0.320000 0.325000
0.618750 0.320000 0.325000
0.700000 0.320000 0.325000
0.781250 0.320000 0.325000
0.862500 0.320000 0.325000
0.943750 0.320000 0.325000
1.000000 0.320000 0.325000
1.000000 0.320000 0.325000
1.000000 0.320000 0.325000
1.000000 0.320000 0.325000
1.000000 0.320000 0.325000
0.050000 0.370000 0.325000
0.131250 0.370000 0.325000
0.212500 0.370000 0.325000
0.293750 0.370000 0.325000
0.375000 0.370000 0.325000
0.456250 0.370000 0.325000
0.537500 0.370000 0.325000
0.618750 0.370000 0.325000
0.700000 0.370000 0.325000
0.781250 0.370000 0.325000
0.862500 0.370000 0.325000
0.943750 0.370000 0.325000
1.000000 0.370000 0.325000
1.000000 0.370000 0.325000
1.000000 0.370000 0.325000
1.000000 0.370000 0.325000
1.000000 0.370000 0.325000
0.050000 0.420000 0.325000
0.131250 0.420000 0.325000
0.212500 0.420000 0.325000
0.293750 0.420000 0.325000
0.375000 0.420000 0.325000
0.456250 0.420000 0.325000
0.537500 0.420000 0.325000
0.618750 0.420000 0.325000
0.700000 0.420000 0.325000
0.781250 0.420000 0.325000
0.862500 0.420000 0.325000
0.943750 0.420000 0.325000
1.000000 0.420000 0.325000
1.000000 0.420000 0.325000
1.000000 0.420000 0.325000
1.000000 0.420000 0.325000
1.000000 0.420000 0.325000
0.050000 0.470000 0.325000
0.131250 0.470000 0.325000
0.212500 0.470000 0.325000
0.293750 0.470000 0.325000
0.375000 0.470000 0.325000
0.456250 0.470000 0.325000
0.537500 0.470000 0.325000
0.618750 0.470000 0.325000
0.700000 0.470000 0.325000
0.781250 0.470000 0.325000
0.862500 0.470000 0.325000
0.943750 0.470000 0.325000
1.000000 0.470000 0.325000
1.000000 0.470000 0.325000
1.000000 0.470000 0.325000
1.000000 0.470000 0.325000
1.000000 0.470000 0.325000
0.050000 0.520000 0.325000
0.131250 0.520000 0.325000
0.212500 0.520000 0.325000
0.293750 0.520000 0.325000
0.375000 0.520000 0.325000
0.456250 0.520000 0.325000
0.537500 0.520000 0.325000
0.618750 0.520000 0.325000
0.700000 0.520000 0.325000
0.781250 0.520000 0.325000
0.862500 0.520000 0.325000
0.943750 0.520000 0.325000
1.000000 0.520000 0.325000
1.000000 0.520000 0.325000
1.000000 0.520000 0.325000
1.000000 0.520000 0.325000
1.000000 0.520000 0.325000
0.050000 0.570000 0.325000
0.131250 0.570000 0.325000
0.212500 0.570000 0.325000
0.293750 0.570000 0.325000
0.375000 0.570000 0.325000
0.456250 0.570000 0.325000
0.537500 0.570000 0.325000
0.618750 0.570000 0.325000
0.700000 0.570000 0.325000
0.781250 0.570000 0.325000
0.862500 0.570000 0.325000
0.943750 0.570000 0.325000
1.000000 0.570000 0.325000
1.000000 0.570000 0.325000
1.000000 0.570000 0.325000
1.000000 0.570000 0.325000
1.000000 0.570000 0.325000
0.050000 0.620000 0.325000
0.131250 0.620000 0.325000
0.212500 0.620000 0.325000
0.293750 0.620000 0.325000
0.375000 0.620000 0.325000
0.456250 0.620000 0.325000
0.537500 0.620000 0.325000
0.618750 0.620000 0.325000
0.700000 0.620000 0.325000
0.781250 0.620000 0.325000
0.862500 0.620000 0.325000
0.943750 0.620000 0.325000
1.000000 0.620000 0.325000
1.000000 0.620000 0.325000
1.000000 0.620000 0.325000
1.000000 0.620000 0.325000
1.000000 0.620000 0.325000
0.050000 0.670000 0.325000
0.131250 0.670000 0.325000
0.212500 0.670000 0.325000
0.293750 0.670000 0.325000
0.375000 0.670000 0.325000
0.456250 0.670000 0.325000
0.537500 0.670000 0.325000
0.618750 0.670000 0.325000
0.700000 0.670000 0.325000
0.781250 0.670000 0.325000
0.862500 0.670000 0.325000
0.943750 0.670000 0.325000
1.000000 0.670000 0.325000
1.000000 0.670000 0.325000
1.000000 0.670000 0.325000
1.000000 0.670000 0.325000
1.000000 0.670000 0.325000
0.050000 0.720000 0.325000
0.131250 0.720000 0.325000
0.212500 0.720000 0.325000
0.293750 0.720000 0.325000
0.375000 0.720000 0.325000
0.456250 0.720000 0.325000
0.537500 0.720000 0.325000
0.618750 0.720000 0.325000
0.700000 0.720000 0.325000
0.781250 0.720000 0.325000
0.862500 0.720000 0.325000
0.943750 0.720000 0.325000
1.000000 0.720000 0.325000
1.000000 0.720000 0.325000
1.000000 0.720000 0.325000
1.000000 0.720000 0.325000
1.000000 0.720000 0.325000
0.050000 0.000000 0.412500
0.131250 0.000000 0.412500
0.212500 0.000000 0.412500
0.293750 0.000000 0.412500
0.375000 0.000000 0.412500
0.456250 0.000000 0.412500
0.537500 0.000000 0.412500
0.618750 0.000000 0.412500
0.700000 0.000000 0.412500
0.781250 0.000000 0.412500
0.862500 0.000000 0.412500
0.943750 0.000000 0.412500
1.000000 0.000000 0.412500
1.000000 0.000000 0.412500
1.000000 0.000000 0.412500
1.000000 0.000000 0.412500
1.000000 0.000000 0.412500
0.050000 0.000000 0.412500
