app/src/main/assets/luts/neon_overdrive.cube
# ApexStudio filter: neon_overdrive
LUT_3D_SIZE 5
DOMAIN_MIN 0.0 0.0 0.0
DOMAIN_MAX 1.0 1.0 1.0
0.050000 0.000000 0.150000
0.375000 0.000000 0.150000
0.700000 0.000000 0.150000
1.000000 0.000000 0.150000
1.000000 0.000000 0.150000
0.050000 0.120000 0.150000
0.375000 0.120000 0.150000
0.700000 0.120000 0.150000
1.000000 0.120000 0.150000
1.000000 0.120000 0.150000
0.050000 0.320000 0.150000
0.375000 0.320000 0.150000
0.700000 0.320000 0.150000
1.000000 0.320000 0.150000
1.000000 0.320000 0.150000
0.050000 0.520000 0.150000
0.375000 0.520000 0.150000
0.700000 0.520000 0.150000
1.000000 0.520000 0.150000
1.000000 0.520000 0.150000
0.050000 0.720000 0.150000
0.375000 0.720000 0.150000
0.700000 0.720000 0.150000
1.000000 0.720000 0.150000
1.000000 0.720000 0.150000
0.050000 0.000000 0.500000
0.375000 0.000000 0.500000
0.700000 0.000000 0.500000
1.000000 0.000000 0.500000
1.000000 0.000000 0.500000
0.050000 0.120000 0.500000
0.375000 0.120000 0.500000
0.700000 0.120000 0.500000
1.000000 0.120000 0.500000
1.000000 0.120000 0.500000
0.050000 0.320000 0.500000
0.375000 0.320000 0.500000
0.700000 0.320000 0.500000
1.000000 0.320000 0.500000
1.000000 0.320000 0.500000
0.050000 0.520000 0.500000
0.375000 0.520000 0.500000
0.700000 0.520000 0.500000
1.000000 0.520000 0.500000
1.000000 0.520000 0.500000
0.050000 0.720000 0.500000
0.375000 0.720000 0.500000
0.700000 0.720000 0.500000
1.000000 0.720000 0.500000
1.000000 0.720000 0.500000
0.050000 0.000000 0.850000
0.375000 0.000000 0.850000
0.700000 0.000000 0.850000
1.000000 0.000000 0.850000
1.000000 0.000000 0.850000
0.050000 0.120000 0.850000
0.375000 0.120000 0.850000
0.700000 0.120000 0.850000
1.000000 0.120000 0.850000
1.000000 0.120000 0.850000
0.050000 0.320000 0.850000
0.375000 0.320000 0.850000
0.700000 0.320000 0.850000
1.000000 0.320000 0.850000
1.000000 0.320000 0.850000
0.050000 0.520000 0.850000
0.375000 0.520000 0.850000
0.700000 0.520000 0.850000
1.000000 0.520000 0.850000
1.000000 0.520000 0.850000
0.050000 0.720000 0.850000
0.375000 0.720000 0.850000
0.700000 0.720000 0.850000
1.000000 0.720000 0.850000
1.000000 0.720000 0.850000
0.050000 0.000000 1.000000
0.375000 0.000000 1.000000
0.700000 0.000000 1.000000
1.000000 0.000000 1.000000
1.000000 0.000000 1.000000
0.050000 0.120000 1.000000
0.375000 0.120000 1.000000
0.700000 0.120000 1.000000
1.000000 0.120000 1.000000
1.000000 0.120000 1.000000
0.050000 0.320000 1.000000
0.375000 0.320000 1.000000
0.700000 0.320000 1.000000
1.000000 0.320000 1.000000
1.000000 0.320000 1.000000
0.050000 0.520000 1.000000
0.375000 0.520000 1.000000
0.700000 0.520000 1.000000
1.000000 0.520000 1.000000
1.000000 0.520000 1.000000
0.050000 0.720000 1.000000
0.375000 0.720000 1.000000
0.700000 0.720000 1.000000
1.000000 0.720000 1.000000
1.000000 0.720000 1.000000
0.050000 0.000000 1.000000
0.375000 0.000000 1.000000
0.700000 0.000000 1.000000
1.000000 0.000000 1.000000
1.000000 0.000000 1.000000
0.050000 0.120000 1.000000
0.375000 0.120000 1.000000
0.700000 0.120000 1.000000
1.000000 0.120000 1.000000
1.000000 0.120000 1.000000
0.050000 0.320000 1.000000
0.375000 0.320000 1.000000
0.700000 0.320000 1.000000
1.000000 0.320000 1.000000
1.000000 0.320000 1.000000
0.050000 0.520000 1.000000
0.375000 0.520000 1.000000
0.700000 0.520000 1.000000
1.000000 0.520000 1.000000
1.000000 0.520000 1.000000
0.050000 0.720000 1.000000
0.375000 0.720000 1.000000
0.700000 0.720000 1.000000
1.000000 0.720000 1.000000
1.000000 0.720000 1.000000
