app/src/main/assets/luts/night_street.cube
# ApexStudio filter: night_street
LUT_3D_SIZE 5
DOMAIN_MIN 0.0 0.0 0.0
DOMAIN_MAX 1.0 1.0 1.0
0.000000 0.000000 0.088000
0.208360 0.000000 0.088000
0.435493 0.000000 0.088000
0.650763 0.000000 0.088000
0.858996 0.000000 0.088000
0.000000 0.218500 0.088000
0.208360 0.218500 0.088000
0.435493 0.218500 0.088000
0.650763 0.218500 0.088000
0.858996 0.218500 0.088000
0.000000 0.456000 0.088000
0.208360 0.456000 0.088000
0.435493 0.456000 0.088000
0.650763 0.456000 0.088000
0.858996 0.456000 0.088000
0.000000 0.693500 0.088000
0.208360 0.693500 0.088000
0.435493 0.693500 0.088000
0.650763 0.693500 0.088000
0.858996 0.693500 0.088000
0.000000 0.931000 0.088000
0.208360 0.931000 0.088000
0.435493 0.931000 0.088000
0.650763 0.931000 0.088000
0.858996 0.931000 0.088000
0.000000 0.000000 0.363000
0.208360 0.000000 0.363000
0.435493 0.000000 0.363000
0.650763 0.000000 0.363000
0.858996 0.000000 0.363000
0.000000 0.218500 0.363000
0.208360 0.218500 0.363000
0.435493 0.218500 0.363000
0.650763 0.218500 0.363000
0.858996 0.218500 0.363000
0.000000 0.456000 0.363000
0.208360 0.456000 0.363000
0.435493 0.456000 0.363000
0.650763 0.456000 0.363000
0.858996 0.456000 0.363000
0.000000 0.693500 0.363000
0.208360 0.693500 0.363000
0.435493 0.693500 0.363000
0.650763 0.693500 0.363000
0.858996 0.693500 0.363000
0.000000 0.931000 0.363000
0.208360 0.931000 0.363000
0.435493 0.931000 0.363000
0.650763 0.931000 0.363000
0.858996 0.931000 0.363000
0.000000 0.000000 0.638000
0.208360 0.000000 0.638000
0.435493 0.000000 0.638000
0.650763 0.000000 0.638000
0.858996 0.000000 0.638000
0.000000 0.218500 0.638000
0.208360 0.218500 0.638000
0.435493 0.218500 0.638000
0.650763 0.218500 0.638000
0.858996 0.218500 0.638000
0.000000 0.456000 0.638000
0.208360 0.456000 0.638000
0.435493 0.456000 0.638000
0.650763 0.456000 0.638000
0.858996 0.456000 0.638000
0.000000 0.693500 0.638000
0.208360 0.693500 0.638000
0.435493 0.693500 0.638000
0.650763 0.693500 0.638000
0.858996 0.693500 0.638000
0.000000 0.931000 0.638000
0.208360 0.931000 0.638000
0.435493 0.931000 0.638000
0.650763 0.931000 0.638000
0.858996 0.931000 0.638000
0.000000 0.000000 0.913000
0.208360 0.000000 0.913000
0.435493 0.000000 0.913000
0.650763 0.000000 0.913000
0.858996 0.000000 0.913000
0.000000 0.218500 0.913000
0.208360 0.218500 0.913000
0.435493 0.218500 0.913000
0.650763 0.218500 0.913000
0.858996 0.218500 0.913000
0.000000 0.456000 0.913000
0.208360 0.456000 0.913000
0.435493 0.456000 0.913000
0.650763 0.456000 0.913000
0.858996 0.456000 0.913000
0.000000 0.693500 0.913000
0.208360 0.693500 0.913000
0.435493 0.693500 0.913000
0.650763 0.693500 0.913000
0.858996 0.693500 0.913000
0.000000 0.931000 0.913000
0.208360 0.931000 0.913000
0.435493 0.931000 0.913000
0.650763 0.931000 0.913000
0.858996 0.931000 0.913000
0.000000 0.000000 1.000000
0.208360 0.000000 1.000000
0.435493 0.000000 1.000000
0.650763 0.000000 1.000000
0.858996 0.000000 1.000000
0.000000 0.218500 1.000000
0.208360 0.218500 1.000000
0.435493 0.218500 1.000000
0.650763 0.218500 1.000000
0.858996 0.218500 1.000000
0.000000 0.456000 1.000000
0.208360 0.456000 1.000000
0.435493 0.456000 1.000000
0.650763 0.456000 1.000000
0.858996 0.456000 1.000000
0.000000 0.693500 1.000000
0.208360 0.693500 1.000000
0.435493 0.693500 1.000000
0.650763 0.693500 1.000000
0.858996 0.693500 1.000000
0.000000 0.931000 1.000000
0.208360 0.931000 1.000000
0.435493 0.931000 1.000000
0.650763 0.931000 1.000000
0.858996 0.931000 1.000000
