app/src/main/assets/luts/night_street.cube
# ApexStudio filter: night_street
LUT_3D_SIZE 17
DOMAIN_MIN 0.0 0.0 0.0
DOMAIN_MAX 1.0 1.0 1.0
0.000000 0.000000 0.088000
0.016756 0.000000 0.088000
0.085422 0.000000 0.088000
0.148211 0.000000 0.088000
0.208360 0.000000 0.088000
0.266795 0.000000 0.088000
0.323967 0.000000 0.088000
0.380140 0.000000 0.088000
0.435493 0.000000 0.088000
0.490149 0.000000 0.088000
0.544200 0.000000 0.088000
0.597719 0.000000 0.088000
0.650763 0.000000 0.088000
0.703376 0.000000 0.088000
0.755599 0.000000 0.088000
0.807463 0.000000 0.088000
0.858996 0.000000 0.088000
0.000000 0.040375 0.088000
0.016756 0.040375 0.088000
0.085422 0.040375 0.088000
0.148211 0.040375 0.088000
0.208360 0.040375 0.088000
0.266795 0.040375 0.088000
0.323967 0.040375 0.088000
0.380140 0.040375 0.088000
0.435493 0.040375 0.088000
0.490149 0.040375 0.088000
0.544200 0.040375 0.088000
0.597719 0.040375 0.088000
0.650763 0.040375 0.088000
0.703376 0.040375 0.088000
0.755599 0.040375 0.088000
0.807463 0.040375 0.088000
0.858996 0.040375 0.088000
0.000000 0.099750 0.088000
0.016756 0.099750 0.088000
0.085422 0.099750 0.088000
0.148211 0.099750 0.088000
0.208360 0.099750 0.088000
0.266795 0.099750 0.088000
0.323967 0.099750 0.088000
0.380140 0.099750 0.088000
0.435493 0.099750 0.088000
0.490149 0.099750 0.088000
0.544200 0.099750 0.088000
0.597719 0.099750 0.088000
0.650763 0.099750 0.088000
0.703376 0.099750 0.088000
0.755599 0.099750 0.088000
0.807463 0.099750 0.088000
0.858996 0.099750 0.088000
0.000000 0.159125 0.088000
0.016756 0.159125 0.088000
0.085422 0.159125 0.088000
0.148211 0.159125 0.088000
0.208360 0.159125 0.088000
0.266795 0.159125 0.088000
0.323967 0.159125 0.088000
0.380140 0.159125 0.088000
0.435493 0.159125 0.088000
0.490149 0.159125 0.088000
0.544200 0.159125 0.088000
0.597719 0.159125 0.088000
0.650763 0.159125 0.088000
0.703376 0.159125 0.088000
0.755599 0.159125 0.088000
0.807463 0.159125 0.088000
0.858996 0.159125 0.088000
0.000000 0.218500 0.088000
0.016756 0.218500 0.088000
0.085422 0.218500 0.088000
0.148211 0.218500 0.088000
0.208360 0.218500 0.088000
0.266795 0.218500 0.088000
0.323967 0.218500 0.088000
0.380140 0.218500 0.088000
0.435493 0.218500 0.088000
0.490149 0.218500 0.088000
0.544200 0.218500 0.088000
0.597719 0.218500 0.088000
0.650763 0.218500 0.088000
0.703376 0.218500 0.088000
0.755599 0.218500 0.088000
0.807463 0.218500 0.088000
0.858996 0.218500 0.088000
0.000000 0.277875 0.088000
0.016756 0.277875 0.088000
0.085422 0.277875 0.088000
0.148211 0.277875 0.088000
0.208360 0.277875 0.088000
0.266795 0.277875 0.088000
0.323967 0.277875 0.088000
0.380140 0.277875 0.088000
0.435493 0.277875 0.088000
0.490149 0.277875 0.088000
0.544200 0.277875 0.088000
0.597719 0.277875 0.088000
0.650763 0.277875 0.088000
0.703376 0.277875 0.088000
0.755599 0.277875 0.088000
0.807463 0.277875 0.088000
0.858996 0.277875 0.088000
0.000000 0.337250 0.088000
0.016756 0.337250 0.088000
0.085422 0.337250 0.088000
0.148211 0.337250 0.088000
0.208360 0.337250 0.088000
0.266795 0.337250 0.088000
0.323967 0.337250 0.088000
0.380140 0.337250 0.088000
0.435493 0.337250 0.088000
0.490149 0.337250 0.088000
0.544200 0.337250 0.088000
0.597719 0.337250 0.088000
0.650763 0.337250 0.088000
0.703376 0.337250 0.088000
0.755599 0.337250 0.088000
0.807463 0.337250 0.088000
0.858996 0.337250 0.088000
0.000000 0.396625 0.088000
0.016756 0.396625 0.088000
0.085422 0.396625 0.088000
0.148211 0.396625 0.088000
0.208360 0.396625 0.088000
0.266795 0.396625 0.088000
0.323967 0.396625 0.088000
0.380140 0.396625 0.088000
0.435493 0.396625 0.088000
0.490149 0.396625 0.088000
0.544200 0.396625 0.088000
0.597719 0.396625 0.088000
0.650763 0.396625 0.088000
0.703376 0.396625 0.088000
0.755599 0.396625 0.088000
0.807463 0.396625 0.088000
0.858996 0.396625 0.088000
0.000000 0.456000 0.088000
0.016756 0.456000 0.088000
0.085422 0.456000 0.088000
0.148211 0.456000 0.088000
0.208360 0.456000 0.088000
0.266795 0.456000 0.088000
0.323967 0.456000 0.088000
0.380140 0.456000 0.088000
0.435493 0.456000 0.088000
0.490149 0.456000 0.088000
0.544200 0.456000 0.088000
0.597719 0.456000 0.088000
0.650763 0.456000 0.088000
0.703376 0.456000 0.088000
0.755599 0.456000 0.088000
0.807463 0.456000 0.088000
0.858996 0.456000 0.088000
0.000000 0.515375 0.088000
0.016756 0.515375 0.088000
0.085422 0.515375 0.088000
0.148211 0.515375 0.088000
0.208360 0.515375 0.088000
0.266795 0.515375 0.088000
0.323967 0.515375 0.088000
0.380140 0.515375 0.088000
0.435493 0.515375 0.088000
0.490149 0.515375 0.088000
0.544200 0.515375 0.088000
0.597719 0.515375 0.088000
0.650763 0.515375 0.088000
0.703376 0.515375 0.088000
0.755599 0.515375 0.088000
0.807463 0.515375 0.088000
0.858996 0.515375 0.088000
0.000000 0.574750 0.088000
0.016756 0.574750 0.088000
0.085422 0.574750 0.088000
0.148211 0.574750 0.088000
0.208360 0.574750 0.088000
0.266795 0.574750 0.088000
0.323967 0.574750 0.088000
0.380140 0.574750 0.088000
0.435493 0.574750 0.088000
0.490149 0.574750 0.088000
0.544200 0.574750 0.088000
0.597719 0.574750 0.088000
0.650763 0.574750 0.088000
0.703376 0.574750 0.088000
0.755599 0.574750 0.088000
0.807463 0.574750 0.088000
0.858996 0.574750 0.088000
0.000000 0.634125 0.088000
0.016756 0.634125 0.088000
0.085422 0.634125 0.088000
0.148211 0.634125 0.088000
0.208360 0.634125 0.088000
0.266795 0.634125 0.088000
0.323967 0.634125 0.088000
0.380140 0.634125 0.088000
0.435493 0.634125 0.088000
0.490149 0.634125 0.088000
0.544200 0.634125 0.088000
0.597719 0.634125 0.088000
0.650763 0.634125 0.088000
0.703376 0.634125 0.088000
0.755599 0.634125 0.088000
0.807463 0.634125 0.088000
0.858996 0.634125 0.088000
0.000000 0.693500 0.088000
0.016756 0.693500 0.088000
0.085422 0.693500 0.088000
0.148211 0.693500 0.088000
0.208360 0.693500 0.088000
0.266795 0.693500 0.088000
0.323967 0.693500 0.088000
0.380140 0.693500 0.088000
0.435493 0.693500 0.088000
0.490149 0.693500 0.088000
0.544200 0.693500 0.088000
0.597719 0.693500 0.088000
0.650763 0.693500 0.088000
0.703376 0.693500 0.088000
0.755599 0.693500 0.088000
0.807463 0.693500 0.088000
0.858996 0.693500 0.088000
0.000000 0.752875 0.088000
0.016756 0.752875 0.088000
0.085422 0.752875 0.088000
0.148211 0.752875 0.088000
0.208360 0.752875 0.088000
0.266795 0.752875 0.088000
0.323967 0.752875 0.088000
0.380140 0.752875 0.088000
0.435493 0.752875 0.088000
0.490149 0.752875 0.088000
0.544200 0.752875 0.088000
0.597719 0.752875 0.088000
0.650763 0.752875 0.088000
0.703376 0.752875 0.088000
0.755599 0.752875 0.088000
0.807463 0.752875 0.088000
0.858996 0.752875 0.088000
0.000000 0.812250 0.088000
0.016756 0.812250 0.088000
0.085422 0.812250 0.088000
0.148211 0.812250 0.088000
0.208360 0.812250 0.088000
0.266795 0.812250 0.088000
0.323967 0.812250 0.088000
0.380140 0.812250 0.088000
0.435493 0.812250 0.088000
0.490149 0.812250 0.088000
0.544200 0.812250 0.088000
0.597719 0.812250 0.088000
0.650763 0.812250 0.088000
0.703376 0.812250 0.088000
0.755599 0.812250 0.088000
0.807463 0.812250 0.088000
0.858996 0.812250 0.088000
0.000000 0.871625 0.088000
0.016756 0.871625 0.088000
0.085422 0.871625 0.088000
0.148211 0.871625 0.088000
0.208360 0.871625 0.088000
0.266795 0.871625 0.088000
0.323967 0.871625 0.088000
0.380140 0.871625 0.088000
0.435493 0.871625 0.088000
0.490149 0.871625 0.088000
0.544200 0.871625 0.088000
0.597719 0.871625 0.088000
0.650763 0.871625 0.088000
0.703376 0.871625 0.088000
0.755599 0.871625 0.088000
0.807463 0.871625 0.088000
0.858996 0.871625 0.088000
0.000000 0.931000 0.088000
0.016756 0.931000 0.088000
0.085422 0.931000 0.088000
0.148211 0.931000 0.088000
0.208360 0.931000 0.088000
0.266795 0.931000 0.088000
0.323967 0.931000 0.088000
0.380140 0.931000 0.088000
0.435493 0.931000 0.088000
0.490149 0.931000 0.088000
0.544200 0.931000 0.088000
0.597719 0.931000 0.088000
0.650763 0.931000 0.088000
0.703376 0.931000 0.088000
0.755599 0.931000 0.088000
0.807463 0.931000 0.088000
0.858996 0.931000 0.088000
0.000000 0.000000 0.156750
0.016756 0.000000 0.156750
0.085422 0.000000 0.156750
0.148211 0.000000 0.156750
0.208360 0.000000 0.156750
0.266795 0.000000 0.156750
0.323967 0.000000 0.156750
0.380140 0.000000 0.156750
0.435493 0.000000 0.156750
0.490149 0.000000 0.156750
0.544200 0.000000 0.156750
0.597719 0.000000 0.156750
0.650763 0.000000 0.156750
0.703376 0.000000 0.156750
0.755599 0.000000 0.156750
0.807463 0.000000 0.156750
0.858996 0.000000 0.156750
0.000000 0.040375 0.156750
0.016756 0.040375 0.156750
0.085422 0.040375 0.156750
0.148211 0.040375 0.156750
0.208360 0.040375 0.156750
0.266795 0.040375 0.156750
0.323967 0.040375 0.156750
0.380140 0.040375 0.156750
0.435493 0.040375 0.156750
0.490149 0.040375 0.156750
0.544200 0.040375 0.156750
0.597719 0.040375 0.156750
0.650763 0.040375 0.156750
0.703376 0.040375 0.156750
0.755599 0.040375 0.156750
0.807463 0.040375 0.156750
0.858996 0.040375 0.156750
0.000000 0.099750 0.156750
0.016756 0.099750 0.156750
0.085422 0.099750 0.156750
0.148211 0.099750 0.156750
0.208360 0.099750 0.156750
0.266795 0.099750 0.156750
0.323967 0.099750 0.156750
0.380140 0.099750 0.156750
0.435493 0.099750 0.156750
0.490149 0.099750 0.156750
0.544200 0.099750 0.156750
0.597719 0.099750 0.156750
0.650763 0.099750 0.156750
0.703376 0.099750 0.156750
0.755599 0.099750 0.156750
0.807463 0.099750 0.156750
0.858996 0.099750 0.156750
0.000000 0.159125 0.156750
0.016756 0.159125 0.156750
0.085422 0.159125 0.156750
0.148211 0.159125 0.156750
0.208360 0.159125 0.156750
0.266795 0.159125 0.156750
0.323967 0.159125 0.156750
0.380140 0.159125 0.156750
0.435493 0.159125 0.156750
0.490149 0.159125 0.156750
0.544200 0.159125 0.156750
0.597719 0.159125 0.156750
0.650763 0.159125 0.156750
0.703376 0.159125 0.156750
0.755599 0.159125 0.156750
0.807463 0.159125 0.156750
0.858996 0.159125 0.156750
0.000000 0.218500 0.156750
0.016756 0.218500 0.156750
0.085422 0.218500 0.156750
0.148211 0.218500 0.156750
0.208360 0.218500 0.156750
0.266795 0.218500 0.156750
0.323967 0.218500 0.156750
0.380140 0.218500 0.156750
0.435493 0.218500 0.156750
0.490149 0.218500 0.156750
0.544200 0.218500 0.156750
0.597719 0.218500 0.156750
0.650763 0.218500 0.156750
0.703376 0.218500 0.156750
0.755599 0.218500 0.156750
0.807463 0.218500 0.156750
0.858996 0.218500 0.156750
0.000000 0.277875 0.156750
0.016756 0.277875 0.156750
0.085422 0.277875 0.156750
0.148211 0.277875 0.156750
0.208360 0.277875 0.156750
0.266795 0.277875 0.156750
0.323967 0.277875 0.156750
0.380140 0.277875 0.156750
0.435493 0.277875 0.156750
0.490149 0.277875 0.156750
0.544200 0.277875 0.156750
0.597719 0.277875 0.156750
0.650763 0.277875 0.156750
0.703376 0.277875 0.156750
0.755599 0.277875 0.156750
0.807463 0.277875 0.156750
0.858996 0.277875 0.156750
0.000000 0.337250 0.156750
0.016756 0.337250 0.156750
0.085422 0.337250 0.156750
0.148211 0.337250 0.156750
0.208360 0.337250 0.156750
0.266795 0.337250 0.156750
0.323967 0.337250 0.156750
0.380140 0.337250 0.156750
0.435493 0.337250 0.156750
0.490149 0.337250 0.156750
0.544200 0.337250 0.156750
0.597719 0.337250 0.156750
0.650763 0.337250 0.156750
0.703376 0.337250 0.156750
0.755599 0.337250 0.156750
0.807463 0.337250 0.156750
0.858996 0.337250 0.156750
0.000000 0.396625 0.156750
0.016756 0.396625 0.156750
0.085422 0.396625 0.156750
0.148211 0.396625 0.156750
0.208360 0.396625 0.156750
0.266795 0.396625 0.156750
0.323967 0.396625 0.156750
0.380140 0.396625 0.156750
0.435493 0.396625 0.156750
0.490149 0.396625 0.156750
0.544200 0.396625 0.156750
0.597719 0.396625 0.156750
0.650763 0.396625 0.156750
0.703376 0.396625 0.156750
0.755599 0.396625 0.156750
0.807463 0.396625 0.156750
0.858996 0.396625 0.156750
0.000000 0.456000 0.156750
0.016756 0.456000 0.156750
0.085422 0.456000 0.156750
0.148211 0.456000 0.156750
0.208360 0.456000 0.156750
0.266795 0.456000 0.156750
0.323967 0.456000 0.156750
0.380140 0.456000 0.156750
0.435493 0.456000 0.156750
0.490149 0.456000 0.156750
0.544200 0.456000 0.156750
0.597719 0.456000 0.156750
0.650763 0.456000 0.156750
0.703376 0.456000 0.156750
0.755599 0.456000 0.156750
0.807463 0.456000 0.156750
0.858996 0.456000 0.156750
0.000000 0.515375 0.156750
0.016756 0.515375 0.156750
0.085422 0.515375 0.156750
0.148211 0.515375 0.156750
0.208360 0.515375 0.156750
0.266795 0.515375 0.156750
0.323967 0.515375 0.156750
0.380140 0.515375 0.156750
0.435493 0.515375 0.156750
0.490149 0.515375 0.156750
0.544200 0.515375 0.156750
0.597719 0.515375 0.156750
0.650763 0.515375 0.156750
0.703376 0.515375 0.156750
0.755599 0.515375 0.156750
0.807463 0.515375 0.156750
0.858996 0.515375 0.156750
0.000000 0.574750 0.156750
0.016756 0.574750 0.156750
0.085422 0.574750 0.156750
0.148211 0.574750 0.156750
0.208360 0.574750 0.156750
0.266795 0.574750 0.156750
0.323967 0.574750 0.156750
0.380140 0.574750 0.156750
0.435493 0.574750 0.156750
0.490149 0.574750 0.156750
0.544200 0.574750 0.156750
0.597719 0.574750 0.156750
0.650763 0.574750 0.156750
0.703376 0.574750 0.156750
0.755599 0.574750 0.156750
0.807463 0.574750 0.156750
0.858996 0.574750 0.156750
0.000000 0.634125 0.156750
0.016756 0.634125 0.156750
0.085422 0.634125 0.156750
0.148211 0.634125 0.156750
0.208360 0.634125 0.156750
0.266795 0.634125 0.156750
0.323967 0.634125 0.156750
0.380140 0.634125 0.156750
0.435493 0.634125 0.156750
0.490149 0.634125 0.156750
0.544200 0.634125 0.156750
0.597719 0.634125 0.156750
0.650763 0.634125 0.156750
0.703376 0.634125 0.156750
0.755599 0.634125 0.156750
0.807463 0.634125 0.156750
0.858996 0.634125 0.156750
0.000000 0.693500 0.156750
0.016756 0.693500 0.156750
0.085422 0.693500 0.156750
0.148211 0.693500 0.156750
0.208360 0.693500 0.156750
0.266795 0.693500 0.156750
0.323967 0.693500 0.156750
0.380140 0.693500 0.156750
0.435493 0.693500 0.156750
0.490149 0.693500 0.156750
0.544200 0.693500 0.156750
0.597719 0.693500 0.156750
0.650763 0.693500 0.156750
0.703376 0.693500 0.156750
0.755599 0.693500 0.156750
0.807463 0.693500 0.156750
0.858996 0.693500 0.156750
0.000000 0.752875 0.156750
0.016756 0.752875 0.156750
0.085422 0.752875 0.156750
0.148211 0.752875 0.156750
0.208360 0.752875 0.156750
0.266795 0.752875 0.156750
0.323967 0.752875 0.156750
0.380140 0.752875 0.156750
0.435493 0.752875 0.156750
0.490149 0.752875 0.156750
0.544200 0.752875 0.156750
0.597719 0.752875 0.156750
0.650763 0.752875 0.156750
0.703376 0.752875 0.156750
0.755599 0.752875 0.156750
0.807463 0.752875 0.156750
0.858996 0.752875 0.156750
0.000000 0.812250 0.156750
0.016756 0.812250 0.156750
0.085422 0.812250 0.156750
0.148211 0.812250 0.156750
0.208360 0.812250 0.156750
0.266795 0.812250 0.156750
0.323967 0.812250 0.156750
0.380140 0.812250 0.156750
0.435493 0.812250 0.156750
0.490149 0.812250 0.156750
0.544200 0.812250 0.156750
0.597719 0.812250 0.156750
0.650763 0.812250 0.156750
0.703376 0.812250 0.156750
0.755599 0.812250 0.156750
0.807463 0.812250 0.156750
0.858996 0.812250 0.156750
0.000000 0.871625 0.156750
0.016756 0.871625 0.156750
0.085422 0.871625 0.156750
0.148211 0.871625 0.156750
0.208360 0.871625 0.156750
0.266795 0.871625 0.156750
0.323967 0.871625 0.156750
0.380140 0.871625 0.156750
0.435493 0.871625 0.156750
0.490149 0.871625 0.156750
0.544200 0.871625 0.156750
0.597719 0.871625 0.156750
0.650763 0.871625 0.156750
0.703376 0.871625 0.156750
0.755599 0.871625 0.156750
0.807463 0.871625 0.156750
0.858996 0.871625 0.156750
0.000000 0.931000 0.156750
0.016756 0.931000 0.156750
0.085422 0.931000 0.156750
0.148211 0.931000 0.156750
0.208360 0.931000 0.156750
0.266795 0.931000 0.156750
0.323967 0.931000 0.156750
0.380140 0.931000 0.156750
0.435493 0.931000 0.156750
0.490149 0.931000 0.156750
0.544200 0.931000 0.156750
0.597719 0.931000 0.156750
0.650763 0.931000 0.156750
0.703376 0.931000 0.156750
0.755599 0.931000 0.156750
0.807463 0.931000 0.156750
0.858996 0.931000 0.156750
0.000000 0.000000 0.225500
0.016756 0.000000 0.225500
0.085422 0.000000 0.225500
0.148211 0.000000 0.225500
0.208360 0.000000 0.225500
0.266795 0.000000 0.225500
0.323967 0.000000 0.225500
0.380140 0.000000 0.225500
0.435493 0.000000 0.225500
0.490149 0.000000 0.225500
0.544200 0.000000 0.225500
0.597719 0.000000 0.225500
0.650763 0.000000 0.225500
0.703376 0.000000 0.225500
0.755599 0.000000 0.225500
0.807463 0.000000 0.225500
0.858996 0.000000 0.225500
0.000000 0.040375 0.225500
0.016756 0.040375 0.225500
0.085422 0.040375 0.225500
0.148211 0.040375 0.225500
0.208360 0.040375 0.225500
0.266795 0.040375 0.225500
0.323967 0.040375 0.225500
0.380140 0.040375 0.225500
0.435493 0.040375 0.225500
0.490149 0.040375 0.225500
0.544200 0.040375 0.225500
0.597719 0.040375 0.225500
0.650763 0.040375 0.225500
0.703376 0.040375 0.225500
0.755599 0.040375 0.225500
0.807463 0.040375 0.225500
0.858996 0.040375 0.225500
0.000000 0.099750 0.225500
0.016756 0.099750 0.225500
0.085422 0.099750 0.225500
0.148211 0.099750 0.225500
0.208360 0.099750 0.225500
0.266795 0.099750 0.225500
0.323967 0.099750 0.225500
0.380140 0.099750 0.225500
0.435493 0.099750 0.225500
0.490149 0.099750 0.225500
0.544200 0.099750 0.225500
0.597719 0.099750 0.225500
0.650763 0.099750 0.225500
0.703376 0.099750 0.225500
0.755599 0.099750 0.225500
0.807463 0.099750 0.225500
0.858996 0.099750 0.225500
0.000000 0.159125 0.225500
0.016756 0.159125 0.225500
0.085422 0.159125 0.225500
0.148211 0.159125 0.225500
0.208360 0.159125 0.225500
0.266795 0.159125 0.225500
0.323967 0.159125 0.225500
0.380140 0.159125 0.225500
0.435493 0.159125 0.225500
0.490149 0.159125 0.225500
0.544200 0.159125 0.225500
0.597719 0.159125 0.225500
0.650763 0.159125 0.225500
0.703376 0.159125 0.225500
0.755599 0.159125 0.225500
0.807463 0.159125 0.225500
0.858996 0.159125 0.225500
0.000000 0.218500 0.225500
0.016756 0.218500 0.225500
0.085422 0.218500 0.225500
0.148211 0.218500 0.225500
0.208360 0.218500 0.225500
0.266795 0.218500 0.225500
0.323967 0.218500 0.225500
0.380140 0.218500 0.225500
0.435493 0.218500 0.225500
0.490149 0.218500 0.225500
0.544200 0.218500 0.225500
0.597719 0.218500 0.225500
0.650763 0.218500 0.225500
0.703376 0.218500 0.225500
0.755599 0.218500 0.225500
0.807463 0.218500 0.225500
0.858996 0.218500 0.225500
0.000000 0.277875 0.225500
0.016756 0.277875 0.225500
0.085422 0.277875 0.225500
0.148211 0.277875 0.225500
0.208360 0.277875 0.225500
0.266795 0.277875 0.225500
0.323967 0.277875 0.225500
0.380140 0.277875 0.225500
0.435493 0.277875 0.225500
0.490149 0.277875 0.225500
0.544200 0.277875 0.225500
0.597719 0.277875 0.225500
0.650763 0.277875 0.225500
0.703376 0.277875 0.225500
0.755599 0.277875 0.225500
0.807463 0.277875 0.225500
0.858996 0.277875 0.225500
0.000000 0.337250 0.225500
0.016756 0.337250 0.225500
0.085422 0.337250 0.225500
0.148211 0.337250 0.225500
0.208360 0.337250 0.225500
0.266795 0.337250 0.225500
0.323967 0.337250 0.225500
0.380140 0.337250 0.225500
0.435493 0.337250 0.225500
0.490149 0.337250 0.225500
0.544200 0.337250 0.225500
0.597719 0.337250 0.225500
0.650763 0.337250 0.225500
0.703376 0.337250 0.225500
0.755599 0.337250 0.225500
0.807463 0.337250 0.225500
0.858996 0.337250 0.225500
0.000000 0.396625 0.225500
0.016756 0.396625 0.225500
0.085422 0.396625 0.225500
0.148211 0.396625 0.225500
0.208360 0.396625 0.225500
0.266795 0.396625 0.225500
0.323967 0.396625 0.225500
0.380140 0.396625 0.225500
0.435493 0.396625 0.225500
0.490149 0.396625 0.225500
0.544200 0.396625 0.225500
0.597719 0.396625 0.225500
0.650763 0.396625 0.225500
0.703376 0.396625 0.225500
0.755599 0.396625 0.225500
0.807463 0.396625 0.225500
0.858996 0.396625 0.225500
0.000000 0.456000 0.225500
0.016756 0.456000 0.225500
0.085422 0.456000 0.225500
0.148211 0.456000 0.225500
0.208360 0.456000 0.225500
0.266795 0.456000 0.225500
0.323967 0.456000 0.225500
0.380140 0.456000 0.225500
0.435493 0.456000 0.225500
0.490149 0.456000 0.225500
0.544200 0.456000 0.225500
0.597719 0.456000 0.225500
0.650763 0.456000 0.225500
0.703376 0.456000 0.225500
0.755599 0.456000 0.225500
0.807463 0.456000 0.225500
0.858996 0.456000 0.225500
0.000000 0.515375 0.225500
0.016756 0.515375 0.225500
0.085422 0.515375 0.225500
0.148211 0.515375 0.225500
0.208360 0.515375 0.225500
0.266795 0.515375 0.225500
0.323967 0.515375 0.225500
0.380140 0.515375 0.225500
0.435493 0.515375 0.225500
0.490149 0.515375 0.225500
0.544200 0.515375 0.225500
0.597719 0.515375 0.225500
0.650763 0.515375 0.225500
0.703376 0.515375 0.225500
0.755599 0.515375 0.225500
0.807463 0.515375 0.225500
0.858996 0.515375 0.225500
0.000000 0.574750 0.225500
0.016756 0.574750 0.225500
0.085422 0.574750 0.225500
0.148211 0.574750 0.225500
0.208360 0.574750 0.225500
0.266795 0.574750 0.225500
0.323967 0.574750 0.225500
0.380140 0.574750 0.225500
0.435493 0.574750 0.225500
0.490149 0.574750 0.225500
0.544200 0.574750 0.225500
0.597719 0.574750 0.225500
0.650763 0.574750 0.225500
0.703376 0.574750 0.225500
0.755599 0.574750 0.225500
0.807463 0.574750 0.225500
0.858996 0.574750 0.225500
0.000000 0.634125 0.225500
0.016756 0.634125 0.225500
0.085422 0.634125 0.225500
0.148211 0.634125 0.225500
0.208360 0.634125 0.225500
0.266795 0.634125 0.225500
0.323967 0.634125 0.225500
0.380140 0.634125 0.225500
0.435493 0.634125 0.225500
0.490149 0.634125 0.225500
0.544200 0.634125 0.225500
0.597719 0.634125 0.225500
0.650763 0.634125 0.225500
0.703376 0.634125 0.225500
0.755599 0.634125 0.225500
0.807463 0.634125 0.225500
0.858996 0.634125 0.225500
0.000000 0.693500 0.225500
0.016756 0.693500 0.225500
0.085422 0.693500 0.225500
0.148211 0.693500 0.225500
0.208360 0.693500 0.225500
0.266795 0.693500 0.225500
0.323967 0.693500 0.225500
0.380140 0.693500 0.225500
0.435493 0.693500 0.225500
0.490149 0.693500 0.225500
0.544200 0.693500 0.225500
0.597719 0.693500 0.225500
0.650763 0.693500 0.225500
0.703376 0.693500 0.225500
0.755599 0.693500 0.225500
0.807463 0.693500 0.225500
0.858996 0.693500 0.225500
0.000000 0.752875 0.225500
0.016756 0.752875 0.225500
0.085422 0.752875 0.225500
0.148211 0.752875 0.225500
0.208360 0.752875 0.225500
0.266795 0.752875 0.225500
0.323967 0.752875 0.225500
0.380140 0.752875 0.225500
0.435493 0.752875 0.225500
0.490149 0.752875 0.225500
0.544200 0.752875 0.225500
0.597719 0.752875 0.225500
0.650763 0.752875 0.225500
0.703376 0.752875 0.225500
0.755599 0.752875 0.225500
0.807463 0.752875 0.225500
0.858996 0.752875 0.225500
0.000000 0.812250 0.225500
0.016756 0.812250 0.225500
0.085422 0.812250 0.225500
0.148211 0.812250 0.225500
0.208360 0.812250 0.225500
0.266795 0.812250 0.225500
0.323967 0.812250 0.225500
0.380140 0.812250 0.225500
0.435493 0.812250 0.225500
0.490149 0.812250 0.225500
0.544200 0.812250 0.225500
0.597719 0.812250 0.225500
0.650763 0.812250 0.225500
0.703376 0.812250 0.225500
0.755599 0.812250 0.225500
0.807463 0.812250 0.225500
0.858996 0.812250 0.225500
0.000000 0.871625 0.225500
0.016756 0.871625 0.225500
0.085422 0.871625 0.225500
0.148211 0.871625 0.225500
0.208360 0.871625 0.225500
0.266795 0.871625 0.225500
0.323967 0.871625 0.225500
0.380140 0.871625 0.225500
0.435493 0.871625 0.225500
0.490149 0.871625 0.225500
0.544200 0.871625 0.225500
0.597719 0.871625 0.225500
0.650763 0.871625 0.225500
0.703376 0.871625 0.225500
0.755599 0.871625 0.225500
0.807463 0.871625 0.225500
0.858996 0.871625 0.225500
0.000000 0.931000 0.225500
0.016756 0.931000 0.225500
0.085422 0.931000 0.225500
0.148211 0.931000 0.225500
0.208360 0.931000 0.225500
0.266795 0.931000 0.225500
0.323967 0.931000 0.225500
0.380140 0.931000 0.225500
0.435493 0.931000 0.225500
0.490149 0.931000 0.225500
0.544200 0.931000 0.225500
0.597719 0.931000 0.225500
0.650763 0.931000 0.225500
0.703376 0.931000 0.225500
0.755599 0.931000 0.225500
0.807463 0.931000 0.225500
0.858996 0.931000 0.225500
0.000000 0.000000 0.294250
0.016756 0.000000 0.294250
0.085422 0.000000 0.294250
0.148211 0.000000 0.294250
0.208360 0.000000 0.294250
0.266795 0.000000 0.294250
0.323967 0.000000 0.294250
0.380140 0.000000 0.294250
0.435493 0.000000 0.294250
0.490149 0.000000 0.294250
0.544200 0.000000 0.294250
0.597719 0.000000 0.294250
0.650763 0.000000 0.294250
0.703376 0.000000 0.294250
0.755599 0.000000 0.294250
0.807463 0.000000 0.294250
0.858996 0.000000 0.294250
0.000000 0.040375 0.294250
