app/src/main/assets/luts/night_street.cube
# ApexStudio filter: night_street
LUT_3D_SIZE 9
DOMAIN_MIN 0.0 0.0 0.0
DOMAIN_MAX 1.0 1.0 1.0
0.000000 0.000000 0.088000
0.085422 0.000000 0.088000
0.208360 0.000000 0.088000
0.323967 0.000000 0.088000
0.435493 0.000000 0.088000
0.544200 0.000000 0.088000
0.650763 0.000000 0.088000
0.755599 0.000000 0.088000
0.858996 0.000000 0.088000
0.000000 0.099750 0.088000
0.085422 0.099750 0.088000
0.208360 0.099750 0.088000
0.323967 0.099750 0.088000
0.435493 0.099750 0.088000
0.544200 0.099750 0.088000
0.650763 0.099750 0.088000
0.755599 0.099750 0.088000
0.858996 0.099750 0.088000
0.000000 0.218500 0.088000
0.085422 0.218500 0.088000
0.208360 0.218500 0.088000
0.323967 0.218500 0.088000
0.435493 0.218500 0.088000
0.544200 0.218500 0.088000
0.650763 0.218500 0.088000
0.755599 0.218500 0.088000
0.858996 0.218500 0.088000
0.000000 0.337250 0.088000
0.085422 0.337250 0.088000
0.208360 0.337250 0.088000
0.323967 0.337250 0.088000
0.435493 0.337250 0.088000
0.544200 0.337250 0.088000
0.650763 0.337250 0.088000
0.755599 0.337250 0.088000
0.858996 0.337250 0.088000
0.000000 0.456000 0.088000
0.085422 0.456000 0.088000
0.208360 0.456000 0.088000
0.323967 0.456000 0.088000
0.435493 0.456000 0.088000
0.544200 0.456000 0.088000
0.650763 0.456000 0.088000
0.755599 0.456000 0.088000
0.858996 0.456000 0.088000
0.000000 0.574750 0.088000
0.085422 0.574750 0.088000
0.208360 0.574750 0.088000
0.323967 0.574750 0.088000
0.435493 0.574750 0.088000
0.544200 0.574750 0.088000
0.650763 0.574750 0.088000
0.755599 0.574750 0.088000
0.858996 0.574750 0.088000
0.000000 0.693500 0.088000
0.085422 0.693500 0.088000
0.208360 0.693500 0.088000
0.323967 0.693500 0.088000
0.435493 0.693500 0.088000
0.544200 0.693500 0.088000
0.650763 0.693500 0.088000
0.755599 0.693500 0.088000
0.858996 0.693500 0.088000
0.000000 0.812250 0.088000
0.085422 0.812250 0.088000
0.208360 0.812250 0.088000
0.323967 0.812250 0.088000
0.435493 0.812250 0.088000
0.544200 0.812250 0.088000
0.650763 0.812250 0.088000
0.755599 0.812250 0.088000
0.858996 0.812250 0.088000
0.000000 0.931000 0.088000
0.085422 0.931000 0.088000
0.208360 0.931000 0.088000
0.323967 0.931000 0.088000
0.435493 0.931000 0.088000
0.544200 0.931000 0.088000
0.650763 0.931000 0.088000
0.755599 0.931000 0.088000
0.858996 0.931000 0.088000
0.000000 0.000000 0.225500
0.085422 0.000000 0.225500
0.208360 0.000000 0.225500
0.323967 0.000000 0.225500
0.435493 0.000000 0.225500
0.544200 0.000000 0.225500
0.650763 0.000000 0.225500
0.755599 0.000000 0.225500
0.858996 0.000000 0.225500
0.000000 0.099750 0.225500
0.085422 0.099750 0.225500
0.208360 0.099750 0.225500
0.323967 0.099750 0.225500
0.435493 0.099750 0.225500
0.544200 0.099750 0.225500
0.650763 0.099750 0.225500
0.755599 0.099750 0.225500
0.858996 0.099750 0.225500
0.000000 0.218500 0.225500
0.085422 0.218500 0.225500
0.208360 0.218500 0.225500
0.323967 0.218500 0.225500
0.435493 0.218500 0.225500
0.544200 0.218500 0.225500
0.650763 0.218500 0.225500
0.755599 0.218500 0.225500
0.858996 0.218500 0.225500
0.000000 0.337250 0.225500
0.085422 0.337250 0.225500
0.208360 0.337250 0.225500
0.323967 0.337250 0.225500
0.435493 0.337250 0.225500
0.544200 0.337250 0.225500
0.650763 0.337250 0.225500
0.755599 0.337250 0.225500
0.858996 0.337250 0.225500
0.000000 0.456000 0.225500
0.085422 0.456000 0.225500
0.208360 0.456000 0.225500
0.323967 0.456000 0.225500
0.435493 0.456000 0.225500
0.544200 0.456000 0.225500
0.650763 0.456000 0.225500
0.755599 0.456000 0.225500
0.858996 0.456000 0.225500
0.000000 0.574750 0.225500
0.085422 0.574750 0.225500
0.208360 0.574750 0.225500
0.323967 0.574750 0.225500
0.435493 0.574750 0.225500
0.544200 0.574750 0.225500
0.650763 0.574750 0.225500
0.755599 0.574750 0.225500
0.858996 0.574750 0.225500
0.000000 0.693500 0.225500
0.085422 0.693500 0.225500
0.208360 0.693500 0.225500
0.323967 0.693500 0.225500
0.435493 0.693500 0.225500
0.544200 0.693500 0.225500
0.650763 0.693500 0.225500
0.755599 0.693500 0.225500
0.858996 0.693500 0.225500
0.000000 0.812250 0.225500
0.085422 0.812250 0.225500
0.208360 0.812250 0.225500
0.323967 0.812250 0.225500
0.435493 0.812250 0.225500
0.544200 0.812250 0.225500
0.650763 0.812250 0.225500
0.755599 0.812250 0.225500
0.858996 0.812250 0.225500
0.000000 0.931000 0.225500
0.085422 0.931000 0.225500
0.208360 0.931000 0.225500
0.323967 0.931000 0.225500
0.435493 0.931000 0.225500
0.544200 0.931000 0.225500
0.650763 0.931000 0.225500
0.755599 0.931000 0.225500
0.858996 0.931000 0.225500
0.000000 0.000000 0.363000
0.085422 0.000000 0.363000
0.208360 0.000000 0.363000
0.323967 0.000000 0.363000
0.435493 0.000000 0.363000
0.544200 0.000000 0.363000
0.650763 0.000000 0.363000
0.755599 0.000000 0.363000
0.858996 0.000000 0.363000
0.000000 0.099750 0.363000
0.085422 0.099750 0.363000
0.208360 0.099750 0.363000
0.323967 0.099750 0.363000
0.435493 0.099750 0.363000
0.544200 0.099750 0.363000
0.650763 0.099750 0.363000
0.755599 0.099750 0.363000
0.858996 0.099750 0.363000
0.000000 0.218500 0.363000
0.085422 0.218500 0.363000
0.208360 0.218500 0.363000
0.323967 0.218500 0.363000
0.435493 0.218500 0.363000
0.544200 0.218500 0.363000
0.650763 0.218500 0.363000
0.755599 0.218500 0.363000
0.858996 0.218500 0.363000
0.000000 0.337250 0.363000
0.085422 0.337250 0.363000
0.208360 0.337250 0.363000
0.323967 0.337250 0.363000
0.435493 0.337250 0.363000
0.544200 0.337250 0.363000
0.650763 0.337250 0.363000
0.755599 0.337250 0.363000
0.858996 0.337250 0.363000
0.000000 0.456000 0.363000
0.085422 0.456000 0.363000
0.208360 0.456000 0.363000
0.323967 0.456000 0.363000
0.435493 0.456000 0.363000
0.544200 0.456000 0.363000
0.650763 0.456000 0.363000
0.755599 0.456000 0.363000
0.858996 0.456000 0.363000
0.000000 0.574750 0.363000
0.085422 0.574750 0.363000
0.208360 0.574750 0.363000
0.323967 0.574750 0.363000
0.435493 0.574750 0.363000
0.544200 0.574750 0.363000
0.650763 0.574750 0.363000
0.755599 0.574750 0.363000
0.858996 0.574750 0.363000
0.000000 0.693500 0.363000
0.085422 0.693500 0.363000
0.208360 0.693500 0.363000
0.323967 0.693500 0.363000
0.435493 0.693500 0.363000
0.544200 0.693500 0.363000
0.650763 0.693500 0.363000
0.755599 0.693500 0.363000
0.858996 0.693500 0.363000
0.000000 0.812250 0.363000
0.085422 0.812250 0.363000
0.208360 0.812250 0.363000
0.323967 0.812250 0.363000
0.435493 0.812250 0.363000
0.544200 0.812250 0.363000
0.650763 0.812250 0.363000
0.755599 0.812250 0.363000
0.858996 0.812250 0.363000
0.000000 0.931000 0.363000
0.085422 0.931000 0.363000
0.208360 0.931000 0.363000
0.323967 0.931000 0.363000
0.435493 0.931000 0.363000
0.544200 0.931000 0.363000
0.650763 0.931000 0.363000
0.755599 0.931000 0.363000
0.858996 0.931000 0.363000
0.000000 0.000000 0.500500
0.085422 0.000000 0.500500
0.208360 0.000000 0.500500
0.323967 0.000000 0.500500
0.435493 0.000000 0.500500
0.544200 0.000000 0.500500
0.650763 0.000000 0.500500
0.755599 0.000000 0.500500
0.858996 0.000000 0.500500
0.000000 0.099750 0.500500
0.085422 0.099750 0.500500
0.208360 0.099750 0.500500
0.323967 0.099750 0.500500
0.435493 0.099750 0.500500
0.544200 0.099750 0.500500
0.650763 0.099750 0.500500
0.755599 0.099750 0.500500
0.858996 0.099750 0.500500
0.000000 0.218500 0.500500
0.085422 0.218500 0.500500
0.208360 0.218500 0.500500
0.323967 0.218500 0.500500
0.435493 0.218500 0.500500
0.544200 0.218500 0.500500
0.650763 0.218500 0.500500
0.755599 0.218500 0.500500
0.858996 0.218500 0.500500
0.000000 0.337250 0.500500
0.085422 0.337250 0.500500
0.208360 0.337250 0.500500
0.323967 0.337250 0.500500
0.435493 0.337250 0.500500
0.544200 0.337250 0.500500
0.650763 0.337250 0.500500
0.755599 0.337250 0.500500
0.858996 0.337250 0.500500
0.000000 0.456000 0.500500
0.085422 0.456000 0.500500
0.208360 0.456000 0.500500
0.323967 0.456000 0.500500
0.435493 0.456000 0.500500
0.544200 0.456000 0.500500
0.650763 0.456000 0.500500
0.755599 0.456000 0.500500
0.858996 0.456000 0.500500
0.000000 0.574750 0.500500
0.085422 0.574750 0.500500
0.208360 0.574750 0.500500
0.323967 0.574750 0.500500
0.435493 0.574750 0.500500
0.544200 0.574750 0.500500
0.650763 0.574750 0.500500
0.755599 0.574750 0.500500
0.858996 0.574750 0.500500
0.000000 0.693500 0.500500
0.085422 0.693500 0.500500
0.208360 0.693500 0.500500
0.323967 0.693500 0.500500
0.435493 0.693500 0.500500
0.544200 0.693500 0.500500
0.650763 0.693500 0.500500
0.755599 0.693500 0.500500
0.858996 0.693500 0.500500
0.000000 0.812250 0.500500
0.085422 0.812250 0.500500
0.208360 0.812250 0.500500
0.323967 0.812250 0.500500
0.435493 0.812250 0.500500
0.544200 0.812250 0.500500
0.650763 0.812250 0.500500
0.755599 0.812250 0.500500
0.858996 0.812250 0.500500
0.000000 0.931000 0.500500
0.085422 0.931000 0.500500
0.208360 0.931000 0.500500
0.323967 0.931000 0.500500
0.435493 0.931000 0.500500
0.544200 0.931000 0.500500
0.650763 0.931000 0.500500
0.755599 0.931000 0.500500
0.858996 0.931000 0.500500
0.000000 0.000000 0.638000
0.085422 0.000000 0.638000
0.208360 0.000000 0.638000
0.323967 0.000000 0.638000
0.435493 0.000000 0.638000
0.544200 0.000000 0.638000
0.650763 0.000000 0.638000
0.755599 0.000000 0.638000
0.858996 0.000000 0.638000
0.000000 0.099750 0.638000
0.085422 0.099750 0.638000
0.208360 0.099750 0.638000
0.323967 0.099750 0.638000
0.435493 0.099750 0.638000
0.544200 0.099750 0.638000
0.650763 0.099750 0.638000
0.755599 0.099750 0.638000
0.858996 0.099750 0.638000
0.000000 0.218500 0.638000
0.085422 0.218500 0.638000
0.208360 0.218500 0.638000
0.323967 0.218500 0.638000
0.435493 0.218500 0.638000
0.544200 0.218500 0.638000
0.650763 0.218500 0.638000
0.755599 0.218500 0.638000
0.858996 0.218500 0.638000
0.000000 0.337250 0.638000
0.085422 0.337250 0.638000
0.208360 0.337250 0.638000
0.323967 0.337250 0.638000
0.435493 0.337250 0.638000
0.544200 0.337250 0.638000
0.650763 0.337250 0.638000
0.755599 0.337250 0.638000
0.858996 0.337250 0.638000
0.000000 0.456000 0.638000
0.085422 0.456000 0.638000
0.208360 0.456000 0.638000
0.323967 0.456000 0.638000
0.435493 0.456000 0.638000
0.544200 0.456000 0.638000
0.650763 0.456000 0.638000
0.755599 0.456000 0.638000
0.858996 0.456000 0.638000
0.000000 0.574750 0.638000
0.085422 0.574750 0.638000
0.208360 0.574750 0.638000
0.323967 0.574750 0.638000
0.435493 0.574750 0.638000
0.544200 0.574750 0.638000
0.650763 0.574750 0.638000
0.755599 0.574750 0.638000
0.858996 0.574750 0.638000
0.000000 0.693500 0.638000
0.085422 0.693500 0.638000
0.208360 0.693500 0.638000
0.323967 0.693500 0.638000
0.435493 0.693500 0.638000
0.544200 0.693500 0.638000
0.650763 0.693500 0.638000
0.755599 0.693500 0.638000
0.858996 0.693500 0.638000
0.000000 0.812250 0.638000
0.085422 0.812250 0.638000
0.208360 0.812250 0.638000
0.323967 0.812250 0.638000
0.435493 0.812250 0.638000
0.544200 0.812250 0.638000
0.650763 0.812250 0.638000
0.755599 0.812250 0.638000
0.858996 0.812250 0.638000
0.000000 0.931000 0.638000
0.085422 0.931000 0.638000
0.208360 0.931000 0.638000
0.323967 0.931000 0.638000
0.435493 0.931000 0.638000
0.544200 0.931000 0.638000
0.650763 0.931000 0.638000
0.755599 0.931000 0.638000
0.858996 0.931000 0.638000
0.000000 0.000000 0.775500
0.085422 0.000000 0.775500
0.208360 0.000000 0.775500
0.323967 0.000000 0.775500
0.435493 0.000000 0.775500
0.544200 0.000000 0.775500
0.650763 0.000000 0.775500
0.755599 0.000000 0.775500
0.858996 0.000000 0.775500
0.000000 0.099750 0.775500
0.085422 0.099750 0.775500
0.208360 0.099750 0.775500
0.323967 0.099750 0.775500
0.435493 0.099750 0.775500
0.544200 0.099750 0.775500
0.650763 0.099750 0.775500
0.755599 0.099750 0.775500
0.858996 0.099750 0.775500
0.000000 0.218500 0.775500
0.085422 0.218500 0.775500
0.208360 0.218500 0.775500
0.323967 0.218500 0.775500
0.435493 0.218500 0.775500
0.544200 0.218500 0.775500
0.650763 0.218500 0.775500
0.755599 0.218500 0.775500
0.858996 0.218500 0.775500
0.000000 0.337250 0.775500
0.085422 0.337250 0.775500
0.208360 0.337250 0.775500
0.323967 0.337250 0.775500
0.435493 0.337250 0.775500
0.544200 0.337250 0.775500
0.650763 0.337250 0.775500
0.755599 0.337250 0.775500
0.858996 0.337250 0.775500
0.000000 0.456000 0.775500
0.085422 0.456000 0.775500
0.208360 0.456000 0.775500
0.323967 0.456000 0.775500
0.435493 0.456000 0.775500
0.544200 0.456000 0.775500
0.650763 0.456000 0.775500
0.755599 0.456000 0.775500
0.858996 0.456000 0.775500
0.000000 0.574750 0.775500
0.085422 0.574750 0.775500
0.208360 0.574750 0.775500
0.323967 0.574750 0.775500
0.435493 0.574750 0.775500
0.544200 0.574750 0.775500
0.650763 0.574750 0.775500
0.755599 0.574750 0.775500
0.858996 0.574750 0.775500
0.000000 0.693500 0.775500
0.085422 0.693500 0.775500
0.208360 0.693500 0.775500
0.323967 0.693500 0.775500
0.435493 0.693500 0.775500
0.544200 0.693500 0.775500
0.650763 0.693500 0.775500
0.755599 0.693500 0.775500
0.858996 0.693500 0.775500
0.000000 0.812250 0.775500
0.085422 0.812250 0.775500
0.208360 0.812250 0.775500
0.323967 0.812250 0.775500
0.435493 0.812250 0.775500
0.544200 0.812250 0.775500
0.650763 0.812250 0.775500
0.755599 0.812250 0.775500
0.858996 0.812250 0.775500
0.000000 0.931000 0.775500
0.085422 0.931000 0.775500
0.208360 0.931000 0.775500
0.323967 0.931000 0.775500
0.435493 0.931000 0.775500
0.544200 0.931000 0.775500
0.650763 0.931000 0.775500
0.755599 0.931000 0.775500
0.858996 0.931000 0.775500
0.000000 0.000000 0.913000
0.085422 0.000000 0.913000
0.208360 0.000000 0.913000
0.323967 0.000000 0.913000
0.435493 0.000000 0.913000
0.544200 0.000000 0.913000
0.650763 0.000000 0.913000
0.755599 0.000000 0.913000
0.858996 0.000000 0.913000
0.000000 0.099750 0.913000
0.085422 0.099750 0.913000
0.208360 0.099750 0.913000
0.323967 0.099750 0.913000
0.435493 0.099750 0.913000
0.544200 0.099750 0.913000
0.650763 0.099750 0.913000
0.755599 0.099750 0.913000
0.858996 0.099750 0.913000
0.000000 0.218500 0.913000
0.085422 0.218500 0.913000
0.208360 0.218500 0.913000
0.323967 0.218500 0.913000
0.435493 0.218500 0.913000
0.544200 0.218500 0.913000
0.650763 0.218500 0.913000
0.755599 0.218500 0.913000
0.858996 0.218500 0.913000
0.000000 0.337250 0.913000
0.085422 0.337250 0.913000
0.208360 0.337250 0.913000
0.323967 0.337250 0.913000
0.435493 0.337250 0.913000
0.544200 0.337250 0.913000
0.650763 0.337250 0.913000
0.755599 0.337250 0.913000
0.858996 0.337250 0.913000
0.000000 0.456000 0.913000
0.085422 0.456000 0.913000
0.208360 0.456000 0.913000
0.323967 0.456000 0.913000
0.435493 0.456000 0.913000
0.544200 0.456000 0.913000
0.650763 0.456000 0.913000
0.755599 0.456000 0.913000
0.858996 0.456000 0.913000
0.000000 0.574750 0.913000
0.085422 0.574750 0.913000
0.208360 0.574750 0.913000
0.323967 0.574750 0.913000
0.435493 0.574750 0.913000
0.544200 0.574750 0.913000
0.650763 0.574750 0.913000
0.755599 0.574750 0.913000
0.858996 0.574750 0.913000
0.000000 0.693500 0.913000
0.085422 0.693500 0.913000
0.208360 0.693500 0.913000
0.323967 0.693500 0.913000
0.435493 0.693500 0.913000
0.544200 0.693500 0.913000
0.650763 0.693500 0.913000
0.755599 0.693500 0.913000
0.858996 0.693500 0.913000
0.000000 0.812250 0.913000
0.085422 0.812250 0.913000
0.208360 0.812250 0.913000
0.323967 0.812250 0.913000
0.435493 0.812250 0.913000
0.544200 0.812250 0.913000
0.650763 0.812250 0.913000
0.755599 0.812250 0.913000
0.858996 0.812250 0.913000
0.000000 0.931000 0.913000
0.085422 0.931000 0.913000
0.208360 0.931000 0.913000
0.323967 0.931000 0.913000
0.435493 0.931000 0.913000
0.544200 0.931000 0.913000
0.650763 0.931000 0.913000
0.755599 0.931000 0.913000
0.858996 0.931000 0.913000
0.000000 0.000000 1.000000
0.085422 0.000000 1.000000
0.208360 0.000000 1.000000
0.323967 0.000000 1.000000
0.435493 0.000000 1.000000
0.544200 0.000000 1.000000
0.650763 0.000000 1.000000
0.755599 0.000000 1.000000
0.858996 0.000000 1.000000
0.000000 0.099750 1.000000
0.085422 0.099750 1.000000
0.208360 0.099750 1.000000
0.323967 0.099750 1.000000
0.435493 0.099750 1.000000
0.544200 0.099750 1.000000
0.650763 0.099750 1.000000
0.755599 0.099750 1.000000
0.858996 0.099750 1.000000
0.000000 0.218500 1.000000
0.085422 0.218500 1.000000
0.208360 0.218500 1.000000
0.323967 0.218500 1.000000
0.435493 0.218500 1.000000
0.544200 0.218500 1.000000
0.650763 0.218500 1.000000
0.755599 0.218500 1.000000
0.858996 0.218500 1.000000
0.000000 0.337250 1.000000
0.085422 0.337250 1.000000
0.208360 0.337250 1.000000
0.323967 0.337250 1.000000
0.435493 0.337250 1.000000
0.544200 0.337250 1.000000
0.650763 0.337250 1.000000
0.755599 0.337250 1.000000
0.858996 0.337250 1.000000
0.000000 0.456000 1.000000
0.085422 0.456000 1.000000
0.208360 0.456000 1.000000
0.323967 0.456000 1.000000
0.435493 0.456000 1.000000
0.544200 0.456000 1.000000
0.650763 0.456000 1.000000
0.755599 0.456000 1.000000
0.858996 0.456000 1.000000
0.000000 0.574750 1.000000
0.085422 0.574750 1.000000
0.208360 0.574750 1.000000
0.323967 0.574750 1.000000
0.435493 0.574750 1.000000
0.544200 0.574750 1.000000
0.650763 0.574750 1.000000
0.755599 0.574750 1.000000
0.858996 0.574750 1.000000
0.000000 0.693500 1.000000
0.085422 0.693500 1.000000
0.208360 0.693500 1.000000
0.323967 0.693500 1.000000
0.435493 0.693500 1.000000
0.544200 0.693500 1.000000
0.650763 0.693500 1.000000
0.755599 0.693500 1.000000
0.858996 0.693500 1.000000
0.000000 0.812250 1.000000
0.085422 0.812250 1.000000
0.208360 0.812250 1.000000
0.323967 0.812250 1.000000
0.435493 0.812250 1.000000
0.544200 0.812250 1.000000
0.650763 0.812250 1.000000
0.755599 0.812250 1.000000
0.858996 0.812250 1.000000
0.000000 0.931000 1.000000
0.085422 0.931000 1.000000
0.208360 0.931000 1.000000
0.323967 0.931000 1.000000
0.435493 0.931000 1.000000
0.544200 0.931000 1.000000
0.650763 0.931000 1.000000
0.755599 0.931000 1.000000
0.858996 0.931000 1.000000
0.000000 0.000000 1.000000
0.085422 0.000000 1.000000
0.208360 0.000000 1.000000
0.323967 0.000000 1.000000
0.435493 0.000000 1.000000
0.544200 0.000000 1.000000
0.650763 0.000000 1.000000
0.755599 0.000000 1.000000
0.858996 0.000000 1.000000
0.000000 0.099750 1.000000
0.085422 0.099750 1.000000
0.208360 0.099750 1.000000
0.323967 0.099750 1.000000
0.435493 0.099750 1.000000
0.544200 0.099750 1.000000
0.650763 0.099750 1.000000
0.755599 0.099750 1.000000
0.858996 0.099750 1.000000
0.000000 0.218500 1.000000
0.085422 0.218500 1.000000
0.208360 0.218500 1.000000
0.323967 0.218500 1.000000
0.435493 0.218500 1.000000
0.544200 0.218500 1.000000
0.650763 0.218500 1.000000
0.755599 0.218500 1.000000
0.858996 0.218500 1.000000
0.000000 0.337250 1.000000
0.085422 0.337250 1.000000
0.208360 0.337250 1.000000
0.323967 0.337250 1.000000
0.435493 0.337250 1.000000
0.544200 0.337250 1.000000
0.650763 0.337250 1.000000
0.755599 0.337250 1.000000
0.858996 0.337250 1.000000
0.000000 0.456000 1.000000
0.085422 0.456000 1.000000
0.208360 0.456000 1.000000
0.323967 0.456000 1.000000
0.435493 0.456000 1.000000
0.544200 0.456000 1.000000
0.650763 0.456000 1.000000
0.755599 0.456000 1.000000
0.858996 0.456000 1.000000
0.000000 0.574750 1.000000
0.085422 0.574750 1.000000
0.208360 0.574750 1.000000
0.323967 0.574750 1.000000
0.435493 0.574750 1.000000
0.544200 0.574750 1.000000
0.650763 0.574750 1.000000
0.755599 0.574750 1.000000
0.858996 0.574750 1.000000
0.000000 0.693500 1.000000
0.085422 0.693500 1.000000
0.208360 0.693500 1.000000
0.323967 0.693500 1.000000
0.435493 0.693500 1.000000
0.544200 0.693500 1.000000
0.650763 0.693500 1.000000
0.755599 0.693500 1.000000
0.858996 0.693500 1.000000
0.000000 0.812250 1.000000
0.085422 0.812250 1.000000
0.208360 0.812250 1.000000
0.323967 0.812250 1.000000
0.435493 0.812250 1.000000
0.544200 0.812250 1.000000
0.650763 0.812250 1.000000
0.755599 0.812250 1.000000
0.858996 0.812250 1.000000
0.000000 0.931000 1.000000
0.085422 0.931000 1.000000
0.208360 0.931000 1.000000
0.323967 0.931000 1.000000
0.435493 0.931000 1.000000
0.544200 0.931000 1.000000
0.650763 0.931000 1.000000
0.755599 0.931000 1.000000
0.858996 0.931000 1.000000
