app/src/main/assets/luts/noir_classic.cube
# ApexStudio filter: noir_classic
LUT_3D_SIZE 9
DOMAIN_MIN 0.0 0.0 0.0
DOMAIN_MAX 1.0 1.0 1.0
0.000000 0.000000 0.000000
0.000000 0.000000 0.000000
0.000000 0.000000 0.000000
0.000000 0.000000 0.000000
0.009300 0.009300 0.009300
0.061625 0.061625 0.061625
0.113950 0.113950 0.113950
0.166275 0.166275 0.166275
0.218600 0.218600 0.218600
0.000000 0.000000 0.000000
0.000000 0.000000 0.000000
0.007375 0.007375 0.007375
0.059700 0.059700 0.059700
0.112025 0.112025 0.112025
0.164350 0.164350 0.164350
0.216675 0.216675 0.216675
0.269000 0.269000 0.269000
0.321325 0.321325 0.321325
0.005450 0.005450 0.005450
0.057775 0.057775 0.057775
0.110100 0.110100 0.110100
0.162425 0.162425 0.162425
0.214750 0.214750 0.214750
0.267075 0.267075 0.267075
0.319400 0.319400 0.319400
0.371725 0.371725 0.371725
0.424050 0.424050 0.424050
0.108175 0.108175 0.108175
0.160500 0.160500 0.160500
0.212825 0.212825 0.212825
0.265150 0.265150 0.265150
0.317475 0.317475 0.317475
0.369800 0.369800 0.369800
0.422125 0.422125 0.422125
0.474450 0.474450 0.474450
0.526775 0.526775 0.526775
0.210900 0.210900 0.210900
0.263225 0.263225 0.263225
0.315550 0.315550 0.315550
0.367875 0.367875 0.367875
0.420200 0.420200 0.420200
0.472525 0.472525 0.472525
0.524850 0.524850 0.524850
0.577175 0.577175 0.577175
0.629500 0.629500 0.629500
0.313625 0.313625 0.313625
0.365950 0.365950 0.365950
0.418275 0.418275 0.418275
0.470600 0.470600 0.470600
0.522925 0.522925 0.522925
0.575250 0.575250 0.575250
0.627575 0.627575 0.627575
0.679900 0.679900 0.679900
0.732225 0.732225 0.732225
0.416350 0.416350 0.416350
0.468675 0.468675 0.468675
0.521000 0.521000 0.521000
0.573325 0.573325 0.573325
0.625650 0.625650 0.625650
0.677975 0.677975 0.677975
0.730300 0.730300 0.730300
0.782625 0.782625 0.782625
0.834950 0.834950 0.834950
0.519075 0.519075 0.519075
0.571400 0.571400 0.571400
0.623725 0.623725 0.623725
0.676050 0.676050 0.676050
0.728375 0.728375 0.728375
0.780700 0.780700 0.780700
0.833025 0.833025 0.833025
0.885350 0.885350 0.885350
0.937675 0.937675 0.937675
0.621800 0.621800 0.621800
0.674125 0.674125 0.674125
0.726450 0.726450 0.726450
0.778775 0.778775 0.778775
0.831100 0.831100 0.831100
0.883425 0.883425 0.883425
0.935750 0.935750 0.935750
0.988075 0.988075 0.988075
1.000000 1.000000 1.000000
0.000000 0.000000 0.000000
0.000000 0.000000 0.000000
0.000000 0.000000 0.000000
0.000000 0.000000 0.000000
0.029250 0.029250 0.029250
0.081575 0.081575 0.081575
0.133900 0.133900 0.133900
0.186225 0.186225 0.186225
0.238550 0.238550 0.238550
0.000000 0.000000 0.000000
0.000000 0.000000 0.000000
0.027325 0.027325 0.027325
0.079650 0.079650 0.079650
0.131975 0.131975 0.131975
0.184300 0.184300 0.184300
0.236625 0.236625 0.236625
0.288950 0.288950 0.288950
0.341275 0.341275 0.341275
0.025400 0.025400 0.025400
0.077725 0.077725 0.077725
0.130050 0.130050 0.130050
0.182375 0.182375 0.182375
0.234700 0.234700 0.234700
0.287025 0.287025 0.287025
0.339350 0.339350 0.339350
0.391675 0.391675 0.391675
0.444000 0.444000 0.444000
0.128125 0.128125 0.128125
0.180450 0.180450 0.180450
0.232775 0.232775 0.232775
0.285100 0.285100 0.285100
0.337425 0.337425 0.337425
0.389750 0.389750 0.389750
0.442075 0.442075 0.442075
0.494400 0.494400 0.494400
0.546725 0.546725 0.546725
0.230850 0.230850 0.230850
0.283175 0.283175 0.283175
0.335500 0.335500 0.335500
0.387825 0.387825 0.387825
0.440150 0.440150 0.440150
0.492475 0.492475 0.492475
0.544800 0.544800 0.544800
0.597125 0.597125 0.597125
0.649450 0.649450 0.649450
0.333575 0.333575 0.333575
0.385900 0.385900 0.385900
0.438225 0.438225 0.438225
0.490550 0.490550 0.490550
0.542875 0.542875 0.542875
0.595200 0.595200 0.595200
0.647525 0.647525 0.647525
0.699850 0.699850 0.699850
0.752175 0.752175 0.752175
0.436300 0.436300 0.436300
0.488625 0.488625 0.488625
0.540950 0.540950 0.540950
0.593275 0.593275 0.593275
0.645600 0.645600 0.645600
0.697925 0.697925 0.697925
0.750250 0.750250 0.750250
0.802575 0.802575 0.802575
0.854900 0.854900 0.854900
0.539025 0.539025 0.539025
0.591350 0.591350 0.591350
0.643675 0.643675 0.643675
0.696000 0.696000 0.696000
0.748325 0.748325 0.748325
0.800650 0.800650 0.800650
0.852975 0.852975 0.852975
0.905300 0.905300 0.905300
0.957625 0.957625 0.957625
0.641750 0.641750 0.641750
0.694075 0.694075 0.694075
0.746400 0.746400 0.746400
0.798725 0.798725 0.798725
0.851050 0.851050 0.851050
0.903375 0.903375 0.903375
0.955700 0.955700 0.955700
1.000000 1.000000 1.000000
1.000000 1.000000 1.000000
0.000000 0.000000 0.000000
0.000000 0.000000 0.000000
0.000000 0.000000 0.000000
0.000000 0.000000 0.000000
0.049200 0.049200 0.049200
0.101525 0.101525 0.101525
0.153850 0.153850 0.153850
0.206175 0.206175 0.206175
0.258500 0.258500 0.258500
0.000000 0.000000 0.000000
0.000000 0.000000 0.000000
0.047275 0.047275 0.047275
0.099600 0.099600 0.099600
0.151925 0.151925 0.151925
0.204250 0.204250 0.204250
0.256575 0.256575 0.256575
0.308900 0.308900 0.308900
0.361225 0.361225 0.361225
0.045350 0.045350 0.045350
0.097675 0.097675 0.097675
0.150000 0.150000 0.150000
0.202325 0.202325 0.202325
0.254650 0.254650 0.254650
0.306975 0.306975 0.306975
0.359300 0.359300 0.359300
0.411625 0.411625 0.411625
0.463950 0.463950 0.463950
0.148075 0.148075 0.148075
0.200400 0.200400 0.200400
0.252725 0.252725 0.252725
0.305050 0.305050 0.305050
0.357375 0.357375 0.357375
0.409700 0.409700 0.409700
0.462025 0.462025 0.462025
0.514350 0.514350 0.514350
0.566675 0.566675 0.566675
0.250800 0.250800 0.250800
0.303125 0.303125 0.303125
0.355450 0.355450 0.355450
0.407775 0.407775 0.407775
0.460100 0.460100 0.460100
0.512425 0.512425 0.512425
0.564750 0.564750 0.564750
0.617075 0.617075 0.617075
0.669400 0.669400 0.669400
0.353525 0.353525 0.353525
0.405850 0.405850 0.405850
0.458175 0.458175 0.458175
0.510500 0.510500 0.510500
0.562825 0.562825 0.562825
0.615150 0.615150 0.615150
0.667475 0.667475 0.667475
0.719800 0.719800 0.719800
0.772125 0.772125 0.772125
0.456250 0.456250 0.456250
0.508575 0.508575 0.508575
0.560900 0.560900 0.560900
0.613225 0.613225 0.613225
0.665550 0.665550 0.665550
0.717875 0.717875 0.717875
0.770200 0.770200 0.770200
0.822525 0.822525 0.822525
0.874850 0.874850 0.874850
0.558975 0.558975 0.558975
0.611300 0.611300 0.611300
0.663625 0.663625 0.663625
0.715950 0.715950 0.715950
0.768275 0.768275 0.768275
0.820600 0.820600 0.820600
0.872925 0.872925 0.872925
0.925250 0.925250 0.925250
0.977575 0.977575 0.977575
0.661700 0.661700 0.661700
0.714025 0.714025 0.714025
0.766350 0.766350 0.766350
0.818675 0.818675 0.818675
0.871000 0.871000 0.871000
0.923325 0.923325 0.923325
0.975650 0.975650 0.975650
1.000000 1.000000 1.000000
1.000000 1.000000 1.000000
0.000000 0.000000 0.000000
0.000000 0.000000 0.000000
0.000000 0.000000 0.000000
0.016825 0.016825 0.016825
0.069150 0.069150 0.069150
0.121475 0.121475 0.121475
0.173800 0.173800 0.173800
0.226125 0.226125 0.226125
0.278450 0.278450 0.278450
0.000000 0.000000 0.000000
0.014900 0.014900 0.014900
0.067225 0.067225 0.067225
0.119550 0.119550 0.119550
0.171875 0.171875 0.171875
0.224200 0.224200 0.224200
0.276525 0.276525 0.276525
0.328850 0.328850 0.328850
0.381175 0.381175 0.381175
0.065300 0.065300 0.065300
0.117625 0.117625 0.117625
0.169950 0.169950 0.169950
0.222275 0.222275 0.222275
0.274600 0.274600 0.274600
0.326925 0.326925 0.326925
0.379250 0.379250 0.379250
0.431575 0.431575 0.431575
0.483900 0.483900 0.483900
0.168025 0.168025 0.168025
0.220350 0.220350 0.220350
0.272675 0.272675 0.272675
0.325000 0.325000 0.325000
0.377325 0.377325 0.377325
0.429650 0.429650 0.429650
0.481975 0.481975 0.481975
0.534300 0.534300 0.534300
0.586625 0.586625 0.586625
0.270750 0.270750 0.270750
0.323075 0.323075 0.323075
0.375400 0.375400 0.375400
0.427725 0.427725 0.427725
0.480050 0.480050 0.480050
0.532375 0.532375 0.532375
0.584700 0.584700 0.584700
0.637025 0.637025 0.637025
0.689350 0.689350 0.689350
0.373475 0.373475 0.373475
0.425800 0.425800 0.425800
0.478125 0.478125 0.478125
0.530450 0.530450 0.530450
0.582775 0.582775 0.582775
0.635100 0.635100 0.635100
0.687425 0.687425 0.687425
0.739750 0.739750 0.739750
0.792075 0.792075 0.792075
0.476200 0.476200 0.476200
0.528525 0.528525 0.528525
0.580850 0.580850 0.580850
0.633175 0.633175 0.633175
0.685500 0.685500 0.685500
0.737825 0.737825 0.737825
0.790150 0.790150 0.790150
0.842475 0.842475 0.842475
0.894800 0.894800 0.894800
0.578925 0.578925 0.578925
0.631250 0.631250 0.631250
0.683575 0.683575 0.683575
0.735900 0.735900 0.735900
0.788225 0.788225 0.788225
0.840550 0.840550 0.840550
0.892875 0.892875 0.892875
0.945200 0.945200 0.945200
0.997525 0.997525 0.997525
0.681650 0.681650 0.681650
0.733975 0.733975 0.733975
0.786300 0.786300 0.786300
0.838625 0.838625 0.838625
0.890950 0.890950 0.890950
0.943275 0.943275 0.943275
0.995600 0.995600 0.995600
1.000000 1.000000 1.000000
1.000000 1.000000 1.000000
0.000000 0.000000 0.000000
0.000000 0.000000 0.000000
0.000000 0.000000 0.000000
0.036775 0.036775 0.036775
0.089100 0.089100 0.089100
0.141425 0.141425 0.141425
0.193750 0.193750 0.193750
0.246075 0.246075 0.246075
0.298400 0.298400 0.298400
0.000000 0.000000 0.000000
0.034850 0.034850 0.034850
0.087175 0.087175 0.087175
0.139500 0.139500 0.139500
0.191825 0.191825 0.191825
0.244150 0.244150 0.244150
0.296475 0.296475 0.296475
0.348800 0.348800 0.348800
0.401125 0.401125 0.401125
0.085250 0.085250 0.085250
0.137575 0.137575 0.137575
0.189900 0.189900 0.189900
0.242225 0.242225 0.242225
0.294550 0.294550 0.294550
0.346875 0.346875 0.346875
0.399200 0.399200 0.399200
0.451525 0.451525 0.451525
0.503850 0.503850 0.503850
0.187975 0.187975 0.187975
0.240300 0.240300 0.240300
0.292625 0.292625 0.292625
0.344950 0.344950 0.344950
0.397275 0.397275 0.397275
0.449600 0.449600 0.449600
0.501925 0.501925 0.501925
0.554250 0.554250 0.554250
0.606575 0.606575 0.606575
0.290700 0.290700 0.290700
0.343025 0.343025 0.343025
0.395350 0.395350 0.395350
0.447675 0.447675 0.447675
0.500000 0.500000 0.500000
0.552325 0.552325 0.552325
0.604650 0.604650 0.604650
0.656975 0.656975 0.656975
0.709300 0.709300 0.709300
0.393425 0.393425 0.393425
0.445750 0.445750 0.445750
0.498075 0.498075 0.498075
0.550400 0.550400 0.550400
0.602725 0.602725 0.602725
0.655050 0.655050 0.655050
0.707375 0.707375 0.707375
0.759700 0.759700 0.759700
0.812025 0.812025 0.812025
0.496150 0.496150 0.496150
0.548475 0.548475 0.548475
0.600800 0.600800 0.600800
0.653125 0.653125 0.653125
0.705450 0.705450 0.705450
0.757775 0.757775 0.757775
0.810100 0.810100 0.810100
0.862425 0.862425 0.862425
0.914750 0.914750 0.914750
0.598875 0.598875 0.598875
0.651200 0.651200 0.651200
0.703525 0.703525 0.703525
0.755850 0.755850 0.755850
0.808175 0.808175 0.808175
0.860500 0.860500 0.860500
0.912825 0.912825 0.912825
0.965150 0.965150 0.965150
1.000000 1.000000 1.000000
0.701600 0.701600 0.701600
0.753925 0.753925 0.753925
0.806250 0.806250 0.806250
0.858575 0.858575 0.858575
0.910900 0.910900 0.910900
0.963225 0.963225 0.963225
1.000000 1.000000 1.000000
1.000000 1.000000 1.000000
1.000000 1.000000 1.000000
0.000000 0.000000 0.000000
0.000000 0.000000 0.000000
0.004400 0.004400 0.004400
0.056725 0.056725 0.056725
0.109050 0.109050 0.109050
0.161375 0.161375 0.161375
0.213700 0.213700 0.213700
0.266025 0.266025 0.266025
0.318350 0.318350 0.318350
0.002475 0.002475 0.002475
0.054800 0.054800 0.054800
0.107125 0.107125 0.107125
0.159450 0.159450 0.159450
0.211775 0.211775 0.211775
0.264100 0.264100 0.264100
0.316425 0.316425 0.316425
0.368750 0.368750 0.368750
0.421075 0.421075 0.421075
0.105200 0.105200 0.105200
0.157525 0.157525 0.157525
0.209850 0.209850 0.209850
0.262175 0.262175 0.262175
0.314500 0.314500 0.314500
0.366825 0.366825 0.366825
0.419150 0.419150 0.419150
0.471475 0.471475 0.471475
0.523800 0.523800 0.523800
0.207925 0.207925 0.207925
0.260250 0.260250 0.260250
0.312575 0.312575 0.312575
0.364900 0.364900 0.364900
0.417225 0.417225 0.417225
0.469550 0.469550 0.469550
0.521875 0.521875 0.521875
0.574200 0.574200 0.574200
0.626525 0.626525 0.626525
0.310650 0.310650 0.310650
0.362975 0.362975 0.362975
0.415300 0.415300 0.415300
0.467625 0.467625 0.467625
0.519950 0.519950 0.519950
0.572275 0.572275 0.572275
0.624600 0.624600 0.624600
0.676925 0.676925 0.676925
0.729250 0.729250 0.729250
0.413375 0.413375 0.413375
0.465700 0.465700 0.465700
0.518025 0.518025 0.518025
0.570350 0.570350 0.570350
0.622675 0.622675 0.622675
0.675000 0.675000 0.675000
0.727325 0.727325 0.727325
0.779650 0.779650 0.779650
0.831975 0.831975 0.831975
0.516100 0.516100 0.516100
0.568425 0.568425 0.568425
0.620750 0.620750 0.620750
0.673075 0.673075 0.673075
0.725400 0.725400 0.725400
0.777725 0.777725 0.777725
0.830050 0.830050 0.830050
0.882375 0.882375 0.882375
0.934700 0.934700 0.934700
0.618825 0.618825 0.618825
0.671150 0.671150 0.671150
0.723475 0.723475 0.723475
0.775800 0.775800 0.775800
0.828125 0.828125 0.828125
0.880450 0.880450 0.880450
0.932775 0.932775 0.932775
0.985100 0.985100 0.985100
1.000000 1.000000 1.000000
0.721550 0.721550 0.721550
0.773875 0.773875 0.773875
0.826200 0.826200 0.826200
0.878525 0.878525 0.878525
0.930850 0.930850 0.930850
0.983175 0.983175 0.983175
1.000000 1.000000 1.000000
1.000000 1.000000 1.000000
1.000000 1.000000 1.000000
0.000000 0.000000 0.000000
0.000000 0.000000 0.000000
0.024350 0.024350 0.024350
0.076675 0.076675 0.076675
0.129000 0.129000 0.129000
0.181325 0.181325 0.181325
0.233650 0.233650 0.233650
0.285975 0.285975 0.285975
0.338300 0.338300 0.338300
0.022425 0.022425 0.022425
0.074750 0.074750 0.074750
0.127075 0.127075 0.127075
0.179400 0.179400 0.179400
0.231725 0.231725 0.231725
0.284050 0.284050 0.284050
0.336375 0.336375 0.336375
0.388700 0.388700 0.388700
0.441025 0.441025 0.441025
0.125150 0.125150 0.125150
0.177475 0.177475 0.177475
0.229800 0.229800 0.229800
0.282125 0.282125 0.282125
0.334450 0.334450 0.334450
0.386775 0.386775 0.386775
0.439100 0.439100 0.439100
0.491425 0.491425 0.491425
0.543750 0.543750 0.543750
0.227875 0.227875 0.227875
0.280200 0.280200 0.280200
0.332525 0.332525 0.332525
0.384850 0.384850 0.384850
0.437175 0.437175 0.437175
0.489500 0.489500 0.489500
0.541825 0.541825 0.541825
0.594150 0.594150 0.594150
0.646475 0.646475 0.646475
0.330600 0.330600 0.330600
0.382925 0.382925 0.382925
0.435250 0.435250 0.435250
0.487575 0.487575 0.487575
0.539900 0.539900 0.539900
0.592225 0.592225 0.592225
0.644550 0.644550 0.644550
0.696875 0.696875 0.696875
0.749200 0.749200 0.749200
0.433325 0.433325 0.433325
0.485650 0.485650 0.485650
0.537975 0.537975 0.537975
0.590300 0.590300 0.590300
0.642625 0.642625 0.642625
0.694950 0.694950 0.694950
0.747275 0.747275 0.747275
0.799600 0.799600 0.799600
0.851925 0.851925 0.851925
0.536050 0.536050 0.536050
0.588375 0.588375 0.588375
0.640700 0.640700 0.640700
0.693025 0.693025 0.693025
0.745350 0.745350 0.745350
0.797675 0.797675 0.797675
0.850000 0.850000 0.850000
0.902325 0.902325 0.902325
0.954650 0.954650 0.954650
0.638775 0.638775 0.638775
0.691100 0.691100 0.691100
0.743425 0.743425 0.743425
0.795750 0.795750 0.795750
0.848075 0.848075 0.848075
0.900400 0.900400 0.900400
0.952725 0.952725 0.952725
1.000000 1.000000 1.000000
1.000000 1.000000 1.000000
0.741500 0.741500 0.741500
0.793825 0.793825 0.793825
0.846150 0.846150 0.846150
0.898475 0.898475 0.898475
0.950800 0.950800 0.950800
1.000000 1.000000 1.000000
1.000000 1.000000 1.000000
1.000000 1.000000 1.000000
1.000000 1.000000 1.000000
0.000000 0.000000 0.000000
0.000000 0.000000 0.000000
0.044300 0.044300 0.044300
0.096625 0.096625 0.096625
0.148950 0.148950 0.148950
0.201275 0.201275 0.201275
0.253600 0.253600 0.253600
0.305925 0.305925 0.305925
0.358250 0.358250 0.358250
0.042375 0.042375 0.042375
0.094700 0.094700 0.094700
0.147025 0.147025 0.147025
0.199350 0.199350 0.199350
0.251675 0.251675 0.251675
0.304000 0.304000 0.304000
0.356325 0.356325 0.356325
0.408650 0.408650 0.408650
0.460975 0.460975 0.460975
0.145100 0.145100 0.145100
0.197425 0.197425 0.197425
0.249750 0.249750 0.249750
0.302075 0.302075 0.302075
0.354400 0.354400 0.354400
0.406725 0.406725 0.406725
0.459050 0.459050 0.459050
0.511375 0.511375 0.511375
0.563700 0.563700 0.563700
0.247825 0.247825 0.247825
0.300150 0.300150 0.300150
0.352475 0.352475 0.352475
0.404800 0.404800 0.404800
0.457125 0.457125 0.457125
0.509450 0.509450 0.509450
0.561775 0.561775 0.561775
0.614100 0.614100 0.614100
0.666425 0.666425 0.666425
0.350550 0.350550 0.350550
0.402875 0.402875 0.402875
0.455200 0.455200 0.455200
0.507525 0.507525 0.507525
0.559850 0.559850 0.559850
0.612175 0.612175 0.612175
0.664500 0.664500 0.664500
0.716825 0.716825 0.716825
0.769150 0.769150 0.769150
0.453275 0.453275 0.453275
0.505600 0.505600 0.505600
0.557925 0.557925 0.557925
0.610250 0.610250 0.610250
0.662575 0.662575 0.662575
0.714900 0.714900 0.714900
0.767225 0.767225 0.767225
0.819550 0.819550 0.819550
0.871875 0.871875 0.871875
0.556000 0.556000 0.556000
0.608325 0.608325 0.608325
0.660650 0.660650 0.660650
0.712975 0.712975 0.712975
0.765300 0.765300 0.765300
0.817625 0.817625 0.817625
0.869950 0.869950 0.869950
0.922275 0.922275 0.922275
0.974600 0.974600 0.974600
0.658725 0.658725 0.658725
0.711050 0.711050 0.711050
0.763375 0.763375 0.763375
0.815700 0.815700 0.815700
0.868025 0.868025 0.868025
0.920350 0.920350 0.920350
0.972675 0.972675 0.972675
1.000000 1.000000 1.000000
1.000000 1.000000 1.000000
0.761450 0.761450 0.761450
0.813775 0.813775 0.813775
0.866100 0.866100 0.866100
0.918425 0.918425 0.918425
0.970750 0.970750 0.970750
1.000000 1.000000 1.000000
1.000000 1.000000 1.000000
1.000000 1.000000 1.000000
1.000000 1.000000 1.000000
0.000000 0.000000 0.000000
0.011925 0.011925 0.011925
0.064250 0.064250 0.064250
0.116575 0.116575 0.116575
0.168900 0.168900 0.168900
0.221225 0.221225 0.221225
0.273550 0.273550 0.273550
0.325875 0.325875 0.325875
0.378200 0.378200 0.378200
0.062325 0.062325 0.062325
0.114650 0.114650 0.114650
0.166975 0.166975 0.166975
0.219300 0.219300 0.219300
0.271625 0.271625 0.271625
0.323950 0.323950 0.323950
0.376275 0.376275 0.376275
0.428600 0.428600 0.428600
0.480925 0.480925 0.480925
0.165050 0.165050 0.165050
0.217375 0.217375 0.217375
0.269700 0.269700 0.269700
0.322025 0.322025 0.322025
0.374350 0.374350 0.374350
0.426675 0.426675 0.426675
0.479000 0.479000 0.479000
0.531325 0.531325 0.531325
0.583650 0.583650 0.583650
0.267775 0.267775 0.267775
0.320100 0.320100 0.320100
0.372425 0.372425 0.372425
0.424750 0.424750 0.424750
0.477075 0.477075 0.477075
0.529400 0.529400 0.529400
0.581725 0.581725 0.581725
0.634050 0.634050 0.634050
0.686375 0.686375 0.686375
0.370500 0.370500 0.370500
0.422825 0.422825 0.422825
0.475150 0.475150 0.475150
0.527475 0.527475 0.527475
0.579800 0.579800 0.579800
0.632125 0.632125 0.632125
0.684450 0.684450 0.684450
0.736775 0.736775 0.736775
0.789100 0.789100 0.789100
0.473225 0.473225 0.473225
0.525550 0.525550 0.525550
0.577875 0.577875 0.577875
0.630200 0.630200 0.630200
0.682525 0.682525 0.682525
0.734850 0.734850 0.734850
0.787175 0.787175 0.787175
0.839500 0.839500 0.839500
0.891825 0.891825 0.891825
0.575950 0.575950 0.575950
0.628275 0.628275 0.628275
0.680600 0.680600 0.680600
0.732925 0.732925 0.732925
0.785250 0.785250 0.785250
0.837575 0.837575 0.837575
0.889900 0.889900 0.889900
0.942225 0.942225 0.942225
0.994550 0.994550 0.994550
0.678675 0.678675 0.678675
0.731000 0.731000 0.731000
0.783325 0.783325 0.783325
0.835650 0.835650 0.835650
0.887975 0.887975 0.887975
0.940300 0.940300 0.940300
0.992625 0.992625 0.992625
1.000000 1.000000 1.000000
1.000000 1.000000 1.000000
0.781400 0.781400 0.781400
0.833725 0.833725 0.833725
0.886050 0.886050 0.886050
0.938375 0.938375 0.938375
0.990700 0.990700 0.990700
1.000000 1.000000 1.000000
1.000000 1.000000 1.000000
1.000000 1.000000 1.000000
1.000000 1.000000 1.000000
