app/src/main/assets/luts/noir_classic.cube
# ApexStudio filter: noir_classic
LUT_3D_SIZE 17
DOMAIN_MIN 0.0 0.0 0.0
DOMAIN_MAX 1.0 1.0 1.0
0.000000 0.000000 0.000000
0.000000 0.000000 0.000000
0.000000 0.000000 0.000000
0.000000 0.000000 0.000000
0.000000 0.000000 0.000000
0.000000 0.000000 0.000000
0.000000 0.000000 0.000000
0.000000 0.000000 0.000000
0.009300 0.009300 0.009300
0.035463 0.035463 0.035463
0.061625 0.061625 0.061625
0.087788 0.087788 0.087788
0.113950 0.113950 0.113950
0.140113 0.140113 0.140113
0.166275 0.166275 0.166275
0.192437 0.192437 0.192437
0.218600 0.218600 0.218600
0.000000 0.000000 0.000000
0.000000 0.000000 0.000000
0.000000 0.000000 0.000000
0.000000 0.000000 0.000000
0.000000 0.000000 0.000000
0.000000 0.000000 0.000000
0.008338 0.008338 0.008338
0.034500 0.034500 0.034500
0.060663 0.060663 0.060663
0.086825 0.086825 0.086825
0.112988 0.112988 0.112988
0.139150 0.139150 0.139150
0.165313 0.165313 0.165313
0.191475 0.191475 0.191475
0.217637 0.217637 0.217637
0.243800 0.243800 0.243800
0.269962 0.269962 0.269962
0.000000 0.000000 0.000000
0.000000 0.000000 0.000000
0.000000 0.000000 0.000000
0.000000 0.000000 0.000000
0.007375 0.007375 0.007375
0.033537 0.033537 0.033537
0.059700 0.059700 0.059700
0.085862 0.085862 0.085862
0.112025 0.112025 0.112025
0.138188 0.138188 0.138188
0.164350 0.164350 0.164350
0.190512 0.190512 0.190512
0.216675 0.216675 0.216675
0.242837 0.242837 0.242837
0.269000 0.269000 0.269000
0.295162 0.295162 0.295162
0.321325 0.321325 0.321325
0.000000 0.000000 0.000000
0.000000 0.000000 0.000000
0.006413 0.006413 0.006413
0.032575 0.032575 0.032575
0.058737 0.058737 0.058737
0.084900 0.084900 0.084900
0.111063 0.111063 0.111063
0.137225 0.137225 0.137225
0.163387 0.163387 0.163387
0.189550 0.189550 0.189550
0.215712 0.215712 0.215712
0.241875 0.241875 0.241875
0.268038 0.268038 0.268038
0.294200 0.294200 0.294200
0.320362 0.320362 0.320362
0.346525 0.346525 0.346525
0.372688 0.372688 0.372688
0.005450 0.005450 0.005450
0.031613 0.031613 0.031613
0.057775 0.057775 0.057775
0.083938 0.083938 0.083938
0.110100 0.110100 0.110100
0.136263 0.136263 0.136263
0.162425 0.162425 0.162425
0.188588 0.188588 0.188588
0.214750 0.214750 0.214750
0.240912 0.240912 0.240912
0.267075 0.267075 0.267075
0.293237 0.293237 0.293237
0.319400 0.319400 0.319400
0.345562 0.345562 0.345562
0.371725 0.371725 0.371725
0.397887 0.397887 0.397887
0.424050 0.424050 0.424050
0.056812 0.056812 0.056812
0.082975 0.082975 0.082975
0.109137 0.109137 0.109137
0.135300 0.135300 0.135300
0.161462 0.161462 0.161462
0.187625 0.187625 0.187625
0.213787 0.213787 0.213787
0.239950 0.239950 0.239950
0.266112 0.266112 0.266112
0.292275 0.292275 0.292275
0.318437 0.318437 0.318437
0.344600 0.344600 0.344600
0.370762 0.370762 0.370762
0.396925 0.396925 0.396925
0.423087 0.423087 0.423087
0.449250 0.449250 0.449250
0.475412 0.475412 0.475412
0.108175 0.108175 0.108175
0.134337 0.134337 0.134337
0.160500 0.160500 0.160500
0.186663 0.186663 0.186663
0.212825 0.212825 0.212825
0.238987 0.238987 0.238987
0.265150 0.265150 0.265150
0.291313 0.291313 0.291313
0.317475 0.317475 0.317475
0.343637 0.343637 0.343637
0.369800 0.369800 0.369800
0.395962 0.395962 0.395962
0.422125 0.422125 0.422125
0.448288 0.448288 0.448288
0.474450 0.474450 0.474450
0.500613 0.500613 0.500613
0.526775 0.526775 0.526775
0.159537 0.159537 0.159537
0.185700 0.185700 0.185700
0.211863 0.211863 0.211863
0.238025 0.238025 0.238025
0.264188 0.264188 0.264188
0.290350 0.290350 0.290350
0.316513 0.316513 0.316513
0.342675 0.342675 0.342675
0.368837 0.368837 0.368837
0.395000 0.395000 0.395000
0.421162 0.421162 0.421162
0.447325 0.447325 0.447325
0.473488 0.473488 0.473488
0.499650 0.499650 0.499650
0.525813 0.525813 0.525813
0.551975 0.551975 0.551975
0.578138 0.578138 0.578138
0.210900 0.210900 0.210900
0.237063 0.237063 0.237063
0.263225 0.263225 0.263225
0.289388 0.289388 0.289388
0.315550 0.315550 0.315550
0.341712 0.341712 0.341712
0.367875 0.367875 0.367875
0.394037 0.394037 0.394037
0.420200 0.420200 0.420200
0.446362 0.446362 0.446362
0.472525 0.472525 0.472525
0.498687 0.498687 0.498687
0.524850 0.524850 0.524850
0.551013 0.551013 0.551013
0.577175 0.577175 0.577175
0.603337 0.603337 0.603337
0.629500 0.629500 0.629500
0.262262 0.262262 0.262262
0.288425 0.288425 0.288425
0.314587 0.314587 0.314587
0.340750 0.340750 0.340750
0.366912 0.366912 0.366912
0.393075 0.393075 0.393075
0.419237 0.419237 0.419237
0.445400 0.445400 0.445400
0.471562 0.471562 0.471562
0.497725 0.497725 0.497725
0.523887 0.523887 0.523887
0.550050 0.550050 0.550050
0.576212 0.576212 0.576212
0.602375 0.602375 0.602375
0.628537 0.628537 0.628537
0.654700 0.654700 0.654700
0.680863 0.680863 0.680863
0.313625 0.313625 0.313625
0.339787 0.339787 0.339787
0.365950 0.365950 0.365950
0.392112 0.392112 0.392112
0.418275 0.418275 0.418275
0.444437 0.444437 0.444437
0.470600 0.470600 0.470600
0.496762 0.496762 0.496762
0.522925 0.522925 0.522925
0.549087 0.549087 0.549087
0.575250 0.575250 0.575250
0.601412 0.601412 0.601412
0.627575 0.627575 0.627575
0.653737 0.653737 0.653737
0.679900 0.679900 0.679900
0.706062 0.706062 0.706062
0.732225 0.732225 0.732225
0.364988 0.364988 0.364988
0.391150 0.391150 0.391150
0.417312 0.417312 0.417312
0.443475 0.443475 0.443475
0.469637 0.469637 0.469637
0.495800 0.495800 0.495800
0.521962 0.521962 0.521962
0.548125 0.548125 0.548125
0.574288 0.574288 0.574288
0.600450 0.600450 0.600450
0.626612 0.626612 0.626612
0.652775 0.652775 0.652775
0.678937 0.678937 0.678937
0.705100 0.705100 0.705100
0.731263 0.731263 0.731263
0.757425 0.757425 0.757425
0.783587 0.783587 0.783587
0.416350 0.416350 0.416350
0.442512 0.442512 0.442512
0.468675 0.468675 0.468675
0.494837 0.494837 0.494837
0.521000 0.521000 0.521000
0.547162 0.547162 0.547162
0.573325 0.573325 0.573325
0.599488 0.599488 0.599488
0.625650 0.625650 0.625650
0.651812 0.651812 0.651812
0.677975 0.677975 0.677975
0.704137 0.704137 0.704137
0.730300 0.730300 0.730300
0.756462 0.756462 0.756462
0.782625 0.782625 0.782625
0.808787 0.808787 0.808787
0.834950 0.834950 0.834950
0.467712 0.467712 0.467712
0.493875 0.493875 0.493875
0.520037 0.520037 0.520037
0.546200 0.546200 0.546200
0.572362 0.572362 0.572362
0.598525 0.598525 0.598525
0.624687 0.624687 0.624687
0.650850 0.650850 0.650850
0.677013 0.677013 0.677013
0.703175 0.703175 0.703175
0.729337 0.729337 0.729337
0.755500 0.755500 0.755500
0.781662 0.781662 0.781662
0.807825 0.807825 0.807825
0.833987 0.833987 0.833987
0.860150 0.860150 0.860150
0.886312 0.886312 0.886312
0.519075 0.519075 0.519075
0.545237 0.545237 0.545237
0.571400 0.571400 0.571400
0.597562 0.597562 0.597562
0.623725 0.623725 0.623725
0.649887 0.649887 0.649887
0.676050 0.676050 0.676050
0.702213 0.702213 0.702213
0.728375 0.728375 0.728375
0.754537 0.754537 0.754537
0.780700 0.780700 0.780700
0.806862 0.806862 0.806862
0.833025 0.833025 0.833025
0.859187 0.859187 0.859187
0.885350 0.885350 0.885350
0.911512 0.911512 0.911512
0.937675 0.937675 0.937675
0.570437 0.570437 0.570437
0.596600 0.596600 0.596600
0.622762 0.622762 0.622762
0.648925 0.648925 0.648925
0.675087 0.675087 0.675087
0.701250 0.701250 0.701250
0.727413 0.727413 0.727413
0.753575 0.753575 0.753575
0.779737 0.779737 0.779737
0.805900 0.805900 0.805900
0.832062 0.832062 0.832062
0.858225 0.858225 0.858225
0.884388 0.884388 0.884388
0.910550 0.910550 0.910550
0.936712 0.936712 0.936712
0.962875 0.962875 0.962875
0.989037 0.989037 0.989037
0.621800 0.621800 0.621800
0.647962 0.647962 0.647962
0.674125 0.674125 0.674125
0.700287 0.700287 0.700287
0.726450 0.726450 0.726450
0.752612 0.752612 0.752612
0.778775 0.778775 0.778775
0.804937 0.804937 0.804937
0.831100 0.831100 0.831100
0.857262 0.857262 0.857262
0.883425 0.883425 0.883425
0.909587 0.909587 0.909587
0.935750 0.935750 0.935750
0.961912 0.961912 0.961912
0.988075 0.988075 0.988075
1.000000 1.000000 1.000000
1.000000 1.000000 1.000000
0.000000 0.000000 0.000000
0.000000 0.000000 0.000000
0.000000 0.000000 0.000000
0.000000 0.000000 0.000000
0.000000 0.000000 0.000000
0.000000 0.000000 0.000000
0.000000 0.000000 0.000000
0.000000 0.000000 0.000000
0.019275 0.019275 0.019275
0.045438 0.045438 0.045438
0.071600 0.071600 0.071600
0.097762 0.097762 0.097762
0.123925 0.123925 0.123925
0.150088 0.150088 0.150088
0.176250 0.176250 0.176250
0.202412 0.202412 0.202412
0.228575 0.228575 0.228575
0.000000 0.000000 0.000000
0.000000 0.000000 0.000000
0.000000 0.000000 0.000000
0.000000 0.000000 0.000000
0.000000 0.000000 0.000000
0.000000 0.000000 0.000000
0.018313 0.018313 0.018313
0.044475 0.044475 0.044475
0.070638 0.070638 0.070638
0.096800 0.096800 0.096800
0.122963 0.122963 0.122963
0.149125 0.149125 0.149125
0.175287 0.175287 0.175287
0.201450 0.201450 0.201450
0.227612 0.227612 0.227612
0.253775 0.253775 0.253775
0.279937 0.279937 0.279937
0.000000 0.000000 0.000000
0.000000 0.000000 0.000000
0.000000 0.000000 0.000000
0.000000 0.000000 0.000000
0.017350 0.017350 0.017350
0.043513 0.043513 0.043513
0.069675 0.069675 0.069675
0.095838 0.095838 0.095838
0.122000 0.122000 0.122000
0.148162 0.148162 0.148162
0.174325 0.174325 0.174325
0.200487 0.200487 0.200487
0.226650 0.226650 0.226650
0.252812 0.252812 0.252812
0.278975 0.278975 0.278975
0.305137 0.305137 0.305137
0.331300 0.331300 0.331300
0.000000 0.000000 0.000000
0.000000 0.000000 0.000000
0.016387 0.016387 0.016387
0.042550 0.042550 0.042550
0.068713 0.068713 0.068713
0.094875 0.094875 0.094875
0.121037 0.121037 0.121037
0.147200 0.147200 0.147200
0.173362 0.173362 0.173362
0.199525 0.199525 0.199525
0.225687 0.225687 0.225687
0.251850 0.251850 0.251850
0.278012 0.278012 0.278012
0.304175 0.304175 0.304175
0.330338 0.330338 0.330338
0.356500 0.356500 0.356500
0.382663 0.382663 0.382663
0.015425 0.015425 0.015425
0.041587 0.041587 0.041587
0.067750 0.067750 0.067750
0.093913 0.093913 0.093913
0.120075 0.120075 0.120075
0.146238 0.146238 0.146238
0.172400 0.172400 0.172400
0.198562 0.198562 0.198562
0.224725 0.224725 0.224725
0.250887 0.250887 0.250887
0.277050 0.277050 0.277050
0.303212 0.303212 0.303212
0.329375 0.329375 0.329375
0.355537 0.355537 0.355537
0.381700 0.381700 0.381700
0.407862 0.407862 0.407862
0.434025 0.434025 0.434025
0.066787 0.066787 0.066787
0.092950 0.092950 0.092950
0.119112 0.119112 0.119112
0.145275 0.145275 0.145275
0.171437 0.171437 0.171437
0.197600 0.197600 0.197600
0.223762 0.223762 0.223762
0.249925 0.249925 0.249925
0.276088 0.276088 0.276088
0.302250 0.302250 0.302250
0.328412 0.328412 0.328412
0.354575 0.354575 0.354575
0.380737 0.380737 0.380737
0.406900 0.406900 0.406900
0.433062 0.433062 0.433062
0.459225 0.459225 0.459225
0.485387 0.485387 0.485387
0.118150 0.118150 0.118150
0.144313 0.144313 0.144313
0.170475 0.170475 0.170475
0.196637 0.196637 0.196637
0.222800 0.222800 0.222800
0.248962 0.248962 0.248962
0.275125 0.275125 0.275125
0.301288 0.301288 0.301288
0.327450 0.327450 0.327450
0.353612 0.353612 0.353612
0.379775 0.379775 0.379775
0.405938 0.405938 0.405938
0.432100 0.432100 0.432100
0.458262 0.458262 0.458262
0.484425 0.484425 0.484425
0.510588 0.510588 0.510588
0.536750 0.536750 0.536750
0.169513 0.169513 0.169513
0.195675 0.195675 0.195675
0.221838 0.221838 0.221838
0.248000 0.248000 0.248000
0.274162 0.274162 0.274162
0.300325 0.300325 0.300325
0.326488 0.326488 0.326488
0.352650 0.352650 0.352650
0.378812 0.378812 0.378812
0.404975 0.404975 0.404975
0.431138 0.431138 0.431138
0.457300 0.457300 0.457300
0.483463 0.483463 0.483463
0.509625 0.509625 0.509625
0.535788 0.535788 0.535788
0.561950 0.561950 0.561950
0.588113 0.588113 0.588113
0.220875 0.220875 0.220875
0.247038 0.247038 0.247038
0.273200 0.273200 0.273200
0.299362 0.299362 0.299362
0.325525 0.325525 0.325525
0.351687 0.351687 0.351687
0.377850 0.377850 0.377850
0.404012 0.404012 0.404012
0.430175 0.430175 0.430175
0.456337 0.456337 0.456337
0.482500 0.482500 0.482500
0.508663 0.508663 0.508663
0.534825 0.534825 0.534825
0.560988 0.560988 0.560988
0.587150 0.587150 0.587150
0.613312 0.613312 0.613312
0.639475 0.639475 0.639475
0.272237 0.272237 0.272237
0.298400 0.298400 0.298400
0.324562 0.324562 0.324562
0.350725 0.350725 0.350725
0.376887 0.376887 0.376887
0.403050 0.403050 0.403050
0.429212 0.429212 0.429212
0.455375 0.455375 0.455375
0.481537 0.481537 0.481537
0.507700 0.507700 0.507700
0.533863 0.533863 0.533863
0.560025 0.560025 0.560025
0.586187 0.586187 0.586187
0.612350 0.612350 0.612350
0.638513 0.638513 0.638513
0.664675 0.664675 0.664675
0.690838 0.690838 0.690838
0.323600 0.323600 0.323600
0.349762 0.349762 0.349762
0.375925 0.375925 0.375925
0.402087 0.402087 0.402087
0.428250 0.428250 0.428250
0.454412 0.454412 0.454412
0.480575 0.480575 0.480575
0.506737 0.506737 0.506737
0.532900 0.532900 0.532900
0.559063 0.559063 0.559063
0.585225 0.585225 0.585225
0.611387 0.611387 0.611387
0.637550 0.637550 0.637550
0.663713 0.663713 0.663713
0.689875 0.689875 0.689875
0.716037 0.716037 0.716037
0.742200 0.742200 0.742200
0.374962 0.374962 0.374962
0.401125 0.401125 0.401125
0.427287 0.427287 0.427287
0.453450 0.453450 0.453450
0.479612 0.479612 0.479612
0.505775 0.505775 0.505775
0.531938 0.531938 0.531938
0.558100 0.558100 0.558100
0.584263 0.584263 0.584263
0.610425 0.610425 0.610425
0.636587 0.636587 0.636587
0.662750 0.662750 0.662750
0.688913 0.688913 0.688913
0.715075 0.715075 0.715075
0.741238 0.741238 0.741238
0.767400 0.767400 0.767400
0.793562 0.793562 0.793562
0.426325 0.426325 0.426325
0.452487 0.452487 0.452487
0.478650 0.478650 0.478650
0.504812 0.504812 0.504812
0.530975 0.530975 0.530975
0.557138 0.557138 0.557138
0.583300 0.583300 0.583300
0.609463 0.609463 0.609463
0.635625 0.635625 0.635625
0.661787 0.661787 0.661787
0.687950 0.687950 0.687950
0.714112 0.714112 0.714112
0.740275 0.740275 0.740275
0.766437 0.766437 0.766437
0.792600 0.792600 0.792600
0.818763 0.818763 0.818763
0.844925 0.844925 0.844925
0.477687 0.477687 0.477687
0.503850 0.503850 0.503850
0.530012 0.530012 0.530012
0.556175 0.556175 0.556175
0.582338 0.582338 0.582338
0.608500 0.608500 0.608500
0.634662 0.634662 0.634662
0.660825 0.660825 0.660825
0.686988 0.686988 0.686988
0.713150 0.713150 0.713150
0.739312 0.739312 0.739312
0.765475 0.765475 0.765475
0.791637 0.791637 0.791637
0.817800 0.817800 0.817800
0.843963 0.843963 0.843963
0.870125 0.870125 0.870125
0.896287 0.896287 0.896287
0.529050 0.529050 0.529050
0.555212 0.555212 0.555212
0.581375 0.581375 0.581375
0.607538 0.607538 0.607538
0.633700 0.633700 0.633700
0.659863 0.659863 0.659863
0.686025 0.686025 0.686025
0.712188 0.712188 0.712188
0.738350 0.738350 0.738350
0.764512 0.764512 0.764512
0.790675 0.790675 0.790675
0.816837 0.816837 0.816837
0.843000 0.843000 0.843000
0.869163 0.869163 0.869163
0.895325 0.895325 0.895325
0.921488 0.921488 0.921488
0.947650 0.947650 0.947650
0.580412 0.580412 0.580412
0.606575 0.606575 0.606575
0.632738 0.632738 0.632738
0.658900 0.658900 0.658900
0.685063 0.685063 0.685063
0.711225 0.711225 0.711225
0.737388 0.737388 0.737388
0.763550 0.763550 0.763550
0.789713 0.789713 0.789713
0.815875 0.815875 0.815875
0.842037 0.842037 0.842037
0.868200 0.868200 0.868200
0.894363 0.894363 0.894363
0.920525 0.920525 0.920525
0.946688 0.946688 0.946688
0.972850 0.972850 0.972850
0.999012 0.999012 0.999012
0.631775 0.631775 0.631775
0.657937 0.657937 0.657937
0.684100 0.684100 0.684100
0.710263 0.710263 0.710263
0.736425 0.736425 0.736425
0.762587 0.762587 0.762587
0.788750 0.788750 0.788750
0.814912 0.814912 0.814912
0.841075 0.841075 0.841075
0.867237 0.867237 0.867237
0.893400 0.893400 0.893400
0.919562 0.919562 0.919562
0.945725 0.945725 0.945725
0.971888 0.971888 0.971888
0.998050 0.998050 0.998050
1.000000 1.000000 1.000000
1.000000 1.000000 1.000000
0.000000 0.000000 0.000000
0.000000 0.000000 0.000000
0.000000 0.000000 0.000000
0.000000 0.000000 0.000000
0.000000 0.000000 0.000000
0.000000 0.000000 0.000000
0.000000 0.000000 0.000000
0.003088 0.003088 0.003088
0.029250 0.029250 0.029250
0.055413 0.055413 0.055413
0.081575 0.081575 0.081575
0.107737 0.107737 0.107737
0.133900 0.133900 0.133900
0.160063 0.160063 0.160063
0.186225 0.186225 0.186225
0.212387 0.212387 0.212387
0.238550 0.238550 0.238550
0.000000 0.000000 0.000000
0.000000 0.000000 0.000000
0.000000 0.000000 0.000000
0.000000 0.000000 0.000000
0.000000 0.000000 0.000000
0.002125 0.002125 0.002125
0.028288 0.028288 0.028288
0.054450 0.054450 0.054450
0.080613 0.080613 0.080613
0.106775 0.106775 0.106775
0.132937 0.132937 0.132937
0.159100 0.159100 0.159100
0.185262 0.185262 0.185262
0.211425 0.211425 0.211425
0.237587 0.237587 0.237587
0.263750 0.263750 0.263750
0.289912 0.289912 0.289912
0.000000 0.000000 0.000000
0.000000 0.000000 0.000000
0.000000 0.000000 0.000000
0.001163 0.001163 0.001163
0.027325 0.027325 0.027325
0.053488 0.053488 0.053488
0.079650 0.079650 0.079650
0.105813 0.105813 0.105813
0.131975 0.131975 0.131975
0.158138 0.158138 0.158138
0.184300 0.184300 0.184300
0.210462 0.210462 0.210462
0.236625 0.236625 0.236625
0.262787 0.262787 0.262787
0.288950 0.288950 0.288950
0.315112 0.315112 0.315112
0.341275 0.341275 0.341275
0.000000 0.000000 0.000000
0.000200 0.000200 0.000200
0.026363 0.026363 0.026363
0.052525 0.052525 0.052525
0.078688 0.078688 0.078688
0.104850 0.104850 0.104850
0.131012 0.131012 0.131012
0.157175 0.157175 0.157175
0.183337 0.183337 0.183337
0.209500 0.209500 0.209500
0.235662 0.235662 0.235662
0.261825 0.261825 0.261825
0.287988 0.287988 0.287988
0.314150 0.314150 0.314150
0.340313 0.340313 0.340313
0.366475 0.366475 0.366475
0.392637 0.392637 0.392637
0.025400 0.025400 0.025400
0.051563 0.051563 0.051563
0.077725 0.077725 0.077725
0.103888 0.103888 0.103888
0.130050 0.130050 0.130050
0.156212 0.156212 0.156212
0.182375 0.182375 0.182375
0.208537 0.208537 0.208537
0.234700 0.234700 0.234700
0.260862 0.260862 0.260862
0.287025 0.287025 0.287025
0.313187 0.313187 0.313187
0.339350 0.339350 0.339350
0.365512 0.365512 0.365512
0.391675 0.391675 0.391675
0.417837 0.417837 0.417837
0.444000 0.444000 0.444000
0.076763 0.076763 0.076763
0.102925 0.102925 0.102925
0.129087 0.129087 0.129087
0.155250 0.155250 0.155250
0.181412 0.181412 0.181412
0.207575 0.207575 0.207575
0.233737 0.233737 0.233737
0.259900 0.259900 0.259900
0.286062 0.286062 0.286062
0.312225 0.312225 0.312225
0.338387 0.338387 0.338387
0.364550 0.364550 0.364550
0.390712 0.390712 0.390712
0.416875 0.416875 0.416875
0.443037 0.443037 0.443037
0.469200 0.469200 0.469200
0.495362 0.495362 0.495362
0.128125 0.128125 0.128125
0.154287 0.154287 0.154287
0.180450 0.180450 0.180450
0.206612 0.206612 0.206612
0.232775 0.232775 0.232775
0.258937 0.258937 0.258937
0.285100 0.285100 0.285100
0.311262 0.311262 0.311262
0.337425 0.337425 0.337425
0.363587 0.363587 0.363587
0.389750 0.389750 0.389750
0.415912 0.415912 0.415912
0.442075 0.442075 0.442075
0.468237 0.468237 0.468237
0.494400 0.494400 0.494400
0.520562 0.520562 0.520562
0.546725 0.546725 0.546725
0.179488 0.179488 0.179488
0.205650 0.205650 0.205650
0.231812 0.231812 0.231812
0.257975 0.257975 0.257975
0.284137 0.284137 0.284137
0.310300 0.310300 0.310300
0.336462 0.336462 0.336462
0.362625 0.362625 0.362625
0.388787 0.388787 0.388787
0.414950 0.414950 0.414950
0.441113 0.441113 0.441113
0.467275 0.467275 0.467275
0.493437 0.493437 0.493437
0.519600 0.519600 0.519600
0.545762 0.545762 0.545762
0.571925 0.571925 0.571925
0.598087 0.598087 0.598087
0.230850 0.230850 0.230850
0.257012 0.257012 0.257012
0.283175 0.283175 0.283175
0.309337 0.309337 0.309337
0.335500 0.335500 0.335500
0.361662 0.361662 0.361662
0.387825 0.387825 0.387825
0.413987 0.413987 0.413987
0.440150 0.440150 0.440150
0.466312 0.466312 0.466312
0.492475 0.492475 0.492475
0.518637 0.518637 0.518637
0.544800 0.544800 0.544800
0.570963 0.570963 0.570963
0.597125 0.597125 0.597125
0.623287 0.623287 0.623287
0.649450 0.649450 0.649450
0.282212 0.282212 0.282212
0.308375 0.308375 0.308375
0.334537 0.334537 0.334537
0.360700 0.360700 0.360700
0.386862 0.386862 0.386862
0.413025 0.413025 0.413025
0.439187 0.439187 0.439187
0.465350 0.465350 0.465350
0.491512 0.491512 0.491512
0.517675 0.517675 0.517675
0.543837 0.543837 0.543837
0.570000 0.570000 0.570000
0.596162 0.596162 0.596162
0.622325 0.622325 0.622325
0.648487 0.648487 0.648487
0.674650 0.674650 0.674650
0.700812 0.700812 0.700812
0.333575 0.333575 0.333575
0.359737 0.359737 0.359737
0.385900 0.385900 0.385900
0.412062 0.412062 0.412062
0.438225 0.438225 0.438225
0.464387 0.464387 0.464387
0.490550 0.490550 0.490550
0.516712 0.516712 0.516712
0.542875 0.542875 0.542875
0.569037 0.569037 0.569037
0.595200 0.595200 0.595200
0.621362 0.621362 0.621362
0.647525 0.647525 0.647525
0.673687 0.673687 0.673687
0.699850 0.699850 0.699850
0.726012 0.726012 0.726012
0.752175 0.752175 0.752175
0.384937 0.384937 0.384937
0.411100 0.411100 0.411100
0.437262 0.437262 0.437262
0.463425 0.463425 0.463425
0.489587 0.489587 0.489587
0.515750 0.515750 0.515750
0.541912 0.541912 0.541912
0.568075 0.568075 0.568075
0.594237 0.594237 0.594237
0.620400 0.620400 0.620400
0.646562 0.646562 0.646562
0.672725 0.672725 0.672725
0.698887 0.698887 0.698887
0.725050 0.725050 0.725050
0.751213 0.751213 0.751213
0.777375 0.777375 0.777375
0.803537 0.803537 0.803537
0.436300 0.436300 0.436300
0.462462 0.462462 0.462462
0.488625 0.488625 0.488625
0.514788 0.514788 0.514788
0.540950 0.540950 0.540950
0.567112 0.567112 0.567112
0.593275 0.593275 0.593275
0.619437 0.619437 0.619437
0.645600 0.645600 0.645600
0.671762 0.671762 0.671762
0.697925 0.697925 0.697925
0.724087 0.724087 0.724087
0.750250 0.750250 0.750250
0.776412 0.776412 0.776412
0.802575 0.802575 0.802575
0.828737 0.828737 0.828737
0.854900 0.854900 0.854900
0.487662 0.487662 0.487662
0.513825 0.513825 0.513825
0.539987 0.539987 0.539987
0.566150 0.566150 0.566150
0.592313 0.592313 0.592313
0.618475 0.618475 0.618475
0.644637 0.644637 0.644637
0.670800 0.670800 0.670800
0.696962 0.696962 0.696962
0.723125 0.723125 0.723125
0.749287 0.749287 0.749287
0.775450 0.775450 0.775450
0.801612 0.801612 0.801612
0.827775 0.827775 0.827775
0.853938 0.853938 0.853938
0.880100 0.880100 0.880100
0.906262 0.906262 0.906262
0.539025 0.539025 0.539025
0.565187 0.565187 0.565187
0.591350 0.591350 0.591350
0.617513 0.617513 0.617513
0.643675 0.643675 0.643675
0.669837 0.669837 0.669837
0.696000 0.696000 0.696000
0.722162 0.722162 0.722162
0.748325 0.748325 0.748325
0.774487 0.774487 0.774487
0.800650 0.800650 0.800650
0.826812 0.826812 0.826812
0.852975 0.852975 0.852975
0.879138 0.879138 0.879138
0.905300 0.905300 0.905300
0.931462 0.931462 0.931462
0.957625 0.957625 0.957625
0.590387 0.590387 0.590387
0.616550 0.616550 0.616550
0.642713 0.642713 0.642713
0.668875 0.668875 0.668875
0.695037 0.695037 0.695037
0.721200 0.721200 0.721200
0.747362 0.747362 0.747362
0.773525 0.773525 0.773525
0.799687 0.799687 0.799687
0.825850 0.825850 0.825850
0.852012 0.852012 0.852012
0.878175 0.878175 0.878175
0.904338 0.904338 0.904338
0.930500 0.930500 0.930500
0.956662 0.956662 0.956662
0.982825 0.982825 0.982825
1.000000 1.000000 1.000000
0.641750 0.641750 0.641750
0.667912 0.667912 0.667912
0.694075 0.694075 0.694075
0.720237 0.720237 0.720237
0.746400 0.746400 0.746400
0.772562 0.772562 0.772562
0.798725 0.798725 0.798725
0.824887 0.824887 0.824887
0.851050 0.851050 0.851050
0.877212 0.877212 0.877212
0.903375 0.903375 0.903375
0.929537 0.929537 0.929537
0.955700 0.955700 0.955700
0.981862 0.981862 0.981862
1.000000 1.000000 1.000000
1.000000 1.000000 1.000000
1.000000 1.000000 1.000000
0.000000 0.000000 0.000000
0.000000 0.000000 0.000000
0.000000 0.000000 0.000000
0.000000 0.000000 0.000000
0.000000 0.000000 0.000000
0.000000 0.000000 0.000000
0.000000 0.000000 0.000000
0.013063 0.013063 0.013063
0.039225 0.039225 0.039225
0.065387 0.065387 0.065387
0.091550 0.091550 0.091550
0.117713 0.117713 0.117713
0.143875 0.143875 0.143875
0.170038 0.170038 0.170038
0.196200 0.196200 0.196200
0.222362 0.222362 0.222362
0.248525 0.248525 0.248525
0.000000 0.000000 0.000000
