app/src/main/assets/luts/noir_classic.cube
# ApexStudio filter: noir_classic
LUT_3D_SIZE 5
DOMAIN_MIN 0.0 0.0 0.0
DOMAIN_MAX 1.0 1.0 1.0
0.000000 0.000000 0.000000
0.000000 0.000000 0.000000
0.009300 0.009300 0.009300
0.113950 0.113950 0.113950
0.218600 0.218600 0.218600
0.005450 0.005450 0.005450
0.110100 0.110100 0.110100
0.214750 0.214750 0.214750
0.319400 0.319400 0.319400
0.424050 0.424050 0.424050
0.210900 0.210900 0.210900
0.315550 0.315550 0.315550
0.420200 0.420200 0.420200
0.524850 0.524850 0.524850
0.629500 0.629500 0.629500
0.416350 0.416350 0.416350
0.521000 0.521000 0.521000
0.625650 0.625650 0.625650
0.730300 0.730300 0.730300
0.834950 0.834950 0.834950
0.621800 0.621800 0.621800
0.726450 0.726450 0.726450
0.831100 0.831100 0.831100
0.935750 0.935750 0.935750
1.000000 1.000000 1.000000
0.000000 0.000000 0.000000
0.000000 0.000000 0.000000
0.049200 0.049200 0.049200
0.153850 0.153850 0.153850
0.258500 0.258500 0.258500
0.045350 0.045350 0.045350
0.150000 0.150000 0.150000
0.254650 0.254650 0.254650
0.359300 0.359300 0.359300
0.463950 0.463950 0.463950
0.250800 0.250800 0.250800
0.355450 0.355450 0.355450
0.460100 0.460100 0.460100
0.564750 0.564750 0.564750
0.669400 0.669400 0.669400
0.456250 0.456250 0.456250
0.560900 0.560900 0.560900
0.665550 0.665550 0.665550
0.770200 0.770200 0.770200
0.874850 0.874850 0.874850
0.661700 0.661700 0.661700
0.766350 0.766350 0.766350
0.871000 0.871000 0.871000
0.975650 0.975650 0.975650
1.000000 1.000000 1.000000
0.000000 0.000000 0.000000
0.000000 0.000000 0.000000
0.089100 0.089100 0.089100
0.193750 0.193750 0.193750
0.298400 0.298400 0.298400
0.085250 0.085250 0.085250
0.189900 0.189900 0.189900
0.294550 0.294550 0.294550
0.399200 0.399200 0.399200
0.503850 0.503850 0.503850
0.290700 0.290700 0.290700
0.395350 0.395350 0.395350
0.500000 0.500000 0.500000
0.604650 0.604650 0.604650
0.709300 0.709300 0.709300
0.496150 0.496150 0.496150
0.600800 0.600800 0.600800
0.705450 0.705450 0.705450
0.810100 0.810100 0.810100
0.914750 0.914750 0.914750
0.701600 0.701600 0.701600
0.806250 0.806250 0.806250
0.910900 0.910900 0.910900
1.000000 1.000000 1.000000
1.000000 1.000000 1.000000
0.000000 0.000000 0.000000
0.024350 0.024350 0.024350
0.129000 0.129000 0.129000
0.233650 0.233650 0.233650
0.338300 0.338300 0.338300
0.125150 0.125150 0.125150
0.229800 0.229800 0.229800
0.334450 0.334450 0.334450
0.439100 0.439100 0.439100
0.543750 0.543750 0.543750
0.330600 0.330600 0.330600
0.435250 0.435250 0.435250
0.539900 0.539900 0.539900
0.644550 0.644550 0.644550
0.749200 0.749200 0.749200
0.536050 0.536050 0.536050
0.640700 0.640700 0.640700
0.745350 0.745350 0.745350
0.850000 0.850000 0.850000
0.954650 0.954650 0.954650
0.741500 0.741500 0.741500
0.846150 0.846150 0.846150
0.950800 0.950800 0.950800
1.000000 1.000000 1.000000
1.000000 1.000000 1.000000
0.000000 0.000000 0.000000
0.064250 0.064250 0.064250
0.168900 0.168900 0.168900
0.273550 0.273550 0.273550
0.378200 0.378200 0.378200
0.165050 0.165050 0.165050
0.269700 0.269700 0.269700
0.374350 0.374350 0.374350
0.479000 0.479000 0.479000
0.583650 0.583650 0.583650
0.370500 0.370500 0.370500
0.475150 0.475150 0.475150
0.579800 0.579800 0.579800
0.684450 0.684450 0.684450
0.789100 0.789100 0.789100
0.575950 0.575950 0.575950
0.680600 0.680600 0.680600
0.785250 0.785250 0.785250
0.889900 0.889900 0.889900
0.994550 0.994550 0.994550
0.781400 0.781400 0.781400
0.886050 0.886050 0.886050
0.990700 0.990700 0.990700
1.000000 1.000000 1.000000
1.000000 1.000000 1.000000
