app/src/main/assets/luts/nordic_dusk.cube
# ApexStudio filter: nordic_dusk
LUT_3D_SIZE 9
DOMAIN_MIN 0.0 0.0 0.0
DOMAIN_MAX 1.0 1.0 1.0
0.040000 0.000000 0.140000
0.158750 0.000000 0.140000
0.277500 0.000000 0.140000
0.396250 0.000000 0.140000
0.515000 0.000000 0.140000
0.633750 0.000000 0.140000
0.752500 0.000000 0.140000
0.871250 0.000000 0.140000
0.990000 0.000000 0.140000
0.040000 0.112500 0.140000
0.158750 0.112500 0.140000
0.277500 0.112500 0.140000
0.396250 0.112500 0.140000
0.515000 0.112500 0.140000
0.633750 0.112500 0.140000
0.752500 0.112500 0.140000
0.871250 0.112500 0.140000
0.990000 0.112500 0.140000
0.040000 0.225000 0.140000
0.158750 0.225000 0.140000
0.277500 0.225000 0.140000
0.396250 0.225000 0.140000
0.515000 0.225000 0.140000
0.633750 0.225000 0.140000
0.752500 0.225000 0.140000
0.871250 0.225000 0.140000
0.990000 0.225000 0.140000
0.040000 0.337500 0.140000
0.158750 0.337500 0.140000
0.277500 0.337500 0.140000
0.396250 0.337500 0.140000
0.515000 0.337500 0.140000
0.633750 0.337500 0.140000
0.752500 0.337500 0.140000
0.871250 0.337500 0.140000
0.990000 0.337500 0.140000
0.040000 0.450000 0.140000
0.158750 0.450000 0.140000
0.277500 0.450000 0.140000
0.396250 0.450000 0.140000
0.515000 0.450000 0.140000
0.633750 0.450000 0.140000
0.752500 0.450000 0.140000
0.871250 0.450000 0.140000
0.990000 0.450000 0.140000
0.040000 0.562500 0.140000
0.158750 0.562500 0.140000
0.277500 0.562500 0.140000
0.396250 0.562500 0.140000
0.515000 0.562500 0.140000
0.633750 0.562500 0.140000
0.752500 0.562500 0.140000
0.871250 0.562500 0.140000
0.990000 0.562500 0.140000
0.040000 0.675000 0.140000
0.158750 0.675000 0.140000
0.277500 0.675000 0.140000
0.396250 0.675000 0.140000
0.515000 0.675000 0.140000
0.633750 0.675000 0.140000
0.752500 0.675000 0.140000
0.871250 0.675000 0.140000
0.990000 0.675000 0.140000
0.040000 0.787500 0.140000
0.158750 0.787500 0.140000
0.277500 0.787500 0.140000
0.396250 0.787500 0.140000
0.515000 0.787500 0.140000
0.633750 0.787500 0.140000
0.752500 0.787500 0.140000
0.871250 0.787500 0.140000
0.990000 0.787500 0.140000
0.040000 0.900000 0.140000
0.158750 0.900000 0.140000
0.277500 0.900000 0.140000
0.396250 0.900000 0.140000
0.515000 0.900000 0.140000
0.633750 0.900000 0.140000
0.752500 0.900000 0.140000
0.871250 0.900000 0.140000
0.990000 0.900000 0.140000
0.040000 0.000000 0.290000
0.158750 0.000000 0.290000
0.277500 0.000000 0.290000
0.396250 0.000000 0.290000
0.515000 0.000000 0.290000
0.633750 0.000000 0.290000
0.752500 0.000000 0.290000
0.871250 0.000000 0.290000
0.990000 0.000000 0.290000
0.040000 0.112500 0.290000
0.158750 0.112500 0.290000
0.277500 0.112500 0.290000
0.396250 0.112500 0.290000
0.515000 0.112500 0.290000
0.633750 0.112500 0.290000
0.752500 0.112500 0.290000
0.871250 0.112500 0.290000
0.990000 0.112500 0.290000
0.040000 0.225000 0.290000
0.158750 0.225000 0.290000
0.277500 0.225000 0.290000
0.396250 0.225000 0.290000
0.515000 0.225000 0.290000
0.633750 0.225000 0.290000
0.752500 0.225000 0.290000
0.871250 0.225000 0.290000
0.990000 0.225000 0.290000
0.040000 0.337500 0.290000
0.158750 0.337500 0.290000
0.277500 0.337500 0.290000
0.396250 0.337500 0.290000
0.515000 0.337500 0.290000
0.633750 0.337500 0.290000
0.752500 0.337500 0.290000
0.871250 0.337500 0.290000
0.990000 0.337500 0.290000
0.040000 0.450000 0.290000
0.158750 0.450000 0.290000
0.277500 0.450000 0.290000
0.396250 0.450000 0.290000
0.515000 0.450000 0.290000
0.633750 0.450000 0.290000
0.752500 0.450000 0.290000
0.871250 0.450000 0.290000
0.990000 0.450000 0.290000
0.040000 0.562500 0.290000
0.158750 0.562500 0.290000
0.277500 0.562500 0.290000
0.396250 0.562500 0.290000
0.515000 0.562500 0.290000
0.633750 0.562500 0.290000
0.752500 0.562500 0.290000
0.871250 0.562500 0.290000
0.990000 0.562500 0.290000
0.040000 0.675000 0.290000
0.158750 0.675000 0.290000
0.277500 0.675000 0.290000
0.396250 0.675000 0.290000
0.515000 0.675000 0.290000
0.633750 0.675000 0.290000
0.752500 0.675000 0.290000
0.871250 0.675000 0.290000
0.990000 0.675000 0.290000
0.040000 0.787500 0.290000
0.158750 0.787500 0.290000
0.277500 0.787500 0.290000
0.396250 0.787500 0.290000
0.515000 0.787500 0.290000
0.633750 0.787500 0.290000
0.752500 0.787500 0.290000
0.871250 0.787500 0.290000
0.990000 0.787500 0.290000
0.040000 0.900000 0.290000
0.158750 0.900000 0.290000
0.277500 0.900000 0.290000
0.396250 0.900000 0.290000
0.515000 0.900000 0.290000
0.633750 0.900000 0.290000
0.752500 0.900000 0.290000
0.871250 0.900000 0.290000
0.990000 0.900000 0.290000
0.040000 0.000000 0.440000
0.158750 0.000000 0.440000
0.277500 0.000000 0.440000
0.396250 0.000000 0.440000
0.515000 0.000000 0.440000
0.633750 0.000000 0.440000
0.752500 0.000000 0.440000
0.871250 0.000000 0.440000
0.990000 0.000000 0.440000
0.040000 0.112500 0.440000
0.158750 0.112500 0.440000
0.277500 0.112500 0.440000
0.396250 0.112500 0.440000
0.515000 0.112500 0.440000
0.633750 0.112500 0.440000
0.752500 0.112500 0.440000
0.871250 0.112500 0.440000
0.990000 0.112500 0.440000
0.040000 0.225000 0.440000
0.158750 0.225000 0.440000
0.277500 0.225000 0.440000
0.396250 0.225000 0.440000
0.515000 0.225000 0.440000
0.633750 0.225000 0.440000
0.752500 0.225000 0.440000
0.871250 0.225000 0.440000
0.990000 0.225000 0.440000
0.040000 0.337500 0.440000
0.158750 0.337500 0.440000
0.277500 0.337500 0.440000
0.396250 0.337500 0.440000
0.515000 0.337500 0.440000
0.633750 0.337500 0.440000
0.752500 0.337500 0.440000
0.871250 0.337500 0.440000
0.990000 0.337500 0.440000
0.040000 0.450000 0.440000
0.158750 0.450000 0.440000
0.277500 0.450000 0.440000
0.396250 0.450000 0.440000
0.515000 0.450000 0.440000
0.633750 0.450000 0.440000
0.752500 0.450000 0.440000
0.871250 0.450000 0.440000
0.990000 0.450000 0.440000
0.040000 0.562500 0.440000
0.158750 0.562500 0.440000
0.277500 0.562500 0.440000
0.396250 0.562500 0.440000
0.515000 0.562500 0.440000
0.633750 0.562500 0.440000
0.752500 0.562500 0.440000
0.871250 0.562500 0.440000
0.990000 0.562500 0.440000
0.040000 0.675000 0.440000
0.158750 0.675000 0.440000
0.277500 0.675000 0.440000
0.396250 0.675000 0.440000
0.515000 0.675000 0.440000
0.633750 0.675000 0.440000
0.752500 0.675000 0.440000
0.871250 0.675000 0.440000
0.990000 0.675000 0.440000
0.040000 0.787500 0.440000
0.158750 0.787500 0.440000
0.277500 0.787500 0.440000
0.396250 0.787500 0.440000
0.515000 0.787500 0.440000
0.633750 0.787500 0.440000
0.752500 0.787500 0.440000
0.871250 0.787500 0.440000
0.990000 0.787500 0.440000
0.040000 0.900000 0.440000
0.158750 0.900000 0.440000
0.277500 0.900000 0.440000
0.396250 0.900000 0.440000
0.515000 0.900000 0.440000
0.633750 0.900000 0.440000
0.752500 0.900000 0.440000
0.871250 0.900000 0.440000
0.990000 0.900000 0.440000
0.040000 0.000000 0.590000
0.158750 0.000000 0.590000
0.277500 0.000000 0.590000
0.396250 0.000000 0.590000
0.515000 0.000000 0.590000
0.633750 0.000000 0.590000
0.752500 0.000000 0.590000
0.871250 0.000000 0.590000
0.990000 0.000000 0.590000
0.040000 0.112500 0.590000
0.158750 0.112500 0.590000
0.277500 0.112500 0.590000
0.396250 0.112500 0.590000
0.515000 0.112500 0.590000
0.633750 0.112500 0.590000
0.752500 0.112500 0.590000
0.871250 0.112500 0.590000
0.990000 0.112500 0.590000
0.040000 0.225000 0.590000
0.158750 0.225000 0.590000
0.277500 0.225000 0.590000
0.396250 0.225000 0.590000
0.515000 0.225000 0.590000
0.633750 0.225000 0.590000
0.752500 0.225000 0.590000
0.871250 0.225000 0.590000
0.990000 0.225000 0.590000
0.040000 0.337500 0.590000
0.158750 0.337500 0.590000
0.277500 0.337500 0.590000
0.396250 0.337500 0.590000
0.515000 0.337500 0.590000
0.633750 0.337500 0.590000
0.752500 0.337500 0.590000
0.871250 0.337500 0.590000
0.990000 0.337500 0.590000
0.040000 0.450000 0.590000
0.158750 0.450000 0.590000
0.277500 0.450000 0.590000
0.396250 0.450000 0.590000
0.515000 0.450000 0.590000
0.633750 0.450000 0.590000
0.752500 0.450000 0.590000
0.871250 0.450000 0.590000
0.990000 0.450000 0.590000
0.040000 0.562500 0.590000
0.158750 0.562500 0.590000
0.277500 0.562500 0.590000
0.396250 0.562500 0.590000
0.515000 0.562500 0.590000
0.633750 0.562500 0.590000
0.752500 0.562500 0.590000
0.871250 0.562500 0.590000
0.990000 0.562500 0.590000
0.040000 0.675000 0.590000
0.158750 0.675000 0.590000
0.277500 0.675000 0.590000
0.396250 0.675000 0.590000
0.515000 0.675000 0.590000
0.633750 0.675000 0.590000
0.752500 0.675000 0.590000
0.871250 0.675000 0.590000
0.990000 0.675000 0.590000
0.040000 0.787500 0.590000
0.158750 0.787500 0.590000
0.277500 0.787500 0.590000
0.396250 0.787500 0.590000
0.515000 0.787500 0.590000
0.633750 0.787500 0.590000
0.752500 0.787500 0.590000
0.871250 0.787500 0.590000
0.990000 0.787500 0.590000
0.040000 0.900000 0.590000
0.158750 0.900000 0.590000
0.277500 0.900000 0.590000
0.396250 0.900000 0.590000
0.515000 0.900000 0.590000
0.633750 0.900000 0.590000
0.752500 0.900000 0.590000
0.871250 0.900000 0.590000
0.990000 0.900000 0.590000
0.040000 0.000000 0.740000
0.158750 0.000000 0.740000
0.277500 0.000000 0.740000
0.396250 0.000000 0.740000
0.515000 0.000000 0.740000
0.633750 0.000000 0.740000
0.752500 0.000000 0.740000
0.871250 0.000000 0.740000
0.990000 0.000000 0.740000
0.040000 0.112500 0.740000
0.158750 0.112500 0.740000
0.277500 0.112500 0.740000
0.396250 0.112500 0.740000
0.515000 0.112500 0.740000
0.633750 0.112500 0.740000
0.752500 0.112500 0.740000
0.871250 0.112500 0.740000
0.990000 0.112500 0.740000
0.040000 0.225000 0.740000
0.158750 0.225000 0.740000
0.277500 0.225000 0.740000
0.396250 0.225000 0.740000
0.515000 0.225000 0.740000
0.633750 0.225000 0.740000
0.752500 0.225000 0.740000
0.871250 0.225000 0.740000
0.990000 0.225000 0.740000
0.040000 0.337500 0.740000
0.158750 0.337500 0.740000
0.277500 0.337500 0.740000
0.396250 0.337500 0.740000
0.515000 0.337500 0.740000
0.633750 0.337500 0.740000
0.752500 0.337500 0.740000
0.871250 0.337500 0.740000
0.990000 0.337500 0.740000
0.040000 0.450000 0.740000
0.158750 0.450000 0.740000
0.277500 0.450000 0.740000
0.396250 0.450000 0.740000
0.515000 0.450000 0.740000
0.633750 0.450000 0.740000
0.752500 0.450000 0.740000
0.871250 0.450000 0.740000
0.990000 0.450000 0.740000
0.040000 0.562500 0.740000
0.158750 0.562500 0.740000
0.277500 0.562500 0.740000
0.396250 0.562500 0.740000
0.515000 0.562500 0.740000
0.633750 0.562500 0.740000
0.752500 0.562500 0.740000
0.871250 0.562500 0.740000
0.990000 0.562500 0.740000
0.040000 0.675000 0.740000
0.158750 0.675000 0.740000
0.277500 0.675000 0.740000
0.396250 0.675000 0.740000
0.515000 0.675000 0.740000
0.633750 0.675000 0.740000
0.752500 0.675000 0.740000
0.871250 0.675000 0.740000
0.990000 0.675000 0.740000
0.040000 0.787500 0.740000
0.158750 0.787500 0.740000
0.277500 0.787500 0.740000
0.396250 0.787500 0.740000
0.515000 0.787500 0.740000
0.633750 0.787500 0.740000
0.752500 0.787500 0.740000
0.871250 0.787500 0.740000
0.990000 0.787500 0.740000
0.040000 0.900000 0.740000
0.158750 0.900000 0.740000
0.277500 0.900000 0.740000
0.396250 0.900000 0.740000
0.515000 0.900000 0.740000
0.633750 0.900000 0.740000
0.752500 0.900000 0.740000
0.871250 0.900000 0.740000
0.990000 0.900000 0.740000
0.040000 0.000000 0.890000
0.158750 0.000000 0.890000
0.277500 0.000000 0.890000
0.396250 0.000000 0.890000
0.515000 0.000000 0.890000
0.633750 0.000000 0.890000
0.752500 0.000000 0.890000
0.871250 0.000000 0.890000
0.990000 0.000000 0.890000
0.040000 0.112500 0.890000
0.158750 0.112500 0.890000
0.277500 0.112500 0.890000
0.396250 0.112500 0.890000
0.515000 0.112500 0.890000
0.633750 0.112500 0.890000
0.752500 0.112500 0.890000
0.871250 0.112500 0.890000
0.990000 0.112500 0.890000
0.040000 0.225000 0.890000
0.158750 0.225000 0.890000
0.277500 0.225000 0.890000
0.396250 0.225000 0.890000
0.515000 0.225000 0.890000
0.633750 0.225000 0.890000
0.752500 0.225000 0.890000
0.871250 0.225000 0.890000
0.990000 0.225000 0.890000
0.040000 0.337500 0.890000
0.158750 0.337500 0.890000
0.277500 0.337500 0.890000
0.396250 0.337500 0.890000
0.515000 0.337500 0.890000
0.633750 0.337500 0.890000
0.752500 0.337500 0.890000
0.871250 0.337500 0.890000
0.990000 0.337500 0.890000
0.040000 0.450000 0.890000
0.158750 0.450000 0.890000
0.277500 0.450000 0.890000
0.396250 0.450000 0.890000
0.515000 0.450000 0.890000
0.633750 0.450000 0.890000
0.752500 0.450000 0.890000
0.871250 0.450000 0.890000
0.990000 0.450000 0.890000
0.040000 0.562500 0.890000
0.158750 0.562500 0.890000
0.277500 0.562500 0.890000
0.396250 0.562500 0.890000
0.515000 0.562500 0.890000
0.633750 0.562500 0.890000
0.752500 0.562500 0.890000
0.871250 0.562500 0.890000
0.990000 0.562500 0.890000
0.040000 0.675000 0.890000
0.158750 0.675000 0.890000
0.277500 0.675000 0.890000
0.396250 0.675000 0.890000
0.515000 0.675000 0.890000
0.633750 0.675000 0.890000
0.752500 0.675000 0.890000
0.871250 0.675000 0.890000
0.990000 0.675000 0.890000
0.040000 0.787500 0.890000
0.158750 0.787500 0.890000
0.277500 0.787500 0.890000
0.396250 0.787500 0.890000
0.515000 0.787500 0.890000
0.633750 0.787500 0.890000
0.752500 0.787500 0.890000
0.871250 0.787500 0.890000
0.990000 0.787500 0.890000
0.040000 0.900000 0.890000
0.158750 0.900000 0.890000
0.277500 0.900000 0.890000
0.396250 0.900000 0.890000
0.515000 0.900000 0.890000
0.633750 0.900000 0.890000
0.752500 0.900000 0.890000
0.871250 0.900000 0.890000
0.990000 0.900000 0.890000
0.040000 0.000000 1.000000
0.158750 0.000000 1.000000
0.277500 0.000000 1.000000
0.396250 0.000000 1.000000
0.515000 0.000000 1.000000
0.633750 0.000000 1.000000
0.752500 0.000000 1.000000
0.871250 0.000000 1.000000
0.990000 0.000000 1.000000
0.040000 0.112500 1.000000
0.158750 0.112500 1.000000
0.277500 0.112500 1.000000
0.396250 0.112500 1.000000
0.515000 0.112500 1.000000
0.633750 0.112500 1.000000
0.752500 0.112500 1.000000
0.871250 0.112500 1.000000
0.990000 0.112500 1.000000
0.040000 0.225000 1.000000
0.158750 0.225000 1.000000
0.277500 0.225000 1.000000
0.396250 0.225000 1.000000
0.515000 0.225000 1.000000
0.633750 0.225000 1.000000
0.752500 0.225000 1.000000
0.871250 0.225000 1.000000
0.990000 0.225000 1.000000
0.040000 0.337500 1.000000
0.158750 0.337500 1.000000
0.277500 0.337500 1.000000
0.396250 0.337500 1.000000
0.515000 0.337500 1.000000
0.633750 0.337500 1.000000
0.752500 0.337500 1.000000
0.871250 0.337500 1.000000
0.990000 0.337500 1.000000
0.040000 0.450000 1.000000
0.158750 0.450000 1.000000
0.277500 0.450000 1.000000
0.396250 0.450000 1.000000
0.515000 0.450000 1.000000
0.633750 0.450000 1.000000
0.752500 0.450000 1.000000
0.871250 0.450000 1.000000
0.990000 0.450000 1.000000
0.040000 0.562500 1.000000
0.158750 0.562500 1.000000
0.277500 0.562500 1.000000
0.396250 0.562500 1.000000
0.515000 0.562500 1.000000
0.633750 0.562500 1.000000
0.752500 0.562500 1.000000
0.871250 0.562500 1.000000
0.990000 0.562500 1.000000
0.040000 0.675000 1.000000
0.158750 0.675000 1.000000
0.277500 0.675000 1.000000
0.396250 0.675000 1.000000
0.515000 0.675000 1.000000
0.633750 0.675000 1.000000
0.752500 0.675000 1.000000
0.871250 0.675000 1.000000
0.990000 0.675000 1.000000
0.040000 0.787500 1.000000
0.158750 0.787500 1.000000
0.277500 0.787500 1.000000
0.396250 0.787500 1.000000
0.515000 0.787500 1.000000
0.633750 0.787500 1.000000
0.752500 0.787500 1.000000
0.871250 0.787500 1.000000
0.990000 0.787500 1.000000
0.040000 0.900000 1.000000
0.158750 0.900000 1.000000
0.277500 0.900000 1.000000
0.396250 0.900000 1.000000
0.515000 0.900000 1.000000
0.633750 0.900000 1.000000
0.752500 0.900000 1.000000
0.871250 0.900000 1.000000
0.990000 0.900000 1.000000
0.040000 0.000000 1.000000
0.158750 0.000000 1.000000
0.277500 0.000000 1.000000
0.396250 0.000000 1.000000
0.515000 0.000000 1.000000
0.633750 0.000000 1.000000
0.752500 0.000000 1.000000
0.871250 0.000000 1.000000
0.990000 0.000000 1.000000
0.040000 0.112500 1.000000
0.158750 0.112500 1.000000
0.277500 0.112500 1.000000
0.396250 0.112500 1.000000
0.515000 0.112500 1.000000
0.633750 0.112500 1.000000
0.752500 0.112500 1.000000
0.871250 0.112500 1.000000
0.990000 0.112500 1.000000
0.040000 0.225000 1.000000
0.158750 0.225000 1.000000
0.277500 0.225000 1.000000
0.396250 0.225000 1.000000
0.515000 0.225000 1.000000
0.633750 0.225000 1.000000
0.752500 0.225000 1.000000
0.871250 0.225000 1.000000
0.990000 0.225000 1.000000
0.040000 0.337500 1.000000
0.158750 0.337500 1.000000
0.277500 0.337500 1.000000
0.396250 0.337500 1.000000
0.515000 0.337500 1.000000
0.633750 0.337500 1.000000
0.752500 0.337500 1.000000
0.871250 0.337500 1.000000
0.990000 0.337500 1.000000
0.040000 0.450000 1.000000
0.158750 0.450000 1.000000
0.277500 0.450000 1.000000
0.396250 0.450000 1.000000
0.515000 0.450000 1.000000
0.633750 0.450000 1.000000
0.752500 0.450000 1.000000
0.871250 0.450000 1.000000
0.990000 0.450000 1.000000
0.040000 0.562500 1.000000
0.158750 0.562500 1.000000
0.277500 0.562500 1.000000
0.396250 0.562500 1.000000
0.515000 0.562500 1.000000
0.633750 0.562500 1.000000
0.752500 0.562500 1.000000
0.871250 0.562500 1.000000
0.990000 0.562500 1.000000
0.040000 0.675000 1.000000
0.158750 0.675000 1.000000
0.277500 0.675000 1.000000
0.396250 0.675000 1.000000
0.515000 0.675000 1.000000
0.633750 0.675000 1.000000
0.752500 0.675000 1.000000
0.871250 0.675000 1.000000
0.990000 0.675000 1.000000
0.040000 0.787500 1.000000
0.158750 0.787500 1.000000
0.277500 0.787500 1.000000
0.396250 0.787500 1.000000
0.515000 0.787500 1.000000
0.633750 0.787500 1.000000
0.752500 0.787500 1.000000
0.871250 0.787500 1.000000
0.990000 0.787500 1.000000
0.040000 0.900000 1.000000
0.158750 0.900000 1.000000
0.277500 0.900000 1.000000
0.396250 0.900000 1.000000
0.515000 0.900000 1.000000
0.633750 0.900000 1.000000
0.752500 0.900000 1.000000
0.871250 0.900000 1.000000
0.990000 0.900000 1.000000
0.040000 0.000000 1.000000
0.158750 0.000000 1.000000
0.277500 0.000000 1.000000
0.396250 0.000000 1.000000
0.515000 0.000000 1.000000
0.633750 0.000000 1.000000
0.752500 0.000000 1.000000
0.871250 0.000000 1.000000
0.990000 0.000000 1.000000
0.040000 0.112500 1.000000
0.158750 0.112500 1.000000
0.277500 0.112500 1.000000
0.396250 0.112500 1.000000
0.515000 0.112500 1.000000
0.633750 0.112500 1.000000
0.752500 0.112500 1.000000
0.871250 0.112500 1.000000
0.990000 0.112500 1.000000
0.040000 0.225000 1.000000
0.158750 0.225000 1.000000
0.277500 0.225000 1.000000
0.396250 0.225000 1.000000
0.515000 0.225000 1.000000
0.633750 0.225000 1.000000
0.752500 0.225000 1.000000
0.871250 0.225000 1.000000
0.990000 0.225000 1.000000
0.040000 0.337500 1.000000
0.158750 0.337500 1.000000
0.277500 0.337500 1.000000
0.396250 0.337500 1.000000
0.515000 0.337500 1.000000
0.633750 0.337500 1.000000
0.752500 0.337500 1.000000
0.871250 0.337500 1.000000
0.990000 0.337500 1.000000
0.040000 0.450000 1.000000
0.158750 0.450000 1.000000
0.277500 0.450000 1.000000
0.396250 0.450000 1.000000
0.515000 0.450000 1.000000
0.633750 0.450000 1.000000
0.752500 0.450000 1.000000
0.871250 0.450000 1.000000
0.990000 0.450000 1.000000
0.040000 0.562500 1.000000
0.158750 0.562500 1.000000
0.277500 0.562500 1.000000
0.396250 0.562500 1.000000
0.515000 0.562500 1.000000
0.633750 0.562500 1.000000
0.752500 0.562500 1.000000
0.871250 0.562500 1.000000
0.990000 0.562500 1.000000
0.040000 0.675000 1.000000
0.158750 0.675000 1.000000
0.277500 0.675000 1.000000
0.396250 0.675000 1.000000
0.515000 0.675000 1.000000
0.633750 0.675000 1.000000
0.752500 0.675000 1.000000
0.871250 0.675000 1.000000
0.990000 0.675000 1.000000
0.040000 0.787500 1.000000
0.158750 0.787500 1.000000
0.277500 0.787500 1.000000
0.396250 0.787500 1.000000
0.515000 0.787500 1.000000
0.633750 0.787500 1.000000
0.752500 0.787500 1.000000
0.871250 0.787500 1.000000
0.990000 0.787500 1.000000
0.040000 0.900000 1.000000
0.158750 0.900000 1.000000
0.277500 0.900000 1.000000
0.396250 0.900000 1.000000
0.515000 0.900000 1.000000
0.633750 0.900000 1.000000
0.752500 0.900000 1.000000
0.871250 0.900000 1.000000
0.990000 0.900000 1.000000
