app/src/main/assets/luts/nordic_dusk.cube
# ApexStudio filter: nordic_dusk
LUT_3D_SIZE 17
DOMAIN_MIN 0.0 0.0 0.0
DOMAIN_MAX 1.0 1.0 1.0
0.040000 0.000000 0.140000
0.099375 0.000000 0.140000
0.158750 0.000000 0.140000
0.218125 0.000000 0.140000
0.277500 0.000000 0.140000
0.336875 0.000000 0.140000
0.396250 0.000000 0.140000
0.455625 0.000000 0.140000
0.515000 0.000000 0.140000
0.574375 0.000000 0.140000
0.633750 0.000000 0.140000
0.693125 0.000000 0.140000
0.752500 0.000000 0.140000
0.811875 0.000000 0.140000
0.871250 0.000000 0.140000
0.930625 0.000000 0.140000
0.990000 0.000000 0.140000
0.040000 0.056250 0.140000
0.099375 0.056250 0.140000
0.158750 0.056250 0.140000
0.218125 0.056250 0.140000
0.277500 0.056250 0.140000
0.336875 0.056250 0.140000
0.396250 0.056250 0.140000
0.455625 0.056250 0.140000
0.515000 0.056250 0.140000
0.574375 0.056250 0.140000
0.633750 0.056250 0.140000
0.693125 0.056250 0.140000
0.752500 0.056250 0.140000
0.811875 0.056250 0.140000
0.871250 0.056250 0.140000
0.930625 0.056250 0.140000
0.990000 0.056250 0.140000
0.040000 0.112500 0.140000
0.099375 0.112500 0.140000
0.158750 0.112500 0.140000
0.218125 0.112500 0.140000
0.277500 0.112500 0.140000
0.336875 0.112500 0.140000
0.396250 0.112500 0.140000
0.455625 0.112500 0.140000
0.515000 0.112500 0.140000
0.574375 0.112500 0.140000
0.633750 0.112500 0.140000
0.693125 0.112500 0.140000
0.752500 0.112500 0.140000
0.811875 0.112500 0.140000
0.871250 0.112500 0.140000
0.930625 0.112500 0.140000
0.990000 0.112500 0.140000
0.040000 0.168750 0.140000
0.099375 0.168750 0.140000
0.158750 0.168750 0.140000
0.218125 0.168750 0.140000
0.277500 0.168750 0.140000
0.336875 0.168750 0.140000
0.396250 0.168750 0.140000
0.455625 0.168750 0.140000
0.515000 0.168750 0.140000
0.574375 0.168750 0.140000
0.633750 0.168750 0.140000
0.693125 0.168750 0.140000
0.752500 0.168750 0.140000
0.811875 0.168750 0.140000
0.871250 0.168750 0.140000
0.930625 0.168750 0.140000
0.990000 0.168750 0.140000
0.040000 0.225000 0.140000
0.099375 0.225000 0.140000
0.158750 0.225000 0.140000
0.218125 0.225000 0.140000
0.277500 0.225000 0.140000
0.336875 0.225000 0.140000
0.396250 0.225000 0.140000
0.455625 0.225000 0.140000
0.515000 0.225000 0.140000
0.574375 0.225000 0.140000
0.633750 0.225000 0.140000
0.693125 0.225000 0.140000
0.752500 0.225000 0.140000
0.811875 0.225000 0.140000
0.871250 0.225000 0.140000
0.930625 0.225000 0.140000
0.990000 0.225000 0.140000
0.040000 0.281250 0.140000
0.099375 0.281250 0.140000
0.158750 0.281250 0.140000
0.218125 0.281250 0.140000
0.277500 0.281250 0.140000
0.336875 0.281250 0.140000
0.396250 0.281250 0.140000
0.455625 0.281250 0.140000
0.515000 0.281250 0.140000
0.574375 0.281250 0.140000
0.633750 0.281250 0.140000
0.693125 0.281250 0.140000
0.752500 0.281250 0.140000
0.811875 0.281250 0.140000
0.871250 0.281250 0.140000
0.930625 0.281250 0.140000
0.990000 0.281250 0.140000
0.040000 0.337500 0.140000
0.099375 0.337500 0.140000
0.158750 0.337500 0.140000
0.218125 0.337500 0.140000
0.277500 0.337500 0.140000
0.336875 0.337500 0.140000
0.396250 0.337500 0.140000
0.455625 0.337500 0.140000
0.515000 0.337500 0.140000
0.574375 0.337500 0.140000
0.633750 0.337500 0.140000
0.693125 0.337500 0.140000
0.752500 0.337500 0.140000
0.811875 0.337500 0.140000
0.871250 0.337500 0.140000
0.930625 0.337500 0.140000
0.990000 0.337500 0.140000
0.040000 0.393750 0.140000
0.099375 0.393750 0.140000
0.158750 0.393750 0.140000
0.218125 0.393750 0.140000
0.277500 0.393750 0.140000
0.336875 0.393750 0.140000
0.396250 0.393750 0.140000
0.455625 0.393750 0.140000
0.515000 0.393750 0.140000
0.574375 0.393750 0.140000
0.633750 0.393750 0.140000
0.693125 0.393750 0.140000
0.752500 0.393750 0.140000
0.811875 0.393750 0.140000
0.871250 0.393750 0.140000
0.930625 0.393750 0.140000
0.990000 0.393750 0.140000
0.040000 0.450000 0.140000
0.099375 0.450000 0.140000
0.158750 0.450000 0.140000
0.218125 0.450000 0.140000
0.277500 0.450000 0.140000
0.336875 0.450000 0.140000
0.396250 0.450000 0.140000
0.455625 0.450000 0.140000
0.515000 0.450000 0.140000
0.574375 0.450000 0.140000
0.633750 0.450000 0.140000
0.693125 0.450000 0.140000
0.752500 0.450000 0.140000
0.811875 0.450000 0.140000
0.871250 0.450000 0.140000
0.930625 0.450000 0.140000
0.990000 0.450000 0.140000
0.040000 0.506250 0.140000
0.099375 0.506250 0.140000
0.158750 0.506250 0.140000
0.218125 0.506250 0.140000
0.277500 0.506250 0.140000
0.336875 0.506250 0.140000
0.396250 0.506250 0.140000
0.455625 0.506250 0.140000
0.515000 0.506250 0.140000
0.574375 0.506250 0.140000
0.633750 0.506250 0.140000
0.693125 0.506250 0.140000
0.752500 0.506250 0.140000
0.811875 0.506250 0.140000
0.871250 0.506250 0.140000
0.930625 0.506250 0.140000
0.990000 0.506250 0.140000
0.040000 0.562500 0.140000
0.099375 0.562500 0.140000
0.158750 0.562500 0.140000
0.218125 0.562500 0.140000
0.277500 0.562500 0.140000
0.336875 0.562500 0.140000
0.396250 0.562500 0.140000
0.455625 0.562500 0.140000
0.515000 0.562500 0.140000
0.574375 0.562500 0.140000
0.633750 0.562500 0.140000
0.693125 0.562500 0.140000
0.752500 0.562500 0.140000
0.811875 0.562500 0.140000
0.871250 0.562500 0.140000
0.930625 0.562500 0.140000
0.990000 0.562500 0.140000
0.040000 0.618750 0.140000
0.099375 0.618750 0.140000
0.158750 0.618750 0.140000
0.218125 0.618750 0.140000
0.277500 0.618750 0.140000
0.336875 0.618750 0.140000
0.396250 0.618750 0.140000
0.455625 0.618750 0.140000
0.515000 0.618750 0.140000
0.574375 0.618750 0.140000
0.633750 0.618750 0.140000
0.693125 0.618750 0.140000
0.752500 0.618750 0.140000
0.811875 0.618750 0.140000
0.871250 0.618750 0.140000
0.930625 0.618750 0.140000
0.990000 0.618750 0.140000
0.040000 0.675000 0.140000
0.099375 0.675000 0.140000
0.158750 0.675000 0.140000
0.218125 0.675000 0.140000
0.277500 0.675000 0.140000
0.336875 0.675000 0.140000
0.396250 0.675000 0.140000
0.455625 0.675000 0.140000
0.515000 0.675000 0.140000
0.574375 0.675000 0.140000
0.633750 0.675000 0.140000
0.693125 0.675000 0.140000
0.752500 0.675000 0.140000
0.811875 0.675000 0.140000
0.871250 0.675000 0.140000
0.930625 0.675000 0.140000
0.990000 0.675000 0.140000
0.040000 0.731250 0.140000
0.099375 0.731250 0.140000
0.158750 0.731250 0.140000
0.218125 0.731250 0.140000
0.277500 0.731250 0.140000
0.336875 0.731250 0.140000
0.396250 0.731250 0.140000
0.455625 0.731250 0.140000
0.515000 0.731250 0.140000
0.574375 0.731250 0.140000
0.633750 0.731250 0.140000
0.693125 0.731250 0.140000
0.752500 0.731250 0.140000
0.811875 0.731250 0.140000
0.871250 0.731250 0.140000
0.930625 0.731250 0.140000
0.990000 0.731250 0.140000
0.040000 0.787500 0.140000
0.099375 0.787500 0.140000
0.158750 0.787500 0.140000
0.218125 0.787500 0.140000
0.277500 0.787500 0.140000
0.336875 0.787500 0.140000
0.396250 0.787500 0.140000
0.455625 0.787500 0.140000
0.515000 0.787500 0.140000
0.574375 0.787500 0.140000
0.633750 0.787500 0.140000
0.693125 0.787500 0.140000
0.752500 0.787500 0.140000
0.811875 0.787500 0.140000
0.871250 0.787500 0.140000
0.930625 0.787500 0.140000
0.990000 0.787500 0.140000
0.040000 0.843750 0.140000
0.099375 0.843750 0.140000
0.158750 0.843750 0.140000
0.218125 0.843750 0.140000
0.277500 0.843750 0.140000
0.336875 0.843750 0.140000
0.396250 0.843750 0.140000
0.455625 0.843750 0.140000
0.515000 0.843750 0.140000
0.574375 0.843750 0.140000
0.633750 0.843750 0.140000
0.693125 0.843750 0.140000
0.752500 0.843750 0.140000
0.811875 0.843750 0.140000
0.871250 0.843750 0.140000
0.930625 0.843750 0.140000
0.990000 0.843750 0.140000
0.040000 0.900000 0.140000
0.099375 0.900000 0.140000
0.158750 0.900000 0.140000
0.218125 0.900000 0.140000
0.277500 0.900000 0.140000
0.336875 0.900000 0.140000
0.396250 0.900000 0.140000
0.455625 0.900000 0.140000
0.515000 0.900000 0.140000
0.574375 0.900000 0.140000
0.633750 0.900000 0.140000
0.693125 0.900000 0.140000
0.752500 0.900000 0.140000
0.811875 0.900000 0.140000
0.871250 0.900000 0.140000
0.930625 0.900000 0.140000
0.990000 0.900000 0.140000
0.040000 0.000000 0.215000
0.099375 0.000000 0.215000
0.158750 0.000000 0.215000
0.218125 0.000000 0.215000
0.277500 0.000000 0.215000
0.336875 0.000000 0.215000
0.396250 0.000000 0.215000
0.455625 0.000000 0.215000
0.515000 0.000000 0.215000
0.574375 0.000000 0.215000
0.633750 0.000000 0.215000
0.693125 0.000000 0.215000
0.752500 0.000000 0.215000
0.811875 0.000000 0.215000
0.871250 0.000000 0.215000
0.930625 0.000000 0.215000
0.990000 0.000000 0.215000
0.040000 0.056250 0.215000
0.099375 0.056250 0.215000
0.158750 0.056250 0.215000
0.218125 0.056250 0.215000
0.277500 0.056250 0.215000
0.336875 0.056250 0.215000
0.396250 0.056250 0.215000
0.455625 0.056250 0.215000
0.515000 0.056250 0.215000
0.574375 0.056250 0.215000
0.633750 0.056250 0.215000
0.693125 0.056250 0.215000
0.752500 0.056250 0.215000
0.811875 0.056250 0.215000
0.871250 0.056250 0.215000
0.930625 0.056250 0.215000
0.990000 0.056250 0.215000
0.040000 0.112500 0.215000
0.099375 0.112500 0.215000
0.158750 0.112500 0.215000
0.218125 0.112500 0.215000
0.277500 0.112500 0.215000
0.336875 0.112500 0.215000
0.396250 0.112500 0.215000
0.455625 0.112500 0.215000
0.515000 0.112500 0.215000
0.574375 0.112500 0.215000
0.633750 0.112500 0.215000
0.693125 0.112500 0.215000
0.752500 0.112500 0.215000
0.811875 0.112500 0.215000
0.871250 0.112500 0.215000
0.930625 0.112500 0.215000
0.990000 0.112500 0.215000
0.040000 0.168750 0.215000
0.099375 0.168750 0.215000
0.158750 0.168750 0.215000
0.218125 0.168750 0.215000
0.277500 0.168750 0.215000
0.336875 0.168750 0.215000
0.396250 0.168750 0.215000
0.455625 0.168750 0.215000
0.515000 0.168750 0.215000
0.574375 0.168750 0.215000
0.633750 0.168750 0.215000
0.693125 0.168750 0.215000
0.752500 0.168750 0.215000
0.811875 0.168750 0.215000
0.871250 0.168750 0.215000
0.930625 0.168750 0.215000
0.990000 0.168750 0.215000
0.040000 0.225000 0.215000
0.099375 0.225000 0.215000
0.158750 0.225000 0.215000
0.218125 0.225000 0.215000
0.277500 0.225000 0.215000
0.336875 0.225000 0.215000
0.396250 0.225000 0.215000
0.455625 0.225000 0.215000
0.515000 0.225000 0.215000
0.574375 0.225000 0.215000
0.633750 0.225000 0.215000
0.693125 0.225000 0.215000
0.752500 0.225000 0.215000
0.811875 0.225000 0.215000
0.871250 0.225000 0.215000
0.930625 0.225000 0.215000
0.990000 0.225000 0.215000
0.040000 0.281250 0.215000
0.099375 0.281250 0.215000
0.158750 0.281250 0.215000
0.218125 0.281250 0.215000
0.277500 0.281250 0.215000
0.336875 0.281250 0.215000
0.396250 0.281250 0.215000
0.455625 0.281250 0.215000
0.515000 0.281250 0.215000
0.574375 0.281250 0.215000
0.633750 0.281250 0.215000
0.693125 0.281250 0.215000
0.752500 0.281250 0.215000
0.811875 0.281250 0.215000
0.871250 0.281250 0.215000
0.930625 0.281250 0.215000
0.990000 0.281250 0.215000
0.040000 0.337500 0.215000
0.099375 0.337500 0.215000
0.158750 0.337500 0.215000
0.218125 0.337500 0.215000
0.277500 0.337500 0.215000
0.336875 0.337500 0.215000
0.396250 0.337500 0.215000
0.455625 0.337500 0.215000
0.515000 0.337500 0.215000
0.574375 0.337500 0.215000
0.633750 0.337500 0.215000
0.693125 0.337500 0.215000
0.752500 0.337500 0.215000
0.811875 0.337500 0.215000
0.871250 0.337500 0.215000
0.930625 0.337500 0.215000
0.990000 0.337500 0.215000
0.040000 0.393750 0.215000
0.099375 0.393750 0.215000
0.158750 0.393750 0.215000
0.218125 0.393750 0.215000
0.277500 0.393750 0.215000
0.336875 0.393750 0.215000
0.396250 0.393750 0.215000
0.455625 0.393750 0.215000
0.515000 0.393750 0.215000
0.574375 0.393750 0.215000
0.633750 0.393750 0.215000
0.693125 0.393750 0.215000
0.752500 0.393750 0.215000
0.811875 0.393750 0.215000
0.871250 0.393750 0.215000
0.930625 0.393750 0.215000
0.990000 0.393750 0.215000
0.040000 0.450000 0.215000
0.099375 0.450000 0.215000
0.158750 0.450000 0.215000
0.218125 0.450000 0.215000
0.277500 0.450000 0.215000
0.336875 0.450000 0.215000
0.396250 0.450000 0.215000
0.455625 0.450000 0.215000
0.515000 0.450000 0.215000
0.574375 0.450000 0.215000
0.633750 0.450000 0.215000
0.693125 0.450000 0.215000
0.752500 0.450000 0.215000
0.811875 0.450000 0.215000
0.871250 0.450000 0.215000
0.930625 0.450000 0.215000
0.990000 0.450000 0.215000
0.040000 0.506250 0.215000
0.099375 0.506250 0.215000
0.158750 0.506250 0.215000
0.218125 0.506250 0.215000
0.277500 0.506250 0.215000
0.336875 0.506250 0.215000
0.396250 0.506250 0.215000
0.455625 0.506250 0.215000
0.515000 0.506250 0.215000
0.574375 0.506250 0.215000
0.633750 0.506250 0.215000
0.693125 0.506250 0.215000
0.752500 0.506250 0.215000
0.811875 0.506250 0.215000
0.871250 0.506250 0.215000
0.930625 0.506250 0.215000
0.990000 0.506250 0.215000
0.040000 0.562500 0.215000
0.099375 0.562500 0.215000
0.158750 0.562500 0.215000
0.218125 0.562500 0.215000
0.277500 0.562500 0.215000
0.336875 0.562500 0.215000
0.396250 0.562500 0.215000
0.455625 0.562500 0.215000
0.515000 0.562500 0.215000
0.574375 0.562500 0.215000
0.633750 0.562500 0.215000
0.693125 0.562500 0.215000
0.752500 0.562500 0.215000
0.811875 0.562500 0.215000
0.871250 0.562500 0.215000
0.930625 0.562500 0.215000
0.990000 0.562500 0.215000
0.040000 0.618750 0.215000
0.099375 0.618750 0.215000
0.158750 0.618750 0.215000
0.218125 0.618750 0.215000
0.277500 0.618750 0.215000
0.336875 0.618750 0.215000
0.396250 0.618750 0.215000
0.455625 0.618750 0.215000
0.515000 0.618750 0.215000
0.574375 0.618750 0.215000
0.633750 0.618750 0.215000
0.693125 0.618750 0.215000
0.752500 0.618750 0.215000
0.811875 0.618750 0.215000
0.871250 0.618750 0.215000
0.930625 0.618750 0.215000
0.990000 0.618750 0.215000
0.040000 0.675000 0.215000
0.099375 0.675000 0.215000
0.158750 0.675000 0.215000
0.218125 0.675000 0.215000
0.277500 0.675000 0.215000
0.336875 0.675000 0.215000
0.396250 0.675000 0.215000
0.455625 0.675000 0.215000
0.515000 0.675000 0.215000
0.574375 0.675000 0.215000
0.633750 0.675000 0.215000
0.693125 0.675000 0.215000
0.752500 0.675000 0.215000
0.811875 0.675000 0.215000
0.871250 0.675000 0.215000
0.930625 0.675000 0.215000
0.990000 0.675000 0.215000
0.040000 0.731250 0.215000
0.099375 0.731250 0.215000
0.158750 0.731250 0.215000
0.218125 0.731250 0.215000
0.277500 0.731250 0.215000
0.336875 0.731250 0.215000
0.396250 0.731250 0.215000
0.455625 0.731250 0.215000
0.515000 0.731250 0.215000
0.574375 0.731250 0.215000
0.633750 0.731250 0.215000
0.693125 0.731250 0.215000
0.752500 0.731250 0.215000
0.811875 0.731250 0.215000
0.871250 0.731250 0.215000
0.930625 0.731250 0.215000
0.990000 0.731250 0.215000
0.040000 0.787500 0.215000
0.099375 0.787500 0.215000
0.158750 0.787500 0.215000
0.218125 0.787500 0.215000
0.277500 0.787500 0.215000
0.336875 0.787500 0.215000
0.396250 0.787500 0.215000
0.455625 0.787500 0.215000
0.515000 0.787500 0.215000
0.574375 0.787500 0.215000
0.633750 0.787500 0.215000
0.693125 0.787500 0.215000
0.752500 0.787500 0.215000
0.811875 0.787500 0.215000
0.871250 0.787500 0.215000
0.930625 0.787500 0.215000
0.990000 0.787500 0.215000
0.040000 0.843750 0.215000
0.099375 0.843750 0.215000
0.158750 0.843750 0.215000
0.218125 0.843750 0.215000
0.277500 0.843750 0.215000
0.336875 0.843750 0.215000
0.396250 0.843750 0.215000
0.455625 0.843750 0.215000
0.515000 0.843750 0.215000
0.574375 0.843750 0.215000
0.633750 0.843750 0.215000
0.693125 0.843750 0.215000
0.752500 0.843750 0.215000
0.811875 0.843750 0.215000
0.871250 0.843750 0.215000
0.930625 0.843750 0.215000
0.990000 0.843750 0.215000
0.040000 0.900000 0.215000
0.099375 0.900000 0.215000
0.158750 0.900000 0.215000
0.218125 0.900000 0.215000
0.277500 0.900000 0.215000
0.336875 0.900000 0.215000
0.396250 0.900000 0.215000
0.455625 0.900000 0.215000
0.515000 0.900000 0.215000
0.574375 0.900000 0.215000
0.633750 0.900000 0.215000
0.693125 0.900000 0.215000
0.752500 0.900000 0.215000
0.811875 0.900000 0.215000
0.871250 0.900000 0.215000
0.930625 0.900000 0.215000
0.990000 0.900000 0.215000
0.040000 0.000000 0.290000
0.099375 0.000000 0.290000
0.158750 0.000000 0.290000
0.218125 0.000000 0.290000
0.277500 0.000000 0.290000
0.336875 0.000000 0.290000
0.396250 0.000000 0.290000
0.455625 0.000000 0.290000
0.515000 0.000000 0.290000
0.574375 0.000000 0.290000
0.633750 0.000000 0.290000
0.693125 0.000000 0.290000
0.752500 0.000000 0.290000
0.811875 0.000000 0.290000
0.871250 0.000000 0.290000
0.930625 0.000000 0.290000
0.990000 0.000000 0.290000
0.040000 0.056250 0.290000
0.099375 0.056250 0.290000
0.158750 0.056250 0.290000
0.218125 0.056250 0.290000
0.277500 0.056250 0.290000
0.336875 0.056250 0.290000
0.396250 0.056250 0.290000
0.455625 0.056250 0.290000
0.515000 0.056250 0.290000
0.574375 0.056250 0.290000
0.633750 0.056250 0.290000
0.693125 0.056250 0.290000
0.752500 0.056250 0.290000
0.811875 0.056250 0.290000
0.871250 0.056250 0.290000
0.930625 0.056250 0.290000
0.990000 0.056250 0.290000
0.040000 0.112500 0.290000
0.099375 0.112500 0.290000
0.158750 0.112500 0.290000
0.218125 0.112500 0.290000
0.277500 0.112500 0.290000
0.336875 0.112500 0.290000
0.396250 0.112500 0.290000
0.455625 0.112500 0.290000
0.515000 0.112500 0.290000
0.574375 0.112500 0.290000
0.633750 0.112500 0.290000
0.693125 0.112500 0.290000
0.752500 0.112500 0.290000
0.811875 0.112500 0.290000
0.871250 0.112500 0.290000
0.930625 0.112500 0.290000
0.990000 0.112500 0.290000
0.040000 0.168750 0.290000
0.099375 0.168750 0.290000
0.158750 0.168750 0.290000
0.218125 0.168750 0.290000
0.277500 0.168750 0.290000
0.336875 0.168750 0.290000
0.396250 0.168750 0.290000
0.455625 0.168750 0.290000
0.515000 0.168750 0.290000
0.574375 0.168750 0.290000
0.633750 0.168750 0.290000
0.693125 0.168750 0.290000
0.752500 0.168750 0.290000
0.811875 0.168750 0.290000
0.871250 0.168750 0.290000
0.930625 0.168750 0.290000
0.990000 0.168750 0.290000
0.040000 0.225000 0.290000
0.099375 0.225000 0.290000
0.158750 0.225000 0.290000
0.218125 0.225000 0.290000
0.277500 0.225000 0.290000
0.336875 0.225000 0.290000
0.396250 0.225000 0.290000
0.455625 0.225000 0.290000
0.515000 0.225000 0.290000
0.574375 0.225000 0.290000
0.633750 0.225000 0.290000
0.693125 0.225000 0.290000
0.752500 0.225000 0.290000
0.811875 0.225000 0.290000
0.871250 0.225000 0.290000
0.930625 0.225000 0.290000
0.990000 0.225000 0.290000
0.040000 0.281250 0.290000
0.099375 0.281250 0.290000
0.158750 0.281250 0.290000
0.218125 0.281250 0.290000
0.277500 0.281250 0.290000
0.336875 0.281250 0.290000
0.396250 0.281250 0.290000
0.455625 0.281250 0.290000
0.515000 0.281250 0.290000
0.574375 0.281250 0.290000
0.633750 0.281250 0.290000
0.693125 0.281250 0.290000
0.752500 0.281250 0.290000
0.811875 0.281250 0.290000
0.871250 0.281250 0.290000
0.930625 0.281250 0.290000
0.990000 0.281250 0.290000
0.040000 0.337500 0.290000
0.099375 0.337500 0.290000
0.158750 0.337500 0.290000
0.218125 0.337500 0.290000
0.277500 0.337500 0.290000
0.336875 0.337500 0.290000
0.396250 0.337500 0.290000
0.455625 0.337500 0.290000
0.515000 0.337500 0.290000
0.574375 0.337500 0.290000
0.633750 0.337500 0.290000
0.693125 0.337500 0.290000
0.752500 0.337500 0.290000
0.811875 0.337500 0.290000
0.871250 0.337500 0.290000
0.930625 0.337500 0.290000
0.990000 0.337500 0.290000
0.040000 0.393750 0.290000
0.099375 0.393750 0.290000
0.158750 0.393750 0.290000
0.218125 0.393750 0.290000
0.277500 0.393750 0.290000
0.336875 0.393750 0.290000
0.396250 0.393750 0.290000
0.455625 0.393750 0.290000
0.515000 0.393750 0.290000
0.574375 0.393750 0.290000
0.633750 0.393750 0.290000
0.693125 0.393750 0.290000
0.752500 0.393750 0.290000
0.811875 0.393750 0.290000
0.871250 0.393750 0.290000
0.930625 0.393750 0.290000
0.990000 0.393750 0.290000
0.040000 0.450000 0.290000
0.099375 0.450000 0.290000
0.158750 0.450000 0.290000
0.218125 0.450000 0.290000
0.277500 0.450000 0.290000
0.336875 0.450000 0.290000
0.396250 0.450000 0.290000
0.455625 0.450000 0.290000
0.515000 0.450000 0.290000
0.574375 0.450000 0.290000
0.633750 0.450000 0.290000
0.693125 0.450000 0.290000
0.752500 0.450000 0.290000
0.811875 0.450000 0.290000
0.871250 0.450000 0.290000
0.930625 0.450000 0.290000
0.990000 0.450000 0.290000
0.040000 0.506250 0.290000
0.099375 0.506250 0.290000
0.158750 0.506250 0.290000
0.218125 0.506250 0.290000
0.277500 0.506250 0.290000
0.336875 0.506250 0.290000
0.396250 0.506250 0.290000
0.455625 0.506250 0.290000
0.515000 0.506250 0.290000
0.574375 0.506250 0.290000
0.633750 0.506250 0.290000
0.693125 0.506250 0.290000
0.752500 0.506250 0.290000
0.811875 0.506250 0.290000
0.871250 0.506250 0.290000
0.930625 0.506250 0.290000
0.990000 0.506250 0.290000
0.040000 0.562500 0.290000
0.099375 0.562500 0.290000
0.158750 0.562500 0.290000
0.218125 0.562500 0.290000
0.277500 0.562500 0.290000
0.336875 0.562500 0.290000
0.396250 0.562500 0.290000
0.455625 0.562500 0.290000
0.515000 0.562500 0.290000
0.574375 0.562500 0.290000
0.633750 0.562500 0.290000
0.693125 0.562500 0.290000
0.752500 0.562500 0.290000
0.811875 0.562500 0.290000
0.871250 0.562500 0.290000
0.930625 0.562500 0.290000
0.990000 0.562500 0.290000
0.040000 0.618750 0.290000
0.099375 0.618750 0.290000
0.158750 0.618750 0.290000
0.218125 0.618750 0.290000
0.277500 0.618750 0.290000
0.336875 0.618750 0.290000
0.396250 0.618750 0.290000
0.455625 0.618750 0.290000
0.515000 0.618750 0.290000
0.574375 0.618750 0.290000
0.633750 0.618750 0.290000
0.693125 0.618750 0.290000
0.752500 0.618750 0.290000
0.811875 0.618750 0.290000
0.871250 0.618750 0.290000
0.930625 0.618750 0.290000
0.990000 0.618750 0.290000
0.040000 0.675000 0.290000
0.099375 0.675000 0.290000
0.158750 0.675000 0.290000
0.218125 0.675000 0.290000
0.277500 0.675000 0.290000
0.336875 0.675000 0.290000
0.396250 0.675000 0.290000
0.455625 0.675000 0.290000
0.515000 0.675000 0.290000
0.574375 0.675000 0.290000
0.633750 0.675000 0.290000
0.693125 0.675000 0.290000
0.752500 0.675000 0.290000
0.811875 0.675000 0.290000
0.871250 0.675000 0.290000
0.930625 0.675000 0.290000
0.990000 0.675000 0.290000
0.040000 0.731250 0.290000
0.099375 0.731250 0.290000
0.158750 0.731250 0.290000
0.218125 0.731250 0.290000
0.277500 0.731250 0.290000
0.336875 0.731250 0.290000
0.396250 0.731250 0.290000
0.455625 0.731250 0.290000
0.515000 0.731250 0.290000
0.574375 0.731250 0.290000
0.633750 0.731250 0.290000
0.693125 0.731250 0.290000
0.752500 0.731250 0.290000
0.811875 0.731250 0.290000
0.871250 0.731250 0.290000
0.930625 0.731250 0.290000
0.990000 0.731250 0.290000
0.040000 0.787500 0.290000
0.099375 0.787500 0.290000
0.158750 0.787500 0.290000
0.218125 0.787500 0.290000
0.277500 0.787500 0.290000
0.336875 0.787500 0.290000
0.396250 0.787500 0.290000
0.455625 0.787500 0.290000
0.515000 0.787500 0.290000
0.574375 0.787500 0.290000
0.633750 0.787500 0.290000
0.693125 0.787500 0.290000
0.752500 0.787500 0.290000
0.811875 0.787500 0.290000
0.871250 0.787500 0.290000
0.930625 0.787500 0.290000
0.990000 0.787500 0.290000
0.040000 0.843750 0.290000
0.099375 0.843750 0.290000
0.158750 0.843750 0.290000
0.218125 0.843750 0.290000
0.277500 0.843750 0.290000
0.336875 0.843750 0.290000
0.396250 0.843750 0.290000
0.455625 0.843750 0.290000
0.515000 0.843750 0.290000
0.574375 0.843750 0.290000
0.633750 0.843750 0.290000
0.693125 0.843750 0.290000
0.752500 0.843750 0.290000
0.811875 0.843750 0.290000
0.871250 0.843750 0.290000
0.930625 0.843750 0.290000
0.990000 0.843750 0.290000
0.040000 0.900000 0.290000
0.099375 0.900000 0.290000
0.158750 0.900000 0.290000
0.218125 0.900000 0.290000
0.277500 0.900000 0.290000
0.336875 0.900000 0.290000
0.396250 0.900000 0.290000
0.455625 0.900000 0.290000
0.515000 0.900000 0.290000
0.574375 0.900000 0.290000
0.633750 0.900000 0.290000
0.693125 0.900000 0.290000
0.752500 0.900000 0.290000
0.811875 0.900000 0.290000
0.871250 0.900000 0.290000
0.930625 0.900000 0.290000
0.990000 0.900000 0.290000
0.040000 0.000000 0.365000
0.099375 0.000000 0.365000
0.158750 0.000000 0.365000
0.218125 0.000000 0.365000
0.277500 0.000000 0.365000
0.336875 0.000000 0.365000
0.396250 0.000000 0.365000
0.455625 0.000000 0.365000
0.515000 0.000000 0.365000
0.574375 0.000000 0.365000
0.633750 0.000000 0.365000
0.693125 0.000000 0.365000
0.752500 0.000000 0.365000
0.811875 0.000000 0.365000
0.871250 0.000000 0.365000
0.930625 0.000000 0.365000
0.990000 0.000000 0.365000
0.040000 0.056250 0.365000
