app/src/main/assets/luts/nordic_dusk.cube
# ApexStudio filter: nordic_dusk
LUT_3D_SIZE 5
DOMAIN_MIN 0.0 0.0 0.0
DOMAIN_MAX 1.0 1.0 1.0
0.040000 0.000000 0.140000
0.277500 0.000000 0.140000
0.515000 0.000000 0.140000
0.752500 0.000000 0.140000
0.990000 0.000000 0.140000
0.040000 0.225000 0.140000
0.277500 0.225000 0.140000
0.515000 0.225000 0.140000
0.752500 0.225000 0.140000
0.990000 0.225000 0.140000
0.040000 0.450000 0.140000
0.277500 0.450000 0.140000
0.515000 0.450000 0.140000
0.752500 0.450000 0.140000
0.990000 0.450000 0.140000
0.040000 0.675000 0.140000
0.277500 0.675000 0.140000
0.515000 0.675000 0.140000
0.752500 0.675000 0.140000
0.990000 0.675000 0.140000
0.040000 0.900000 0.140000
0.277500 0.900000 0.140000
0.515000 0.900000 0.140000
0.752500 0.900000 0.140000
0.990000 0.900000 0.140000
0.040000 0.000000 0.440000
0.277500 0.000000 0.440000
0.515000 0.000000 0.440000
0.752500 0.000000 0.440000
0.990000 0.000000 0.440000
0.040000 0.225000 0.440000
0.277500 0.225000 0.440000
0.515000 0.225000 0.440000
0.752500 0.225000 0.440000
0.990000 0.225000 0.440000
0.040000 0.450000 0.440000
0.277500 0.450000 0.440000
0.515000 0.450000 0.440000
0.752500 0.450000 0.440000
0.990000 0.450000 0.440000
0.040000 0.675000 0.440000
0.277500 0.675000 0.440000
0.515000 0.675000 0.440000
0.752500 0.675000 0.440000
0.990000 0.675000 0.440000
0.040000 0.900000 0.440000
0.277500 0.900000 0.440000
0.515000 0.900000 0.440000
0.752500 0.900000 0.440000
0.990000 0.900000 0.440000
0.040000 0.000000 0.740000
0.277500 0.000000 0.740000
0.515000 0.000000 0.740000
0.752500 0.000000 0.740000
0.990000 0.000000 0.740000
0.040000 0.225000 0.740000
0.277500 0.225000 0.740000
0.515000 0.225000 0.740000
0.752500 0.225000 0.740000
0.990000 0.225000 0.740000
0.040000 0.450000 0.740000
0.277500 0.450000 0.740000
0.515000 0.450000 0.740000
0.752500 0.450000 0.740000
0.990000 0.450000 0.740000
0.040000 0.675000 0.740000
0.277500 0.675000 0.740000
0.515000 0.675000 0.740000
0.752500 0.675000 0.740000
0.990000 0.675000 0.740000
0.040000 0.900000 0.740000
0.277500 0.900000 0.740000
0.515000 0.900000 0.740000
0.752500 0.900000 0.740000
0.990000 0.900000 0.740000
0.040000 0.000000 1.000000
0.277500 0.000000 1.000000
0.515000 0.000000 1.000000
0.752500 0.000000 1.000000
0.990000 0.000000 1.000000
0.040000 0.225000 1.000000
0.277500 0.225000 1.000000
0.515000 0.225000 1.000000
0.752500 0.225000 1.000000
0.990000 0.225000 1.000000
0.040000 0.450000 1.000000
0.277500 0.450000 1.000000
0.515000 0.450000 1.000000
0.752500 0.450000 1.000000
0.990000 0.450000 1.000000
0.040000 0.675000 1.000000
0.277500 0.675000 1.000000
0.515000 0.675000 1.000000
0.752500 0.675000 1.000000
0.990000 0.675000 1.000000
0.040000 0.900000 1.000000
0.277500 0.900000 1.000000
0.515000 0.900000 1.000000
0.752500 0.900000 1.000000
0.990000 0.900000 1.000000
0.040000 0.000000 1.000000
0.277500 0.000000 1.000000
0.515000 0.000000 1.000000
0.752500 0.000000 1.000000
0.990000 0.000000 1.000000
0.040000 0.225000 1.000000
0.277500 0.225000 1.000000
0.515000 0.225000 1.000000
0.752500 0.225000 1.000000
0.990000 0.225000 1.000000
0.040000 0.450000 1.000000
0.277500 0.450000 1.000000
0.515000 0.450000 1.000000
0.752500 0.450000 1.000000
0.990000 0.450000 1.000000
0.040000 0.675000 1.000000
0.277500 0.675000 1.000000
0.515000 0.675000 1.000000
0.752500 0.675000 1.000000
0.990000 0.675000 1.000000
0.040000 0.900000 1.000000
0.277500 0.900000 1.000000
0.515000 0.900000 1.000000
0.752500 0.900000 1.000000
0.990000 0.900000 1.000000
