app/src/main/assets/luts/ocean_blue.cube
# ApexStudio filter: ocean_blue
LUT_3D_SIZE 17
DOMAIN_MIN 0.0 0.0 0.0
DOMAIN_MAX 1.0 1.0 1.0
0.000000 0.000000 0.000000
0.046875 0.000000 0.000000
0.093750 0.000000 0.000000
0.140625 0.000000 0.000000
0.187500 0.000000 0.000000
0.234375 0.000000 0.000000
0.281250 0.000000 0.000000
0.328125 0.000000 0.000000
0.375000 0.000000 0.000000
0.421875 0.000000 0.000000
0.468750 0.000000 0.000000
0.515625 0.000000 0.000000
0.562500 0.000000 0.000000
0.609375 0.000000 0.000000
0.656250 0.000000 0.000000
0.703125 0.000000 0.000000
0.750000 0.000000 0.000000
0.000000 0.059375 0.000000
0.046875 0.059375 0.000000
0.093750 0.059375 0.000000
0.140625 0.059375 0.000000
0.187500 0.059375 0.000000
0.234375 0.059375 0.000000
0.281250 0.059375 0.000000
0.328125 0.059375 0.000000
0.375000 0.059375 0.000000
0.421875 0.059375 0.000000
0.468750 0.059375 0.000000
0.515625 0.059375 0.000000
0.562500 0.059375 0.000000
0.609375 0.059375 0.000000
0.656250 0.059375 0.000000
0.703125 0.059375 0.000000
0.750000 0.059375 0.000000
0.000000 0.118750 0.000000
0.046875 0.118750 0.000000
0.093750 0.118750 0.000000
0.140625 0.118750 0.000000
0.187500 0.118750 0.000000
0.234375 0.118750 0.000000
0.281250 0.118750 0.000000
0.328125 0.118750 0.000000
0.375000 0.118750 0.000000
0.421875 0.118750 0.000000
0.468750 0.118750 0.000000
0.515625 0.118750 0.000000
0.562500 0.118750 0.000000
0.609375 0.118750 0.000000
0.656250 0.118750 0.000000
0.703125 0.118750 0.000000
0.750000 0.118750 0.000000
0.000000 0.178125 0.000000
0.046875 0.178125 0.000000
0.093750 0.178125 0.000000
0.140625 0.178125 0.000000
0.187500 0.178125 0.000000
0.234375 0.178125 0.000000
0.281250 0.178125 0.000000
0.328125 0.178125 0.000000
0.375000 0.178125 0.000000
0.421875 0.178125 0.000000
0.468750 0.178125 0.000000
0.515625 0.178125 0.000000
0.562500 0.178125 0.000000
0.609375 0.178125 0.000000
0.656250 0.178125 0.000000
0.703125 0.178125 0.000000
0.750000 0.178125 0.000000
0.000000 0.237500 0.000000
0.046875 0.237500 0.000000
0.093750 0.237500 0.000000
0.140625 0.237500 0.000000
0.187500 0.237500 0.000000
0.234375 0.237500 0.000000
0.281250 0.237500 0.000000
0.328125 0.237500 0.000000
0.375000 0.237500 0.000000
0.421875 0.237500 0.000000
0.468750 0.237500 0.000000
0.515625 0.237500 0.000000
0.562500 0.237500 0.000000
0.609375 0.237500 0.000000
0.656250 0.237500 0.000000
0.703125 0.237500 0.000000
0.750000 0.237500 0.000000
0.000000 0.296875 0.000000
0.046875 0.296875 0.000000
0.093750 0.296875 0.000000
0.140625 0.296875 0.000000
0.187500 0.296875 0.000000
0.234375 0.296875 0.000000
0.281250 0.296875 0.000000
0.328125 0.296875 0.000000
0.375000 0.296875 0.000000
0.421875 0.296875 0.000000
0.468750 0.296875 0.000000
0.515625 0.296875 0.000000
0.562500 0.296875 0.000000
0.609375 0.296875 0.000000
0.656250 0.296875 0.000000
0.703125 0.296875 0.000000
0.750000 0.296875 0.000000
0.000000 0.356250 0.000000
0.046875 0.356250 0.000000
0.093750 0.356250 0.000000
0.140625 0.356250 0.000000
0.187500 0.356250 0.000000
0.234375 0.356250 0.000000
0.281250 0.356250 0.000000
0.328125 0.356250 0.000000
0.375000 0.356250 0.000000
0.421875 0.356250 0.000000
0.468750 0.356250 0.000000
0.515625 0.356250 0.000000
0.562500 0.356250 0.000000
0.609375 0.356250 0.000000
0.656250 0.356250 0.000000
0.703125 0.356250 0.000000
0.750000 0.356250 0.000000
0.000000 0.415625 0.000000
0.046875 0.415625 0.000000
0.093750 0.415625 0.000000
0.140625 0.415625 0.000000
0.187500 0.415625 0.000000
0.234375 0.415625 0.000000
0.281250 0.415625 0.000000
0.328125 0.415625 0.000000
0.375000 0.415625 0.000000
0.421875 0.415625 0.000000
0.468750 0.415625 0.000000
0.515625 0.415625 0.000000
0.562500 0.415625 0.000000
0.609375 0.415625 0.000000
0.656250 0.415625 0.000000
0.703125 0.415625 0.000000
0.750000 0.415625 0.000000
0.000000 0.475000 0.000000
0.046875 0.475000 0.000000
0.093750 0.475000 0.000000
0.140625 0.475000 0.000000
0.187500 0.475000 0.000000
0.234375 0.475000 0.000000
0.281250 0.475000 0.000000
0.328125 0.475000 0.000000
0.375000 0.475000 0.000000
0.421875 0.475000 0.000000
0.468750 0.475000 0.000000
0.515625 0.475000 0.000000
0.562500 0.475000 0.000000
0.609375 0.475000 0.000000
0.656250 0.475000 0.000000
0.703125 0.475000 0.000000
0.750000 0.475000 0.000000
0.000000 0.534375 0.000000
0.046875 0.534375 0.000000
0.093750 0.534375 0.000000
0.140625 0.534375 0.000000
0.187500 0.534375 0.000000
0.234375 0.534375 0.000000
0.281250 0.534375 0.000000
0.328125 0.534375 0.000000
0.375000 0.534375 0.000000
0.421875 0.534375 0.000000
0.468750 0.534375 0.000000
0.515625 0.534375 0.000000
0.562500 0.534375 0.000000
0.609375 0.534375 0.000000
0.656250 0.534375 0.000000
0.703125 0.534375 0.000000
0.750000 0.534375 0.000000
0.000000 0.593750 0.000000
0.046875 0.593750 0.000000
0.093750 0.593750 0.000000
0.140625 0.593750 0.000000
0.187500 0.593750 0.000000
0.234375 0.593750 0.000000
0.281250 0.593750 0.000000
0.328125 0.593750 0.000000
0.375000 0.593750 0.000000
0.421875 0.593750 0.000000
0.468750 0.593750 0.000000
0.515625 0.593750 0.000000
0.562500 0.593750 0.000000
0.609375 0.593750 0.000000
0.656250 0.593750 0.000000
0.703125 0.593750 0.000000
0.750000 0.593750 0.000000
0.000000 0.653125 0.000000
0.046875 0.653125 0.000000
0.093750 0.653125 0.000000
0.140625 0.653125 0.000000
0.187500 0.653125 0.000000
0.234375 0.653125 0.000000
0.281250 0.653125 0.000000
0.328125 0.653125 0.000000
0.375000 0.653125 0.000000
0.421875 0.653125 0.000000
0.468750 0.653125 0.000000
0.515625 0.653125 0.000000
0.562500 0.653125 0.000000
0.609375 0.653125 0.000000
0.656250 0.653125 0.000000
0.703125 0.653125 0.000000
0.750000 0.653125 0.000000
0.000000 0.712500 0.000000
0.046875 0.712500 0.000000
0.093750 0.712500 0.000000
0.140625 0.712500 0.000000
0.187500 0.712500 0.000000
0.234375 0.712500 0.000000
0.281250 0.712500 0.000000
0.328125 0.712500 0.000000
0.375000 0.712500 0.000000
0.421875 0.712500 0.000000
0.468750 0.712500 0.000000
0.515625 0.712500 0.000000
0.562500 0.712500 0.000000
0.609375 0.712500 0.000000
0.656250 0.712500 0.000000
0.703125 0.712500 0.000000
0.750000 0.712500 0.000000
0.000000 0.771875 0.000000
0.046875 0.771875 0.000000
0.093750 0.771875 0.000000
0.140625 0.771875 0.000000
0.187500 0.771875 0.000000
0.234375 0.771875 0.000000
0.281250 0.771875 0.000000
0.328125 0.771875 0.000000
0.375000 0.771875 0.000000
0.421875 0.771875 0.000000
0.468750 0.771875 0.000000
0.515625 0.771875 0.000000
0.562500 0.771875 0.000000
0.609375 0.771875 0.000000
0.656250 0.771875 0.000000
0.703125 0.771875 0.000000
0.750000 0.771875 0.000000
0.000000 0.831250 0.000000
0.046875 0.831250 0.000000
0.093750 0.831250 0.000000
0.140625 0.831250 0.000000
0.187500 0.831250 0.000000
0.234375 0.831250 0.000000
0.281250 0.831250 0.000000
0.328125 0.831250 0.000000
0.375000 0.831250 0.000000
0.421875 0.831250 0.000000
0.468750 0.831250 0.000000
0.515625 0.831250 0.000000
0.562500 0.831250 0.000000
0.609375 0.831250 0.000000
0.656250 0.831250 0.000000
0.703125 0.831250 0.000000
0.750000 0.831250 0.000000
0.000000 0.890625 0.000000
0.046875 0.890625 0.000000
0.093750 0.890625 0.000000
0.140625 0.890625 0.000000
0.187500 0.890625 0.000000
0.234375 0.890625 0.000000
0.281250 0.890625 0.000000
0.328125 0.890625 0.000000
0.375000 0.890625 0.000000
0.421875 0.890625 0.000000
0.468750 0.890625 0.000000
0.515625 0.890625 0.000000
0.562500 0.890625 0.000000
0.609375 0.890625 0.000000
0.656250 0.890625 0.000000
0.703125 0.890625 0.000000
0.750000 0.890625 0.000000
0.000000 0.950000 0.000000
0.046875 0.950000 0.000000
0.093750 0.950000 0.000000
0.140625 0.950000 0.000000
0.187500 0.950000 0.000000
0.234375 0.950000 0.000000
0.281250 0.950000 0.000000
0.328125 0.950000 0.000000
0.375000 0.950000 0.000000
0.421875 0.950000 0.000000
0.468750 0.950000 0.000000
0.515625 0.950000 0.000000
0.562500 0.950000 0.000000
0.609375 0.950000 0.000000
0.656250 0.950000 0.000000
0.703125 0.950000 0.000000
0.750000 0.950000 0.000000
0.000000 0.000000 0.078125
0.046875 0.000000 0.078125
0.093750 0.000000 0.078125
0.140625 0.000000 0.078125
0.187500 0.000000 0.078125
0.234375 0.000000 0.078125
0.281250 0.000000 0.078125
0.328125 0.000000 0.078125
0.375000 0.000000 0.078125
0.421875 0.000000 0.078125
0.468750 0.000000 0.078125
0.515625 0.000000 0.078125
0.562500 0.000000 0.078125
0.609375 0.000000 0.078125
0.656250 0.000000 0.078125
0.703125 0.000000 0.078125
0.750000 0.000000 0.078125
0.000000 0.059375 0.078125
0.046875 0.059375 0.078125
0.093750 0.059375 0.078125
0.140625 0.059375 0.078125
0.187500 0.059375 0.078125
0.234375 0.059375 0.078125
0.281250 0.059375 0.078125
0.328125 0.059375 0.078125
0.375000 0.059375 0.078125
0.421875 0.059375 0.078125
0.468750 0.059375 0.078125
0.515625 0.059375 0.078125
0.562500 0.059375 0.078125
0.609375 0.059375 0.078125
0.656250 0.059375 0.078125
0.703125 0.059375 0.078125
0.750000 0.059375 0.078125
0.000000 0.118750 0.078125
0.046875 0.118750 0.078125
0.093750 0.118750 0.078125
0.140625 0.118750 0.078125
0.187500 0.118750 0.078125
0.234375 0.118750 0.078125
0.281250 0.118750 0.078125
0.328125 0.118750 0.078125
0.375000 0.118750 0.078125
0.421875 0.118750 0.078125
0.468750 0.118750 0.078125
0.515625 0.118750 0.078125
0.562500 0.118750 0.078125
0.609375 0.118750 0.078125
0.656250 0.118750 0.078125
0.703125 0.118750 0.078125
0.750000 0.118750 0.078125
0.000000 0.178125 0.078125
0.046875 0.178125 0.078125
0.093750 0.178125 0.078125
0.140625 0.178125 0.078125
0.187500 0.178125 0.078125
0.234375 0.178125 0.078125
0.281250 0.178125 0.078125
0.328125 0.178125 0.078125
0.375000 0.178125 0.078125
0.421875 0.178125 0.078125
0.468750 0.178125 0.078125
0.515625 0.178125 0.078125
0.562500 0.178125 0.078125
0.609375 0.178125 0.078125
0.656250 0.178125 0.078125
0.703125 0.178125 0.078125
0.750000 0.178125 0.078125
0.000000 0.237500 0.078125
0.046875 0.237500 0.078125
0.093750 0.237500 0.078125
0.140625 0.237500 0.078125
0.187500 0.237500 0.078125
0.234375 0.237500 0.078125
0.281250 0.237500 0.078125
0.328125 0.237500 0.078125
0.375000 0.237500 0.078125
0.421875 0.237500 0.078125
0.468750 0.237500 0.078125
0.515625 0.237500 0.078125
0.562500 0.237500 0.078125
0.609375 0.237500 0.078125
0.656250 0.237500 0.078125
0.703125 0.237500 0.078125
0.750000 0.237500 0.078125
0.000000 0.296875 0.078125
0.046875 0.296875 0.078125
0.093750 0.296875 0.078125
0.140625 0.296875 0.078125
0.187500 0.296875 0.078125
0.234375 0.296875 0.078125
0.281250 0.296875 0.078125
0.328125 0.296875 0.078125
0.375000 0.296875 0.078125
0.421875 0.296875 0.078125
0.468750 0.296875 0.078125
0.515625 0.296875 0.078125
0.562500 0.296875 0.078125
0.609375 0.296875 0.078125
0.656250 0.296875 0.078125
0.703125 0.296875 0.078125
0.750000 0.296875 0.078125
0.000000 0.356250 0.078125
0.046875 0.356250 0.078125
0.093750 0.356250 0.078125
0.140625 0.356250 0.078125
0.187500 0.356250 0.078125
0.234375 0.356250 0.078125
0.281250 0.356250 0.078125
0.328125 0.356250 0.078125
0.375000 0.356250 0.078125
0.421875 0.356250 0.078125
0.468750 0.356250 0.078125
0.515625 0.356250 0.078125
0.562500 0.356250 0.078125
0.609375 0.356250 0.078125
0.656250 0.356250 0.078125
0.703125 0.356250 0.078125
0.750000 0.356250 0.078125
0.000000 0.415625 0.078125
0.046875 0.415625 0.078125
0.093750 0.415625 0.078125
0.140625 0.415625 0.078125
0.187500 0.415625 0.078125
0.234375 0.415625 0.078125
0.281250 0.415625 0.078125
0.328125 0.415625 0.078125
0.375000 0.415625 0.078125
0.421875 0.415625 0.078125
0.468750 0.415625 0.078125
0.515625 0.415625 0.078125
0.562500 0.415625 0.078125
0.609375 0.415625 0.078125
0.656250 0.415625 0.078125
0.703125 0.415625 0.078125
0.750000 0.415625 0.078125
0.000000 0.475000 0.078125
0.046875 0.475000 0.078125
0.093750 0.475000 0.078125
0.140625 0.475000 0.078125
0.187500 0.475000 0.078125
0.234375 0.475000 0.078125
0.281250 0.475000 0.078125
0.328125 0.475000 0.078125
0.375000 0.475000 0.078125
0.421875 0.475000 0.078125
0.468750 0.475000 0.078125
0.515625 0.475000 0.078125
0.562500 0.475000 0.078125
0.609375 0.475000 0.078125
0.656250 0.475000 0.078125
0.703125 0.475000 0.078125
0.750000 0.475000 0.078125
0.000000 0.534375 0.078125
0.046875 0.534375 0.078125
0.093750 0.534375 0.078125
0.140625 0.534375 0.078125
0.187500 0.534375 0.078125
0.234375 0.534375 0.078125
0.281250 0.534375 0.078125
0.328125 0.534375 0.078125
0.375000 0.534375 0.078125
0.421875 0.534375 0.078125
0.468750 0.534375 0.078125
0.515625 0.534375 0.078125
0.562500 0.534375 0.078125
0.609375 0.534375 0.078125
0.656250 0.534375 0.078125
0.703125 0.534375 0.078125
0.750000 0.534375 0.078125
0.000000 0.593750 0.078125
0.046875 0.593750 0.078125
0.093750 0.593750 0.078125
0.140625 0.593750 0.078125
0.187500 0.593750 0.078125
0.234375 0.593750 0.078125
0.281250 0.593750 0.078125
0.328125 0.593750 0.078125
0.375000 0.593750 0.078125
0.421875 0.593750 0.078125
0.468750 0.593750 0.078125
0.515625 0.593750 0.078125
0.562500 0.593750 0.078125
0.609375 0.593750 0.078125
0.656250 0.593750 0.078125
0.703125 0.593750 0.078125
0.750000 0.593750 0.078125
0.000000 0.653125 0.078125
0.046875 0.653125 0.078125
0.093750 0.653125 0.078125
0.140625 0.653125 0.078125
0.187500 0.653125 0.078125
0.234375 0.653125 0.078125
0.281250 0.653125 0.078125
0.328125 0.653125 0.078125
0.375000 0.653125 0.078125
0.421875 0.653125 0.078125
0.468750 0.653125 0.078125
0.515625 0.653125 0.078125
0.562500 0.653125 0.078125
0.609375 0.653125 0.078125
0.656250 0.653125 0.078125
0.703125 0.653125 0.078125
0.750000 0.653125 0.078125
0.000000 0.712500 0.078125
0.046875 0.712500 0.078125
0.093750 0.712500 0.078125
0.140625 0.712500 0.078125
0.187500 0.712500 0.078125
0.234375 0.712500 0.078125
0.281250 0.712500 0.078125
0.328125 0.712500 0.078125
0.375000 0.712500 0.078125
0.421875 0.712500 0.078125
0.468750 0.712500 0.078125
0.515625 0.712500 0.078125
0.562500 0.712500 0.078125
0.609375 0.712500 0.078125
0.656250 0.712500 0.078125
0.703125 0.712500 0.078125
0.750000 0.712500 0.078125
0.000000 0.771875 0.078125
0.046875 0.771875 0.078125
0.093750 0.771875 0.078125
0.140625 0.771875 0.078125
0.187500 0.771875 0.078125
0.234375 0.771875 0.078125
0.281250 0.771875 0.078125
0.328125 0.771875 0.078125
0.375000 0.771875 0.078125
0.421875 0.771875 0.078125
0.468750 0.771875 0.078125
0.515625 0.771875 0.078125
0.562500 0.771875 0.078125
0.609375 0.771875 0.078125
0.656250 0.771875 0.078125
0.703125 0.771875 0.078125
0.750000 0.771875 0.078125
0.000000 0.831250 0.078125
0.046875 0.831250 0.078125
0.093750 0.831250 0.078125
0.140625 0.831250 0.078125
0.187500 0.831250 0.078125
0.234375 0.831250 0.078125
0.281250 0.831250 0.078125
0.328125 0.831250 0.078125
0.375000 0.831250 0.078125
0.421875 0.831250 0.078125
0.468750 0.831250 0.078125
0.515625 0.831250 0.078125
0.562500 0.831250 0.078125
0.609375 0.831250 0.078125
0.656250 0.831250 0.078125
0.703125 0.831250 0.078125
0.750000 0.831250 0.078125
0.000000 0.890625 0.078125
0.046875 0.890625 0.078125
0.093750 0.890625 0.078125
0.140625 0.890625 0.078125
0.187500 0.890625 0.078125
0.234375 0.890625 0.078125
0.281250 0.890625 0.078125
0.328125 0.890625 0.078125
0.375000 0.890625 0.078125
0.421875 0.890625 0.078125
0.468750 0.890625 0.078125
0.515625 0.890625 0.078125
0.562500 0.890625 0.078125
0.609375 0.890625 0.078125
0.656250 0.890625 0.078125
0.703125 0.890625 0.078125
0.750000 0.890625 0.078125
0.000000 0.950000 0.078125
0.046875 0.950000 0.078125
0.093750 0.950000 0.078125
0.140625 0.950000 0.078125
0.187500 0.950000 0.078125
0.234375 0.950000 0.078125
0.281250 0.950000 0.078125
0.328125 0.950000 0.078125
0.375000 0.950000 0.078125
0.421875 0.950000 0.078125
0.468750 0.950000 0.078125
0.515625 0.950000 0.078125
0.562500 0.950000 0.078125
0.609375 0.950000 0.078125
0.656250 0.950000 0.078125
0.703125 0.950000 0.078125
0.750000 0.950000 0.078125
0.000000 0.000000 0.156250
0.046875 0.000000 0.156250
0.093750 0.000000 0.156250
0.140625 0.000000 0.156250
0.187500 0.000000 0.156250
0.234375 0.000000 0.156250
0.281250 0.000000 0.156250
0.328125 0.000000 0.156250
0.375000 0.000000 0.156250
0.421875 0.000000 0.156250
0.468750 0.000000 0.156250
0.515625 0.000000 0.156250
0.562500 0.000000 0.156250
0.609375 0.000000 0.156250
0.656250 0.000000 0.156250
0.703125 0.000000 0.156250
0.750000 0.000000 0.156250
0.000000 0.059375 0.156250
0.046875 0.059375 0.156250
0.093750 0.059375 0.156250
0.140625 0.059375 0.156250
0.187500 0.059375 0.156250
0.234375 0.059375 0.156250
0.281250 0.059375 0.156250
0.328125 0.059375 0.156250
0.375000 0.059375 0.156250
0.421875 0.059375 0.156250
0.468750 0.059375 0.156250
0.515625 0.059375 0.156250
0.562500 0.059375 0.156250
0.609375 0.059375 0.156250
0.656250 0.059375 0.156250
0.703125 0.059375 0.156250
0.750000 0.059375 0.156250
0.000000 0.118750 0.156250
0.046875 0.118750 0.156250
0.093750 0.118750 0.156250
0.140625 0.118750 0.156250
0.187500 0.118750 0.156250
0.234375 0.118750 0.156250
0.281250 0.118750 0.156250
0.328125 0.118750 0.156250
0.375000 0.118750 0.156250
0.421875 0.118750 0.156250
0.468750 0.118750 0.156250
0.515625 0.118750 0.156250
0.562500 0.118750 0.156250
0.609375 0.118750 0.156250
0.656250 0.118750 0.156250
0.703125 0.118750 0.156250
0.750000 0.118750 0.156250
0.000000 0.178125 0.156250
0.046875 0.178125 0.156250
0.093750 0.178125 0.156250
0.140625 0.178125 0.156250
0.187500 0.178125 0.156250
0.234375 0.178125 0.156250
0.281250 0.178125 0.156250
0.328125 0.178125 0.156250
0.375000 0.178125 0.156250
0.421875 0.178125 0.156250
0.468750 0.178125 0.156250
0.515625 0.178125 0.156250
0.562500 0.178125 0.156250
0.609375 0.178125 0.156250
0.656250 0.178125 0.156250
0.703125 0.178125 0.156250
0.750000 0.178125 0.156250
0.000000 0.237500 0.156250
0.046875 0.237500 0.156250
0.093750 0.237500 0.156250
0.140625 0.237500 0.156250
0.187500 0.237500 0.156250
0.234375 0.237500 0.156250
0.281250 0.237500 0.156250
0.328125 0.237500 0.156250
0.375000 0.237500 0.156250
0.421875 0.237500 0.156250
0.468750 0.237500 0.156250
0.515625 0.237500 0.156250
0.562500 0.237500 0.156250
0.609375 0.237500 0.156250
0.656250 0.237500 0.156250
0.703125 0.237500 0.156250
0.750000 0.237500 0.156250
0.000000 0.296875 0.156250
0.046875 0.296875 0.156250
0.093750 0.296875 0.156250
0.140625 0.296875 0.156250
0.187500 0.296875 0.156250
0.234375 0.296875 0.156250
0.281250 0.296875 0.156250
0.328125 0.296875 0.156250
0.375000 0.296875 0.156250
0.421875 0.296875 0.156250
0.468750 0.296875 0.156250
0.515625 0.296875 0.156250
0.562500 0.296875 0.156250
0.609375 0.296875 0.156250
0.656250 0.296875 0.156250
0.703125 0.296875 0.156250
0.750000 0.296875 0.156250
0.000000 0.356250 0.156250
0.046875 0.356250 0.156250
0.093750 0.356250 0.156250
0.140625 0.356250 0.156250
0.187500 0.356250 0.156250
0.234375 0.356250 0.156250
0.281250 0.356250 0.156250
0.328125 0.356250 0.156250
0.375000 0.356250 0.156250
0.421875 0.356250 0.156250
0.468750 0.356250 0.156250
0.515625 0.356250 0.156250
0.562500 0.356250 0.156250
0.609375 0.356250 0.156250
0.656250 0.356250 0.156250
0.703125 0.356250 0.156250
0.750000 0.356250 0.156250
0.000000 0.415625 0.156250
0.046875 0.415625 0.156250
0.093750 0.415625 0.156250
0.140625 0.415625 0.156250
0.187500 0.415625 0.156250
0.234375 0.415625 0.156250
0.281250 0.415625 0.156250
0.328125 0.415625 0.156250
0.375000 0.415625 0.156250
0.421875 0.415625 0.156250
0.468750 0.415625 0.156250
0.515625 0.415625 0.156250
0.562500 0.415625 0.156250
0.609375 0.415625 0.156250
0.656250 0.415625 0.156250
0.703125 0.415625 0.156250
0.750000 0.415625 0.156250
0.000000 0.475000 0.156250
0.046875 0.475000 0.156250
0.093750 0.475000 0.156250
0.140625 0.475000 0.156250
0.187500 0.475000 0.156250
0.234375 0.475000 0.156250
0.281250 0.475000 0.156250
0.328125 0.475000 0.156250
0.375000 0.475000 0.156250
0.421875 0.475000 0.156250
0.468750 0.475000 0.156250
0.515625 0.475000 0.156250
0.562500 0.475000 0.156250
0.609375 0.475000 0.156250
0.656250 0.475000 0.156250
0.703125 0.475000 0.156250
0.750000 0.475000 0.156250
0.000000 0.534375 0.156250
0.046875 0.534375 0.156250
0.093750 0.534375 0.156250
0.140625 0.534375 0.156250
0.187500 0.534375 0.156250
0.234375 0.534375 0.156250
0.281250 0.534375 0.156250
0.328125 0.534375 0.156250
0.375000 0.534375 0.156250
0.421875 0.534375 0.156250
0.468750 0.534375 0.156250
0.515625 0.534375 0.156250
0.562500 0.534375 0.156250
0.609375 0.534375 0.156250
0.656250 0.534375 0.156250
0.703125 0.534375 0.156250
0.750000 0.534375 0.156250
0.000000 0.593750 0.156250
0.046875 0.593750 0.156250
0.093750 0.593750 0.156250
0.140625 0.593750 0.156250
0.187500 0.593750 0.156250
0.234375 0.593750 0.156250
0.281250 0.593750 0.156250
0.328125 0.593750 0.156250
0.375000 0.593750 0.156250
0.421875 0.593750 0.156250
0.468750 0.593750 0.156250
0.515625 0.593750 0.156250
0.562500 0.593750 0.156250
0.609375 0.593750 0.156250
0.656250 0.593750 0.156250
0.703125 0.593750 0.156250
0.750000 0.593750 0.156250
0.000000 0.653125 0.156250
0.046875 0.653125 0.156250
0.093750 0.653125 0.156250
0.140625 0.653125 0.156250
0.187500 0.653125 0.156250
0.234375 0.653125 0.156250
0.281250 0.653125 0.156250
0.328125 0.653125 0.156250
0.375000 0.653125 0.156250
0.421875 0.653125 0.156250
0.468750 0.653125 0.156250
0.515625 0.653125 0.156250
0.562500 0.653125 0.156250
0.609375 0.653125 0.156250
0.656250 0.653125 0.156250
0.703125 0.653125 0.156250
0.750000 0.653125 0.156250
0.000000 0.712500 0.156250
0.046875 0.712500 0.156250
0.093750 0.712500 0.156250
0.140625 0.712500 0.156250
0.187500 0.712500 0.156250
0.234375 0.712500 0.156250
0.281250 0.712500 0.156250
0.328125 0.712500 0.156250
0.375000 0.712500 0.156250
0.421875 0.712500 0.156250
0.468750 0.712500 0.156250
0.515625 0.712500 0.156250
0.562500 0.712500 0.156250
0.609375 0.712500 0.156250
0.656250 0.712500 0.156250
0.703125 0.712500 0.156250
0.750000 0.712500 0.156250
0.000000 0.771875 0.156250
0.046875 0.771875 0.156250
0.093750 0.771875 0.156250
0.140625 0.771875 0.156250
0.187500 0.771875 0.156250
0.234375 0.771875 0.156250
0.281250 0.771875 0.156250
0.328125 0.771875 0.156250
0.375000 0.771875 0.156250
0.421875 0.771875 0.156250
0.468750 0.771875 0.156250
0.515625 0.771875 0.156250
0.562500 0.771875 0.156250
0.609375 0.771875 0.156250
0.656250 0.771875 0.156250
0.703125 0.771875 0.156250
0.750000 0.771875 0.156250
0.000000 0.831250 0.156250
0.046875 0.831250 0.156250
0.093750 0.831250 0.156250
0.140625 0.831250 0.156250
0.187500 0.831250 0.156250
0.234375 0.831250 0.156250
0.281250 0.831250 0.156250
0.328125 0.831250 0.156250
0.375000 0.831250 0.156250
0.421875 0.831250 0.156250
0.468750 0.831250 0.156250
0.515625 0.831250 0.156250
0.562500 0.831250 0.156250
0.609375 0.831250 0.156250
0.656250 0.831250 0.156250
0.703125 0.831250 0.156250
0.750000 0.831250 0.156250
0.000000 0.890625 0.156250
0.046875 0.890625 0.156250
0.093750 0.890625 0.156250
0.140625 0.890625 0.156250
0.187500 0.890625 0.156250
0.234375 0.890625 0.156250
0.281250 0.890625 0.156250
0.328125 0.890625 0.156250
0.375000 0.890625 0.156250
0.421875 0.890625 0.156250
0.468750 0.890625 0.156250
0.515625 0.890625 0.156250
0.562500 0.890625 0.156250
0.609375 0.890625 0.156250
0.656250 0.890625 0.156250
0.703125 0.890625 0.156250
0.750000 0.890625 0.156250
0.000000 0.950000 0.156250
0.046875 0.950000 0.156250
0.093750 0.950000 0.156250
0.140625 0.950000 0.156250
0.187500 0.950000 0.156250
0.234375 0.950000 0.156250
0.281250 0.950000 0.156250
0.328125 0.950000 0.156250
0.375000 0.950000 0.156250
0.421875 0.950000 0.156250
0.468750 0.950000 0.156250
0.515625 0.950000 0.156250
0.562500 0.950000 0.156250
0.609375 0.950000 0.156250
0.656250 0.950000 0.156250
0.703125 0.950000 0.156250
0.750000 0.950000 0.156250
0.000000 0.000000 0.234375
0.046875 0.000000 0.234375
0.093750 0.000000 0.234375
0.140625 0.000000 0.234375
0.187500 0.000000 0.234375
0.234375 0.000000 0.234375
0.281250 0.000000 0.234375
0.328125 0.000000 0.234375
0.375000 0.000000 0.234375
0.421875 0.000000 0.234375
0.468750 0.000000 0.234375
0.515625 0.000000 0.234375
0.562500 0.000000 0.234375
0.609375 0.000000 0.234375
0.656250 0.000000 0.234375
0.703125 0.000000 0.234375
0.750000 0.000000 0.234375
0.000000 0.059375 0.234375
