app/src/main/assets/luts/ocean_blue.cube
# ApexStudio filter: ocean_blue
LUT_3D_SIZE 5
DOMAIN_MIN 0.0 0.0 0.0
DOMAIN_MAX 1.0 1.0 1.0
0.000000 0.000000 0.000000
0.187500 0.000000 0.000000
0.375000 0.000000 0.000000
0.562500 0.000000 0.000000
0.750000 0.000000 0.000000
0.000000 0.237500 0.000000
0.187500 0.237500 0.000000
0.375000 0.237500 0.000000
0.562500 0.237500 0.000000
0.750000 0.237500 0.000000
0.000000 0.475000 0.000000
0.187500 0.475000 0.000000
0.375000 0.475000 0.000000
0.562500 0.475000 0.000000
0.750000 0.475000 0.000000
0.000000 0.712500 0.000000
0.187500 0.712500 0.000000
0.375000 0.712500 0.000000
0.562500 0.712500 0.000000
0.750000 0.712500 0.000000
0.000000 0.950000 0.000000
0.187500 0.950000 0.000000
0.375000 0.950000 0.000000
0.562500 0.950000 0.000000
0.750000 0.950000 0.000000
0.000000 0.000000 0.312500
0.187500 0.000000 0.312500
0.375000 0.000000 0.312500
0.562500 0.000000 0.312500
0.750000 0.000000 0.312500
0.000000 0.237500 0.312500
0.187500 0.237500 0.312500
0.375000 0.237500 0.312500
0.562500 0.237500 0.312500
0.750000 0.237500 0.312500
0.000000 0.475000 0.312500
0.187500 0.475000 0.312500
0.375000 0.475000 0.312500
0.562500 0.475000 0.312500
0.750000 0.475000 0.312500
0.000000 0.712500 0.312500
0.187500 0.712500 0.312500
0.375000 0.712500 0.312500
0.562500 0.712500 0.312500
0.750000 0.712500 0.312500
0.000000 0.950000 0.312500
0.187500 0.950000 0.312500
0.375000 0.950000 0.312500
0.562500 0.950000 0.312500
0.750000 0.950000 0.312500
0.000000 0.000000 0.625000
0.187500 0.000000 0.625000
0.375000 0.000000 0.625000
0.562500 0.000000 0.625000
0.750000 0.000000 0.625000
0.000000 0.237500 0.625000
0.187500 0.237500 0.625000
0.375000 0.237500 0.625000
0.562500 0.237500 0.625000
0.750000 0.237500 0.625000
0.000000 0.475000 0.625000
0.187500 0.475000 0.625000
0.375000 0.475000 0.625000
0.562500 0.475000 0.625000
0.750000 0.475000 0.625000
0.000000 0.712500 0.625000
0.187500 0.712500 0.625000
0.375000 0.712500 0.625000
0.562500 0.712500 0.625000
0.750000 0.712500 0.625000
0.000000 0.950000 0.625000
0.187500 0.950000 0.625000
0.375000 0.950000 0.625000
0.562500 0.950000 0.625000
0.750000 0.950000 0.625000
0.000000 0.000000 0.937500
0.187500 0.000000 0.937500
0.375000 0.000000 0.937500
0.562500 0.000000 0.937500
0.750000 0.000000 0.937500
0.000000 0.237500 0.937500
0.187500 0.237500 0.937500
0.375000 0.237500 0.937500
0.562500 0.237500 0.937500
0.750000 0.237500 0.937500
0.000000 0.475000 0.937500
0.187500 0.475000 0.937500
0.375000 0.475000 0.937500
0.562500 0.475000 0.937500
0.750000 0.475000 0.937500
0.000000 0.712500 0.937500
0.187500 0.712500 0.937500
0.375000 0.712500 0.937500
0.562500 0.712500 0.937500
0.750000 0.712500 0.937500
0.000000 0.950000 0.937500
0.187500 0.950000 0.937500
0.375000 0.950000 0.937500
0.562500 0.950000 0.937500
0.750000 0.950000 0.937500
0.000000 0.000000 1.000000
0.187500 0.000000 1.000000
0.375000 0.000000 1.000000
0.562500 0.000000 1.000000
0.750000 0.000000 1.000000
0.000000 0.237500 1.000000
0.187500 0.237500 1.000000
0.375000 0.237500 1.000000
0.562500 0.237500 1.000000
0.750000 0.237500 1.000000
0.000000 0.475000 1.000000
0.187500 0.475000 1.000000
0.375000 0.475000 1.000000
0.562500 0.475000 1.000000
0.750000 0.475000 1.000000
0.000000 0.712500 1.000000
0.187500 0.712500 1.000000
0.375000 0.712500 1.000000
0.562500 0.712500 1.000000
0.750000 0.712500 1.000000
0.000000 0.950000 1.000000
0.187500 0.950000 1.000000
0.375000 0.950000 1.000000
0.562500 0.950000 1.000000
0.750000 0.950000 1.000000
