app/src/main/assets/luts/ocean_blue.cube
# ApexStudio filter: ocean_blue
LUT_3D_SIZE 9
DOMAIN_MIN 0.0 0.0 0.0
DOMAIN_MAX 1.0 1.0 1.0
0.000000 0.000000 0.000000
0.093750 0.000000 0.000000
0.187500 0.000000 0.000000
0.281250 0.000000 0.000000
0.375000 0.000000 0.000000
0.468750 0.000000 0.000000
0.562500 0.000000 0.000000
0.656250 0.000000 0.000000
0.750000 0.000000 0.000000
0.000000 0.118750 0.000000
0.093750 0.118750 0.000000
0.187500 0.118750 0.000000
0.281250 0.118750 0.000000
0.375000 0.118750 0.000000
0.468750 0.118750 0.000000
0.562500 0.118750 0.000000
0.656250 0.118750 0.000000
0.750000 0.118750 0.000000
0.000000 0.237500 0.000000
0.093750 0.237500 0.000000
0.187500 0.237500 0.000000
0.281250 0.237500 0.000000
0.375000 0.237500 0.000000
0.468750 0.237500 0.000000
0.562500 0.237500 0.000000
0.656250 0.237500 0.000000
0.750000 0.237500 0.000000
0.000000 0.356250 0.000000
0.093750 0.356250 0.000000
0.187500 0.356250 0.000000
0.281250 0.356250 0.000000
0.375000 0.356250 0.000000
0.468750 0.356250 0.000000
0.562500 0.356250 0.000000
0.656250 0.356250 0.000000
0.750000 0.356250 0.000000
0.000000 0.475000 0.000000
0.093750 0.475000 0.000000
0.187500 0.475000 0.000000
0.281250 0.475000 0.000000
0.375000 0.475000 0.000000
0.468750 0.475000 0.000000
0.562500 0.475000 0.000000
0.656250 0.475000 0.000000
0.750000 0.475000 0.000000
0.000000 0.593750 0.000000
0.093750 0.593750 0.000000
0.187500 0.593750 0.000000
0.281250 0.593750 0.000000
0.375000 0.593750 0.000000
0.468750 0.593750 0.000000
0.562500 0.593750 0.000000
0.656250 0.593750 0.000000
0.750000 0.593750 0.000000
0.000000 0.712500 0.000000
0.093750 0.712500 0.000000
0.187500 0.712500 0.000000
0.281250 0.712500 0.000000
0.375000 0.712500 0.000000
0.468750 0.712500 0.000000
0.562500 0.712500 0.000000
0.656250 0.712500 0.000000
0.750000 0.712500 0.000000
0.000000 0.831250 0.000000
0.093750 0.831250 0.000000
0.187500 0.831250 0.000000
0.281250 0.831250 0.000000
0.375000 0.831250 0.000000
0.468750 0.831250 0.000000
0.562500 0.831250 0.000000
0.656250 0.831250 0.000000
0.750000 0.831250 0.000000
0.000000 0.950000 0.000000
0.093750 0.950000 0.000000
0.187500 0.950000 0.000000
0.281250 0.950000 0.000000
0.375000 0.950000 0.000000
0.468750 0.950000 0.000000
0.562500 0.950000 0.000000
0.656250 0.950000 0.000000
0.750000 0.950000 0.000000
0.000000 0.000000 0.156250
0.093750 0.000000 0.156250
0.187500 0.000000 0.156250
0.281250 0.000000 0.156250
0.375000 0.000000 0.156250
0.468750 0.000000 0.156250
0.562500 0.000000 0.156250
0.656250 0.000000 0.156250
0.750000 0.000000 0.156250
0.000000 0.118750 0.156250
0.093750 0.118750 0.156250
0.187500 0.118750 0.156250
0.281250 0.118750 0.156250
0.375000 0.118750 0.156250
0.468750 0.118750 0.156250
0.562500 0.118750 0.156250
0.656250 0.118750 0.156250
0.750000 0.118750 0.156250
0.000000 0.237500 0.156250
0.093750 0.237500 0.156250
0.187500 0.237500 0.156250
0.281250 0.237500 0.156250
0.375000 0.237500 0.156250
0.468750 0.237500 0.156250
0.562500 0.237500 0.156250
0.656250 0.237500 0.156250
0.750000 0.237500 0.156250
0.000000 0.356250 0.156250
0.093750 0.356250 0.156250
0.187500 0.356250 0.156250
0.281250 0.356250 0.156250
0.375000 0.356250 0.156250
0.468750 0.356250 0.156250
0.562500 0.356250 0.156250
0.656250 0.356250 0.156250
0.750000 0.356250 0.156250
0.000000 0.475000 0.156250
0.093750 0.475000 0.156250
0.187500 0.475000 0.156250
0.281250 0.475000 0.156250
0.375000 0.475000 0.156250
0.468750 0.475000 0.156250
0.562500 0.475000 0.156250
0.656250 0.475000 0.156250
0.750000 0.475000 0.156250
0.000000 0.593750 0.156250
0.093750 0.593750 0.156250
0.187500 0.593750 0.156250
0.281250 0.593750 0.156250
0.375000 0.593750 0.156250
0.468750 0.593750 0.156250
0.562500 0.593750 0.156250
0.656250 0.593750 0.156250
0.750000 0.593750 0.156250
0.000000 0.712500 0.156250
0.093750 0.712500 0.156250
0.187500 0.712500 0.156250
0.281250 0.712500 0.156250
0.375000 0.712500 0.156250
0.468750 0.712500 0.156250
0.562500 0.712500 0.156250
0.656250 0.712500 0.156250
0.750000 0.712500 0.156250
0.000000 0.831250 0.156250
0.093750 0.831250 0.156250
0.187500 0.831250 0.156250
0.281250 0.831250 0.156250
0.375000 0.831250 0.156250
0.468750 0.831250 0.156250
0.562500 0.831250 0.156250
0.656250 0.831250 0.156250
0.750000 0.831250 0.156250
0.000000 0.950000 0.156250
0.093750 0.950000 0.156250
0.187500 0.950000 0.156250
0.281250 0.950000 0.156250
0.375000 0.950000 0.156250
0.468750 0.950000 0.156250
0.562500 0.950000 0.156250
0.656250 0.950000 0.156250
0.750000 0.950000 0.156250
0.000000 0.000000 0.312500
0.093750 0.000000 0.312500
0.187500 0.000000 0.312500
0.281250 0.000000 0.312500
0.375000 0.000000 0.312500
0.468750 0.000000 0.312500
0.562500 0.000000 0.312500
0.656250 0.000000 0.312500
0.750000 0.000000 0.312500
0.000000 0.118750 0.312500
0.093750 0.118750 0.312500
0.187500 0.118750 0.312500
0.281250 0.118750 0.312500
0.375000 0.118750 0.312500
0.468750 0.118750 0.312500
0.562500 0.118750 0.312500
0.656250 0.118750 0.312500
0.750000 0.118750 0.312500
0.000000 0.237500 0.312500
0.093750 0.237500 0.312500
0.187500 0.237500 0.312500
0.281250 0.237500 0.312500
0.375000 0.237500 0.312500
0.468750 0.237500 0.312500
0.562500 0.237500 0.312500
0.656250 0.237500 0.312500
0.750000 0.237500 0.312500
0.000000 0.356250 0.312500
0.093750 0.356250 0.312500
0.187500 0.356250 0.312500
0.281250 0.356250 0.312500
0.375000 0.356250 0.312500
0.468750 0.356250 0.312500
0.562500 0.356250 0.312500
0.656250 0.356250 0.312500
0.750000 0.356250 0.312500
0.000000 0.475000 0.312500
0.093750 0.475000 0.312500
0.187500 0.475000 0.312500
0.281250 0.475000 0.312500
0.375000 0.475000 0.312500
0.468750 0.475000 0.312500
0.562500 0.475000 0.312500
0.656250 0.475000 0.312500
0.750000 0.475000 0.312500
0.000000 0.593750 0.312500
0.093750 0.593750 0.312500
0.187500 0.593750 0.312500
0.281250 0.593750 0.312500
0.375000 0.593750 0.312500
0.468750 0.593750 0.312500
0.562500 0.593750 0.312500
0.656250 0.593750 0.312500
0.750000 0.593750 0.312500
0.000000 0.712500 0.312500
0.093750 0.712500 0.312500
0.187500 0.712500 0.312500
0.281250 0.712500 0.312500
0.375000 0.712500 0.312500
0.468750 0.712500 0.312500
0.562500 0.712500 0.312500
0.656250 0.712500 0.312500
0.750000 0.712500 0.312500
0.000000 0.831250 0.312500
0.093750 0.831250 0.312500
0.187500 0.831250 0.312500
0.281250 0.831250 0.312500
0.375000 0.831250 0.312500
0.468750 0.831250 0.312500
0.562500 0.831250 0.312500
0.656250 0.831250 0.312500
0.750000 0.831250 0.312500
0.000000 0.950000 0.312500
0.093750 0.950000 0.312500
0.187500 0.950000 0.312500
0.281250 0.950000 0.312500
0.375000 0.950000 0.312500
0.468750 0.950000 0.312500
0.562500 0.950000 0.312500
0.656250 0.950000 0.312500
0.750000 0.950000 0.312500
0.000000 0.000000 0.468750
0.093750 0.000000 0.468750
0.187500 0.000000 0.468750
0.281250 0.000000 0.468750
0.375000 0.000000 0.468750
0.468750 0.000000 0.468750
0.562500 0.000000 0.468750
0.656250 0.000000 0.468750
0.750000 0.000000 0.468750
0.000000 0.118750 0.468750
0.093750 0.118750 0.468750
0.187500 0.118750 0.468750
0.281250 0.118750 0.468750
0.375000 0.118750 0.468750
0.468750 0.118750 0.468750
0.562500 0.118750 0.468750
0.656250 0.118750 0.468750
0.750000 0.118750 0.468750
0.000000 0.237500 0.468750
0.093750 0.237500 0.468750
0.187500 0.237500 0.468750
0.281250 0.237500 0.468750
0.375000 0.237500 0.468750
0.468750 0.237500 0.468750
0.562500 0.237500 0.468750
0.656250 0.237500 0.468750
0.750000 0.237500 0.468750
0.000000 0.356250 0.468750
0.093750 0.356250 0.468750
0.187500 0.356250 0.468750
0.281250 0.356250 0.468750
0.375000 0.356250 0.468750
0.468750 0.356250 0.468750
0.562500 0.356250 0.468750
0.656250 0.356250 0.468750
0.750000 0.356250 0.468750
0.000000 0.475000 0.468750
0.093750 0.475000 0.468750
0.187500 0.475000 0.468750
0.281250 0.475000 0.468750
0.375000 0.475000 0.468750
0.468750 0.475000 0.468750
0.562500 0.475000 0.468750
0.656250 0.475000 0.468750
0.750000 0.475000 0.468750
0.000000 0.593750 0.468750
0.093750 0.593750 0.468750
0.187500 0.593750 0.468750
0.281250 0.593750 0.468750
0.375000 0.593750 0.468750
0.468750 0.593750 0.468750
0.562500 0.593750 0.468750
0.656250 0.593750 0.468750
0.750000 0.593750 0.468750
0.000000 0.712500 0.468750
0.093750 0.712500 0.468750
0.187500 0.712500 0.468750
0.281250 0.712500 0.468750
0.375000 0.712500 0.468750
0.468750 0.712500 0.468750
0.562500 0.712500 0.468750
0.656250 0.712500 0.468750
0.750000 0.712500 0.468750
0.000000 0.831250 0.468750
0.093750 0.831250 0.468750
0.187500 0.831250 0.468750
0.281250 0.831250 0.468750
0.375000 0.831250 0.468750
0.468750 0.831250 0.468750
0.562500 0.831250 0.468750
0.656250 0.831250 0.468750
0.750000 0.831250 0.468750
0.000000 0.950000 0.468750
0.093750 0.950000 0.468750
0.187500 0.950000 0.468750
0.281250 0.950000 0.468750
0.375000 0.950000 0.468750
0.468750 0.950000 0.468750
0.562500 0.950000 0.468750
0.656250 0.950000 0.468750
0.750000 0.950000 0.468750
0.000000 0.000000 0.625000
0.093750 0.000000 0.625000
0.187500 0.000000 0.625000
0.281250 0.000000 0.625000
0.375000 0.000000 0.625000
0.468750 0.000000 0.625000
0.562500 0.000000 0.625000
0.656250 0.000000 0.625000
0.750000 0.000000 0.625000
0.000000 0.118750 0.625000
0.093750 0.118750 0.625000
0.187500 0.118750 0.625000
0.281250 0.118750 0.625000
0.375000 0.118750 0.625000
0.468750 0.118750 0.625000
0.562500 0.118750 0.625000
0.656250 0.118750 0.625000
0.750000 0.118750 0.625000
0.000000 0.237500 0.625000
0.093750 0.237500 0.625000
0.187500 0.237500 0.625000
0.281250 0.237500 0.625000
0.375000 0.237500 0.625000
0.468750 0.237500 0.625000
0.562500 0.237500 0.625000
0.656250 0.237500 0.625000
0.750000 0.237500 0.625000
0.000000 0.356250 0.625000
0.093750 0.356250 0.625000
0.187500 0.356250 0.625000
0.281250 0.356250 0.625000
0.375000 0.356250 0.625000
0.468750 0.356250 0.625000
0.562500 0.356250 0.625000
0.656250 0.356250 0.625000
0.750000 0.356250 0.625000
0.000000 0.475000 0.625000
0.093750 0.475000 0.625000
0.187500 0.475000 0.625000
0.281250 0.475000 0.625000
0.375000 0.475000 0.625000
0.468750 0.475000 0.625000
0.562500 0.475000 0.625000
0.656250 0.475000 0.625000
0.750000 0.475000 0.625000
0.000000 0.593750 0.625000
0.093750 0.593750 0.625000
0.187500 0.593750 0.625000
0.281250 0.593750 0.625000
0.375000 0.593750 0.625000
0.468750 0.593750 0.625000
0.562500 0.593750 0.625000
0.656250 0.593750 0.625000
0.750000 0.593750 0.625000
0.000000 0.712500 0.625000
0.093750 0.712500 0.625000
0.187500 0.712500 0.625000
0.281250 0.712500 0.625000
0.375000 0.712500 0.625000
0.468750 0.712500 0.625000
0.562500 0.712500 0.625000
0.656250 0.712500 0.625000
0.750000 0.712500 0.625000
0.000000 0.831250 0.625000
0.093750 0.831250 0.625000
0.187500 0.831250 0.625000
0.281250 0.831250 0.625000
0.375000 0.831250 0.625000
0.468750 0.831250 0.625000
0.562500 0.831250 0.625000
0.656250 0.831250 0.625000
0.750000 0.831250 0.625000
0.000000 0.950000 0.625000
0.093750 0.950000 0.625000
0.187500 0.950000 0.625000
0.281250 0.950000 0.625000
0.375000 0.950000 0.625000
0.468750 0.950000 0.625000
0.562500 0.950000 0.625000
0.656250 0.950000 0.625000
0.750000 0.950000 0.625000
0.000000 0.000000 0.781250
0.093750 0.000000 0.781250
0.187500 0.000000 0.781250
0.281250 0.000000 0.781250
0.375000 0.000000 0.781250
0.468750 0.000000 0.781250
0.562500 0.000000 0.781250
0.656250 0.000000 0.781250
0.750000 0.000000 0.781250
0.000000 0.118750 0.781250
0.093750 0.118750 0.781250
0.187500 0.118750 0.781250
0.281250 0.118750 0.781250
0.375000 0.118750 0.781250
0.468750 0.118750 0.781250
0.562500 0.118750 0.781250
0.656250 0.118750 0.781250
0.750000 0.118750 0.781250
0.000000 0.237500 0.781250
0.093750 0.237500 0.781250
0.187500 0.237500 0.781250
0.281250 0.237500 0.781250
0.375000 0.237500 0.781250
0.468750 0.237500 0.781250
0.562500 0.237500 0.781250
0.656250 0.237500 0.781250
0.750000 0.237500 0.781250
0.000000 0.356250 0.781250
0.093750 0.356250 0.781250
0.187500 0.356250 0.781250
0.281250 0.356250 0.781250
0.375000 0.356250 0.781250
0.468750 0.356250 0.781250
0.562500 0.356250 0.781250
0.656250 0.356250 0.781250
0.750000 0.356250 0.781250
0.000000 0.475000 0.781250
0.093750 0.475000 0.781250
0.187500 0.475000 0.781250
0.281250 0.475000 0.781250
0.375000 0.475000 0.781250
0.468750 0.475000 0.781250
0.562500 0.475000 0.781250
0.656250 0.475000 0.781250
0.750000 0.475000 0.781250
0.000000 0.593750 0.781250
0.093750 0.593750 0.781250
0.187500 0.593750 0.781250
0.281250 0.593750 0.781250
0.375000 0.593750 0.781250
0.468750 0.593750 0.781250
0.562500 0.593750 0.781250
0.656250 0.593750 0.781250
0.750000 0.593750 0.781250
0.000000 0.712500 0.781250
0.093750 0.712500 0.781250
0.187500 0.712500 0.781250
0.281250 0.712500 0.781250
0.375000 0.712500 0.781250
0.468750 0.712500 0.781250
0.562500 0.712500 0.781250
0.656250 0.712500 0.781250
0.750000 0.712500 0.781250
0.000000 0.831250 0.781250
0.093750 0.831250 0.781250
0.187500 0.831250 0.781250
0.281250 0.831250 0.781250
0.375000 0.831250 0.781250
0.468750 0.831250 0.781250
0.562500 0.831250 0.781250
0.656250 0.831250 0.781250
0.750000 0.831250 0.781250
0.000000 0.950000 0.781250
0.093750 0.950000 0.781250
0.187500 0.950000 0.781250
0.281250 0.950000 0.781250
0.375000 0.950000 0.781250
0.468750 0.950000 0.781250
0.562500 0.950000 0.781250
0.656250 0.950000 0.781250
0.750000 0.950000 0.781250
0.000000 0.000000 0.937500
0.093750 0.000000 0.937500
0.187500 0.000000 0.937500
0.281250 0.000000 0.937500
0.375000 0.000000 0.937500
0.468750 0.000000 0.937500
0.562500 0.000000 0.937500
0.656250 0.000000 0.937500
0.750000 0.000000 0.937500
0.000000 0.118750 0.937500
0.093750 0.118750 0.937500
0.187500 0.118750 0.937500
0.281250 0.118750 0.937500
0.375000 0.118750 0.937500
0.468750 0.118750 0.937500
0.562500 0.118750 0.937500
0.656250 0.118750 0.937500
0.750000 0.118750 0.937500
0.000000 0.237500 0.937500
0.093750 0.237500 0.937500
0.187500 0.237500 0.937500
0.281250 0.237500 0.937500
0.375000 0.237500 0.937500
0.468750 0.237500 0.937500
0.562500 0.237500 0.937500
0.656250 0.237500 0.937500
0.750000 0.237500 0.937500
0.000000 0.356250 0.937500
0.093750 0.356250 0.937500
0.187500 0.356250 0.937500
0.281250 0.356250 0.937500
0.375000 0.356250 0.937500
0.468750 0.356250 0.937500
0.562500 0.356250 0.937500
0.656250 0.356250 0.937500
0.750000 0.356250 0.937500
0.000000 0.475000 0.937500
0.093750 0.475000 0.937500
0.187500 0.475000 0.937500
0.281250 0.475000 0.937500
0.375000 0.475000 0.937500
0.468750 0.475000 0.937500
0.562500 0.475000 0.937500
0.656250 0.475000 0.937500
0.750000 0.475000 0.937500
0.000000 0.593750 0.937500
0.093750 0.593750 0.937500
0.187500 0.593750 0.937500
0.281250 0.593750 0.937500
0.375000 0.593750 0.937500
0.468750 0.593750 0.937500
0.562500 0.593750 0.937500
0.656250 0.593750 0.937500
0.750000 0.593750 0.937500
0.000000 0.712500 0.937500
0.093750 0.712500 0.937500
0.187500 0.712500 0.937500
0.281250 0.712500 0.937500
0.375000 0.712500 0.937500
0.468750 0.712500 0.937500
0.562500 0.712500 0.937500
0.656250 0.712500 0.937500
0.750000 0.712500 0.937500
0.000000 0.831250 0.937500
0.093750 0.831250 0.937500
0.187500 0.831250 0.937500
0.281250 0.831250 0.937500
0.375000 0.831250 0.937500
0.468750 0.831250 0.937500
0.562500 0.831250 0.937500
0.656250 0.831250 0.937500
0.750000 0.831250 0.937500
0.000000 0.950000 0.937500
0.093750 0.950000 0.937500
0.187500 0.950000 0.937500
0.281250 0.950000 0.937500
0.375000 0.950000 0.937500
0.468750 0.950000 0.937500
0.562500 0.950000 0.937500
0.656250 0.950000 0.937500
0.750000 0.950000 0.937500
0.000000 0.000000 1.000000
0.093750 0.000000 1.000000
0.187500 0.000000 1.000000
0.281250 0.000000 1.000000
0.375000 0.000000 1.000000
0.468750 0.000000 1.000000
0.562500 0.000000 1.000000
0.656250 0.000000 1.000000
0.750000 0.000000 1.000000
0.000000 0.118750 1.000000
0.093750 0.118750 1.000000
0.187500 0.118750 1.000000
0.281250 0.118750 1.000000
0.375000 0.118750 1.000000
0.468750 0.118750 1.000000
0.562500 0.118750 1.000000
0.656250 0.118750 1.000000
0.750000 0.118750 1.000000
0.000000 0.237500 1.000000
0.093750 0.237500 1.000000
0.187500 0.237500 1.000000
0.281250 0.237500 1.000000
0.375000 0.237500 1.000000
0.468750 0.237500 1.000000
0.562500 0.237500 1.000000
0.656250 0.237500 1.000000
0.750000 0.237500 1.000000
0.000000 0.356250 1.000000
0.093750 0.356250 1.000000
0.187500 0.356250 1.000000
0.281250 0.356250 1.000000
0.375000 0.356250 1.000000
0.468750 0.356250 1.000000
0.562500 0.356250 1.000000
0.656250 0.356250 1.000000
0.750000 0.356250 1.000000
0.000000 0.475000 1.000000
0.093750 0.475000 1.000000
0.187500 0.475000 1.000000
0.281250 0.475000 1.000000
0.375000 0.475000 1.000000
0.468750 0.475000 1.000000
0.562500 0.475000 1.000000
0.656250 0.475000 1.000000
0.750000 0.475000 1.000000
0.000000 0.593750 1.000000
0.093750 0.593750 1.000000
0.187500 0.593750 1.000000
0.281250 0.593750 1.000000
0.375000 0.593750 1.000000
0.468750 0.593750 1.000000
0.562500 0.593750 1.000000
0.656250 0.593750 1.000000
0.750000 0.593750 1.000000
0.000000 0.712500 1.000000
0.093750 0.712500 1.000000
0.187500 0.712500 1.000000
0.281250 0.712500 1.000000
0.375000 0.712500 1.000000
0.468750 0.712500 1.000000
0.562500 0.712500 1.000000
0.656250 0.712500 1.000000
0.750000 0.712500 1.000000
0.000000 0.831250 1.000000
0.093750 0.831250 1.000000
0.187500 0.831250 1.000000
0.281250 0.831250 1.000000
0.375000 0.831250 1.000000
0.468750 0.831250 1.000000
0.562500 0.831250 1.000000
0.656250 0.831250 1.000000
0.750000 0.831250 1.000000
0.000000 0.950000 1.000000
0.093750 0.950000 1.000000
0.187500 0.950000 1.000000
0.281250 0.950000 1.000000
0.375000 0.950000 1.000000
0.468750 0.950000 1.000000
0.562500 0.950000 1.000000
0.656250 0.950000 1.000000
0.750000 0.950000 1.000000
0.000000 0.000000 1.000000
0.093750 0.000000 1.000000
0.187500 0.000000 1.000000
0.281250 0.000000 1.000000
0.375000 0.000000 1.000000
0.468750 0.000000 1.000000
0.562500 0.000000 1.000000
0.656250 0.000000 1.000000
0.750000 0.000000 1.000000
0.000000 0.118750 1.000000
0.093750 0.118750 1.000000
0.187500 0.118750 1.000000
0.281250 0.118750 1.000000
0.375000 0.118750 1.000000
0.468750 0.118750 1.000000
0.562500 0.118750 1.000000
0.656250 0.118750 1.000000
0.750000 0.118750 1.000000
0.000000 0.237500 1.000000
0.093750 0.237500 1.000000
0.187500 0.237500 1.000000
0.281250 0.237500 1.000000
0.375000 0.237500 1.000000
0.468750 0.237500 1.000000
0.562500 0.237500 1.000000
0.656250 0.237500 1.000000
0.750000 0.237500 1.000000
0.000000 0.356250 1.000000
0.093750 0.356250 1.000000
0.187500 0.356250 1.000000
0.281250 0.356250 1.000000
0.375000 0.356250 1.000000
0.468750 0.356250 1.000000
0.562500 0.356250 1.000000
0.656250 0.356250 1.000000
0.750000 0.356250 1.000000
0.000000 0.475000 1.000000
0.093750 0.475000 1.000000
0.187500 0.475000 1.000000
0.281250 0.475000 1.000000
0.375000 0.475000 1.000000
0.468750 0.475000 1.000000
0.562500 0.475000 1.000000
0.656250 0.475000 1.000000
0.750000 0.475000 1.000000
0.000000 0.593750 1.000000
0.093750 0.593750 1.000000
0.187500 0.593750 1.000000
0.281250 0.593750 1.000000
0.375000 0.593750 1.000000
0.468750 0.593750 1.000000
0.562500 0.593750 1.000000
0.656250 0.593750 1.000000
0.750000 0.593750 1.000000
0.000000 0.712500 1.000000
0.093750 0.712500 1.000000
0.187500 0.712500 1.000000
0.281250 0.712500 1.000000
0.375000 0.712500 1.000000
0.468750 0.712500 1.000000
0.562500 0.712500 1.000000
0.656250 0.712500 1.000000
0.750000 0.712500 1.000000
0.000000 0.831250 1.000000
0.093750 0.831250 1.000000
0.187500 0.831250 1.000000
0.281250 0.831250 1.000000
0.375000 0.831250 1.000000
0.468750 0.831250 1.000000
0.562500 0.831250 1.000000
0.656250 0.831250 1.000000
0.750000 0.831250 1.000000
0.000000 0.950000 1.000000
0.093750 0.950000 1.000000
0.187500 0.950000 1.000000
0.281250 0.950000 1.000000
0.375000 0.950000 1.000000
0.468750 0.950000 1.000000
0.562500 0.950000 1.000000
0.656250 0.950000 1.000000
0.750000 0.950000 1.000000
