app/src/main/assets/luts/oslo_winter.cube
# ApexStudio filter: oslo_winter
LUT_3D_SIZE 17
DOMAIN_MIN 0.0 0.0 0.0
DOMAIN_MAX 1.0 1.0 1.0
0.000000 0.000000 0.120000
0.036250 0.000000 0.120000
0.092500 0.000000 0.120000
0.148750 0.000000 0.120000
0.205000 0.000000 0.120000
0.261250 0.000000 0.120000
0.317500 0.000000 0.120000
0.373750 0.000000 0.120000
0.430000 0.000000 0.120000
0.486250 0.000000 0.120000
0.542500 0.000000 0.120000
0.598750 0.000000 0.120000
0.655000 0.000000 0.120000
0.711250 0.000000 0.120000
0.767500 0.000000 0.120000
0.823750 0.000000 0.120000
0.880000 0.000000 0.120000
0.000000 0.059375 0.120000
0.036250 0.059375 0.120000
0.092500 0.059375 0.120000
0.148750 0.059375 0.120000
0.205000 0.059375 0.120000
0.261250 0.059375 0.120000
0.317500 0.059375 0.120000
0.373750 0.059375 0.120000
0.430000 0.059375 0.120000
0.486250 0.059375 0.120000
0.542500 0.059375 0.120000
0.598750 0.059375 0.120000
0.655000 0.059375 0.120000
0.711250 0.059375 0.120000
0.767500 0.059375 0.120000
0.823750 0.059375 0.120000
0.880000 0.059375 0.120000
0.000000 0.118750 0.120000
0.036250 0.118750 0.120000
0.092500 0.118750 0.120000
0.148750 0.118750 0.120000
0.205000 0.118750 0.120000
0.261250 0.118750 0.120000
0.317500 0.118750 0.120000
0.373750 0.118750 0.120000
0.430000 0.118750 0.120000
0.486250 0.118750 0.120000
0.542500 0.118750 0.120000
0.598750 0.118750 0.120000
0.655000 0.118750 0.120000
0.711250 0.118750 0.120000
0.767500 0.118750 0.120000
0.823750 0.118750 0.120000
0.880000 0.118750 0.120000
0.000000 0.178125 0.120000
0.036250 0.178125 0.120000
0.092500 0.178125 0.120000
0.148750 0.178125 0.120000
0.205000 0.178125 0.120000
0.261250 0.178125 0.120000
0.317500 0.178125 0.120000
0.373750 0.178125 0.120000
0.430000 0.178125 0.120000
0.486250 0.178125 0.120000
0.542500 0.178125 0.120000
0.598750 0.178125 0.120000
0.655000 0.178125 0.120000
0.711250 0.178125 0.120000
0.767500 0.178125 0.120000
0.823750 0.178125 0.120000
0.880000 0.178125 0.120000
0.000000 0.237500 0.120000
0.036250 0.237500 0.120000
0.092500 0.237500 0.120000
0.148750 0.237500 0.120000
0.205000 0.237500 0.120000
0.261250 0.237500 0.120000
0.317500 0.237500 0.120000
0.373750 0.237500 0.120000
0.430000 0.237500 0.120000
0.486250 0.237500 0.120000
0.542500 0.237500 0.120000
0.598750 0.237500 0.120000
0.655000 0.237500 0.120000
0.711250 0.237500 0.120000
0.767500 0.237500 0.120000
0.823750 0.237500 0.120000
0.880000 0.237500 0.120000
0.000000 0.296875 0.120000
0.036250 0.296875 0.120000
0.092500 0.296875 0.120000
0.148750 0.296875 0.120000
0.205000 0.296875 0.120000
0.261250 0.296875 0.120000
0.317500 0.296875 0.120000
0.373750 0.296875 0.120000
0.430000 0.296875 0.120000
0.486250 0.296875 0.120000
0.542500 0.296875 0.120000
0.598750 0.296875 0.120000
0.655000 0.296875 0.120000
0.711250 0.296875 0.120000
0.767500 0.296875 0.120000
0.823750 0.296875 0.120000
0.880000 0.296875 0.120000
0.000000 0.356250 0.120000
0.036250 0.356250 0.120000
0.092500 0.356250 0.120000
0.148750 0.356250 0.120000
0.205000 0.356250 0.120000
0.261250 0.356250 0.120000
0.317500 0.356250 0.120000
0.373750 0.356250 0.120000
0.430000 0.356250 0.120000
0.486250 0.356250 0.120000
0.542500 0.356250 0.120000
0.598750 0.356250 0.120000
0.655000 0.356250 0.120000
0.711250 0.356250 0.120000
0.767500 0.356250 0.120000
0.823750 0.356250 0.120000
0.880000 0.356250 0.120000
0.000000 0.415625 0.120000
0.036250 0.415625 0.120000
0.092500 0.415625 0.120000
0.148750 0.415625 0.120000
0.205000 0.415625 0.120000
0.261250 0.415625 0.120000
0.317500 0.415625 0.120000
0.373750 0.415625 0.120000
0.430000 0.415625 0.120000
0.486250 0.415625 0.120000
0.542500 0.415625 0.120000
0.598750 0.415625 0.120000
0.655000 0.415625 0.120000
0.711250 0.415625 0.120000
0.767500 0.415625 0.120000
0.823750 0.415625 0.120000
0.880000 0.415625 0.120000
0.000000 0.475000 0.120000
0.036250 0.475000 0.120000
0.092500 0.475000 0.120000
0.148750 0.475000 0.120000
0.205000 0.475000 0.120000
0.261250 0.475000 0.120000
0.317500 0.475000 0.120000
0.373750 0.475000 0.120000
0.430000 0.475000 0.120000
0.486250 0.475000 0.120000
0.542500 0.475000 0.120000
0.598750 0.475000 0.120000
0.655000 0.475000 0.120000
0.711250 0.475000 0.120000
0.767500 0.475000 0.120000
0.823750 0.475000 0.120000
0.880000 0.475000 0.120000
0.000000 0.534375 0.120000
0.036250 0.534375 0.120000
0.092500 0.534375 0.120000
0.148750 0.534375 0.120000
0.205000 0.534375 0.120000
0.261250 0.534375 0.120000
0.317500 0.534375 0.120000
0.373750 0.534375 0.120000
0.430000 0.534375 0.120000
0.486250 0.534375 0.120000
0.542500 0.534375 0.120000
0.598750 0.534375 0.120000
0.655000 0.534375 0.120000
0.711250 0.534375 0.120000
0.767500 0.534375 0.120000
0.823750 0.534375 0.120000
0.880000 0.534375 0.120000
0.000000 0.593750 0.120000
0.036250 0.593750 0.120000
0.092500 0.593750 0.120000
0.148750 0.593750 0.120000
0.205000 0.593750 0.120000
0.261250 0.593750 0.120000
0.317500 0.593750 0.120000
0.373750 0.593750 0.120000
0.430000 0.593750 0.120000
0.486250 0.593750 0.120000
0.542500 0.593750 0.120000
0.598750 0.593750 0.120000
0.655000 0.593750 0.120000
0.711250 0.593750 0.120000
0.767500 0.593750 0.120000
0.823750 0.593750 0.120000
0.880000 0.593750 0.120000
0.000000 0.653125 0.120000
0.036250 0.653125 0.120000
0.092500 0.653125 0.120000
0.148750 0.653125 0.120000
0.205000 0.653125 0.120000
0.261250 0.653125 0.120000
0.317500 0.653125 0.120000
0.373750 0.653125 0.120000
0.430000 0.653125 0.120000
0.486250 0.653125 0.120000
0.542500 0.653125 0.120000
0.598750 0.653125 0.120000
0.655000 0.653125 0.120000
0.711250 0.653125 0.120000
0.767500 0.653125 0.120000
0.823750 0.653125 0.120000
0.880000 0.653125 0.120000
0.000000 0.712500 0.120000
0.036250 0.712500 0.120000
0.092500 0.712500 0.120000
0.148750 0.712500 0.120000
0.205000 0.712500 0.120000
0.261250 0.712500 0.120000
0.317500 0.712500 0.120000
0.373750 0.712500 0.120000
0.430000 0.712500 0.120000
0.486250 0.712500 0.120000
0.542500 0.712500 0.120000
0.598750 0.712500 0.120000
0.655000 0.712500 0.120000
0.711250 0.712500 0.120000
0.767500 0.712500 0.120000
0.823750 0.712500 0.120000
0.880000 0.712500 0.120000
0.000000 0.771875 0.120000
0.036250 0.771875 0.120000
0.092500 0.771875 0.120000
0.148750 0.771875 0.120000
0.205000 0.771875 0.120000
0.261250 0.771875 0.120000
0.317500 0.771875 0.120000
0.373750 0.771875 0.120000
0.430000 0.771875 0.120000
0.486250 0.771875 0.120000
0.542500 0.771875 0.120000
0.598750 0.771875 0.120000
0.655000 0.771875 0.120000
0.711250 0.771875 0.120000
0.767500 0.771875 0.120000
0.823750 0.771875 0.120000
0.880000 0.771875 0.120000
0.000000 0.831250 0.120000
0.036250 0.831250 0.120000
0.092500 0.831250 0.120000
0.148750 0.831250 0.120000
0.205000 0.831250 0.120000
0.261250 0.831250 0.120000
0.317500 0.831250 0.120000
0.373750 0.831250 0.120000
0.430000 0.831250 0.120000
0.486250 0.831250 0.120000
0.542500 0.831250 0.120000
0.598750 0.831250 0.120000
0.655000 0.831250 0.120000
0.711250 0.831250 0.120000
0.767500 0.831250 0.120000
0.823750 0.831250 0.120000
0.880000 0.831250 0.120000
0.000000 0.890625 0.120000
0.036250 0.890625 0.120000
0.092500 0.890625 0.120000
0.148750 0.890625 0.120000
0.205000 0.890625 0.120000
0.261250 0.890625 0.120000
0.317500 0.890625 0.120000
0.373750 0.890625 0.120000
0.430000 0.890625 0.120000
0.486250 0.890625 0.120000
0.542500 0.890625 0.120000
0.598750 0.890625 0.120000
0.655000 0.890625 0.120000
0.711250 0.890625 0.120000
0.767500 0.890625 0.120000
0.823750 0.890625 0.120000
0.880000 0.890625 0.120000
0.000000 0.950000 0.120000
0.036250 0.950000 0.120000
0.092500 0.950000 0.120000
0.148750 0.950000 0.120000
0.205000 0.950000 0.120000
0.261250 0.950000 0.120000
0.317500 0.950000 0.120000
0.373750 0.950000 0.120000
0.430000 0.950000 0.120000
0.486250 0.950000 0.120000
0.542500 0.950000 0.120000
0.598750 0.950000 0.120000
0.655000 0.950000 0.120000
0.711250 0.950000 0.120000
0.767500 0.950000 0.120000
0.823750 0.950000 0.120000
0.880000 0.950000 0.120000
0.000000 0.000000 0.198125
0.036250 0.000000 0.198125
0.092500 0.000000 0.198125
0.148750 0.000000 0.198125
0.205000 0.000000 0.198125
0.261250 0.000000 0.198125
0.317500 0.000000 0.198125
0.373750 0.000000 0.198125
0.430000 0.000000 0.198125
0.486250 0.000000 0.198125
0.542500 0.000000 0.198125
0.598750 0.000000 0.198125
0.655000 0.000000 0.198125
0.711250 0.000000 0.198125
0.767500 0.000000 0.198125
0.823750 0.000000 0.198125
0.880000 0.000000 0.198125
0.000000 0.059375 0.198125
0.036250 0.059375 0.198125
0.092500 0.059375 0.198125
0.148750 0.059375 0.198125
0.205000 0.059375 0.198125
0.261250 0.059375 0.198125
0.317500 0.059375 0.198125
0.373750 0.059375 0.198125
0.430000 0.059375 0.198125
0.486250 0.059375 0.198125
0.542500 0.059375 0.198125
0.598750 0.059375 0.198125
0.655000 0.059375 0.198125
0.711250 0.059375 0.198125
0.767500 0.059375 0.198125
0.823750 0.059375 0.198125
0.880000 0.059375 0.198125
0.000000 0.118750 0.198125
0.036250 0.118750 0.198125
0.092500 0.118750 0.198125
0.148750 0.118750 0.198125
0.205000 0.118750 0.198125
0.261250 0.118750 0.198125
0.317500 0.118750 0.198125
0.373750 0.118750 0.198125
0.430000 0.118750 0.198125
0.486250 0.118750 0.198125
0.542500 0.118750 0.198125
0.598750 0.118750 0.198125
0.655000 0.118750 0.198125
0.711250 0.118750 0.198125
0.767500 0.118750 0.198125
0.823750 0.118750 0.198125
0.880000 0.118750 0.198125
0.000000 0.178125 0.198125
0.036250 0.178125 0.198125
0.092500 0.178125 0.198125
0.148750 0.178125 0.198125
0.205000 0.178125 0.198125
0.261250 0.178125 0.198125
0.317500 0.178125 0.198125
0.373750 0.178125 0.198125
0.430000 0.178125 0.198125
0.486250 0.178125 0.198125
0.542500 0.178125 0.198125
0.598750 0.178125 0.198125
0.655000 0.178125 0.198125
0.711250 0.178125 0.198125
0.767500 0.178125 0.198125
0.823750 0.178125 0.198125
0.880000 0.178125 0.198125
0.000000 0.237500 0.198125
0.036250 0.237500 0.198125
0.092500 0.237500 0.198125
0.148750 0.237500 0.198125
0.205000 0.237500 0.198125
0.261250 0.237500 0.198125
0.317500 0.237500 0.198125
0.373750 0.237500 0.198125
0.430000 0.237500 0.198125
0.486250 0.237500 0.198125
0.542500 0.237500 0.198125
0.598750 0.237500 0.198125
0.655000 0.237500 0.198125
0.711250 0.237500 0.198125
0.767500 0.237500 0.198125
0.823750 0.237500 0.198125
0.880000 0.237500 0.198125
0.000000 0.296875 0.198125
0.036250 0.296875 0.198125
0.092500 0.296875 0.198125
0.148750 0.296875 0.198125
0.205000 0.296875 0.198125
0.261250 0.296875 0.198125
0.317500 0.296875 0.198125
0.373750 0.296875 0.198125
0.430000 0.296875 0.198125
0.486250 0.296875 0.198125
0.542500 0.296875 0.198125
0.598750 0.296875 0.198125
0.655000 0.296875 0.198125
0.711250 0.296875 0.198125
0.767500 0.296875 0.198125
0.823750 0.296875 0.198125
0.880000 0.296875 0.198125
0.000000 0.356250 0.198125
0.036250 0.356250 0.198125
0.092500 0.356250 0.198125
0.148750 0.356250 0.198125
0.205000 0.356250 0.198125
0.261250 0.356250 0.198125
0.317500 0.356250 0.198125
0.373750 0.356250 0.198125
0.430000 0.356250 0.198125
0.486250 0.356250 0.198125
0.542500 0.356250 0.198125
0.598750 0.356250 0.198125
0.655000 0.356250 0.198125
0.711250 0.356250 0.198125
0.767500 0.356250 0.198125
0.823750 0.356250 0.198125
0.880000 0.356250 0.198125
0.000000 0.415625 0.198125
0.036250 0.415625 0.198125
0.092500 0.415625 0.198125
0.148750 0.415625 0.198125
0.205000 0.415625 0.198125
0.261250 0.415625 0.198125
0.317500 0.415625 0.198125
0.373750 0.415625 0.198125
0.430000 0.415625 0.198125
0.486250 0.415625 0.198125
0.542500 0.415625 0.198125
0.598750 0.415625 0.198125
0.655000 0.415625 0.198125
0.711250 0.415625 0.198125
0.767500 0.415625 0.198125
0.823750 0.415625 0.198125
0.880000 0.415625 0.198125
0.000000 0.475000 0.198125
0.036250 0.475000 0.198125
0.092500 0.475000 0.198125
0.148750 0.475000 0.198125
0.205000 0.475000 0.198125
0.261250 0.475000 0.198125
0.317500 0.475000 0.198125
0.373750 0.475000 0.198125
0.430000 0.475000 0.198125
0.486250 0.475000 0.198125
0.542500 0.475000 0.198125
0.598750 0.475000 0.198125
0.655000 0.475000 0.198125
0.711250 0.475000 0.198125
0.767500 0.475000 0.198125
0.823750 0.475000 0.198125
0.880000 0.475000 0.198125
0.000000 0.534375 0.198125
0.036250 0.534375 0.198125
0.092500 0.534375 0.198125
0.148750 0.534375 0.198125
0.205000 0.534375 0.198125
0.261250 0.534375 0.198125
0.317500 0.534375 0.198125
0.373750 0.534375 0.198125
0.430000 0.534375 0.198125
0.486250 0.534375 0.198125
0.542500 0.534375 0.198125
0.598750 0.534375 0.198125
0.655000 0.534375 0.198125
0.711250 0.534375 0.198125
0.767500 0.534375 0.198125
0.823750 0.534375 0.198125
0.880000 0.534375 0.198125
0.000000 0.593750 0.198125
0.036250 0.593750 0.198125
0.092500 0.593750 0.198125
0.148750 0.593750 0.198125
0.205000 0.593750 0.198125
0.261250 0.593750 0.198125
0.317500 0.593750 0.198125
0.373750 0.593750 0.198125
0.430000 0.593750 0.198125
0.486250 0.593750 0.198125
0.542500 0.593750 0.198125
0.598750 0.593750 0.198125
0.655000 0.593750 0.198125
0.711250 0.593750 0.198125
0.767500 0.593750 0.198125
0.823750 0.593750 0.198125
0.880000 0.593750 0.198125
0.000000 0.653125 0.198125
0.036250 0.653125 0.198125
0.092500 0.653125 0.198125
0.148750 0.653125 0.198125
0.205000 0.653125 0.198125
0.261250 0.653125 0.198125
0.317500 0.653125 0.198125
0.373750 0.653125 0.198125
0.430000 0.653125 0.198125
0.486250 0.653125 0.198125
0.542500 0.653125 0.198125
0.598750 0.653125 0.198125
0.655000 0.653125 0.198125
0.711250 0.653125 0.198125
0.767500 0.653125 0.198125
0.823750 0.653125 0.198125
0.880000 0.653125 0.198125
0.000000 0.712500 0.198125
0.036250 0.712500 0.198125
0.092500 0.712500 0.198125
0.148750 0.712500 0.198125
0.205000 0.712500 0.198125
0.261250 0.712500 0.198125
0.317500 0.712500 0.198125
0.373750 0.712500 0.198125
0.430000 0.712500 0.198125
0.486250 0.712500 0.198125
0.542500 0.712500 0.198125
0.598750 0.712500 0.198125
0.655000 0.712500 0.198125
0.711250 0.712500 0.198125
0.767500 0.712500 0.198125
0.823750 0.712500 0.198125
0.880000 0.712500 0.198125
0.000000 0.771875 0.198125
0.036250 0.771875 0.198125
0.092500 0.771875 0.198125
0.148750 0.771875 0.198125
0.205000 0.771875 0.198125
0.261250 0.771875 0.198125
0.317500 0.771875 0.198125
0.373750 0.771875 0.198125
0.430000 0.771875 0.198125
0.486250 0.771875 0.198125
0.542500 0.771875 0.198125
0.598750 0.771875 0.198125
0.655000 0.771875 0.198125
0.711250 0.771875 0.198125
0.767500 0.771875 0.198125
0.823750 0.771875 0.198125
0.880000 0.771875 0.198125
0.000000 0.831250 0.198125
0.036250 0.831250 0.198125
0.092500 0.831250 0.198125
0.148750 0.831250 0.198125
0.205000 0.831250 0.198125
0.261250 0.831250 0.198125
0.317500 0.831250 0.198125
0.373750 0.831250 0.198125
0.430000 0.831250 0.198125
0.486250 0.831250 0.198125
0.542500 0.831250 0.198125
0.598750 0.831250 0.198125
0.655000 0.831250 0.198125
0.711250 0.831250 0.198125
0.767500 0.831250 0.198125
0.823750 0.831250 0.198125
0.880000 0.831250 0.198125
0.000000 0.890625 0.198125
0.036250 0.890625 0.198125
0.092500 0.890625 0.198125
0.148750 0.890625 0.198125
0.205000 0.890625 0.198125
0.261250 0.890625 0.198125
0.317500 0.890625 0.198125
0.373750 0.890625 0.198125
0.430000 0.890625 0.198125
0.486250 0.890625 0.198125
0.542500 0.890625 0.198125
0.598750 0.890625 0.198125
0.655000 0.890625 0.198125
0.711250 0.890625 0.198125
0.767500 0.890625 0.198125
0.823750 0.890625 0.198125
0.880000 0.890625 0.198125
0.000000 0.950000 0.198125
0.036250 0.950000 0.198125
0.092500 0.950000 0.198125
0.148750 0.950000 0.198125
0.205000 0.950000 0.198125
0.261250 0.950000 0.198125
0.317500 0.950000 0.198125
0.373750 0.950000 0.198125
0.430000 0.950000 0.198125
0.486250 0.950000 0.198125
0.542500 0.950000 0.198125
0.598750 0.950000 0.198125
0.655000 0.950000 0.198125
0.711250 0.950000 0.198125
0.767500 0.950000 0.198125
0.823750 0.950000 0.198125
0.880000 0.950000 0.198125
0.000000 0.000000 0.276250
0.036250 0.000000 0.276250
0.092500 0.000000 0.276250
0.148750 0.000000 0.276250
0.205000 0.000000 0.276250
0.261250 0.000000 0.276250
0.317500 0.000000 0.276250
0.373750 0.000000 0.276250
0.430000 0.000000 0.276250
0.486250 0.000000 0.276250
0.542500 0.000000 0.276250
0.598750 0.000000 0.276250
0.655000 0.000000 0.276250
0.711250 0.000000 0.276250
0.767500 0.000000 0.276250
0.823750 0.000000 0.276250
0.880000 0.000000 0.276250
0.000000 0.059375 0.276250
0.036250 0.059375 0.276250
0.092500 0.059375 0.276250
0.148750 0.059375 0.276250
0.205000 0.059375 0.276250
0.261250 0.059375 0.276250
0.317500 0.059375 0.276250
0.373750 0.059375 0.276250
0.430000 0.059375 0.276250
0.486250 0.059375 0.276250
0.542500 0.059375 0.276250
0.598750 0.059375 0.276250
0.655000 0.059375 0.276250
0.711250 0.059375 0.276250
0.767500 0.059375 0.276250
0.823750 0.059375 0.276250
0.880000 0.059375 0.276250
0.000000 0.118750 0.276250
0.036250 0.118750 0.276250
0.092500 0.118750 0.276250
0.148750 0.118750 0.276250
0.205000 0.118750 0.276250
0.261250 0.118750 0.276250
0.317500 0.118750 0.276250
0.373750 0.118750 0.276250
0.430000 0.118750 0.276250
0.486250 0.118750 0.276250
0.542500 0.118750 0.276250
0.598750 0.118750 0.276250
0.655000 0.118750 0.276250
0.711250 0.118750 0.276250
0.767500 0.118750 0.276250
0.823750 0.118750 0.276250
0.880000 0.118750 0.276250
0.000000 0.178125 0.276250
0.036250 0.178125 0.276250
0.092500 0.178125 0.276250
0.148750 0.178125 0.276250
0.205000 0.178125 0.276250
0.261250 0.178125 0.276250
0.317500 0.178125 0.276250
0.373750 0.178125 0.276250
0.430000 0.178125 0.276250
0.486250 0.178125 0.276250
0.542500 0.178125 0.276250
0.598750 0.178125 0.276250
0.655000 0.178125 0.276250
0.711250 0.178125 0.276250
0.767500 0.178125 0.276250
0.823750 0.178125 0.276250
0.880000 0.178125 0.276250
0.000000 0.237500 0.276250
0.036250 0.237500 0.276250
0.092500 0.237500 0.276250
0.148750 0.237500 0.276250
0.205000 0.237500 0.276250
0.261250 0.237500 0.276250
0.317500 0.237500 0.276250
0.373750 0.237500 0.276250
0.430000 0.237500 0.276250
0.486250 0.237500 0.276250
0.542500 0.237500 0.276250
0.598750 0.237500 0.276250
0.655000 0.237500 0.276250
0.711250 0.237500 0.276250
0.767500 0.237500 0.276250
0.823750 0.237500 0.276250
0.880000 0.237500 0.276250
0.000000 0.296875 0.276250
0.036250 0.296875 0.276250
0.092500 0.296875 0.276250
0.148750 0.296875 0.276250
0.205000 0.296875 0.276250
0.261250 0.296875 0.276250
0.317500 0.296875 0.276250
0.373750 0.296875 0.276250
0.430000 0.296875 0.276250
0.486250 0.296875 0.276250
0.542500 0.296875 0.276250
0.598750 0.296875 0.276250
0.655000 0.296875 0.276250
0.711250 0.296875 0.276250
0.767500 0.296875 0.276250
0.823750 0.296875 0.276250
0.880000 0.296875 0.276250
0.000000 0.356250 0.276250
0.036250 0.356250 0.276250
0.092500 0.356250 0.276250
0.148750 0.356250 0.276250
0.205000 0.356250 0.276250
0.261250 0.356250 0.276250
0.317500 0.356250 0.276250
0.373750 0.356250 0.276250
0.430000 0.356250 0.276250
0.486250 0.356250 0.276250
0.542500 0.356250 0.276250
0.598750 0.356250 0.276250
0.655000 0.356250 0.276250
0.711250 0.356250 0.276250
0.767500 0.356250 0.276250
0.823750 0.356250 0.276250
0.880000 0.356250 0.276250
0.000000 0.415625 0.276250
0.036250 0.415625 0.276250
0.092500 0.415625 0.276250
0.148750 0.415625 0.276250
0.205000 0.415625 0.276250
0.261250 0.415625 0.276250
0.317500 0.415625 0.276250
0.373750 0.415625 0.276250
0.430000 0.415625 0.276250
0.486250 0.415625 0.276250
0.542500 0.415625 0.276250
0.598750 0.415625 0.276250
0.655000 0.415625 0.276250
0.711250 0.415625 0.276250
0.767500 0.415625 0.276250
0.823750 0.415625 0.276250
0.880000 0.415625 0.276250
0.000000 0.475000 0.276250
0.036250 0.475000 0.276250
0.092500 0.475000 0.276250
0.148750 0.475000 0.276250
0.205000 0.475000 0.276250
0.261250 0.475000 0.276250
0.317500 0.475000 0.276250
0.373750 0.475000 0.276250
0.430000 0.475000 0.276250
0.486250 0.475000 0.276250
0.542500 0.475000 0.276250
0.598750 0.475000 0.276250
0.655000 0.475000 0.276250
0.711250 0.475000 0.276250
0.767500 0.475000 0.276250
0.823750 0.475000 0.276250
0.880000 0.475000 0.276250
0.000000 0.534375 0.276250
0.036250 0.534375 0.276250
0.092500 0.534375 0.276250
0.148750 0.534375 0.276250
0.205000 0.534375 0.276250
0.261250 0.534375 0.276250
0.317500 0.534375 0.276250
0.373750 0.534375 0.276250
0.430000 0.534375 0.276250
0.486250 0.534375 0.276250
0.542500 0.534375 0.276250
0.598750 0.534375 0.276250
0.655000 0.534375 0.276250
0.711250 0.534375 0.276250
0.767500 0.534375 0.276250
0.823750 0.534375 0.276250
0.880000 0.534375 0.276250
0.000000 0.593750 0.276250
0.036250 0.593750 0.276250
0.092500 0.593750 0.276250
0.148750 0.593750 0.276250
0.205000 0.593750 0.276250
0.261250 0.593750 0.276250
0.317500 0.593750 0.276250
0.373750 0.593750 0.276250
0.430000 0.593750 0.276250
0.486250 0.593750 0.276250
0.542500 0.593750 0.276250
0.598750 0.593750 0.276250
0.655000 0.593750 0.276250
0.711250 0.593750 0.276250
0.767500 0.593750 0.276250
0.823750 0.593750 0.276250
0.880000 0.593750 0.276250
0.000000 0.653125 0.276250
0.036250 0.653125 0.276250
0.092500 0.653125 0.276250
0.148750 0.653125 0.276250
0.205000 0.653125 0.276250
0.261250 0.653125 0.276250
0.317500 0.653125 0.276250
0.373750 0.653125 0.276250
0.430000 0.653125 0.276250
0.486250 0.653125 0.276250
0.542500 0.653125 0.276250
0.598750 0.653125 0.276250
0.655000 0.653125 0.276250
0.711250 0.653125 0.276250
0.767500 0.653125 0.276250
0.823750 0.653125 0.276250
0.880000 0.653125 0.276250
0.000000 0.712500 0.276250
0.036250 0.712500 0.276250
0.092500 0.712500 0.276250
0.148750 0.712500 0.276250
0.205000 0.712500 0.276250
0.261250 0.712500 0.276250
0.317500 0.712500 0.276250
0.373750 0.712500 0.276250
0.430000 0.712500 0.276250
0.486250 0.712500 0.276250
0.542500 0.712500 0.276250
0.598750 0.712500 0.276250
0.655000 0.712500 0.276250
0.711250 0.712500 0.276250
0.767500 0.712500 0.276250
0.823750 0.712500 0.276250
0.880000 0.712500 0.276250
0.000000 0.771875 0.276250
0.036250 0.771875 0.276250
0.092500 0.771875 0.276250
0.148750 0.771875 0.276250
0.205000 0.771875 0.276250
0.261250 0.771875 0.276250
0.317500 0.771875 0.276250
0.373750 0.771875 0.276250
0.430000 0.771875 0.276250
0.486250 0.771875 0.276250
0.542500 0.771875 0.276250
0.598750 0.771875 0.276250
0.655000 0.771875 0.276250
0.711250 0.771875 0.276250
0.767500 0.771875 0.276250
0.823750 0.771875 0.276250
0.880000 0.771875 0.276250
0.000000 0.831250 0.276250
0.036250 0.831250 0.276250
0.092500 0.831250 0.276250
0.148750 0.831250 0.276250
0.205000 0.831250 0.276250
0.261250 0.831250 0.276250
0.317500 0.831250 0.276250
0.373750 0.831250 0.276250
0.430000 0.831250 0.276250
0.486250 0.831250 0.276250
0.542500 0.831250 0.276250
0.598750 0.831250 0.276250
0.655000 0.831250 0.276250
0.711250 0.831250 0.276250
0.767500 0.831250 0.276250
0.823750 0.831250 0.276250
0.880000 0.831250 0.276250
0.000000 0.890625 0.276250
0.036250 0.890625 0.276250
0.092500 0.890625 0.276250
0.148750 0.890625 0.276250
0.205000 0.890625 0.276250
0.261250 0.890625 0.276250
0.317500 0.890625 0.276250
0.373750 0.890625 0.276250
0.430000 0.890625 0.276250
0.486250 0.890625 0.276250
0.542500 0.890625 0.276250
0.598750 0.890625 0.276250
0.655000 0.890625 0.276250
0.711250 0.890625 0.276250
0.767500 0.890625 0.276250
0.823750 0.890625 0.276250
0.880000 0.890625 0.276250
0.000000 0.950000 0.276250
0.036250 0.950000 0.276250
0.092500 0.950000 0.276250
0.148750 0.950000 0.276250
0.205000 0.950000 0.276250
0.261250 0.950000 0.276250
0.317500 0.950000 0.276250
0.373750 0.950000 0.276250
0.430000 0.950000 0.276250
0.486250 0.950000 0.276250
0.542500 0.950000 0.276250
0.598750 0.950000 0.276250
0.655000 0.950000 0.276250
0.711250 0.950000 0.276250
0.767500 0.950000 0.276250
0.823750 0.950000 0.276250
0.880000 0.950000 0.276250
0.000000 0.000000 0.354375
0.036250 0.000000 0.354375
0.092500 0.000000 0.354375
0.148750 0.000000 0.354375
0.205000 0.000000 0.354375
0.261250 0.000000 0.354375
0.317500 0.000000 0.354375
0.373750 0.000000 0.354375
0.430000 0.000000 0.354375
0.486250 0.000000 0.354375
0.542500 0.000000 0.354375
0.598750 0.000000 0.354375
0.655000 0.000000 0.354375
0.711250 0.000000 0.354375
0.767500 0.000000 0.354375
0.823750 0.000000 0.354375
0.880000 0.000000 0.354375
0.000000 0.059375 0.354375
