app/src/main/assets/luts/oslo_winter.cube
# ApexStudio filter: oslo_winter
LUT_3D_SIZE 9
DOMAIN_MIN 0.0 0.0 0.0
DOMAIN_MAX 1.0 1.0 1.0
0.000000 0.000000 0.120000
0.092500 0.000000 0.120000
0.205000 0.000000 0.120000
0.317500 0.000000 0.120000
0.430000 0.000000 0.120000
0.542500 0.000000 0.120000
0.655000 0.000000 0.120000
0.767500 0.000000 0.120000
0.880000 0.000000 0.120000
0.000000 0.118750 0.120000
0.092500 0.118750 0.120000
0.205000 0.118750 0.120000
0.317500 0.118750 0.120000
0.430000 0.118750 0.120000
0.542500 0.118750 0.120000
0.655000 0.118750 0.120000
0.767500 0.118750 0.120000
0.880000 0.118750 0.120000
0.000000 0.237500 0.120000
0.092500 0.237500 0.120000
0.205000 0.237500 0.120000
0.317500 0.237500 0.120000
0.430000 0.237500 0.120000
0.542500 0.237500 0.120000
0.655000 0.237500 0.120000
0.767500 0.237500 0.120000
0.880000 0.237500 0.120000
0.000000 0.356250 0.120000
0.092500 0.356250 0.120000
0.205000 0.356250 0.120000
0.317500 0.356250 0.120000
0.430000 0.356250 0.120000
0.542500 0.356250 0.120000
0.655000 0.356250 0.120000
0.767500 0.356250 0.120000
0.880000 0.356250 0.120000
0.000000 0.475000 0.120000
0.092500 0.475000 0.120000
0.205000 0.475000 0.120000
0.317500 0.475000 0.120000
0.430000 0.475000 0.120000
0.542500 0.475000 0.120000
0.655000 0.475000 0.120000
0.767500 0.475000 0.120000
0.880000 0.475000 0.120000
0.000000 0.593750 0.120000
0.092500 0.593750 0.120000
0.205000 0.593750 0.120000
0.317500 0.593750 0.120000
0.430000 0.593750 0.120000
0.542500 0.593750 0.120000
0.655000 0.593750 0.120000
0.767500 0.593750 0.120000
0.880000 0.593750 0.120000
0.000000 0.712500 0.120000
0.092500 0.712500 0.120000
0.205000 0.712500 0.120000
0.317500 0.712500 0.120000
0.430000 0.712500 0.120000
0.542500 0.712500 0.120000
0.655000 0.712500 0.120000
0.767500 0.712500 0.120000
0.880000 0.712500 0.120000
0.000000 0.831250 0.120000
0.092500 0.831250 0.120000
0.205000 0.831250 0.120000
0.317500 0.831250 0.120000
0.430000 0.831250 0.120000
0.542500 0.831250 0.120000
0.655000 0.831250 0.120000
0.767500 0.831250 0.120000
0.880000 0.831250 0.120000
0.000000 0.950000 0.120000
0.092500 0.950000 0.120000
0.205000 0.950000 0.120000
0.317500 0.950000 0.120000
0.430000 0.950000 0.120000
0.542500 0.950000 0.120000
0.655000 0.950000 0.120000
0.767500 0.950000 0.120000
0.880000 0.950000 0.120000
0.000000 0.000000 0.276250
0.092500 0.000000 0.276250
0.205000 0.000000 0.276250
0.317500 0.000000 0.276250
0.430000 0.000000 0.276250
0.542500 0.000000 0.276250
0.655000 0.000000 0.276250
0.767500 0.000000 0.276250
0.880000 0.000000 0.276250
0.000000 0.118750 0.276250
0.092500 0.118750 0.276250
0.205000 0.118750 0.276250
0.317500 0.118750 0.276250
0.430000 0.118750 0.276250
0.542500 0.118750 0.276250
0.655000 0.118750 0.276250
0.767500 0.118750 0.276250
0.880000 0.118750 0.276250
0.000000 0.237500 0.276250
0.092500 0.237500 0.276250
0.205000 0.237500 0.276250
0.317500 0.237500 0.276250
0.430000 0.237500 0.276250
0.542500 0.237500 0.276250
0.655000 0.237500 0.276250
0.767500 0.237500 0.276250
0.880000 0.237500 0.276250
0.000000 0.356250 0.276250
0.092500 0.356250 0.276250
0.205000 0.356250 0.276250
0.317500 0.356250 0.276250
0.430000 0.356250 0.276250
0.542500 0.356250 0.276250
0.655000 0.356250 0.276250
0.767500 0.356250 0.276250
0.880000 0.356250 0.276250
0.000000 0.475000 0.276250
0.092500 0.475000 0.276250
0.205000 0.475000 0.276250
0.317500 0.475000 0.276250
0.430000 0.475000 0.276250
0.542500 0.475000 0.276250
0.655000 0.475000 0.276250
0.767500 0.475000 0.276250
0.880000 0.475000 0.276250
0.000000 0.593750 0.276250
0.092500 0.593750 0.276250
0.205000 0.593750 0.276250
0.317500 0.593750 0.276250
0.430000 0.593750 0.276250
0.542500 0.593750 0.276250
0.655000 0.593750 0.276250
0.767500 0.593750 0.276250
0.880000 0.593750 0.276250
0.000000 0.712500 0.276250
0.092500 0.712500 0.276250
0.205000 0.712500 0.276250
0.317500 0.712500 0.276250
0.430000 0.712500 0.276250
0.542500 0.712500 0.276250
0.655000 0.712500 0.276250
0.767500 0.712500 0.276250
0.880000 0.712500 0.276250
0.000000 0.831250 0.276250
0.092500 0.831250 0.276250
0.205000 0.831250 0.276250
0.317500 0.831250 0.276250
0.430000 0.831250 0.276250
0.542500 0.831250 0.276250
0.655000 0.831250 0.276250
0.767500 0.831250 0.276250
0.880000 0.831250 0.276250
0.000000 0.950000 0.276250
0.092500 0.950000 0.276250
0.205000 0.950000 0.276250
0.317500 0.950000 0.276250
0.430000 0.950000 0.276250
0.542500 0.950000 0.276250
0.655000 0.950000 0.276250
0.767500 0.950000 0.276250
0.880000 0.950000 0.276250
0.000000 0.000000 0.432500
0.092500 0.000000 0.432500
0.205000 0.000000 0.432500
0.317500 0.000000 0.432500
0.430000 0.000000 0.432500
0.542500 0.000000 0.432500
0.655000 0.000000 0.432500
0.767500 0.000000 0.432500
0.880000 0.000000 0.432500
0.000000 0.118750 0.432500
0.092500 0.118750 0.432500
0.205000 0.118750 0.432500
0.317500 0.118750 0.432500
0.430000 0.118750 0.432500
0.542500 0.118750 0.432500
0.655000 0.118750 0.432500
0.767500 0.118750 0.432500
0.880000 0.118750 0.432500
0.000000 0.237500 0.432500
0.092500 0.237500 0.432500
0.205000 0.237500 0.432500
0.317500 0.237500 0.432500
0.430000 0.237500 0.432500
0.542500 0.237500 0.432500
0.655000 0.237500 0.432500
0.767500 0.237500 0.432500
0.880000 0.237500 0.432500
0.000000 0.356250 0.432500
0.092500 0.356250 0.432500
0.205000 0.356250 0.432500
0.317500 0.356250 0.432500
0.430000 0.356250 0.432500
0.542500 0.356250 0.432500
0.655000 0.356250 0.432500
0.767500 0.356250 0.432500
0.880000 0.356250 0.432500
0.000000 0.475000 0.432500
0.092500 0.475000 0.432500
0.205000 0.475000 0.432500
0.317500 0.475000 0.432500
0.430000 0.475000 0.432500
0.542500 0.475000 0.432500
0.655000 0.475000 0.432500
0.767500 0.475000 0.432500
0.880000 0.475000 0.432500
0.000000 0.593750 0.432500
0.092500 0.593750 0.432500
0.205000 0.593750 0.432500
0.317500 0.593750 0.432500
0.430000 0.593750 0.432500
0.542500 0.593750 0.432500
0.655000 0.593750 0.432500
0.767500 0.593750 0.432500
0.880000 0.593750 0.432500
0.000000 0.712500 0.432500
0.092500 0.712500 0.432500
0.205000 0.712500 0.432500
0.317500 0.712500 0.432500
0.430000 0.712500 0.432500
0.542500 0.712500 0.432500
0.655000 0.712500 0.432500
0.767500 0.712500 0.432500
0.880000 0.712500 0.432500
0.000000 0.831250 0.432500
0.092500 0.831250 0.432500
0.205000 0.831250 0.432500
0.317500 0.831250 0.432500
0.430000 0.831250 0.432500
0.542500 0.831250 0.432500
0.655000 0.831250 0.432500
0.767500 0.831250 0.432500
0.880000 0.831250 0.432500
0.000000 0.950000 0.432500
0.092500 0.950000 0.432500
0.205000 0.950000 0.432500
0.317500 0.950000 0.432500
0.430000 0.950000 0.432500
0.542500 0.950000 0.432500
0.655000 0.950000 0.432500
0.767500 0.950000 0.432500
0.880000 0.950000 0.432500
0.000000 0.000000 0.588750
0.092500 0.000000 0.588750
0.205000 0.000000 0.588750
0.317500 0.000000 0.588750
0.430000 0.000000 0.588750
0.542500 0.000000 0.588750
0.655000 0.000000 0.588750
0.767500 0.000000 0.588750
0.880000 0.000000 0.588750
0.000000 0.118750 0.588750
0.092500 0.118750 0.588750
0.205000 0.118750 0.588750
0.317500 0.118750 0.588750
0.430000 0.118750 0.588750
0.542500 0.118750 0.588750
0.655000 0.118750 0.588750
0.767500 0.118750 0.588750
0.880000 0.118750 0.588750
0.000000 0.237500 0.588750
0.092500 0.237500 0.588750
0.205000 0.237500 0.588750
0.317500 0.237500 0.588750
0.430000 0.237500 0.588750
0.542500 0.237500 0.588750
0.655000 0.237500 0.588750
0.767500 0.237500 0.588750
0.880000 0.237500 0.588750
0.000000 0.356250 0.588750
0.092500 0.356250 0.588750
0.205000 0.356250 0.588750
0.317500 0.356250 0.588750
0.430000 0.356250 0.588750
0.542500 0.356250 0.588750
0.655000 0.356250 0.588750
0.767500 0.356250 0.588750
0.880000 0.356250 0.588750
0.000000 0.475000 0.588750
0.092500 0.475000 0.588750
0.205000 0.475000 0.588750
0.317500 0.475000 0.588750
0.430000 0.475000 0.588750
0.542500 0.475000 0.588750
0.655000 0.475000 0.588750
0.767500 0.475000 0.588750
0.880000 0.475000 0.588750
0.000000 0.593750 0.588750
0.092500 0.593750 0.588750
0.205000 0.593750 0.588750
0.317500 0.593750 0.588750
0.430000 0.593750 0.588750
0.542500 0.593750 0.588750
0.655000 0.593750 0.588750
0.767500 0.593750 0.588750
0.880000 0.593750 0.588750
0.000000 0.712500 0.588750
0.092500 0.712500 0.588750
0.205000 0.712500 0.588750
0.317500 0.712500 0.588750
0.430000 0.712500 0.588750
0.542500 0.712500 0.588750
0.655000 0.712500 0.588750
0.767500 0.712500 0.588750
0.880000 0.712500 0.588750
0.000000 0.831250 0.588750
0.092500 0.831250 0.588750
0.205000 0.831250 0.588750
0.317500 0.831250 0.588750
0.430000 0.831250 0.588750
0.542500 0.831250 0.588750
0.655000 0.831250 0.588750
0.767500 0.831250 0.588750
0.880000 0.831250 0.588750
0.000000 0.950000 0.588750
0.092500 0.950000 0.588750
0.205000 0.950000 0.588750
0.317500 0.950000 0.588750
0.430000 0.950000 0.588750
0.542500 0.950000 0.588750
0.655000 0.950000 0.588750
0.767500 0.950000 0.588750
0.880000 0.950000 0.588750
0.000000 0.000000 0.745000
0.092500 0.000000 0.745000
0.205000 0.000000 0.745000
0.317500 0.000000 0.745000
0.430000 0.000000 0.745000
0.542500 0.000000 0.745000
0.655000 0.000000 0.745000
0.767500 0.000000 0.745000
0.880000 0.000000 0.745000
0.000000 0.118750 0.745000
0.092500 0.118750 0.745000
0.205000 0.118750 0.745000
0.317500 0.118750 0.745000
0.430000 0.118750 0.745000
0.542500 0.118750 0.745000
0.655000 0.118750 0.745000
0.767500 0.118750 0.745000
0.880000 0.118750 0.745000
0.000000 0.237500 0.745000
0.092500 0.237500 0.745000
0.205000 0.237500 0.745000
0.317500 0.237500 0.745000
0.430000 0.237500 0.745000
0.542500 0.237500 0.745000
0.655000 0.237500 0.745000
0.767500 0.237500 0.745000
0.880000 0.237500 0.745000
0.000000 0.356250 0.745000
0.092500 0.356250 0.745000
0.205000 0.356250 0.745000
0.317500 0.356250 0.745000
0.430000 0.356250 0.745000
0.542500 0.356250 0.745000
0.655000 0.356250 0.745000
0.767500 0.356250 0.745000
0.880000 0.356250 0.745000
0.000000 0.475000 0.745000
0.092500 0.475000 0.745000
0.205000 0.475000 0.745000
0.317500 0.475000 0.745000
0.430000 0.475000 0.745000
0.542500 0.475000 0.745000
0.655000 0.475000 0.745000
0.767500 0.475000 0.745000
0.880000 0.475000 0.745000
0.000000 0.593750 0.745000
0.092500 0.593750 0.745000
0.205000 0.593750 0.745000
0.317500 0.593750 0.745000
0.430000 0.593750 0.745000
0.542500 0.593750 0.745000
0.655000 0.593750 0.745000
0.767500 0.593750 0.745000
0.880000 0.593750 0.745000
0.000000 0.712500 0.745000
0.092500 0.712500 0.745000
0.205000 0.712500 0.745000
0.317500 0.712500 0.745000
0.430000 0.712500 0.745000
0.542500 0.712500 0.745000
0.655000 0.712500 0.745000
0.767500 0.712500 0.745000
0.880000 0.712500 0.745000
0.000000 0.831250 0.745000
0.092500 0.831250 0.745000
0.205000 0.831250 0.745000
0.317500 0.831250 0.745000
0.430000 0.831250 0.745000
0.542500 0.831250 0.745000
0.655000 0.831250 0.745000
0.767500 0.831250 0.745000
0.880000 0.831250 0.745000
0.000000 0.950000 0.745000
0.092500 0.950000 0.745000
0.205000 0.950000 0.745000
0.317500 0.950000 0.745000
0.430000 0.950000 0.745000
0.542500 0.950000 0.745000
0.655000 0.950000 0.745000
0.767500 0.950000 0.745000
0.880000 0.950000 0.745000
0.000000 0.000000 0.901250
0.092500 0.000000 0.901250
0.205000 0.000000 0.901250
0.317500 0.000000 0.901250
0.430000 0.000000 0.901250
0.542500 0.000000 0.901250
0.655000 0.000000 0.901250
0.767500 0.000000 0.901250
0.880000 0.000000 0.901250
0.000000 0.118750 0.901250
0.092500 0.118750 0.901250
0.205000 0.118750 0.901250
0.317500 0.118750 0.901250
0.430000 0.118750 0.901250
0.542500 0.118750 0.901250
0.655000 0.118750 0.901250
0.767500 0.118750 0.901250
0.880000 0.118750 0.901250
0.000000 0.237500 0.901250
0.092500 0.237500 0.901250
0.205000 0.237500 0.901250
0.317500 0.237500 0.901250
0.430000 0.237500 0.901250
0.542500 0.237500 0.901250
0.655000 0.237500 0.901250
0.767500 0.237500 0.901250
0.880000 0.237500 0.901250
0.000000 0.356250 0.901250
0.092500 0.356250 0.901250
0.205000 0.356250 0.901250
0.317500 0.356250 0.901250
0.430000 0.356250 0.901250
0.542500 0.356250 0.901250
0.655000 0.356250 0.901250
0.767500 0.356250 0.901250
0.880000 0.356250 0.901250
0.000000 0.475000 0.901250
0.092500 0.475000 0.901250
0.205000 0.475000 0.901250
0.317500 0.475000 0.901250
0.430000 0.475000 0.901250
0.542500 0.475000 0.901250
0.655000 0.475000 0.901250
0.767500 0.475000 0.901250
0.880000 0.475000 0.901250
0.000000 0.593750 0.901250
0.092500 0.593750 0.901250
0.205000 0.593750 0.901250
0.317500 0.593750 0.901250
0.430000 0.593750 0.901250
0.542500 0.593750 0.901250
0.655000 0.593750 0.901250
0.767500 0.593750 0.901250
0.880000 0.593750 0.901250
0.000000 0.712500 0.901250
0.092500 0.712500 0.901250
0.205000 0.712500 0.901250
0.317500 0.712500 0.901250
0.430000 0.712500 0.901250
0.542500 0.712500 0.901250
0.655000 0.712500 0.901250
0.767500 0.712500 0.901250
0.880000 0.712500 0.901250
0.000000 0.831250 0.901250
0.092500 0.831250 0.901250
0.205000 0.831250 0.901250
0.317500 0.831250 0.901250
0.430000 0.831250 0.901250
0.542500 0.831250 0.901250
0.655000 0.831250 0.901250
0.767500 0.831250 0.901250
0.880000 0.831250 0.901250
0.000000 0.950000 0.901250
0.092500 0.950000 0.901250
0.205000 0.950000 0.901250
0.317500 0.950000 0.901250
0.430000 0.950000 0.901250
0.542500 0.950000 0.901250
0.655000 0.950000 0.901250
0.767500 0.950000 0.901250
0.880000 0.950000 0.901250
0.000000 0.000000 1.000000
0.092500 0.000000 1.000000
0.205000 0.000000 1.000000
0.317500 0.000000 1.000000
0.430000 0.000000 1.000000
0.542500 0.000000 1.000000
0.655000 0.000000 1.000000
0.767500 0.000000 1.000000
0.880000 0.000000 1.000000
0.000000 0.118750 1.000000
0.092500 0.118750 1.000000
0.205000 0.118750 1.000000
0.317500 0.118750 1.000000
0.430000 0.118750 1.000000
0.542500 0.118750 1.000000
0.655000 0.118750 1.000000
0.767500 0.118750 1.000000
0.880000 0.118750 1.000000
0.000000 0.237500 1.000000
0.092500 0.237500 1.000000
0.205000 0.237500 1.000000
0.317500 0.237500 1.000000
0.430000 0.237500 1.000000
0.542500 0.237500 1.000000
0.655000 0.237500 1.000000
0.767500 0.237500 1.000000
0.880000 0.237500 1.000000
0.000000 0.356250 1.000000
0.092500 0.356250 1.000000
0.205000 0.356250 1.000000
0.317500 0.356250 1.000000
0.430000 0.356250 1.000000
0.542500 0.356250 1.000000
0.655000 0.356250 1.000000
0.767500 0.356250 1.000000
0.880000 0.356250 1.000000
0.000000 0.475000 1.000000
0.092500 0.475000 1.000000
0.205000 0.475000 1.000000
0.317500 0.475000 1.000000
0.430000 0.475000 1.000000
0.542500 0.475000 1.000000
0.655000 0.475000 1.000000
0.767500 0.475000 1.000000
0.880000 0.475000 1.000000
0.000000 0.593750 1.000000
0.092500 0.593750 1.000000
0.205000 0.593750 1.000000
0.317500 0.593750 1.000000
0.430000 0.593750 1.000000
0.542500 0.593750 1.000000
0.655000 0.593750 1.000000
0.767500 0.593750 1.000000
0.880000 0.593750 1.000000
0.000000 0.712500 1.000000
0.092500 0.712500 1.000000
0.205000 0.712500 1.000000
0.317500 0.712500 1.000000
0.430000 0.712500 1.000000
0.542500 0.712500 1.000000
0.655000 0.712500 1.000000
0.767500 0.712500 1.000000
0.880000 0.712500 1.000000
0.000000 0.831250 1.000000
0.092500 0.831250 1.000000
0.205000 0.831250 1.000000
0.317500 0.831250 1.000000
0.430000 0.831250 1.000000
0.542500 0.831250 1.000000
0.655000 0.831250 1.000000
0.767500 0.831250 1.000000
0.880000 0.831250 1.000000
0.000000 0.950000 1.000000
0.092500 0.950000 1.000000
0.205000 0.950000 1.000000
0.317500 0.950000 1.000000
0.430000 0.950000 1.000000
0.542500 0.950000 1.000000
0.655000 0.950000 1.000000
0.767500 0.950000 1.000000
0.880000 0.950000 1.000000
0.000000 0.000000 1.000000
0.092500 0.000000 1.000000
0.205000 0.000000 1.000000
0.317500 0.000000 1.000000
0.430000 0.000000 1.000000
0.542500 0.000000 1.000000
0.655000 0.000000 1.000000
0.767500 0.000000 1.000000
0.880000 0.000000 1.000000
0.000000 0.118750 1.000000
0.092500 0.118750 1.000000
0.205000 0.118750 1.000000
0.317500 0.118750 1.000000
0.430000 0.118750 1.000000
0.542500 0.118750 1.000000
0.655000 0.118750 1.000000
0.767500 0.118750 1.000000
0.880000 0.118750 1.000000
0.000000 0.237500 1.000000
0.092500 0.237500 1.000000
0.205000 0.237500 1.000000
0.317500 0.237500 1.000000
0.430000 0.237500 1.000000
0.542500 0.237500 1.000000
0.655000 0.237500 1.000000
0.767500 0.237500 1.000000
0.880000 0.237500 1.000000
0.000000 0.356250 1.000000
0.092500 0.356250 1.000000
0.205000 0.356250 1.000000
0.317500 0.356250 1.000000
0.430000 0.356250 1.000000
0.542500 0.356250 1.000000
0.655000 0.356250 1.000000
0.767500 0.356250 1.000000
0.880000 0.356250 1.000000
0.000000 0.475000 1.000000
0.092500 0.475000 1.000000
0.205000 0.475000 1.000000
0.317500 0.475000 1.000000
0.430000 0.475000 1.000000
0.542500 0.475000 1.000000
0.655000 0.475000 1.000000
0.767500 0.475000 1.000000
0.880000 0.475000 1.000000
0.000000 0.593750 1.000000
0.092500 0.593750 1.000000
0.205000 0.593750 1.000000
0.317500 0.593750 1.000000
0.430000 0.593750 1.000000
0.542500 0.593750 1.000000
0.655000 0.593750 1.000000
0.767500 0.593750 1.000000
0.880000 0.593750 1.000000
0.000000 0.712500 1.000000
0.092500 0.712500 1.000000
0.205000 0.712500 1.000000
0.317500 0.712500 1.000000
0.430000 0.712500 1.000000
0.542500 0.712500 1.000000
0.655000 0.712500 1.000000
0.767500 0.712500 1.000000
0.880000 0.712500 1.000000
0.000000 0.831250 1.000000
0.092500 0.831250 1.000000
0.205000 0.831250 1.000000
0.317500 0.831250 1.000000
0.430000 0.831250 1.000000
0.542500 0.831250 1.000000
0.655000 0.831250 1.000000
0.767500 0.831250 1.000000
0.880000 0.831250 1.000000
0.000000 0.950000 1.000000
0.092500 0.950000 1.000000
0.205000 0.950000 1.000000
0.317500 0.950000 1.000000
0.430000 0.950000 1.000000
0.542500 0.950000 1.000000
0.655000 0.950000 1.000000
0.767500 0.950000 1.000000
0.880000 0.950000 1.000000
0.000000 0.000000 1.000000
0.092500 0.000000 1.000000
0.205000 0.000000 1.000000
0.317500 0.000000 1.000000
0.430000 0.000000 1.000000
0.542500 0.000000 1.000000
0.655000 0.000000 1.000000
0.767500 0.000000 1.000000
0.880000 0.000000 1.000000
0.000000 0.118750 1.000000
0.092500 0.118750 1.000000
0.205000 0.118750 1.000000
0.317500 0.118750 1.000000
0.430000 0.118750 1.000000
0.542500 0.118750 1.000000
0.655000 0.118750 1.000000
0.767500 0.118750 1.000000
0.880000 0.118750 1.000000
0.000000 0.237500 1.000000
0.092500 0.237500 1.000000
0.205000 0.237500 1.000000
0.317500 0.237500 1.000000
0.430000 0.237500 1.000000
0.542500 0.237500 1.000000
0.655000 0.237500 1.000000
0.767500 0.237500 1.000000
0.880000 0.237500 1.000000
0.000000 0.356250 1.000000
0.092500 0.356250 1.000000
0.205000 0.356250 1.000000
0.317500 0.356250 1.000000
0.430000 0.356250 1.000000
0.542500 0.356250 1.000000
0.655000 0.356250 1.000000
0.767500 0.356250 1.000000
0.880000 0.356250 1.000000
0.000000 0.475000 1.000000
0.092500 0.475000 1.000000
0.205000 0.475000 1.000000
0.317500 0.475000 1.000000
0.430000 0.475000 1.000000
0.542500 0.475000 1.000000
0.655000 0.475000 1.000000
0.767500 0.475000 1.000000
0.880000 0.475000 1.000000
0.000000 0.593750 1.000000
0.092500 0.593750 1.000000
0.205000 0.593750 1.000000
0.317500 0.593750 1.000000
0.430000 0.593750 1.000000
0.542500 0.593750 1.000000
0.655000 0.593750 1.000000
0.767500 0.593750 1.000000
0.880000 0.593750 1.000000
0.000000 0.712500 1.000000
0.092500 0.712500 1.000000
0.205000 0.712500 1.000000
0.317500 0.712500 1.000000
0.430000 0.712500 1.000000
0.542500 0.712500 1.000000
0.655000 0.712500 1.000000
0.767500 0.712500 1.000000
0.880000 0.712500 1.000000
0.000000 0.831250 1.000000
0.092500 0.831250 1.000000
0.205000 0.831250 1.000000
0.317500 0.831250 1.000000
0.430000 0.831250 1.000000
0.542500 0.831250 1.000000
0.655000 0.831250 1.000000
0.767500 0.831250 1.000000
0.880000 0.831250 1.000000
0.000000 0.950000 1.000000
0.092500 0.950000 1.000000
0.205000 0.950000 1.000000
0.317500 0.950000 1.000000
0.430000 0.950000 1.000000
0.542500 0.950000 1.000000
0.655000 0.950000 1.000000
0.767500 0.950000 1.000000
0.880000 0.950000 1.000000
