app/src/main/assets/luts/oslo_winter.cube
# ApexStudio filter: oslo_winter
LUT_3D_SIZE 5
DOMAIN_MIN 0.0 0.0 0.0
DOMAIN_MAX 1.0 1.0 1.0
0.000000 0.000000 0.120000
0.205000 0.000000 0.120000
0.430000 0.000000 0.120000
0.655000 0.000000 0.120000
0.880000 0.000000 0.120000
0.000000 0.237500 0.120000
0.205000 0.237500 0.120000
0.430000 0.237500 0.120000
0.655000 0.237500 0.120000
0.880000 0.237500 0.120000
0.000000 0.475000 0.120000
0.205000 0.475000 0.120000
0.430000 0.475000 0.120000
0.655000 0.475000 0.120000
0.880000 0.475000 0.120000
0.000000 0.712500 0.120000
0.205000 0.712500 0.120000
0.430000 0.712500 0.120000
0.655000 0.712500 0.120000
0.880000 0.712500 0.120000
0.000000 0.950000 0.120000
0.205000 0.950000 0.120000
0.430000 0.950000 0.120000
0.655000 0.950000 0.120000
0.880000 0.950000 0.120000
0.000000 0.000000 0.432500
0.205000 0.000000 0.432500
0.430000 0.000000 0.432500
0.655000 0.000000 0.432500
0.880000 0.000000 0.432500
0.000000 0.237500 0.432500
0.205000 0.237500 0.432500
0.430000 0.237500 0.432500
0.655000 0.237500 0.432500
0.880000 0.237500 0.432500
0.000000 0.475000 0.432500
0.205000 0.475000 0.432500
0.430000 0.475000 0.432500
0.655000 0.475000 0.432500
0.880000 0.475000 0.432500
0.000000 0.712500 0.432500
0.205000 0.712500 0.432500
0.430000 0.712500 0.432500
0.655000 0.712500 0.432500
0.880000 0.712500 0.432500
0.000000 0.950000 0.432500
0.205000 0.950000 0.432500
0.430000 0.950000 0.432500
0.655000 0.950000 0.432500
0.880000 0.950000 0.432500
0.000000 0.000000 0.745000
0.205000 0.000000 0.745000
0.430000 0.000000 0.745000
0.655000 0.000000 0.745000
0.880000 0.000000 0.745000
0.000000 0.237500 0.745000
0.205000 0.237500 0.745000
0.430000 0.237500 0.745000
0.655000 0.237500 0.745000
0.880000 0.237500 0.745000
0.000000 0.475000 0.745000
0.205000 0.475000 0.745000
0.430000 0.475000 0.745000
0.655000 0.475000 0.745000
0.880000 0.475000 0.745000
0.000000 0.712500 0.745000
0.205000 0.712500 0.745000
0.430000 0.712500 0.745000
0.655000 0.712500 0.745000
0.880000 0.712500 0.745000
0.000000 0.950000 0.745000
0.205000 0.950000 0.745000
0.430000 0.950000 0.745000
0.655000 0.950000 0.745000
0.880000 0.950000 0.745000
0.000000 0.000000 1.000000
0.205000 0.000000 1.000000
0.430000 0.000000 1.000000
0.655000 0.000000 1.000000
0.880000 0.000000 1.000000
0.000000 0.237500 1.000000
0.205000 0.237500 1.000000
0.430000 0.237500 1.000000
0.655000 0.237500 1.000000
0.880000 0.237500 1.000000
0.000000 0.475000 1.000000
0.205000 0.475000 1.000000
0.430000 0.475000 1.000000
0.655000 0.475000 1.000000
0.880000 0.475000 1.000000
0.000000 0.712500 1.000000
0.205000 0.712500 1.000000
0.430000 0.712500 1.000000
0.655000 0.712500 1.000000
0.880000 0.712500 1.000000
0.000000 0.950000 1.000000
0.205000 0.950000 1.000000
0.430000 0.950000 1.000000
0.655000 0.950000 1.000000
0.880000 0.950000 1.000000
0.000000 0.000000 1.000000
0.205000 0.000000 1.000000
0.430000 0.000000 1.000000
0.655000 0.000000 1.000000
0.880000 0.000000 1.000000
0.000000 0.237500 1.000000
0.205000 0.237500 1.000000
0.430000 0.237500 1.000000
0.655000 0.237500 1.000000
0.880000 0.237500 1.000000
0.000000 0.475000 1.000000
0.205000 0.475000 1.000000
0.430000 0.475000 1.000000
0.655000 0.475000 1.000000
0.880000 0.475000 1.000000
0.000000 0.712500 1.000000
0.205000 0.712500 1.000000
0.430000 0.712500 1.000000
0.655000 0.712500 1.000000
0.880000 0.712500 1.000000
0.000000 0.950000 1.000000
0.205000 0.950000 1.000000
0.430000 0.950000 1.000000
0.655000 0.950000 1.000000
0.880000 0.950000 1.000000
