app/src/main/assets/luts/pale_fog.cube
# ApexStudio filter: pale_fog
LUT_3D_SIZE 9
DOMAIN_MIN 0.0 0.0 0.0
DOMAIN_MAX 1.0 1.0 1.0
0.080000 0.080000 0.100000
0.198750 0.080000 0.100000
0.317500 0.080000 0.100000
0.436250 0.080000 0.100000
0.555000 0.080000 0.100000
0.673750 0.080000 0.100000
0.792500 0.080000 0.100000
0.911250 0.080000 0.100000
1.000000 0.080000 0.100000
0.080000 0.198750 0.100000
0.198750 0.198750 0.100000
0.317500 0.198750 0.100000
0.436250 0.198750 0.100000
0.555000 0.198750 0.100000
0.673750 0.198750 0.100000
0.792500 0.198750 0.100000
0.911250 0.198750 0.100000
1.000000 0.198750 0.100000
0.080000 0.317500 0.100000
0.198750 0.317500 0.100000
0.317500 0.317500 0.100000
0.436250 0.317500 0.100000
0.555000 0.317500 0.100000
0.673750 0.317500 0.100000
0.792500 0.317500 0.100000
0.911250 0.317500 0.100000
1.000000 0.317500 0.100000
0.080000 0.436250 0.100000
0.198750 0.436250 0.100000
0.317500 0.436250 0.100000
0.436250 0.436250 0.100000
0.555000 0.436250 0.100000
0.673750 0.436250 0.100000
0.792500 0.436250 0.100000
0.911250 0.436250 0.100000
1.000000 0.436250 0.100000
0.080000 0.555000 0.100000
0.198750 0.555000 0.100000
0.317500 0.555000 0.100000
0.436250 0.555000 0.100000
0.555000 0.555000 0.100000
0.673750 0.555000 0.100000
0.792500 0.555000 0.100000
0.911250 0.555000 0.100000
1.000000 0.555000 0.100000
0.080000 0.673750 0.100000
0.198750 0.673750 0.100000
0.317500 0.673750 0.100000
0.436250 0.673750 0.100000
0.555000 0.673750 0.100000
0.673750 0.673750 0.100000
0.792500 0.673750 0.100000
0.911250 0.673750 0.100000
1.000000 0.673750 0.100000
0.080000 0.792500 0.100000
0.198750 0.792500 0.100000
0.317500 0.792500 0.100000
0.436250 0.792500 0.100000
0.555000 0.792500 0.100000
0.673750 0.792500 0.100000
0.792500 0.792500 0.100000
0.911250 0.792500 0.100000
1.000000 0.792500 0.100000
0.080000 0.911250 0.100000
0.198750 0.911250 0.100000
0.317500 0.911250 0.100000
0.436250 0.911250 0.100000
0.555000 0.911250 0.100000
0.673750 0.911250 0.100000
0.792500 0.911250 0.100000
0.911250 0.911250 0.100000
1.000000 0.911250 0.100000
0.080000 1.000000 0.100000
0.198750 1.000000 0.100000
0.317500 1.000000 0.100000
0.436250 1.000000 0.100000
0.555000 1.000000 0.100000
0.673750 1.000000 0.100000
0.792500 1.000000 0.100000
0.911250 1.000000 0.100000
1.000000 1.000000 0.100000
0.080000 0.080000 0.231250
0.198750 0.080000 0.231250
0.317500 0.080000 0.231250
0.436250 0.080000 0.231250
0.555000 0.080000 0.231250
0.673750 0.080000 0.231250
0.792500 0.080000 0.231250
0.911250 0.080000 0.231250
1.000000 0.080000 0.231250
0.080000 0.198750 0.231250
0.198750 0.198750 0.231250
0.317500 0.198750 0.231250
0.436250 0.198750 0.231250
0.555000 0.198750 0.231250
0.673750 0.198750 0.231250
0.792500 0.198750 0.231250
0.911250 0.198750 0.231250
1.000000 0.198750 0.231250
0.080000 0.317500 0.231250
0.198750 0.317500 0.231250
0.317500 0.317500 0.231250
0.436250 0.317500 0.231250
0.555000 0.317500 0.231250
0.673750 0.317500 0.231250
0.792500 0.317500 0.231250
0.911250 0.317500 0.231250
1.000000 0.317500 0.231250
0.080000 0.436250 0.231250
0.198750 0.436250 0.231250
0.317500 0.436250 0.231250
0.436250 0.436250 0.231250
0.555000 0.436250 0.231250
0.673750 0.436250 0.231250
0.792500 0.436250 0.231250
0.911250 0.436250 0.231250
1.000000 0.436250 0.231250
0.080000 0.555000 0.231250
0.198750 0.555000 0.231250
0.317500 0.555000 0.231250
0.436250 0.555000 0.231250
0.555000 0.555000 0.231250
0.673750 0.555000 0.231250
0.792500 0.555000 0.231250
0.911250 0.555000 0.231250
1.000000 0.555000 0.231250
0.080000 0.673750 0.231250
0.198750 0.673750 0.231250
0.317500 0.673750 0.231250
0.436250 0.673750 0.231250
0.555000 0.673750 0.231250
0.673750 0.673750 0.231250
0.792500 0.673750 0.231250
0.911250 0.673750 0.231250
1.000000 0.673750 0.231250
0.080000 0.792500 0.231250
0.198750 0.792500 0.231250
0.317500 0.792500 0.231250
0.436250 0.792500 0.231250
0.555000 0.792500 0.231250
0.673750 0.792500 0.231250
0.792500 0.792500 0.231250
0.911250 0.792500 0.231250
1.000000 0.792500 0.231250
0.080000 0.911250 0.231250
0.198750 0.911250 0.231250
0.317500 0.911250 0.231250
0.436250 0.911250 0.231250
0.555000 0.911250 0.231250
0.673750 0.911250 0.231250
0.792500 0.911250 0.231250
0.911250 0.911250 0.231250
1.000000 0.911250 0.231250
0.080000 1.000000 0.231250
0.198750 1.000000 0.231250
0.317500 1.000000 0.231250
0.436250 1.000000 0.231250
0.555000 1.000000 0.231250
0.673750 1.000000 0.231250
0.792500 1.000000 0.231250
0.911250 1.000000 0.231250
1.000000 1.000000 0.231250
0.080000 0.080000 0.362500
0.198750 0.080000 0.362500
0.317500 0.080000 0.362500
0.436250 0.080000 0.362500
0.555000 0.080000 0.362500
0.673750 0.080000 0.362500
0.792500 0.080000 0.362500
0.911250 0.080000 0.362500
1.000000 0.080000 0.362500
0.080000 0.198750 0.362500
0.198750 0.198750 0.362500
0.317500 0.198750 0.362500
0.436250 0.198750 0.362500
0.555000 0.198750 0.362500
0.673750 0.198750 0.362500
0.792500 0.198750 0.362500
0.911250 0.198750 0.362500
1.000000 0.198750 0.362500
0.080000 0.317500 0.362500
0.198750 0.317500 0.362500
0.317500 0.317500 0.362500
0.436250 0.317500 0.362500
0.555000 0.317500 0.362500
0.673750 0.317500 0.362500
0.792500 0.317500 0.362500
0.911250 0.317500 0.362500
1.000000 0.317500 0.362500
0.080000 0.436250 0.362500
0.198750 0.436250 0.362500
0.317500 0.436250 0.362500
0.436250 0.436250 0.362500
0.555000 0.436250 0.362500
0.673750 0.436250 0.362500
0.792500 0.436250 0.362500
0.911250 0.436250 0.362500
1.000000 0.436250 0.362500
0.080000 0.555000 0.362500
0.198750 0.555000 0.362500
0.317500 0.555000 0.362500
0.436250 0.555000 0.362500
0.555000 0.555000 0.362500
0.673750 0.555000 0.362500
0.792500 0.555000 0.362500
0.911250 0.555000 0.362500
1.000000 0.555000 0.362500
0.080000 0.673750 0.362500
0.198750 0.673750 0.362500
0.317500 0.673750 0.362500
0.436250 0.673750 0.362500
0.555000 0.673750 0.362500
0.673750 0.673750 0.362500
0.792500 0.673750 0.362500
0.911250 0.673750 0.362500
1.000000 0.673750 0.362500
0.080000 0.792500 0.362500
0.198750 0.792500 0.362500
0.317500 0.792500 0.362500
0.436250 0.792500 0.362500
0.555000 0.792500 0.362500
0.673750 0.792500 0.362500
0.792500 0.792500 0.362500
0.911250 0.792500 0.362500
1.000000 0.792500 0.362500
0.080000 0.911250 0.362500
0.198750 0.911250 0.362500
0.317500 0.911250 0.362500
0.436250 0.911250 0.362500
0.555000 0.911250 0.362500
0.673750 0.911250 0.362500
0.792500 0.911250 0.362500
0.911250 0.911250 0.362500
1.000000 0.911250 0.362500
0.080000 1.000000 0.362500
0.198750 1.000000 0.362500
0.317500 1.000000 0.362500
0.436250 1.000000 0.362500
0.555000 1.000000 0.362500
0.673750 1.000000 0.362500
0.792500 1.000000 0.362500
0.911250 1.000000 0.362500
1.000000 1.000000 0.362500
0.080000 0.080000 0.493750
0.198750 0.080000 0.493750
0.317500 0.080000 0.493750
0.436250 0.080000 0.493750
0.555000 0.080000 0.493750
0.673750 0.080000 0.493750
0.792500 0.080000 0.493750
0.911250 0.080000 0.493750
1.000000 0.080000 0.493750
0.080000 0.198750 0.493750
0.198750 0.198750 0.493750
0.317500 0.198750 0.493750
0.436250 0.198750 0.493750
0.555000 0.198750 0.493750
0.673750 0.198750 0.493750
0.792500 0.198750 0.493750
0.911250 0.198750 0.493750
1.000000 0.198750 0.493750
0.080000 0.317500 0.493750
0.198750 0.317500 0.493750
0.317500 0.317500 0.493750
0.436250 0.317500 0.493750
0.555000 0.317500 0.493750
0.673750 0.317500 0.493750
0.792500 0.317500 0.493750
0.911250 0.317500 0.493750
1.000000 0.317500 0.493750
0.080000 0.436250 0.493750
0.198750 0.436250 0.493750
0.317500 0.436250 0.493750
0.436250 0.436250 0.493750
0.555000 0.436250 0.493750
0.673750 0.436250 0.493750
0.792500 0.436250 0.493750
0.911250 0.436250 0.493750
1.000000 0.436250 0.493750
0.080000 0.555000 0.493750
0.198750 0.555000 0.493750
0.317500 0.555000 0.493750
0.436250 0.555000 0.493750
0.555000 0.555000 0.493750
0.673750 0.555000 0.493750
0.792500 0.555000 0.493750
0.911250 0.555000 0.493750
1.000000 0.555000 0.493750
0.080000 0.673750 0.493750
0.198750 0.673750 0.493750
0.317500 0.673750 0.493750
0.436250 0.673750 0.493750
0.555000 0.673750 0.493750
0.673750 0.673750 0.493750
0.792500 0.673750 0.493750
0.911250 0.673750 0.493750
1.000000 0.673750 0.493750
0.080000 0.792500 0.493750
0.198750 0.792500 0.493750
0.317500 0.792500 0.493750
0.436250 0.792500 0.493750
0.555000 0.792500 0.493750
0.673750 0.792500 0.493750
0.792500 0.792500 0.493750
0.911250 0.792500 0.493750
1.000000 0.792500 0.493750
0.080000 0.911250 0.493750
0.198750 0.911250 0.493750
0.317500 0.911250 0.493750
0.436250 0.911250 0.493750
0.555000 0.911250 0.493750
0.673750 0.911250 0.493750
0.792500 0.911250 0.493750
0.911250 0.911250 0.493750
1.000000 0.911250 0.493750
0.080000 1.000000 0.493750
0.198750 1.000000 0.493750
0.317500 1.000000 0.493750
0.436250 1.000000 0.493750
0.555000 1.000000 0.493750
0.673750 1.000000 0.493750
0.792500 1.000000 0.493750
0.911250 1.000000 0.493750
1.000000 1.000000 0.493750
0.080000 0.080000 0.625000
0.198750 0.080000 0.625000
0.317500 0.080000 0.625000
0.436250 0.080000 0.625000
0.555000 0.080000 0.625000
0.673750 0.080000 0.625000
0.792500 0.080000 0.625000
0.911250 0.080000 0.625000
1.000000 0.080000 0.625000
0.080000 0.198750 0.625000
0.198750 0.198750 0.625000
0.317500 0.198750 0.625000
0.436250 0.198750 0.625000
0.555000 0.198750 0.625000
0.673750 0.198750 0.625000
0.792500 0.198750 0.625000
0.911250 0.198750 0.625000
1.000000 0.198750 0.625000
0.080000 0.317500 0.625000
0.198750 0.317500 0.625000
0.317500 0.317500 0.625000
0.436250 0.317500 0.625000
0.555000 0.317500 0.625000
0.673750 0.317500 0.625000
0.792500 0.317500 0.625000
0.911250 0.317500 0.625000
1.000000 0.317500 0.625000
0.080000 0.436250 0.625000
0.198750 0.436250 0.625000
0.317500 0.436250 0.625000
0.436250 0.436250 0.625000
0.555000 0.436250 0.625000
0.673750 0.436250 0.625000
0.792500 0.436250 0.625000
0.911250 0.436250 0.625000
1.000000 0.436250 0.625000
0.080000 0.555000 0.625000
0.198750 0.555000 0.625000
0.317500 0.555000 0.625000
0.436250 0.555000 0.625000
0.555000 0.555000 0.625000
0.673750 0.555000 0.625000
0.792500 0.555000 0.625000
0.911250 0.555000 0.625000
1.000000 0.555000 0.625000
0.080000 0.673750 0.625000
0.198750 0.673750 0.625000
0.317500 0.673750 0.625000
0.436250 0.673750 0.625000
0.555000 0.673750 0.625000
0.673750 0.673750 0.625000
0.792500 0.673750 0.625000
0.911250 0.673750 0.625000
1.000000 0.673750 0.625000
0.080000 0.792500 0.625000
0.198750 0.792500 0.625000
0.317500 0.792500 0.625000
0.436250 0.792500 0.625000
0.555000 0.792500 0.625000
0.673750 0.792500 0.625000
0.792500 0.792500 0.625000
0.911250 0.792500 0.625000
1.000000 0.792500 0.625000
0.080000 0.911250 0.625000
0.198750 0.911250 0.625000
0.317500 0.911250 0.625000
0.436250 0.911250 0.625000
0.555000 0.911250 0.625000
0.673750 0.911250 0.625000
0.792500 0.911250 0.625000
0.911250 0.911250 0.625000
1.000000 0.911250 0.625000
0.080000 1.000000 0.625000
0.198750 1.000000 0.625000
0.317500 1.000000 0.625000
0.436250 1.000000 0.625000
0.555000 1.000000 0.625000
0.673750 1.000000 0.625000
0.792500 1.000000 0.625000
0.911250 1.000000 0.625000
1.000000 1.000000 0.625000
0.080000 0.080000 0.756250
0.198750 0.080000 0.756250
0.317500 0.080000 0.756250
0.436250 0.080000 0.756250
0.555000 0.080000 0.756250
0.673750 0.080000 0.756250
0.792500 0.080000 0.756250
0.911250 0.080000 0.756250
1.000000 0.080000 0.756250
0.080000 0.198750 0.756250
0.198750 0.198750 0.756250
0.317500 0.198750 0.756250
0.436250 0.198750 0.756250
0.555000 0.198750 0.756250
0.673750 0.198750 0.756250
0.792500 0.198750 0.756250
0.911250 0.198750 0.756250
1.000000 0.198750 0.756250
0.080000 0.317500 0.756250
0.198750 0.317500 0.756250
0.317500 0.317500 0.756250
0.436250 0.317500 0.756250
0.555000 0.317500 0.756250
0.673750 0.317500 0.756250
0.792500 0.317500 0.756250
0.911250 0.317500 0.756250
1.000000 0.317500 0.756250
0.080000 0.436250 0.756250
0.198750 0.436250 0.756250
0.317500 0.436250 0.756250
0.436250 0.436250 0.756250
0.555000 0.436250 0.756250
0.673750 0.436250 0.756250
0.792500 0.436250 0.756250
0.911250 0.436250 0.756250
1.000000 0.436250 0.756250
0.080000 0.555000 0.756250
0.198750 0.555000 0.756250
0.317500 0.555000 0.756250
0.436250 0.555000 0.756250
0.555000 0.555000 0.756250
0.673750 0.555000 0.756250
0.792500 0.555000 0.756250
0.911250 0.555000 0.756250
1.000000 0.555000 0.756250
0.080000 0.673750 0.756250
0.198750 0.673750 0.756250
0.317500 0.673750 0.756250
0.436250 0.673750 0.756250
0.555000 0.673750 0.756250
0.673750 0.673750 0.756250
0.792500 0.673750 0.756250
0.911250 0.673750 0.756250
1.000000 0.673750 0.756250
0.080000 0.792500 0.756250
0.198750 0.792500 0.756250
0.317500 0.792500 0.756250
0.436250 0.792500 0.756250
0.555000 0.792500 0.756250
0.673750 0.792500 0.756250
0.792500 0.792500 0.756250
0.911250 0.792500 0.756250
1.000000 0.792500 0.756250
0.080000 0.911250 0.756250
0.198750 0.911250 0.756250
0.317500 0.911250 0.756250
0.436250 0.911250 0.756250
0.555000 0.911250 0.756250
0.673750 0.911250 0.756250
0.792500 0.911250 0.756250
0.911250 0.911250 0.756250
1.000000 0.911250 0.756250
0.080000 1.000000 0.756250
0.198750 1.000000 0.756250
0.317500 1.000000 0.756250
0.436250 1.000000 0.756250
0.555000 1.000000 0.756250
0.673750 1.000000 0.756250
0.792500 1.000000 0.756250
0.911250 1.000000 0.756250
1.000000 1.000000 0.756250
0.080000 0.080000 0.887500
0.198750 0.080000 0.887500
0.317500 0.080000 0.887500
0.436250 0.080000 0.887500
0.555000 0.080000 0.887500
0.673750 0.080000 0.887500
0.792500 0.080000 0.887500
0.911250 0.080000 0.887500
1.000000 0.080000 0.887500
0.080000 0.198750 0.887500
0.198750 0.198750 0.887500
0.317500 0.198750 0.887500
0.436250 0.198750 0.887500
0.555000 0.198750 0.887500
0.673750 0.198750 0.887500
0.792500 0.198750 0.887500
0.911250 0.198750 0.887500
1.000000 0.198750 0.887500
0.080000 0.317500 0.887500
0.198750 0.317500 0.887500
0.317500 0.317500 0.887500
0.436250 0.317500 0.887500
0.555000 0.317500 0.887500
0.673750 0.317500 0.887500
0.792500 0.317500 0.887500
0.911250 0.317500 0.887500
1.000000 0.317500 0.887500
0.080000 0.436250 0.887500
0.198750 0.436250 0.887500
0.317500 0.436250 0.887500
0.436250 0.436250 0.887500
0.555000 0.436250 0.887500
0.673750 0.436250 0.887500
0.792500 0.436250 0.887500
0.911250 0.436250 0.887500
1.000000 0.436250 0.887500
0.080000 0.555000 0.887500
0.198750 0.555000 0.887500
0.317500 0.555000 0.887500
0.436250 0.555000 0.887500
0.555000 0.555000 0.887500
0.673750 0.555000 0.887500
0.792500 0.555000 0.887500
0.911250 0.555000 0.887500
1.000000 0.555000 0.887500
0.080000 0.673750 0.887500
0.198750 0.673750 0.887500
0.317500 0.673750 0.887500
0.436250 0.673750 0.887500
0.555000 0.673750 0.887500
0.673750 0.673750 0.887500
0.792500 0.673750 0.887500
0.911250 0.673750 0.887500
1.000000 0.673750 0.887500
0.080000 0.792500 0.887500
0.198750 0.792500 0.887500
0.317500 0.792500 0.887500
0.436250 0.792500 0.887500
0.555000 0.792500 0.887500
0.673750 0.792500 0.887500
0.792500 0.792500 0.887500
0.911250 0.792500 0.887500
1.000000 0.792500 0.887500
0.080000 0.911250 0.887500
0.198750 0.911250 0.887500
0.317500 0.911250 0.887500
0.436250 0.911250 0.887500
0.555000 0.911250 0.887500
0.673750 0.911250 0.887500
0.792500 0.911250 0.887500
0.911250 0.911250 0.887500
1.000000 0.911250 0.887500
0.080000 1.000000 0.887500
0.198750 1.000000 0.887500
0.317500 1.000000 0.887500
0.436250 1.000000 0.887500
0.555000 1.000000 0.887500
0.673750 1.000000 0.887500
0.792500 1.000000 0.887500
0.911250 1.000000 0.887500
1.000000 1.000000 0.887500
0.080000 0.080000 1.000000
0.198750 0.080000 1.000000
0.317500 0.080000 1.000000
0.436250 0.080000 1.000000
0.555000 0.080000 1.000000
0.673750 0.080000 1.000000
0.792500 0.080000 1.000000
0.911250 0.080000 1.000000
1.000000 0.080000 1.000000
0.080000 0.198750 1.000000
0.198750 0.198750 1.000000
0.317500 0.198750 1.000000
0.436250 0.198750 1.000000
0.555000 0.198750 1.000000
0.673750 0.198750 1.000000
0.792500 0.198750 1.000000
0.911250 0.198750 1.000000
1.000000 0.198750 1.000000
0.080000 0.317500 1.000000
0.198750 0.317500 1.000000
0.317500 0.317500 1.000000
0.436250 0.317500 1.000000
0.555000 0.317500 1.000000
0.673750 0.317500 1.000000
0.792500 0.317500 1.000000
0.911250 0.317500 1.000000
1.000000 0.317500 1.000000
0.080000 0.436250 1.000000
0.198750 0.436250 1.000000
0.317500 0.436250 1.000000
0.436250 0.436250 1.000000
0.555000 0.436250 1.000000
0.673750 0.436250 1.000000
0.792500 0.436250 1.000000
0.911250 0.436250 1.000000
1.000000 0.436250 1.000000
0.080000 0.555000 1.000000
0.198750 0.555000 1.000000
0.317500 0.555000 1.000000
0.436250 0.555000 1.000000
0.555000 0.555000 1.000000
0.673750 0.555000 1.000000
0.792500 0.555000 1.000000
0.911250 0.555000 1.000000
1.000000 0.555000 1.000000
0.080000 0.673750 1.000000
0.198750 0.673750 1.000000
0.317500 0.673750 1.000000
0.436250 0.673750 1.000000
0.555000 0.673750 1.000000
0.673750 0.673750 1.000000
0.792500 0.673750 1.000000
0.911250 0.673750 1.000000
1.000000 0.673750 1.000000
0.080000 0.792500 1.000000
0.198750 0.792500 1.000000
0.317500 0.792500 1.000000
0.436250 0.792500 1.000000
0.555000 0.792500 1.000000
0.673750 0.792500 1.000000
0.792500 0.792500 1.000000
0.911250 0.792500 1.000000
1.000000 0.792500 1.000000
0.080000 0.911250 1.000000
0.198750 0.911250 1.000000
0.317500 0.911250 1.000000
0.436250 0.911250 1.000000
0.555000 0.911250 1.000000
0.673750 0.911250 1.000000
0.792500 0.911250 1.000000
0.911250 0.911250 1.000000
1.000000 0.911250 1.000000
0.080000 1.000000 1.000000
0.198750 1.000000 1.000000
0.317500 1.000000 1.000000
0.436250 1.000000 1.000000
0.555000 1.000000 1.000000
0.673750 1.000000 1.000000
0.792500 1.000000 1.000000
0.911250 1.000000 1.000000
1.000000 1.000000 1.000000
0.080000 0.080000 1.000000
0.198750 0.080000 1.000000
0.317500 0.080000 1.000000
0.436250 0.080000 1.000000
0.555000 0.080000 1.000000
0.673750 0.080000 1.000000
0.792500 0.080000 1.000000
0.911250 0.080000 1.000000
1.000000 0.080000 1.000000
0.080000 0.198750 1.000000
0.198750 0.198750 1.000000
0.317500 0.198750 1.000000
0.436250 0.198750 1.000000
0.555000 0.198750 1.000000
0.673750 0.198750 1.000000
0.792500 0.198750 1.000000
0.911250 0.198750 1.000000
1.000000 0.198750 1.000000
0.080000 0.317500 1.000000
0.198750 0.317500 1.000000
0.317500 0.317500 1.000000
0.436250 0.317500 1.000000
0.555000 0.317500 1.000000
0.673750 0.317500 1.000000
0.792500 0.317500 1.000000
0.911250 0.317500 1.000000
1.000000 0.317500 1.000000
0.080000 0.436250 1.000000
0.198750 0.436250 1.000000
0.317500 0.436250 1.000000
0.436250 0.436250 1.000000
0.555000 0.436250 1.000000
0.673750 0.436250 1.000000
0.792500 0.436250 1.000000
0.911250 0.436250 1.000000
1.000000 0.436250 1.000000
0.080000 0.555000 1.000000
0.198750 0.555000 1.000000
0.317500 0.555000 1.000000
0.436250 0.555000 1.000000
0.555000 0.555000 1.000000
0.673750 0.555000 1.000000
0.792500 0.555000 1.000000
0.911250 0.555000 1.000000
1.000000 0.555000 1.000000
0.080000 0.673750 1.000000
0.198750 0.673750 1.000000
0.317500 0.673750 1.000000
0.436250 0.673750 1.000000
0.555000 0.673750 1.000000
0.673750 0.673750 1.000000
0.792500 0.673750 1.000000
0.911250 0.673750 1.000000
1.000000 0.673750 1.000000
0.080000 0.792500 1.000000
0.198750 0.792500 1.000000
0.317500 0.792500 1.000000
0.436250 0.792500 1.000000
0.555000 0.792500 1.000000
0.673750 0.792500 1.000000
0.792500 0.792500 1.000000
0.911250 0.792500 1.000000
1.000000 0.792500 1.000000
0.080000 0.911250 1.000000
0.198750 0.911250 1.000000
0.317500 0.911250 1.000000
0.436250 0.911250 1.000000
0.555000 0.911250 1.000000
0.673750 0.911250 1.000000
0.792500 0.911250 1.000000
0.911250 0.911250 1.000000
1.000000 0.911250 1.000000
0.080000 1.000000 1.000000
0.198750 1.000000 1.000000
0.317500 1.000000 1.000000
0.436250 1.000000 1.000000
0.555000 1.000000 1.000000
0.673750 1.000000 1.000000
0.792500 1.000000 1.000000
0.911250 1.000000 1.000000
1.000000 1.000000 1.000000
