app/src/main/assets/luts/pale_fog.cube
# ApexStudio filter: pale_fog
LUT_3D_SIZE 5
DOMAIN_MIN 0.0 0.0 0.0
DOMAIN_MAX 1.0 1.0 1.0
0.080000 0.080000 0.100000
0.317500 0.080000 0.100000
0.555000 0.080000 0.100000
0.792500 0.080000 0.100000
1.000000 0.080000 0.100000
0.080000 0.317500 0.100000
0.317500 0.317500 0.100000
0.555000 0.317500 0.100000
0.792500 0.317500 0.100000
1.000000 0.317500 0.100000
0.080000 0.555000 0.100000
0.317500 0.555000 0.100000
0.555000 0.555000 0.100000
0.792500 0.555000 0.100000
1.000000 0.555000 0.100000
0.080000 0.792500 0.100000
0.317500 0.792500 0.100000
0.555000 0.792500 0.100000
0.792500 0.792500 0.100000
1.000000 0.792500 0.100000
0.080000 1.000000 0.100000
0.317500 1.000000 0.100000
0.555000 1.000000 0.100000
0.792500 1.000000 0.100000
1.000000 1.000000 0.100000
0.080000 0.080000 0.362500
0.317500 0.080000 0.362500
0.555000 0.080000 0.362500
0.792500 0.080000 0.362500
1.000000 0.080000 0.362500
0.080000 0.317500 0.362500
0.317500 0.317500 0.362500
0.555000 0.317500 0.362500
0.792500 0.317500 0.362500
1.000000 0.317500 0.362500
0.080000 0.555000 0.362500
0.317500 0.555000 0.362500
0.555000 0.555000 0.362500
0.792500 0.555000 0.362500
1.000000 0.555000 0.362500
0.080000 0.792500 0.362500
0.317500 0.792500 0.362500
0.555000 0.792500 0.362500
0.792500 0.792500 0.362500
1.000000 0.792500 0.362500
0.080000 1.000000 0.362500
0.317500 1.000000 0.362500
0.555000 1.000000 0.362500
0.792500 1.000000 0.362500
1.000000 1.000000 0.362500
0.080000 0.080000 0.625000
0.317500 0.080000 0.625000
0.555000 0.080000 0.625000
0.792500 0.080000 0.625000
1.000000 0.080000 0.625000
0.080000 0.317500 0.625000
0.317500 0.317500 0.625000
0.555000 0.317500 0.625000
0.792500 0.317500 0.625000
1.000000 0.317500 0.625000
0.080000 0.555000 0.625000
0.317500 0.555000 0.625000
0.555000 0.555000 0.625000
0.792500 0.555000 0.625000
1.000000 0.555000 0.625000
0.080000 0.792500 0.625000
0.317500 0.792500 0.625000
0.555000 0.792500 0.625000
0.792500 0.792500 0.625000
1.000000 0.792500 0.625000
0.080000 1.000000 0.625000
0.317500 1.000000 0.625000
0.555000 1.000000 0.625000
0.792500 1.000000 0.625000
1.000000 1.000000 0.625000
0.080000 0.080000 0.887500
0.317500 0.080000 0.887500
0.555000 0.080000 0.887500
0.792500 0.080000 0.887500
1.000000 0.080000 0.887500
0.080000 0.317500 0.887500
0.317500 0.317500 0.887500
0.555000 0.317500 0.887500
0.792500 0.317500 0.887500
1.000000 0.317500 0.887500
0.080000 0.555000 0.887500
0.317500 0.555000 0.887500
0.555000 0.555000 0.887500
0.792500 0.555000 0.887500
1.000000 0.555000 0.887500
0.080000 0.792500 0.887500
0.317500 0.792500 0.887500
0.555000 0.792500 0.887500
0.792500 0.792500 0.887500
1.000000 0.792500 0.887500
0.080000 1.000000 0.887500
0.317500 1.000000 0.887500
0.555000 1.000000 0.887500
0.792500 1.000000 0.887500
1.000000 1.000000 0.887500
0.080000 0.080000 1.000000
0.317500 0.080000 1.000000
0.555000 0.080000 1.000000
0.792500 0.080000 1.000000
1.000000 0.080000 1.000000
0.080000 0.317500 1.000000
0.317500 0.317500 1.000000
0.555000 0.317500 1.000000
0.792500 0.317500 1.000000
1.000000 0.317500 1.000000
0.080000 0.555000 1.000000
0.317500 0.555000 1.000000
0.555000 0.555000 1.000000
0.792500 0.555000 1.000000
1.000000 0.555000 1.000000
0.080000 0.792500 1.000000
0.317500 0.792500 1.000000
0.555000 0.792500 1.000000
0.792500 0.792500 1.000000
1.000000 0.792500 1.000000
0.080000 1.000000 1.000000
0.317500 1.000000 1.000000
0.555000 1.000000 1.000000
0.792500 1.000000 1.000000
1.000000 1.000000 1.000000
