app/src/main/assets/luts/pale_fog.cube
# ApexStudio filter: pale_fog
LUT_3D_SIZE 17
DOMAIN_MIN 0.0 0.0 0.0
DOMAIN_MAX 1.0 1.0 1.0
0.080000 0.080000 0.100000
0.139375 0.080000 0.100000
0.198750 0.080000 0.100000
0.258125 0.080000 0.100000
0.317500 0.080000 0.100000
0.376875 0.080000 0.100000
0.436250 0.080000 0.100000
0.495625 0.080000 0.100000
0.555000 0.080000 0.100000
0.614375 0.080000 0.100000
0.673750 0.080000 0.100000
0.733125 0.080000 0.100000
0.792500 0.080000 0.100000
0.851875 0.080000 0.100000
0.911250 0.080000 0.100000
0.970625 0.080000 0.100000
1.000000 0.080000 0.100000
0.080000 0.139375 0.100000
0.139375 0.139375 0.100000
0.198750 0.139375 0.100000
0.258125 0.139375 0.100000
0.317500 0.139375 0.100000
0.376875 0.139375 0.100000
0.436250 0.139375 0.100000
0.495625 0.139375 0.100000
0.555000 0.139375 0.100000
0.614375 0.139375 0.100000
0.673750 0.139375 0.100000
0.733125 0.139375 0.100000
0.792500 0.139375 0.100000
0.851875 0.139375 0.100000
0.911250 0.139375 0.100000
0.970625 0.139375 0.100000
1.000000 0.139375 0.100000
0.080000 0.198750 0.100000
0.139375 0.198750 0.100000
0.198750 0.198750 0.100000
0.258125 0.198750 0.100000
0.317500 0.198750 0.100000
0.376875 0.198750 0.100000
0.436250 0.198750 0.100000
0.495625 0.198750 0.100000
0.555000 0.198750 0.100000
0.614375 0.198750 0.100000
0.673750 0.198750 0.100000
0.733125 0.198750 0.100000
0.792500 0.198750 0.100000
0.851875 0.198750 0.100000
0.911250 0.198750 0.100000
0.970625 0.198750 0.100000
1.000000 0.198750 0.100000
0.080000 0.258125 0.100000
0.139375 0.258125 0.100000
0.198750 0.258125 0.100000
0.258125 0.258125 0.100000
0.317500 0.258125 0.100000
0.376875 0.258125 0.100000
0.436250 0.258125 0.100000
0.495625 0.258125 0.100000
0.555000 0.258125 0.100000
0.614375 0.258125 0.100000
0.673750 0.258125 0.100000
0.733125 0.258125 0.100000
0.792500 0.258125 0.100000
0.851875 0.258125 0.100000
0.911250 0.258125 0.100000
0.970625 0.258125 0.100000
1.000000 0.258125 0.100000
0.080000 0.317500 0.100000
0.139375 0.317500 0.100000
0.198750 0.317500 0.100000
0.258125 0.317500 0.100000
0.317500 0.317500 0.100000
0.376875 0.317500 0.100000
0.436250 0.317500 0.100000
0.495625 0.317500 0.100000
0.555000 0.317500 0.100000
0.614375 0.317500 0.100000
0.673750 0.317500 0.100000
0.733125 0.317500 0.100000
0.792500 0.317500 0.100000
0.851875 0.317500 0.100000
0.911250 0.317500 0.100000
0.970625 0.317500 0.100000
1.000000 0.317500 0.100000
0.080000 0.376875 0.100000
0.139375 0.376875 0.100000
0.198750 0.376875 0.100000
0.258125 0.376875 0.100000
0.317500 0.376875 0.100000
0.376875 0.376875 0.100000
0.436250 0.376875 0.100000
0.495625 0.376875 0.100000
0.555000 0.376875 0.100000
0.614375 0.376875 0.100000
0.673750 0.376875 0.100000
0.733125 0.376875 0.100000
0.792500 0.376875 0.100000
0.851875 0.376875 0.100000
0.911250 0.376875 0.100000
0.970625 0.376875 0.100000
1.000000 0.376875 0.100000
0.080000 0.436250 0.100000
0.139375 0.436250 0.100000
0.198750 0.436250 0.100000
0.258125 0.436250 0.100000
0.317500 0.436250 0.100000
0.376875 0.436250 0.100000
0.436250 0.436250 0.100000
0.495625 0.436250 0.100000
0.555000 0.436250 0.100000
0.614375 0.436250 0.100000
0.673750 0.436250 0.100000
0.733125 0.436250 0.100000
0.792500 0.436250 0.100000
0.851875 0.436250 0.100000
0.911250 0.436250 0.100000
0.970625 0.436250 0.100000
1.000000 0.436250 0.100000
0.080000 0.495625 0.100000
0.139375 0.495625 0.100000
0.198750 0.495625 0.100000
0.258125 0.495625 0.100000
0.317500 0.495625 0.100000
0.376875 0.495625 0.100000
0.436250 0.495625 0.100000
0.495625 0.495625 0.100000
0.555000 0.495625 0.100000
0.614375 0.495625 0.100000
0.673750 0.495625 0.100000
0.733125 0.495625 0.100000
0.792500 0.495625 0.100000
0.851875 0.495625 0.100000
0.911250 0.495625 0.100000
0.970625 0.495625 0.100000
1.000000 0.495625 0.100000
0.080000 0.555000 0.100000
0.139375 0.555000 0.100000
0.198750 0.555000 0.100000
0.258125 0.555000 0.100000
0.317500 0.555000 0.100000
0.376875 0.555000 0.100000
0.436250 0.555000 0.100000
0.495625 0.555000 0.100000
0.555000 0.555000 0.100000
0.614375 0.555000 0.100000
0.673750 0.555000 0.100000
0.733125 0.555000 0.100000
0.792500 0.555000 0.100000
0.851875 0.555000 0.100000
0.911250 0.555000 0.100000
0.970625 0.555000 0.100000
1.000000 0.555000 0.100000
0.080000 0.614375 0.100000
0.139375 0.614375 0.100000
0.198750 0.614375 0.100000
0.258125 0.614375 0.100000
0.317500 0.614375 0.100000
0.376875 0.614375 0.100000
0.436250 0.614375 0.100000
0.495625 0.614375 0.100000
0.555000 0.614375 0.100000
0.614375 0.614375 0.100000
0.673750 0.614375 0.100000
0.733125 0.614375 0.100000
0.792500 0.614375 0.100000
0.851875 0.614375 0.100000
0.911250 0.614375 0.100000
0.970625 0.614375 0.100000
1.000000 0.614375 0.100000
0.080000 0.673750 0.100000
0.139375 0.673750 0.100000
0.198750 0.673750 0.100000
0.258125 0.673750 0.100000
0.317500 0.673750 0.100000
0.376875 0.673750 0.100000
0.436250 0.673750 0.100000
0.495625 0.673750 0.100000
0.555000 0.673750 0.100000
0.614375 0.673750 0.100000
0.673750 0.673750 0.100000
0.733125 0.673750 0.100000
0.792500 0.673750 0.100000
0.851875 0.673750 0.100000
0.911250 0.673750 0.100000
0.970625 0.673750 0.100000
1.000000 0.673750 0.100000
0.080000 0.733125 0.100000
0.139375 0.733125 0.100000
0.198750 0.733125 0.100000
0.258125 0.733125 0.100000
0.317500 0.733125 0.100000
0.376875 0.733125 0.100000
0.436250 0.733125 0.100000
0.495625 0.733125 0.100000
0.555000 0.733125 0.100000
0.614375 0.733125 0.100000
0.673750 0.733125 0.100000
0.733125 0.733125 0.100000
0.792500 0.733125 0.100000
0.851875 0.733125 0.100000
0.911250 0.733125 0.100000
0.970625 0.733125 0.100000
1.000000 0.733125 0.100000
0.080000 0.792500 0.100000
0.139375 0.792500 0.100000
0.198750 0.792500 0.100000
0.258125 0.792500 0.100000
0.317500 0.792500 0.100000
0.376875 0.792500 0.100000
0.436250 0.792500 0.100000
0.495625 0.792500 0.100000
0.555000 0.792500 0.100000
0.614375 0.792500 0.100000
0.673750 0.792500 0.100000
0.733125 0.792500 0.100000
0.792500 0.792500 0.100000
0.851875 0.792500 0.100000
0.911250 0.792500 0.100000
0.970625 0.792500 0.100000
1.000000 0.792500 0.100000
0.080000 0.851875 0.100000
0.139375 0.851875 0.100000
0.198750 0.851875 0.100000
0.258125 0.851875 0.100000
0.317500 0.851875 0.100000
0.376875 0.851875 0.100000
0.436250 0.851875 0.100000
0.495625 0.851875 0.100000
0.555000 0.851875 0.100000
0.614375 0.851875 0.100000
0.673750 0.851875 0.100000
0.733125 0.851875 0.100000
0.792500 0.851875 0.100000
0.851875 0.851875 0.100000
0.911250 0.851875 0.100000
0.970625 0.851875 0.100000
1.000000 0.851875 0.100000
0.080000 0.911250 0.100000
0.139375 0.911250 0.100000
0.198750 0.911250 0.100000
0.258125 0.911250 0.100000
0.317500 0.911250 0.100000
0.376875 0.911250 0.100000
0.436250 0.911250 0.100000
0.495625 0.911250 0.100000
0.555000 0.911250 0.100000
0.614375 0.911250 0.100000
0.673750 0.911250 0.100000
0.733125 0.911250 0.100000
0.792500 0.911250 0.100000
0.851875 0.911250 0.100000
0.911250 0.911250 0.100000
0.970625 0.911250 0.100000
1.000000 0.911250 0.100000
0.080000 0.970625 0.100000
0.139375 0.970625 0.100000
0.198750 0.970625 0.100000
0.258125 0.970625 0.100000
0.317500 0.970625 0.100000
0.376875 0.970625 0.100000
0.436250 0.970625 0.100000
0.495625 0.970625 0.100000
0.555000 0.970625 0.100000
0.614375 0.970625 0.100000
0.673750 0.970625 0.100000
0.733125 0.970625 0.100000
0.792500 0.970625 0.100000
0.851875 0.970625 0.100000
0.911250 0.970625 0.100000
0.970625 0.970625 0.100000
1.000000 0.970625 0.100000
0.080000 1.000000 0.100000
0.139375 1.000000 0.100000
0.198750 1.000000 0.100000
0.258125 1.000000 0.100000
0.317500 1.000000 0.100000
0.376875 1.000000 0.100000
0.436250 1.000000 0.100000
0.495625 1.000000 0.100000
0.555000 1.000000 0.100000
0.614375 1.000000 0.100000
0.673750 1.000000 0.100000
0.733125 1.000000 0.100000
0.792500 1.000000 0.100000
0.851875 1.000000 0.100000
0.911250 1.000000 0.100000
0.970625 1.000000 0.100000
1.000000 1.000000 0.100000
0.080000 0.080000 0.165625
0.139375 0.080000 0.165625
0.198750 0.080000 0.165625
0.258125 0.080000 0.165625
0.317500 0.080000 0.165625
0.376875 0.080000 0.165625
0.436250 0.080000 0.165625
0.495625 0.080000 0.165625
0.555000 0.080000 0.165625
0.614375 0.080000 0.165625
0.673750 0.080000 0.165625
0.733125 0.080000 0.165625
0.792500 0.080000 0.165625
0.851875 0.080000 0.165625
0.911250 0.080000 0.165625
0.970625 0.080000 0.165625
1.000000 0.080000 0.165625
0.080000 0.139375 0.165625
0.139375 0.139375 0.165625
0.198750 0.139375 0.165625
0.258125 0.139375 0.165625
0.317500 0.139375 0.165625
0.376875 0.139375 0.165625
0.436250 0.139375 0.165625
0.495625 0.139375 0.165625
0.555000 0.139375 0.165625
0.614375 0.139375 0.165625
0.673750 0.139375 0.165625
0.733125 0.139375 0.165625
0.792500 0.139375 0.165625
0.851875 0.139375 0.165625
0.911250 0.139375 0.165625
0.970625 0.139375 0.165625
1.000000 0.139375 0.165625
0.080000 0.198750 0.165625
0.139375 0.198750 0.165625
0.198750 0.198750 0.165625
0.258125 0.198750 0.165625
0.317500 0.198750 0.165625
0.376875 0.198750 0.165625
0.436250 0.198750 0.165625
0.495625 0.198750 0.165625
0.555000 0.198750 0.165625
0.614375 0.198750 0.165625
0.673750 0.198750 0.165625
0.733125 0.198750 0.165625
0.792500 0.198750 0.165625
0.851875 0.198750 0.165625
0.911250 0.198750 0.165625
0.970625 0.198750 0.165625
1.000000 0.198750 0.165625
0.080000 0.258125 0.165625
0.139375 0.258125 0.165625
0.198750 0.258125 0.165625
0.258125 0.258125 0.165625
0.317500 0.258125 0.165625
0.376875 0.258125 0.165625
0.436250 0.258125 0.165625
0.495625 0.258125 0.165625
0.555000 0.258125 0.165625
0.614375 0.258125 0.165625
0.673750 0.258125 0.165625
0.733125 0.258125 0.165625
0.792500 0.258125 0.165625
0.851875 0.258125 0.165625
0.911250 0.258125 0.165625
0.970625 0.258125 0.165625
1.000000 0.258125 0.165625
0.080000 0.317500 0.165625
0.139375 0.317500 0.165625
0.198750 0.317500 0.165625
0.258125 0.317500 0.165625
0.317500 0.317500 0.165625
0.376875 0.317500 0.165625
0.436250 0.317500 0.165625
0.495625 0.317500 0.165625
0.555000 0.317500 0.165625
0.614375 0.317500 0.165625
0.673750 0.317500 0.165625
0.733125 0.317500 0.165625
0.792500 0.317500 0.165625
0.851875 0.317500 0.165625
0.911250 0.317500 0.165625
0.970625 0.317500 0.165625
1.000000 0.317500 0.165625
0.080000 0.376875 0.165625
0.139375 0.376875 0.165625
0.198750 0.376875 0.165625
0.258125 0.376875 0.165625
0.317500 0.376875 0.165625
0.376875 0.376875 0.165625
0.436250 0.376875 0.165625
0.495625 0.376875 0.165625
0.555000 0.376875 0.165625
0.614375 0.376875 0.165625
0.673750 0.376875 0.165625
0.733125 0.376875 0.165625
0.792500 0.376875 0.165625
0.851875 0.376875 0.165625
0.911250 0.376875 0.165625
0.970625 0.376875 0.165625
1.000000 0.376875 0.165625
0.080000 0.436250 0.165625
0.139375 0.436250 0.165625
0.198750 0.436250 0.165625
0.258125 0.436250 0.165625
0.317500 0.436250 0.165625
0.376875 0.436250 0.165625
0.436250 0.436250 0.165625
0.495625 0.436250 0.165625
0.555000 0.436250 0.165625
0.614375 0.436250 0.165625
0.673750 0.436250 0.165625
0.733125 0.436250 0.165625
0.792500 0.436250 0.165625
0.851875 0.436250 0.165625
0.911250 0.436250 0.165625
0.970625 0.436250 0.165625
1.000000 0.436250 0.165625
0.080000 0.495625 0.165625
0.139375 0.495625 0.165625
0.198750 0.495625 0.165625
0.258125 0.495625 0.165625
0.317500 0.495625 0.165625
0.376875 0.495625 0.165625
0.436250 0.495625 0.165625
0.495625 0.495625 0.165625
0.555000 0.495625 0.165625
0.614375 0.495625 0.165625
0.673750 0.495625 0.165625
0.733125 0.495625 0.165625
0.792500 0.495625 0.165625
0.851875 0.495625 0.165625
0.911250 0.495625 0.165625
0.970625 0.495625 0.165625
1.000000 0.495625 0.165625
0.080000 0.555000 0.165625
0.139375 0.555000 0.165625
0.198750 0.555000 0.165625
0.258125 0.555000 0.165625
0.317500 0.555000 0.165625
0.376875 0.555000 0.165625
0.436250 0.555000 0.165625
0.495625 0.555000 0.165625
0.555000 0.555000 0.165625
0.614375 0.555000 0.165625
0.673750 0.555000 0.165625
0.733125 0.555000 0.165625
0.792500 0.555000 0.165625
0.851875 0.555000 0.165625
0.911250 0.555000 0.165625
0.970625 0.555000 0.165625
1.000000 0.555000 0.165625
0.080000 0.614375 0.165625
0.139375 0.614375 0.165625
0.198750 0.614375 0.165625
0.258125 0.614375 0.165625
0.317500 0.614375 0.165625
0.376875 0.614375 0.165625
0.436250 0.614375 0.165625
0.495625 0.614375 0.165625
0.555000 0.614375 0.165625
0.614375 0.614375 0.165625
0.673750 0.614375 0.165625
0.733125 0.614375 0.165625
0.792500 0.614375 0.165625
0.851875 0.614375 0.165625
0.911250 0.614375 0.165625
0.970625 0.614375 0.165625
1.000000 0.614375 0.165625
0.080000 0.673750 0.165625
0.139375 0.673750 0.165625
0.198750 0.673750 0.165625
0.258125 0.673750 0.165625
0.317500 0.673750 0.165625
0.376875 0.673750 0.165625
0.436250 0.673750 0.165625
0.495625 0.673750 0.165625
0.555000 0.673750 0.165625
0.614375 0.673750 0.165625
0.673750 0.673750 0.165625
0.733125 0.673750 0.165625
0.792500 0.673750 0.165625
0.851875 0.673750 0.165625
0.911250 0.673750 0.165625
0.970625 0.673750 0.165625
1.000000 0.673750 0.165625
0.080000 0.733125 0.165625
0.139375 0.733125 0.165625
0.198750 0.733125 0.165625
0.258125 0.733125 0.165625
0.317500 0.733125 0.165625
0.376875 0.733125 0.165625
0.436250 0.733125 0.165625
0.495625 0.733125 0.165625
0.555000 0.733125 0.165625
0.614375 0.733125 0.165625
0.673750 0.733125 0.165625
0.733125 0.733125 0.165625
0.792500 0.733125 0.165625
0.851875 0.733125 0.165625
0.911250 0.733125 0.165625
0.970625 0.733125 0.165625
1.000000 0.733125 0.165625
0.080000 0.792500 0.165625
0.139375 0.792500 0.165625
0.198750 0.792500 0.165625
0.258125 0.792500 0.165625
0.317500 0.792500 0.165625
0.376875 0.792500 0.165625
0.436250 0.792500 0.165625
0.495625 0.792500 0.165625
0.555000 0.792500 0.165625
0.614375 0.792500 0.165625
0.673750 0.792500 0.165625
0.733125 0.792500 0.165625
0.792500 0.792500 0.165625
0.851875 0.792500 0.165625
0.911250 0.792500 0.165625
0.970625 0.792500 0.165625
1.000000 0.792500 0.165625
0.080000 0.851875 0.165625
0.139375 0.851875 0.165625
0.198750 0.851875 0.165625
0.258125 0.851875 0.165625
0.317500 0.851875 0.165625
0.376875 0.851875 0.165625
0.436250 0.851875 0.165625
0.495625 0.851875 0.165625
0.555000 0.851875 0.165625
0.614375 0.851875 0.165625
0.673750 0.851875 0.165625
0.733125 0.851875 0.165625
0.792500 0.851875 0.165625
0.851875 0.851875 0.165625
0.911250 0.851875 0.165625
0.970625 0.851875 0.165625
1.000000 0.851875 0.165625
0.080000 0.911250 0.165625
0.139375 0.911250 0.165625
0.198750 0.911250 0.165625
0.258125 0.911250 0.165625
0.317500 0.911250 0.165625
0.376875 0.911250 0.165625
0.436250 0.911250 0.165625
0.495625 0.911250 0.165625
0.555000 0.911250 0.165625
0.614375 0.911250 0.165625
0.673750 0.911250 0.165625
0.733125 0.911250 0.165625
0.792500 0.911250 0.165625
0.851875 0.911250 0.165625
0.911250 0.911250 0.165625
0.970625 0.911250 0.165625
1.000000 0.911250 0.165625
0.080000 0.970625 0.165625
0.139375 0.970625 0.165625
0.198750 0.970625 0.165625
0.258125 0.970625 0.165625
0.317500 0.970625 0.165625
0.376875 0.970625 0.165625
0.436250 0.970625 0.165625
0.495625 0.970625 0.165625
0.555000 0.970625 0.165625
0.614375 0.970625 0.165625
0.673750 0.970625 0.165625
0.733125 0.970625 0.165625
0.792500 0.970625 0.165625
0.851875 0.970625 0.165625
0.911250 0.970625 0.165625
0.970625 0.970625 0.165625
1.000000 0.970625 0.165625
0.080000 1.000000 0.165625
0.139375 1.000000 0.165625
0.198750 1.000000 0.165625
0.258125 1.000000 0.165625
0.317500 1.000000 0.165625
0.376875 1.000000 0.165625
0.436250 1.000000 0.165625
0.495625 1.000000 0.165625
0.555000 1.000000 0.165625
0.614375 1.000000 0.165625
0.673750 1.000000 0.165625
0.733125 1.000000 0.165625
0.792500 1.000000 0.165625
0.851875 1.000000 0.165625
0.911250 1.000000 0.165625
0.970625 1.000000 0.165625
1.000000 1.000000 0.165625
0.080000 0.080000 0.231250
0.139375 0.080000 0.231250
0.198750 0.080000 0.231250
0.258125 0.080000 0.231250
0.317500 0.080000 0.231250
0.376875 0.080000 0.231250
0.436250 0.080000 0.231250
0.495625 0.080000 0.231250
0.555000 0.080000 0.231250
0.614375 0.080000 0.231250
0.673750 0.080000 0.231250
0.733125 0.080000 0.231250
0.792500 0.080000 0.231250
0.851875 0.080000 0.231250
0.911250 0.080000 0.231250
0.970625 0.080000 0.231250
1.000000 0.080000 0.231250
0.080000 0.139375 0.231250
0.139375 0.139375 0.231250
0.198750 0.139375 0.231250
0.258125 0.139375 0.231250
0.317500 0.139375 0.231250
0.376875 0.139375 0.231250
0.436250 0.139375 0.231250
0.495625 0.139375 0.231250
0.555000 0.139375 0.231250
0.614375 0.139375 0.231250
0.673750 0.139375 0.231250
0.733125 0.139375 0.231250
0.792500 0.139375 0.231250
0.851875 0.139375 0.231250
0.911250 0.139375 0.231250
0.970625 0.139375 0.231250
1.000000 0.139375 0.231250
0.080000 0.198750 0.231250
0.139375 0.198750 0.231250
0.198750 0.198750 0.231250
0.258125 0.198750 0.231250
0.317500 0.198750 0.231250
0.376875 0.198750 0.231250
0.436250 0.198750 0.231250
0.495625 0.198750 0.231250
0.555000 0.198750 0.231250
0.614375 0.198750 0.231250
0.673750 0.198750 0.231250
0.733125 0.198750 0.231250
0.792500 0.198750 0.231250
0.851875 0.198750 0.231250
0.911250 0.198750 0.231250
0.970625 0.198750 0.231250
1.000000 0.198750 0.231250
0.080000 0.258125 0.231250
0.139375 0.258125 0.231250
0.198750 0.258125 0.231250
0.258125 0.258125 0.231250
0.317500 0.258125 0.231250
0.376875 0.258125 0.231250
0.436250 0.258125 0.231250
0.495625 0.258125 0.231250
0.555000 0.258125 0.231250
0.614375 0.258125 0.231250
0.673750 0.258125 0.231250
0.733125 0.258125 0.231250
0.792500 0.258125 0.231250
0.851875 0.258125 0.231250
0.911250 0.258125 0.231250
0.970625 0.258125 0.231250
1.000000 0.258125 0.231250
0.080000 0.317500 0.231250
0.139375 0.317500 0.231250
0.198750 0.317500 0.231250
0.258125 0.317500 0.231250
0.317500 0.317500 0.231250
0.376875 0.317500 0.231250
0.436250 0.317500 0.231250
0.495625 0.317500 0.231250
0.555000 0.317500 0.231250
0.614375 0.317500 0.231250
0.673750 0.317500 0.231250
0.733125 0.317500 0.231250
0.792500 0.317500 0.231250
0.851875 0.317500 0.231250
0.911250 0.317500 0.231250
0.970625 0.317500 0.231250
1.000000 0.317500 0.231250
0.080000 0.376875 0.231250
0.139375 0.376875 0.231250
0.198750 0.376875 0.231250
0.258125 0.376875 0.231250
0.317500 0.376875 0.231250
0.376875 0.376875 0.231250
0.436250 0.376875 0.231250
0.495625 0.376875 0.231250
0.555000 0.376875 0.231250
0.614375 0.376875 0.231250
0.673750 0.376875 0.231250
0.733125 0.376875 0.231250
0.792500 0.376875 0.231250
0.851875 0.376875 0.231250
0.911250 0.376875 0.231250
0.970625 0.376875 0.231250
1.000000 0.376875 0.231250
0.080000 0.436250 0.231250
0.139375 0.436250 0.231250
0.198750 0.436250 0.231250
0.258125 0.436250 0.231250
0.317500 0.436250 0.231250
0.376875 0.436250 0.231250
0.436250 0.436250 0.231250
0.495625 0.436250 0.231250
0.555000 0.436250 0.231250
0.614375 0.436250 0.231250
0.673750 0.436250 0.231250
0.733125 0.436250 0.231250
0.792500 0.436250 0.231250
0.851875 0.436250 0.231250
0.911250 0.436250 0.231250
0.970625 0.436250 0.231250
1.000000 0.436250 0.231250
0.080000 0.495625 0.231250
0.139375 0.495625 0.231250
0.198750 0.495625 0.231250
0.258125 0.495625 0.231250
0.317500 0.495625 0.231250
0.376875 0.495625 0.231250
0.436250 0.495625 0.231250
0.495625 0.495625 0.231250
0.555000 0.495625 0.231250
0.614375 0.495625 0.231250
0.673750 0.495625 0.231250
0.733125 0.495625 0.231250
0.792500 0.495625 0.231250
0.851875 0.495625 0.231250
0.911250 0.495625 0.231250
0.970625 0.495625 0.231250
1.000000 0.495625 0.231250
0.080000 0.555000 0.231250
0.139375 0.555000 0.231250
0.198750 0.555000 0.231250
0.258125 0.555000 0.231250
0.317500 0.555000 0.231250
0.376875 0.555000 0.231250
0.436250 0.555000 0.231250
0.495625 0.555000 0.231250
0.555000 0.555000 0.231250
0.614375 0.555000 0.231250
0.673750 0.555000 0.231250
0.733125 0.555000 0.231250
0.792500 0.555000 0.231250
0.851875 0.555000 0.231250
0.911250 0.555000 0.231250
0.970625 0.555000 0.231250
1.000000 0.555000 0.231250
0.080000 0.614375 0.231250
0.139375 0.614375 0.231250
0.198750 0.614375 0.231250
0.258125 0.614375 0.231250
0.317500 0.614375 0.231250
0.376875 0.614375 0.231250
0.436250 0.614375 0.231250
0.495625 0.614375 0.231250
0.555000 0.614375 0.231250
0.614375 0.614375 0.231250
0.673750 0.614375 0.231250
0.733125 0.614375 0.231250
0.792500 0.614375 0.231250
0.851875 0.614375 0.231250
0.911250 0.614375 0.231250
0.970625 0.614375 0.231250
1.000000 0.614375 0.231250
0.080000 0.673750 0.231250
0.139375 0.673750 0.231250
0.198750 0.673750 0.231250
0.258125 0.673750 0.231250
0.317500 0.673750 0.231250
0.376875 0.673750 0.231250
0.436250 0.673750 0.231250
0.495625 0.673750 0.231250
0.555000 0.673750 0.231250
0.614375 0.673750 0.231250
0.673750 0.673750 0.231250
0.733125 0.673750 0.231250
0.792500 0.673750 0.231250
0.851875 0.673750 0.231250
0.911250 0.673750 0.231250
0.970625 0.673750 0.231250
1.000000 0.673750 0.231250
0.080000 0.733125 0.231250
0.139375 0.733125 0.231250
0.198750 0.733125 0.231250
0.258125 0.733125 0.231250
0.317500 0.733125 0.231250
0.376875 0.733125 0.231250
0.436250 0.733125 0.231250
0.495625 0.733125 0.231250
0.555000 0.733125 0.231250
0.614375 0.733125 0.231250
0.673750 0.733125 0.231250
0.733125 0.733125 0.231250
0.792500 0.733125 0.231250
0.851875 0.733125 0.231250
0.911250 0.733125 0.231250
0.970625 0.733125 0.231250
1.000000 0.733125 0.231250
0.080000 0.792500 0.231250
0.139375 0.792500 0.231250
0.198750 0.792500 0.231250
0.258125 0.792500 0.231250
0.317500 0.792500 0.231250
0.376875 0.792500 0.231250
0.436250 0.792500 0.231250
0.495625 0.792500 0.231250
0.555000 0.792500 0.231250
0.614375 0.792500 0.231250
0.673750 0.792500 0.231250
0.733125 0.792500 0.231250
0.792500 0.792500 0.231250
0.851875 0.792500 0.231250
0.911250 0.792500 0.231250
0.970625 0.792500 0.231250
1.000000 0.792500 0.231250
0.080000 0.851875 0.231250
0.139375 0.851875 0.231250
0.198750 0.851875 0.231250
0.258125 0.851875 0.231250
0.317500 0.851875 0.231250
0.376875 0.851875 0.231250
0.436250 0.851875 0.231250
0.495625 0.851875 0.231250
0.555000 0.851875 0.231250
0.614375 0.851875 0.231250
0.673750 0.851875 0.231250
0.733125 0.851875 0.231250
0.792500 0.851875 0.231250
0.851875 0.851875 0.231250
0.911250 0.851875 0.231250
0.970625 0.851875 0.231250
1.000000 0.851875 0.231250
0.080000 0.911250 0.231250
0.139375 0.911250 0.231250
0.198750 0.911250 0.231250
0.258125 0.911250 0.231250
0.317500 0.911250 0.231250
0.376875 0.911250 0.231250
0.436250 0.911250 0.231250
0.495625 0.911250 0.231250
0.555000 0.911250 0.231250
0.614375 0.911250 0.231250
0.673750 0.911250 0.231250
0.733125 0.911250 0.231250
0.792500 0.911250 0.231250
0.851875 0.911250 0.231250
0.911250 0.911250 0.231250
0.970625 0.911250 0.231250
1.000000 0.911250 0.231250
0.080000 0.970625 0.231250
0.139375 0.970625 0.231250
0.198750 0.970625 0.231250
0.258125 0.970625 0.231250
0.317500 0.970625 0.231250
0.376875 0.970625 0.231250
0.436250 0.970625 0.231250
0.495625 0.970625 0.231250
0.555000 0.970625 0.231250
0.614375 0.970625 0.231250
0.673750 0.970625 0.231250
0.733125 0.970625 0.231250
0.792500 0.970625 0.231250
0.851875 0.970625 0.231250
0.911250 0.970625 0.231250
0.970625 0.970625 0.231250
1.000000 0.970625 0.231250
0.080000 1.000000 0.231250
0.139375 1.000000 0.231250
0.198750 1.000000 0.231250
0.258125 1.000000 0.231250
0.317500 1.000000 0.231250
0.376875 1.000000 0.231250
0.436250 1.000000 0.231250
0.495625 1.000000 0.231250
0.555000 1.000000 0.231250
0.614375 1.000000 0.231250
0.673750 1.000000 0.231250
0.733125 1.000000 0.231250
0.792500 1.000000 0.231250
0.851875 1.000000 0.231250
0.911250 1.000000 0.231250
0.970625 1.000000 0.231250
1.000000 1.000000 0.231250
0.080000 0.080000 0.296875
0.139375 0.080000 0.296875
0.198750 0.080000 0.296875
0.258125 0.080000 0.296875
0.317500 0.080000 0.296875
0.376875 0.080000 0.296875
0.436250 0.080000 0.296875
0.495625 0.080000 0.296875
0.555000 0.080000 0.296875
0.614375 0.080000 0.296875
0.673750 0.080000 0.296875
0.733125 0.080000 0.296875
0.792500 0.080000 0.296875
0.851875 0.080000 0.296875
0.911250 0.080000 0.296875
0.970625 0.080000 0.296875
1.000000 0.080000 0.296875
0.080000 0.139375 0.296875
