app/src/main/assets/luts/pastel_tone.cube
# ApexStudio filter: pastel_tone
LUT_3D_SIZE 5
DOMAIN_MIN 0.0 0.0 0.0
DOMAIN_MAX 1.0 1.0 1.0
0.101958 0.101958 0.101958
0.276724 0.121809 0.121809
0.473385 0.144147 0.144147
0.684197 0.168093 0.168093
0.811142 0.182512 0.182512
0.140930 0.295845 0.140930
0.315696 0.315696 0.160781
0.512357 0.338035 0.183119
0.723170 0.361980 0.207065
0.850114 0.376400 0.221484
0.184784 0.514022 0.184784
0.359551 0.533873 0.204636
0.556212 0.556212 0.226974
0.767024 0.580157 0.250919
0.893968 0.594577 0.265339
0.231795 0.747899 0.231795
0.406561 0.767751 0.251646
0.603222 0.790089 0.273984
0.814034 0.814034 0.297930
0.940979 0.828454 0.312349
0.260103 0.888733 0.260103
0.434869 0.908584 0.279954
0.631530 0.930922 0.302292
0.842343 0.954868 0.326238
0.969287 0.969287 0.340657
0.109526 0.109526 0.264442
0.284293 0.129378 0.284293
0.480954 0.151716 0.306631
0.691766 0.175661 0.330577
0.818710 0.190081 0.344996
0.148499 0.303414 0.303414
0.323265 0.323265 0.323265
0.519926 0.345603 0.345603
0.730738 0.369549 0.369549
0.857683 0.383968 0.383968
0.192353 0.521591 0.347268
0.367120 0.541442 0.367120
0.563780 0.563780 0.389458
0.774593 0.587726 0.413404
0.901537 0.602145 0.427823
0.239363 0.755468 0.394279
0.414130 0.775319 0.414130
0.610791 0.797658 0.436468
0.821603 0.821603 0.460414
0.948548 0.836022 0.474833
0.267672 0.896301 0.422587
0.442438 0.916153 0.442438
0.639099 0.938491 0.464776
0.849911 0.962436 0.488722
0.976856 0.976856 0.503141
0.118043 0.118043 0.447281
0.292810 0.137894 0.467132
0.489470 0.160233 0.489470
0.700283 0.184178 0.513416
0.827227 0.198598 0.527835
0.157015 0.311931 0.486253
0.331782 0.331782 0.506105
0.528443 0.354120 0.528443
0.739255 0.378066 0.552388
0.866200 0.392485 0.566808
0.200870 0.530108 0.530108
0.375637 0.549959 0.549959
0.572297 0.572297 0.572297
0.783110 0.596243 0.596243
0.910054 0.610662 0.610662
0.247880 0.763985 0.577118
0.422647 0.783836 0.596969
0.619308 0.806174 0.619308
0.830120 0.830120 0.643253
0.957064 0.844539 0.657673
0.276188 0.904818 0.605426
0.450955 0.924669 0.625278
0.647616 0.947008 0.647616
0.858428 0.970953 0.671561
0.985373 0.985373 0.685981
0.127173 0.127173 0.643278
0.301940 0.147024 0.663129
0.498600 0.169362 0.685467
0.709413 0.193308 0.709413
0.836357 0.207727 0.723832
0.166145 0.321061 0.682250
0.340912 0.340912 0.702101
0.537572 0.363250 0.724439
0.748385 0.387196 0.748385
0.875329 0.401615 0.762804
0.210000 0.539238 0.726104
0.384766 0.559089 0.745956
0.581427 0.581427 0.768294
0.792239 0.605373 0.792239
0.919184 0.619792 0.806659
0.257010 0.773115 0.773115
0.431777 0.792966 0.792966
0.628437 0.815304 0.815304
0.839250 0.839250 0.839250
0.966194 0.853669 0.853669
0.285318 0.913948 0.801423
0.460085 0.933799 0.821274
0.656745 0.956137 0.843612
0.867558 0.980083 0.867558
0.994502 0.994502 0.881977
0.132671 0.132671 0.761300
0.307437 0.152522 0.781152
0.504098 0.174860 0.803490
0.714910 0.198806 0.827435
0.841855 0.213225 0.841855
0.171643 0.326558 0.800273
0.346409 0.346409 0.820124
0.543070 0.368748 0.842462
0.753883 0.392693 0.866408
0.880827 0.407113 0.880827
0.215497 0.544735 0.844127
0.390264 0.564587 0.863978
0.586925 0.586925 0.886317
0.797737 0.610870 0.910262
0.924682 0.625290 0.924682
0.262508 0.778612 0.891137
0.437274 0.798464 0.910989
0.633935 0.820802 0.933327
0.844747 0.844747 0.957273
0.971692 0.859167 0.971692
0.290816 0.919446 0.919446
0.465582 0.939297 0.939297
0.662243 0.961635 0.961635
0.873056 0.985581 0.985581
1.000000 1.000000 1.000000
