app/src/main/assets/luts/pastel_tone.cube
# ApexStudio filter: pastel_tone
LUT_3D_SIZE 9
DOMAIN_MIN 0.0 0.0 0.0
DOMAIN_MAX 1.0 1.0 1.0
0.101958 0.101958 0.101958
0.185719 0.111472 0.111472
0.276724 0.121809 0.121809
0.372971 0.132741 0.132741
0.473385 0.144147 0.144147
0.577285 0.155949 0.155949
0.684197 0.168093 0.168093
0.793770 0.180539 0.180539
0.811142 0.182512 0.182512
0.120636 0.194883 0.120636
0.204397 0.204397 0.130150
0.295403 0.214734 0.140487
0.391649 0.225667 0.151420
0.492063 0.237072 0.162825
0.595964 0.248874 0.174627
0.702876 0.261018 0.186771
0.812449 0.273464 0.199217
0.829820 0.275437 0.201190
0.140930 0.295845 0.140930
0.224691 0.305359 0.150444
0.315696 0.315696 0.160781
0.411943 0.326629 0.171713
0.512357 0.338035 0.183119
0.616257 0.349836 0.194921
0.723170 0.361980 0.207065
0.832742 0.374426 0.219511
0.850114 0.376400 0.221484
0.162392 0.402622 0.162392
0.246154 0.412136 0.171907
0.337159 0.422473 0.182244
0.433406 0.433406 0.193176
0.533820 0.444812 0.204582
0.637720 0.456613 0.216384
0.744632 0.468757 0.228528
0.854205 0.481203 0.240974
0.871577 0.483176 0.242947
0.184784 0.514022 0.184784
0.268546 0.523536 0.194299
0.359551 0.533873 0.204636
0.455798 0.544806 0.215568
0.556212 0.556212 0.226974
0.660112 0.568013 0.238776
0.767024 0.580157 0.250919
0.876597 0.592603 0.263366
0.893968 0.594577 0.265339
0.207954 0.629290 0.207954
0.291715 0.638804 0.217468
0.382720 0.649141 0.227805
0.478967 0.660074 0.238737
0.579381 0.671479 0.250143
0.683281 0.683281 0.261945
0.790193 0.695425 0.274089
0.899766 0.707871 0.286535
0.917138 0.709844 0.288508
0.231795 0.747899 0.231795
0.315556 0.757414 0.241309
0.406561 0.767751 0.251646
0.502808 0.778683 0.262578
0.603222 0.790089 0.273984
0.707122 0.801891 0.285786
0.814034 0.814034 0.297930
0.923607 0.826481 0.310376
0.940979 0.828454 0.312349
0.256229 0.869460 0.256229
0.339990 0.878975 0.265743
0.430996 0.889312 0.276080
0.527242 0.900244 0.287013
0.627656 0.911650 0.298418
0.731557 0.923452 0.310220
0.838469 0.935596 0.322364
0.948042 0.948042 0.334810
0.965413 0.950015 0.336783
0.260103 0.888733 0.260103
0.343864 0.898247 0.269617
0.434869 0.908584 0.279954
0.531116 0.919516 0.290887
0.631530 0.930922 0.302292
0.735430 0.942724 0.314094
0.842343 0.954868 0.326238
0.951915 0.967314 0.338684
0.969287 0.969287 0.340657
0.105585 0.105585 0.179832
0.189346 0.115099 0.189346
0.280352 0.125436 0.199683
0.376598 0.136369 0.210616
0.477012 0.147774 0.222022
0.580913 0.159576 0.233823
0.687825 0.171720 0.245967
0.797398 0.184166 0.258413
0.814769 0.186139 0.260386
0.124263 0.198511 0.198511
0.208025 0.208025 0.208025
0.299030 0.218362 0.218362
0.395277 0.229294 0.229294
0.495691 0.240700 0.240700
0.599591 0.252502 0.252502
0.706503 0.264646 0.264646
0.816076 0.277092 0.277092
0.833448 0.279065 0.279065
0.144557 0.299473 0.218804
0.228319 0.308987 0.228319
0.319324 0.319324 0.238656
0.415571 0.330256 0.249588
0.515985 0.341662 0.260994
0.619885 0.353464 0.272796
0.726797 0.365608 0.284939
0.836370 0.378054 0.297386
0.853741 0.380027 0.299359
0.166020 0.406250 0.240267
0.249781 0.415764 0.249781
0.340787 0.426101 0.260118
0.437033 0.437033 0.271051
0.537447 0.448439 0.282456
0.641347 0.460241 0.294258
0.748260 0.472385 0.306402
0.857833 0.484831 0.318848
0.875204 0.486804 0.320821
0.188412 0.517650 0.262659
0.272173 0.527164 0.272173
0.363178 0.537501 0.282510
0.459425 0.548433 0.293443
0.559839 0.559839 0.304848
0.663739 0.571641 0.316650
0.770652 0.583785 0.328794
0.880224 0.596231 0.341240
0.897596 0.598204 0.343213
0.211581 0.632918 0.285828
0.295342 0.642432 0.295342
0.386348 0.652769 0.305680
0.482595 0.663701 0.316612
0.583008 0.675107 0.328018
0.686909 0.686909 0.339819
0.793821 0.699053 0.351963
0.903394 0.711499 0.364409
0.920765 0.713472 0.366383
0.235422 0.751527 0.309669
0.319183 0.761041 0.319183
0.410189 0.771378 0.329521
0.506436 0.782311 0.340453
0.606849 0.793716 0.351859
0.710750 0.805518 0.363660
0.817662 0.817662 0.375804
0.927235 0.830108 0.388250
0.944606 0.832081 0.390224
0.259857 0.873088 0.334104
0.343618 0.882602 0.343618
0.434623 0.892939 0.353955
0.530870 0.903872 0.364887
0.631284 0.915277 0.376293
0.735184 0.927079 0.388095
0.842096 0.939223 0.400239
0.951669 0.951669 0.412685
0.969041 0.953642 0.414658
0.263730 0.892360 0.337977
0.347492 0.901874 0.347492
0.438497 0.912211 0.357829
0.534744 0.923144 0.368761
0.635158 0.934550 0.380167
0.739058 0.946351 0.391969
0.845970 0.958495 0.404112
0.955543 0.970941 0.416559
0.972914 0.972914 0.418532
0.109526 0.109526 0.264442
0.193288 0.119040 0.273956
0.284293 0.129378 0.284293
0.380540 0.140310 0.295225
0.480954 0.151716 0.306631
0.584854 0.163517 0.318433
0.691766 0.175661 0.330577
0.801339 0.188107 0.343023
0.818710 0.190081 0.344996
0.128205 0.202452 0.283120
0.211966 0.211966 0.292634
0.302971 0.222303 0.302971
0.399218 0.233235 0.313904
0.499632 0.244641 0.325309
0.603532 0.256443 0.337111
0.710444 0.268587 0.349255
0.820017 0.281033 0.361701
0.837389 0.283006 0.363674
0.148499 0.303414 0.303414
0.232260 0.312928 0.312928
0.323265 0.323265 0.323265
0.419512 0.334198 0.334198
0.519926 0.345603 0.345603
0.623826 0.357405 0.357405
0.730738 0.369549 0.369549
0.840311 0.381995 0.381995
0.857683 0.383968 0.383968
0.169961 0.410191 0.324876
0.253722 0.419705 0.334391
0.344728 0.430042 0.344728
0.440974 0.440974 0.355660
0.541388 0.452380 0.367066
0.645289 0.464182 0.378868
0.752201 0.476326 0.391012
0.861774 0.488772 0.403458
0.879145 0.490745 0.405431
0.192353 0.521591 0.347268
0.276114 0.531105 0.356783
0.367120 0.541442 0.367120
0.463366 0.552375 0.378052
0.563780 0.563780 0.389458
0.667681 0.575582 0.401260
0.774593 0.587726 0.413404
0.884166 0.600172 0.425850
0.901537 0.602145 0.427823
0.215522 0.636859 0.370438
0.299284 0.646373 0.379952
0.390289 0.656710 0.390289
0.486536 0.667642 0.401221
0.586950 0.679048 0.412627
0.690850 0.690850 0.424429
0.797762 0.702994 0.436573
0.907335 0.715440 0.449019
0.924707 0.717413 0.450992
0.239363 0.755468 0.394279
0.323125 0.764982 0.403793
0.414130 0.775319 0.414130
0.510377 0.786252 0.425062
0.610791 0.797658 0.436468
0.714691 0.809459 0.448270
0.821603 0.821603 0.460414
0.931176 0.834049 0.472860
0.948548 0.836022 0.474833
0.263798 0.877029 0.418713
0.347559 0.886543 0.428227
0.438564 0.896880 0.438564
0.534811 0.907813 0.449497
0.635225 0.919219 0.460903
0.739125 0.931020 0.472704
0.846037 0.943164 0.484848
0.955610 0.955610 0.497294
0.972982 0.957584 0.499267
0.267672 0.896301 0.422587
0.351433 0.905815 0.432101
0.442438 0.916153 0.442438
0.538685 0.927085 0.453371
0.639099 0.938491 0.464776
0.742999 0.950292 0.476578
0.849911 0.962436 0.488722
0.959484 0.974882 0.501168
0.976856 0.976856 0.503141
0.113694 0.113694 0.353924
0.197456 0.123209 0.363438
0.288461 0.133546 0.373775
0.384708 0.144478 0.384708
0.485122 0.155884 0.396114
0.589022 0.167686 0.407915
0.695934 0.179830 0.420059
0.805507 0.192276 0.432505
0.822879 0.194249 0.434478
0.132373 0.206620 0.372603
0.216134 0.216134 0.382117
0.307140 0.226471 0.392454
0.403386 0.237404 0.403386
0.503800 0.248809 0.414792
0.607700 0.260611 0.426594
0.714613 0.272755 0.438738
0.824186 0.285201 0.451184
0.841557 0.287174 0.453157
0.152667 0.307582 0.392896
0.236428 0.317096 0.402411
0.327433 0.327433 0.412748
0.423680 0.338366 0.423680
0.524094 0.349772 0.435086
0.627994 0.361573 0.446888
0.734906 0.373717 0.459031
0.844479 0.386163 0.471478
0.861851 0.388136 0.473451
0.174129 0.414359 0.414359
0.257891 0.423873 0.423873
0.348896 0.434210 0.434210
0.445143 0.445143 0.445143
0.545557 0.456548 0.456548
0.649457 0.468350 0.468350
0.756369 0.480494 0.480494
0.865942 0.492940 0.492940
0.883314 0.494913 0.494913
0.196521 0.525759 0.436751
0.280283 0.535273 0.446265
0.371288 0.545610 0.456602
0.467535 0.556543 0.467535
0.567949 0.567949 0.478940
0.671849 0.579750 0.490742
0.778761 0.591894 0.502886
0.888334 0.604340 0.515332
0.905705 0.606314 0.517305
0.219691 0.641027 0.459920
0.303452 0.650541 0.469434
0.394457 0.660878 0.479772
0.490704 0.671811 0.490704
0.591118 0.683216 0.502110
0.695018 0.695018 0.513911
0.801930 0.707162 0.526055
0.911503 0.719608 0.538501
0.928875 0.721581 0.540475
0.243532 0.759636 0.483761
0.327293 0.769150 0.493275
0.418298 0.779488 0.503613
0.514545 0.790420 0.514545
0.614959 0.801826 0.525951
0.718859 0.813627 0.537752
0.825771 0.825771 0.549896
0.935344 0.838217 0.562342
0.952716 0.840191 0.564316
0.267966 0.881197 0.508196
0.351727 0.890712 0.517710
0.442733 0.901049 0.528047
0.538979 0.911981 0.538979
0.639393 0.923387 0.550385
0.743294 0.935189 0.562187
0.850206 0.947332 0.574331
0.959779 0.959779 0.586777
0.977150 0.961752 0.588750
0.271840 0.900469 0.512069
0.355601 0.909984 0.521584
0.446606 0.920321 0.531921
0.542853 0.931253 0.542853
0.643267 0.942659 0.554259
0.747167 0.954461 0.566061
0.854079 0.966605 0.578204
0.963652 0.979051 0.590651
0.981024 0.981024 0.592624
0.118043 0.118043 0.447281
0.201804 0.127557 0.456795
0.292810 0.137894 0.467132
0.389056 0.148827 0.478065
0.489470 0.160233 0.489470
0.593371 0.172034 0.501272
0.700283 0.184178 0.513416
0.809856 0.196624 0.525862
0.827227 0.198598 0.527835
0.136722 0.210969 0.465959
0.220483 0.220483 0.475474
0.311488 0.230820 0.485811
0.407735 0.241752 0.496743
0.508149 0.253158 0.508149
0.612049 0.264960 0.519951
0.718961 0.277104 0.532095
0.828534 0.289550 0.544541
0.845906 0.291523 0.546514
0.157015 0.311931 0.486253
0.240777 0.321445 0.495767
0.331782 0.331782 0.506105
0.428029 0.342714 0.517037
0.528443 0.354120 0.528443
0.632343 0.365922 0.540244
0.739255 0.378066 0.552388
0.848828 0.390512 0.564834
0.866200 0.392485 0.566808
0.178478 0.418708 0.507716
0.262239 0.428222 0.517230
0.353245 0.438559 0.527567
0.449491 0.449491 0.538500
0.549905 0.460897 0.549905
0.653806 0.472699 0.561707
0.760718 0.484843 0.573851
0.870291 0.497289 0.586297
0.887662 0.499262 0.588270
0.200870 0.530108 0.530108
0.284631 0.539622 0.539622
0.375637 0.549959 0.549959
0.471883 0.560892 0.560892
0.572297 0.572297 0.572297
0.676198 0.584099 0.584099
0.783110 0.596243 0.596243
0.892683 0.608689 0.608689
0.910054 0.610662 0.610662
0.224039 0.645376 0.553277
0.307801 0.654890 0.562791
0.398806 0.665227 0.573128
0.495053 0.676159 0.584061
0.595467 0.687565 0.595467
0.699367 0.699367 0.607268
0.806279 0.711511 0.619412
0.915852 0.723957 0.631858
0.933223 0.725930 0.633832
0.247880 0.763985 0.577118
0.331642 0.773499 0.586632
0.422647 0.783836 0.596969
0.518894 0.794769 0.607902
0.619308 0.806174 0.619308
0.723208 0.817976 0.631109
0.830120 0.830120 0.643253
0.939693 0.842566 0.655699
0.957064 0.844539 0.657673
0.272315 0.885546 0.601552
0.356076 0.895060 0.611067
0.447081 0.905397 0.621404
0.543328 0.916330 0.632336
0.643742 0.927736 0.643742
0.747642 0.939537 0.655544
0.854554 0.951681 0.667688
0.964127 0.964127 0.680134
0.981499 0.966100 0.682107
0.276188 0.904818 0.605426
0.359950 0.914332 0.614940
0.450955 0.924669 0.625278
0.547202 0.935602 0.636210
0.647616 0.947008 0.647616
0.751516 0.958809 0.659417
0.858428 0.970953 0.671561
0.968001 0.983399 0.684007
0.985373 0.985373 0.685981
0.122543 0.122543 0.543879
0.206304 0.132057 0.553393
0.297309 0.142394 0.563730
0.393556 0.153327 0.574663
0.493970 0.164732 0.586069
0.597870 0.176534 0.597870
0.704783 0.188678 0.610014
0.814355 0.201124 0.622460
0.831727 0.203097 0.624434
0.141221 0.215468 0.562558
0.224983 0.224983 0.572072
0.315988 0.235320 0.582409
0.412235 0.246252 0.593341
0.512649 0.257658 0.604747
0.616549 0.269460 0.616549
0.723461 0.281603 0.628693
0.833034 0.294050 0.641139
0.850405 0.296023 0.643112
0.161515 0.316430 0.582851
0.245276 0.325945 0.592366
0.336282 0.336282 0.602703
0.432528 0.347214 0.613635
0.532942 0.358620 0.625041
0.636843 0.370422 0.636843
0.743755 0.382566 0.648987
0.853328 0.395012 0.661433
0.870699 0.396985 0.663406
0.182978 0.423207 0.604314
0.266739 0.432722 0.613828
0.357744 0.443059 0.624165
0.453991 0.453991 0.635098
0.554405 0.465397 0.646504
0.658305 0.477199 0.658305
0.765217 0.489342 0.670449
0.874790 0.501789 0.682895
0.892162 0.503762 0.684868
0.205370 0.534607 0.626706
0.289131 0.544122 0.636220
0.380136 0.554459 0.646557
0.476383 0.565391 0.657490
0.576797 0.576797 0.668895
0.680697 0.588599 0.680697
0.787609 0.600743 0.692841
0.897182 0.613189 0.705287
0.914554 0.615162 0.707260
0.228539 0.649875 0.649875
0.312300 0.659390 0.659390
0.403306 0.669727 0.669727
0.499552 0.680659 0.680659
0.599966 0.692065 0.692065
0.703867 0.703867 0.703867
0.810779 0.716010 0.716010
0.920352 0.728457 0.728457
0.937723 0.730430 0.730430
0.252380 0.768485 0.673716
0.336141 0.777999 0.683231
0.427147 0.788336 0.693568
0.523393 0.799268 0.704500
0.623807 0.810674 0.715906
0.727708 0.822476 0.727708
0.834620 0.834620 0.739851
0.944193 0.847066 0.752298
0.961564 0.849039 0.754271
0.276814 0.890046 0.698151
0.360576 0.899560 0.707665
0.451581 0.909897 0.718002
0.547828 0.920829 0.728934
0.648242 0.932235 0.740340
0.752142 0.944037 0.752142
0.859054 0.956181 0.764286
0.968627 0.968627 0.776732
0.985998 0.970600 0.778705
0.280688 0.909318 0.702024
0.364449 0.918832 0.711539
0.455455 0.929169 0.721876
0.551701 0.940102 0.732808
0.652115 0.951507 0.744214
0.756016 0.963309 0.756016
0.862928 0.975453 0.768160
0.972501 0.987899 0.780606
0.989872 0.989872 0.782579
0.127173 0.127173 0.643278
0.210934 0.136687 0.652792
0.301940 0.147024 0.663129
0.398186 0.157957 0.674061
0.498600 0.169362 0.685467
0.602500 0.181164 0.697269
0.709413 0.193308 0.709413
0.818986 0.205754 0.721859
0.836357 0.207727 0.723832
0.145851 0.220098 0.661956
0.229613 0.229613 0.671470
0.320618 0.239950 0.681807
0.416865 0.250882 0.692740
0.517279 0.262288 0.704145
0.621179 0.274090 0.715947
0.728091 0.286234 0.728091
0.837664 0.298680 0.740537
0.855036 0.300653 0.742510
0.166145 0.321061 0.682250
0.249906 0.330575 0.691764
0.340912 0.340912 0.702101
0.437159 0.351844 0.713034
0.537572 0.363250 0.724439
0.641473 0.375052 0.736241
0.748385 0.387196 0.748385
0.857958 0.399642 0.760831
0.875329 0.401615 0.762804
0.187608 0.427837 0.703712
0.271369 0.437352 0.713227
0.362374 0.447689 0.723564
0.458621 0.458621 0.734496
0.559035 0.470027 0.745902
0.662935 0.481829 0.757704
0.769848 0.493973 0.769848
0.879420 0.506419 0.782294
0.896792 0.508392 0.784267
0.210000 0.539238 0.726104
0.293761 0.548752 0.735619
0.384766 0.559089 0.745956
0.481013 0.570021 0.756888
0.581427 0.581427 0.768294
0.685327 0.593229 0.780096
0.792239 0.605373 0.792239
0.901812 0.617819 0.804686
0.919184 0.619792 0.806659
0.233169 0.654505 0.749274
0.316930 0.664020 0.758788
0.407936 0.674357 0.769125
0.504182 0.685289 0.780057
0.604596 0.696695 0.791463
0.708497 0.708497 0.803265
0.815409 0.720641 0.815409
0.924982 0.733087 0.827855
0.942353 0.735060 0.829828
0.257010 0.773115 0.773115
0.340771 0.782629 0.782629
0.431777 0.792966 0.792966
0.528023 0.803898 0.803898
0.628437 0.815304 0.815304
0.732338 0.827106 0.827106
0.839250 0.839250 0.839250
0.948823 0.851696 0.851696
0.966194 0.853669 0.853669
0.281444 0.894676 0.797549
0.365206 0.904190 0.807063
0.456211 0.914527 0.817400
0.552458 0.925460 0.828333
0.652872 0.936865 0.839739
0.756772 0.948667 0.851540
0.863684 0.960811 0.863684
0.973257 0.973257 0.876130
0.990629 0.975230 0.878103
0.285318 0.913948 0.801423
0.369079 0.923462 0.810937
0.460085 0.933799 0.821274
0.556332 0.944732 0.832207
0.656745 0.956137 0.843612
0.760646 0.967939 0.855414
0.867558 0.980083 0.867558
0.977131 0.992529 0.880004
0.994502 0.994502 0.881977
0.131918 0.131918 0.745150
0.215680 0.141432 0.754664
0.306685 0.151770 0.765001
0.402932 0.162702 0.775933
0.503346 0.174108 0.787339
0.607246 0.185909 0.799141
0.714158 0.198053 0.811285
0.823731 0.210499 0.823731
0.841102 0.212473 0.825704
0.150597 0.224844 0.763828
0.234358 0.234358 0.773342
0.325363 0.244695 0.783679
0.421610 0.255627 0.794612
0.522024 0.267033 0.806018
0.625924 0.278835 0.817819
0.732836 0.290979 0.829963
0.842409 0.303425 0.842409
0.859781 0.305398 0.844383
0.170891 0.325806 0.784122
0.254652 0.335320 0.793636
0.345657 0.345657 0.803973
0.441904 0.356590 0.814906
0.542318 0.367995 0.826311
0.646218 0.379797 0.838113
0.753130 0.391941 0.850257
0.862703 0.404387 0.862703
0.880075 0.406360 0.864676
0.192353 0.432583 0.805585
0.276114 0.442097 0.815099
0.367120 0.452434 0.825436
0.463367 0.463367 0.836368
0.563780 0.474772 0.847774
0.667681 0.486574 0.859576
0.774593 0.498718 0.871720
0.884166 0.511164 0.884166
0.901537 0.513137 0.886139
0.214745 0.543983 0.827976
0.298506 0.553497 0.837491
0.389512 0.563834 0.847828
0.485758 0.574767 0.858760
0.586172 0.586172 0.870166
0.690073 0.597974 0.881968
0.796985 0.610118 0.894112
0.906558 0.622564 0.906558
0.923929 0.624537 0.908531
0.237914 0.659251 0.851146
0.321676 0.668765 0.860660
0.412681 0.679102 0.870997
0.508928 0.690034 0.881930
0.609342 0.701440 0.893335
0.713242 0.713242 0.905137
0.820154 0.725386 0.917281
0.929727 0.737832 0.929727
0.947099 0.739805 0.931700
0.261755 0.777860 0.874987
0.345517 0.787374 0.884501
0.436522 0.797711 0.894838
0.532769 0.808644 0.905771
0.633183 0.820050 0.917176
0.737083 0.831851 0.928978
0.843995 0.843995 0.941122
0.953568 0.856441 0.953568
0.970940 0.858414 0.955541
0.286190 0.899421 0.899421
0.369951 0.908935 0.908935
0.460956 0.919272 0.919272
0.557203 0.930205 0.930205
0.657617 0.941611 0.941611
0.761517 0.953412 0.953412
0.868429 0.965556 0.965556
0.978002 0.978002 0.978002
0.995374 0.979976 0.979976
0.290064 0.918693 0.903295
0.373825 0.928208 0.912809
0.464830 0.938545 0.923146
0.561077 0.949477 0.934079
0.661491 0.960883 0.945484
0.765391 0.972685 0.957286
0.872303 0.984828 0.969430
0.981876 0.997274 0.981876
0.999248 0.999248 0.983849
0.132671 0.132671 0.761300
0.216432 0.142185 0.770815
0.307437 0.152522 0.781152
0.403684 0.163454 0.792084
0.504098 0.174860 0.803490
0.607998 0.186662 0.815292
0.714910 0.198806 0.827435
0.824483 0.211252 0.839882
0.841855 0.213225 0.841855
0.151349 0.225596 0.779979
0.235110 0.235110 0.789493
0.326116 0.245447 0.799830
0.422362 0.256380 0.810762
0.522776 0.267786 0.822168
0.626677 0.279587 0.833970
0.733589 0.291731 0.846114
0.843162 0.304177 0.858560
0.860533 0.306150 0.860533
0.171643 0.326558 0.800273
0.255404 0.336072 0.809787
0.346409 0.346409 0.820124
0.442656 0.357342 0.831056
0.543070 0.368748 0.842462
0.646970 0.380549 0.854264
0.753883 0.392693 0.866408
0.863455 0.405139 0.878854
0.880827 0.407113 0.880827
0.193105 0.433335 0.821735
0.276867 0.442849 0.831249
0.367872 0.453186 0.841587
0.464119 0.464119 0.852519
0.564533 0.475525 0.863925
0.668433 0.487326 0.875726
0.775345 0.499470 0.887870
0.884918 0.511916 0.900316
0.902290 0.513890 0.902290
0.215497 0.544735 0.844127
0.299259 0.554249 0.853641
0.390264 0.564587 0.863978
0.486511 0.575519 0.874911
0.586925 0.586925 0.886317
0.690825 0.598726 0.898118
0.797737 0.610870 0.910262
0.907310 0.623316 0.922708
0.924682 0.625290 0.924682
0.238667 0.660003 0.867296
0.322428 0.669517 0.876811
0.413433 0.679854 0.887148
0.509680 0.690787 0.898080
0.610094 0.702193 0.909486
0.713994 0.713994 0.921288
0.820906 0.726138 0.933432
0.930479 0.738584 0.945878
0.947851 0.740557 0.947851
0.262508 0.778612 0.891137
0.346269 0.788127 0.900652
0.437274 0.798464 0.910989
0.533521 0.809396 0.921921
0.633935 0.820802 0.933327
0.737835 0.832604 0.945129
0.844747 0.844747 0.957273
0.954320 0.857194 0.969719
0.971692 0.859167 0.971692
0.286942 0.900173 0.915572
0.370703 0.909688 0.925086
0.461709 0.920025 0.935423
0.557955 0.930957 0.946356
0.658369 0.942363 0.957761
0.762270 0.954165 0.969563
0.869182 0.966309 0.981707
0.978755 0.978755 0.994153
0.996126 0.980728 0.996126
0.290816 0.919446 0.919446
0.374577 0.928960 0.928960
0.465582 0.939297 0.939297
0.561829 0.950229 0.950229
0.662243 0.961635 0.961635
0.766143 0.973437 0.973437
0.873056 0.985581 0.985581
0.982628 0.998027 0.998027
1.000000 1.000000 1.000000
