app/src/main/assets/luts/pastel_tone.cube
# ApexStudio filter: pastel_tone
LUT_3D_SIZE 17
DOMAIN_MIN 0.0 0.0 0.0
DOMAIN_MAX 1.0 1.0 1.0
0.101958 0.101958 0.101958
0.142737 0.106590 0.106590
0.185719 0.111472 0.111472
0.230474 0.116555 0.116555
0.276724 0.121809 0.121809
0.324272 0.127210 0.127210
0.372971 0.132741 0.132741
0.422706 0.138390 0.138390
0.473385 0.144147 0.144147
0.524932 0.150002 0.150002
0.577285 0.155949 0.155949
0.630389 0.161981 0.161981
0.684197 0.168093 0.168093
0.738670 0.174280 0.174280
0.793770 0.180539 0.180539
0.811142 0.182512 0.182512
0.811142 0.182512 0.182512
0.111051 0.147198 0.111051
0.151830 0.151830 0.115683
0.194812 0.156713 0.120565
0.239568 0.161796 0.125649
0.285818 0.167050 0.130902
0.333366 0.172451 0.136303
0.382064 0.177982 0.141835
0.431799 0.183631 0.147484
0.482478 0.189388 0.153241
0.534026 0.195243 0.159096
0.586379 0.201190 0.165042
0.639482 0.207222 0.171074
0.693291 0.213334 0.177186
0.747763 0.219521 0.183374
0.802864 0.225780 0.189632
0.820235 0.227753 0.191606
0.820235 0.227753 0.191606
0.120636 0.194883 0.120636
0.161415 0.199515 0.125268
0.204397 0.204397 0.130150
0.249153 0.209481 0.135234
0.295403 0.214734 0.140487
0.342951 0.220135 0.145888
0.391649 0.225667 0.151420
0.441384 0.231316 0.157069
0.492063 0.237072 0.162825
0.543611 0.242928 0.168681
0.595964 0.248874 0.174627
0.649067 0.254906 0.180659
0.702876 0.261018 0.186771
0.757348 0.267206 0.192958
0.812449 0.273464 0.199217
0.829820 0.275437 0.201190
0.829820 0.275437 0.201190
0.130616 0.244535 0.130616
0.171395 0.249167 0.135248
0.214378 0.254049 0.140130
0.259133 0.259133 0.145214
0.305383 0.264386 0.150468
0.352931 0.269787 0.155868
0.401630 0.275319 0.161400
0.451364 0.280968 0.167049
0.502044 0.286724 0.172806
0.553591 0.292580 0.178661
0.605944 0.298526 0.184607
0.659048 0.304558 0.190639
0.712856 0.310670 0.196751
0.767328 0.316857 0.202939
0.822429 0.323116 0.209197
0.839800 0.325089 0.211171
0.839800 0.325089 0.211171
0.140930 0.295845 0.140930
0.181709 0.300477 0.145562
0.224691 0.305359 0.150444
0.269446 0.310443 0.155528
0.315696 0.315696 0.160781
0.363244 0.321097 0.166182
0.411943 0.326629 0.171713
0.461678 0.332278 0.177363
0.512357 0.338035 0.183119
0.563905 0.343890 0.188974
0.616257 0.349836 0.194921
0.669361 0.355868 0.200953
0.723170 0.361980 0.207065
0.777642 0.368168 0.213252
0.832742 0.374426 0.219511
0.850114 0.376400 0.221484
0.850114 0.376400 0.221484
0.151533 0.348595 0.151533
0.192312 0.353227 0.156165
0.235294 0.358109 0.161047
0.280049 0.363193 0.166131
0.326299 0.368447 0.171384
0.373847 0.373847 0.176785
0.422546 0.379379 0.182317
0.472281 0.385028 0.187966
0.522960 0.390785 0.193722
0.574508 0.396640 0.199577
0.626860 0.402586 0.205524
0.679964 0.408618 0.211556
0.733773 0.414730 0.217668
0.788245 0.420918 0.223855
0.843345 0.427176 0.230114
0.860717 0.429150 0.232087
0.860717 0.429150 0.232087
0.162392 0.402622 0.162392
0.203172 0.407254 0.167024
0.246154 0.412136 0.171907
0.290909 0.417220 0.176990
0.337159 0.422473 0.182244
0.384707 0.427874 0.187645
0.433406 0.433406 0.193176
0.483141 0.439055 0.198825
0.533820 0.444812 0.204582
0.585367 0.450667 0.210437
0.637720 0.456613 0.216384
0.690824 0.462645 0.222416
0.744632 0.468757 0.228528
0.799105 0.474945 0.234715
0.854205 0.481203 0.240974
0.871577 0.483176 0.242947
0.871577 0.483176 0.242947
0.173483 0.457798 0.173483
0.214262 0.462430 0.178115
0.257244 0.467313 0.182997
0.302000 0.472396 0.188081
0.348250 0.477650 0.193334
0.395798 0.483051 0.198735
0.444496 0.488582 0.204267
0.494231 0.494231 0.209916
0.544910 0.499988 0.215673
0.596458 0.505843 0.221528
0.648811 0.511790 0.227474
0.701914 0.517822 0.233506
0.755723 0.523934 0.239618
0.810195 0.530121 0.245806
0.865296 0.536380 0.252064
0.882667 0.538353 0.254038
0.882667 0.538353 0.254038
0.184784 0.514022 0.184784
0.225564 0.518654 0.189416
0.268546 0.523536 0.194299
0.313301 0.528620 0.199382
0.359551 0.533873 0.204636
0.407099 0.539274 0.210036
0.455798 0.544806 0.215568
0.505533 0.550455 0.221217
0.556212 0.556212 0.226974
0.607759 0.562067 0.232829
0.660112 0.568013 0.238776
0.713216 0.574045 0.244808
0.767024 0.580157 0.250919
0.821496 0.586345 0.257107
0.876597 0.592603 0.263366
0.893968 0.594577 0.265339
0.893968 0.594577 0.265339
0.196279 0.571209 0.196279
0.237059 0.575842 0.200911
0.280041 0.580724 0.205793
0.324796 0.585807 0.210877
0.371046 0.591061 0.216131
0.418594 0.596462 0.221531
0.467293 0.601993 0.227063
0.517027 0.607642 0.232712
0.567707 0.613399 0.238469
0.619254 0.619254 0.244324
0.671607 0.625201 0.250270
0.724711 0.631233 0.256302
0.778519 0.637345 0.262414
0.832991 0.643532 0.268602
0.888092 0.649791 0.274860
0.905463 0.651764 0.276834
0.905463 0.651764 0.276834
0.207954 0.629290 0.207954
0.248733 0.633922 0.212586
0.291715 0.638804 0.217468
0.336470 0.643888 0.222552
0.382720 0.649141 0.227805
0.430268 0.654542 0.233206
0.478967 0.660074 0.238737
0.528702 0.665723 0.244387
0.579381 0.671479 0.250143
0.630929 0.677335 0.255998
0.683281 0.683281 0.261945
0.736385 0.689313 0.267977
0.790193 0.695425 0.274089
0.844666 0.701612 0.280276
0.899766 0.707871 0.286535
0.917138 0.709844 0.288508
0.917138 0.709844 0.288508
0.219796 0.688204 0.219796
0.260575 0.692836 0.224428
0.303557 0.697718 0.229310
0.348312 0.702802 0.234393
0.394562 0.708055 0.239647
0.442110 0.713456 0.245048
0.490809 0.718988 0.250579
0.540544 0.724637 0.256229
0.591223 0.730393 0.261985
0.642771 0.736248 0.267840
0.695123 0.742195 0.273787
0.748227 0.748227 0.279819
0.802035 0.754339 0.285931
0.856508 0.760526 0.292118
0.911608 0.766785 0.298377
0.928980 0.768758 0.300350
0.928980 0.768758 0.300350
0.231795 0.747899 0.231795
0.272574 0.752531 0.236427
0.315556 0.757414 0.241309
0.360311 0.762497 0.246393
0.406561 0.767751 0.251646
0.454109 0.773151 0.257047
0.502808 0.778683 0.262578
0.552543 0.784332 0.268228
0.603222 0.790089 0.273984
0.654770 0.795944 0.279839
0.707122 0.801891 0.285786
0.760226 0.807922 0.291818
0.814034 0.814034 0.297930
0.868507 0.820222 0.304117
0.923607 0.826481 0.310376
0.940979 0.828454 0.312349
0.940979 0.828454 0.312349
0.243942 0.808331 0.243942
0.284721 0.812963 0.248574
0.327703 0.817846 0.253456
0.372458 0.822929 0.258540
0.418708 0.828183 0.263793
0.466256 0.833584 0.269194
0.514955 0.839115 0.274726
0.564690 0.844764 0.280375
0.615369 0.850521 0.286131
0.666917 0.856376 0.291986
0.719269 0.862323 0.297933
0.772373 0.868355 0.303965
0.826182 0.874467 0.310077
0.880654 0.880654 0.316264
0.935754 0.886913 0.322523
0.953126 0.888886 0.324496
0.953126 0.888886 0.324496
0.256229 0.869460 0.256229
0.297008 0.874092 0.260861
0.339990 0.878975 0.265743
0.384746 0.884058 0.270827
0.430996 0.889312 0.276080
0.478544 0.894713 0.281481
0.527242 0.900244 0.287013
0.576977 0.905893 0.292662
0.627656 0.911650 0.298418
0.679204 0.917505 0.304274
0.731557 0.923452 0.310220
0.784660 0.929484 0.316252
0.838469 0.935596 0.322364
0.892941 0.941783 0.328552
0.948042 0.948042 0.334810
0.965413 0.950015 0.336783
0.965413 0.950015 0.336783
0.260103 0.888733 0.260103
0.300882 0.893365 0.264735
0.343864 0.898247 0.269617
0.388619 0.903330 0.274701
0.434869 0.908584 0.279954
0.482417 0.913985 0.285355
0.531116 0.919516 0.290887
0.580851 0.925166 0.296536
0.631530 0.930922 0.302292
0.683078 0.936777 0.308147
0.735430 0.942724 0.314094
0.788534 0.948756 0.320126
0.842343 0.954868 0.326238
0.896815 0.961055 0.332425
0.951915 0.967314 0.338684
0.969287 0.969287 0.340657
0.969287 0.969287 0.340657
0.260103 0.888733 0.260103
0.300882 0.893365 0.264735
0.343864 0.898247 0.269617
0.388619 0.903330 0.274701
0.434869 0.908584 0.279954
0.482417 0.913985 0.285355
0.531116 0.919516 0.290887
0.580851 0.925166 0.296536
0.631530 0.930922 0.302292
0.683078 0.936777 0.308147
0.735430 0.942724 0.314094
0.788534 0.948756 0.320126
0.842343 0.954868 0.326238
0.896815 0.961055 0.332425
0.951915 0.967314 0.338684
0.969287 0.969287 0.340657
0.969287 0.969287 0.340657
0.103724 0.103724 0.139871
0.144503 0.108356 0.144503
0.187485 0.113238 0.149385
0.232240 0.118321 0.154469
0.278490 0.123575 0.159722
0.326038 0.128976 0.165123
0.374737 0.134507 0.170655
0.424472 0.140157 0.176304
0.475151 0.145913 0.182060
0.526698 0.151768 0.187915
0.579051 0.157715 0.193862
0.632155 0.163747 0.199894
0.685963 0.169859 0.206006
0.740436 0.176046 0.212193
0.795536 0.182305 0.218452
0.812908 0.184278 0.220425
0.812908 0.184278 0.220425
0.112817 0.148964 0.148964
0.153596 0.153596 0.153596
0.196578 0.158479 0.158479
0.241334 0.163562 0.163562
0.287584 0.168816 0.168816
0.335132 0.174217 0.174217
0.383831 0.179748 0.179748
0.433565 0.185397 0.185397
0.484244 0.191154 0.191154
0.535792 0.197009 0.197009
0.588145 0.202956 0.202956
0.641249 0.208988 0.208988
0.695057 0.215100 0.215100
0.749529 0.221287 0.221287
0.804630 0.227546 0.227546
0.822001 0.229519 0.229519
0.822001 0.229519 0.229519
0.122402 0.196649 0.158549
0.163181 0.201281 0.163181
0.206163 0.206163 0.168063
0.250919 0.211247 0.173147
0.297169 0.216500 0.178401
0.344717 0.221901 0.183801
0.393415 0.227433 0.189333
0.443150 0.233082 0.194982
0.493829 0.238839 0.200739
0.545377 0.244694 0.206594
0.597730 0.250640 0.212540
0.650833 0.256672 0.218572
0.704642 0.262784 0.224684
0.759114 0.268972 0.230872
0.814215 0.275230 0.237130
0.831586 0.277203 0.239104
0.831586 0.277203 0.239104
0.132382 0.246301 0.168530
0.173162 0.250933 0.173162
0.216144 0.255815 0.178044
0.260899 0.260899 0.183127
0.307149 0.266152 0.188381
0.354697 0.271553 0.193782
0.403396 0.277085 0.199313
0.453131 0.282734 0.204962
0.503810 0.288490 0.210719
0.555357 0.294346 0.216574
0.607710 0.300292 0.222521
0.660814 0.306324 0.228553
0.714622 0.312436 0.234665
0.769094 0.318623 0.240852
0.824195 0.324882 0.247111
0.841566 0.326855 0.249084
0.841566 0.326855 0.249084
0.142696 0.297611 0.178843
0.183475 0.302243 0.183475
0.226457 0.307125 0.188357
0.271212 0.312209 0.193441
0.317462 0.317462 0.198694
0.365010 0.322863 0.204095
0.413709 0.328395 0.209627
0.463444 0.334044 0.215276
0.514123 0.339801 0.221033
0.565671 0.345656 0.226888
0.618023 0.351602 0.232834
0.671127 0.357634 0.238866
0.724936 0.363746 0.244978
0.779408 0.369934 0.251166
0.834508 0.376192 0.257424
0.851880 0.378166 0.259398
0.851880 0.378166 0.259398
0.153299 0.350361 0.189446
0.194078 0.354993 0.194078
0.237060 0.359876 0.198960
0.281815 0.364959 0.204044
0.328065 0.370213 0.209297
0.375613 0.375613 0.214698
0.424312 0.381145 0.220230
0.474047 0.386794 0.225879
0.524726 0.392551 0.231636
0.576274 0.398406 0.237491
0.628626 0.404353 0.243437
0.681730 0.410384 0.249469
0.735539 0.416496 0.255581
0.790011 0.422684 0.261769
0.845111 0.428943 0.268027
0.862483 0.430916 0.270001
0.862483 0.430916 0.270001
0.164158 0.404388 0.200306
0.204938 0.409020 0.204938
0.247920 0.413902 0.209820
0.292675 0.418986 0.214904
0.338925 0.424239 0.220157
0.386473 0.429640 0.225558
0.435172 0.435172 0.231089
0.484907 0.440821 0.236739
0.535586 0.446578 0.242495
0.587133 0.452433 0.248350
0.639486 0.458379 0.254297
0.692590 0.464411 0.260329
0.746398 0.470523 0.266441
0.800871 0.476711 0.272628
0.855971 0.482969 0.278887
0.873343 0.484943 0.280860
0.873343 0.484943 0.280860
0.175249 0.459564 0.211396
0.216028 0.464196 0.216028
0.259010 0.469079 0.220911
0.303766 0.474162 0.225994
0.350016 0.479416 0.231248
0.397564 0.484817 0.236649
0.446263 0.490348 0.242180
0.495997 0.495997 0.247829
0.546676 0.501754 0.253586
0.598224 0.507609 0.259441
0.650577 0.513556 0.265388
0.703681 0.519588 0.271420
0.757489 0.525700 0.277532
0.811961 0.531887 0.283719
0.867062 0.538146 0.289978
0.884433 0.540119 0.291951
0.884433 0.540119 0.291951
0.186550 0.515788 0.222698
0.227330 0.520420 0.227330
0.270312 0.525302 0.232212
0.315067 0.530386 0.237296
0.361317 0.535640 0.242549
0.408865 0.541040 0.247950
0.457564 0.546572 0.253481
0.507299 0.552221 0.259131
0.557978 0.557978 0.264887
0.609525 0.563833 0.270742
0.661878 0.569779 0.276689
0.714982 0.575811 0.282721
0.768790 0.581923 0.288833
0.823262 0.588111 0.295020
0.878363 0.594369 0.301279
0.895735 0.596343 0.303252
0.895735 0.596343 0.303252
0.198045 0.572976 0.234193
0.238825 0.577608 0.238825
0.281807 0.582490 0.243707
0.326562 0.587573 0.248790
0.372812 0.592827 0.254044
0.420360 0.598228 0.259445
0.469059 0.603759 0.264976
0.518794 0.609409 0.270626
0.569473 0.615165 0.276382
0.621020 0.621020 0.282237
0.673373 0.626967 0.288184
0.726477 0.632999 0.294216
0.780285 0.639111 0.300328
0.834757 0.645298 0.306515
0.889858 0.651557 0.312774
0.907229 0.653530 0.314747
0.907229 0.653530 0.314747
0.209720 0.631056 0.245867
0.250499 0.635688 0.250499
0.293481 0.640570 0.255381
0.338236 0.645654 0.260465
0.384486 0.650907 0.265718
0.432034 0.656308 0.271119
0.480733 0.661840 0.276651
0.530468 0.667489 0.282300
0.581147 0.673246 0.288056
0.632695 0.679101 0.293912
0.685047 0.685047 0.299858
0.738151 0.691079 0.305890
0.791959 0.697191 0.312002
0.846432 0.703379 0.318189
0.901532 0.709637 0.324448
0.918904 0.711610 0.326421
0.918904 0.711610 0.326421
0.221562 0.689970 0.257709
0.262341 0.694602 0.262341
0.305323 0.699484 0.267223
0.350078 0.704568 0.272307
0.396328 0.709821 0.277560
0.443876 0.715222 0.282961
0.492575 0.720754 0.288493
0.542310 0.726403 0.294142
0.592989 0.732159 0.299898
0.644537 0.738015 0.305754
0.696889 0.743961 0.311700
0.749993 0.749993 0.317732
0.803801 0.756105 0.323844
0.858274 0.762292 0.330031
0.913374 0.768551 0.336290
0.930746 0.770524 0.338263
0.930746 0.770524 0.338263
0.233561 0.749665 0.269708
0.274340 0.754297 0.274340
0.317322 0.759180 0.279222
0.362077 0.764263 0.284306
0.408327 0.769517 0.289559
0.455875 0.774918 0.294960
0.504574 0.780449 0.300492
0.554309 0.786098 0.306141
0.604988 0.791855 0.311897
0.656536 0.797710 0.317753
0.708888 0.803657 0.323699
0.761992 0.809689 0.329731
0.815800 0.815800 0.335843
0.870273 0.821988 0.342030
0.925373 0.828247 0.348289
0.942745 0.830220 0.350262
0.942745 0.830220 0.350262
0.245708 0.810097 0.281855
0.286487 0.814729 0.286487
0.329469 0.819612 0.291369
0.374224 0.824695 0.296453
0.420475 0.829949 0.301706
0.468022 0.835350 0.307107
0.516721 0.840881 0.312639
0.566456 0.846530 0.318288
0.617135 0.852287 0.324045
0.668683 0.858142 0.329900
0.721035 0.864089 0.335846
0.774139 0.870121 0.341878
0.827948 0.876233 0.347990
0.882420 0.882420 0.354178
0.937521 0.888679 0.360436
0.954892 0.890652 0.362410
0.954892 0.890652 0.362410
0.257995 0.871226 0.294142
0.298774 0.875858 0.298774
0.341756 0.880741 0.303657
0.386512 0.885824 0.308740
0.432762 0.891078 0.313994
0.480310 0.896479 0.319394
0.529008 0.902010 0.324926
0.578743 0.907659 0.330575
0.629422 0.913416 0.336332
0.680970 0.919271 0.342187
0.733323 0.925218 0.348134
0.786426 0.931250 0.354165
0.840235 0.937362 0.360277
0.894707 0.943549 0.366465
0.949808 0.949808 0.372724
0.967179 0.951781 0.374697
0.967179 0.951781 0.374697
0.261869 0.890499 0.298016
0.302648 0.895131 0.302648
0.345630 0.900013 0.307530
0.390385 0.905096 0.312614
0.436635 0.910350 0.317867
0.484183 0.915751 0.323268
0.532882 0.921282 0.328800
0.582617 0.926932 0.334449
0.633296 0.932688 0.340206
0.684844 0.938543 0.346061
0.737196 0.944490 0.352007
0.790300 0.950522 0.358039
0.844109 0.956634 0.364151
0.898581 0.962821 0.370339
0.953681 0.969080 0.376597
0.971053 0.971053 0.378571
0.971053 0.971053 0.378571
0.261869 0.890499 0.298016
0.302648 0.895131 0.302648
0.345630 0.900013 0.307530
0.390385 0.905096 0.312614
0.436635 0.910350 0.317867
0.484183 0.915751 0.323268
0.532882 0.921282 0.328800
0.582617 0.926932 0.334449
0.633296 0.932688 0.340206
0.684844 0.938543 0.346061
0.737196 0.944490 0.352007
0.790300 0.950522 0.358039
0.844109 0.956634 0.364151
0.898581 0.962821 0.370339
0.953681 0.969080 0.376597
0.971053 0.971053 0.378571
0.971053 0.971053 0.378571
0.105585 0.105585 0.179832
0.146364 0.110217 0.184464
0.189346 0.115099 0.189346
0.234102 0.120183 0.194430
0.280352 0.125436 0.199683
0.327900 0.130837 0.205084
0.376598 0.136369 0.210616
0.426333 0.142018 0.216265
0.477012 0.147774 0.222022
0.528560 0.153630 0.227877
0.580913 0.159576 0.233823
0.634016 0.165608 0.239855
0.687825 0.171720 0.245967
0.742297 0.177908 0.252155
0.797398 0.184166 0.258413
0.814769 0.186139 0.260386
0.814769 0.186139 0.260386
0.114679 0.150826 0.188926
0.155458 0.155458 0.193558
0.198440 0.160340 0.198440
0.243195 0.165424 0.203524
0.289445 0.170677 0.208777
0.336993 0.176078 0.214178
0.385692 0.181610 0.219709
0.435427 0.187259 0.225359
0.486106 0.193015 0.231115
0.537654 0.198871 0.236970
0.590006 0.204817 0.242917
0.643110 0.210849 0.248949
0.696918 0.216961 0.255061
0.751391 0.223148 0.261248
0.806491 0.229407 0.267507
0.823863 0.231380 0.269480
0.823863 0.231380 0.269480
0.124263 0.198511 0.198511
0.165043 0.203143 0.203143
0.208025 0.208025 0.208025
0.252780 0.213108 0.213108
0.299030 0.218362 0.218362
0.346578 0.223763 0.223763
0.395277 0.229294 0.229294
0.445012 0.234943 0.234943
0.495691 0.240700 0.240700
0.547238 0.246555 0.246555
0.599591 0.252502 0.252502
0.652695 0.258534 0.258534
0.706503 0.264646 0.264646
0.760976 0.270833 0.270833
0.816076 0.277092 0.277092
0.833448 0.279065 0.279065
0.833448 0.279065 0.279065
0.134244 0.248162 0.208491
0.175023 0.252794 0.213123
0.218005 0.257677 0.218005
0.262760 0.262760 0.223089
0.309010 0.268014 0.228342
0.356558 0.273415 0.233743
0.405257 0.278946 0.239274
0.454992 0.284595 0.244924
0.505671 0.290352 0.250680
0.557219 0.296207 0.256535
0.609571 0.302154 0.262482
0.662675 0.308186 0.268514
0.716483 0.314298 0.274626
0.770956 0.320485 0.280813
0.826056 0.326744 0.287072
0.843428 0.328717 0.289045
0.843428 0.328717 0.289045
0.144557 0.299473 0.218804
0.185337 0.304105 0.223436
0.228319 0.308987 0.228319
0.273074 0.314071 0.233402
0.319324 0.319324 0.238656
0.366872 0.324725 0.244057
0.415571 0.330256 0.249588
0.465306 0.335906 0.255237
0.515985 0.341662 0.260994
0.567532 0.347517 0.266849
0.619885 0.353464 0.272796
0.672989 0.359496 0.278828
0.726797 0.365608 0.284939
0.781269 0.371795 0.291127
0.836370 0.378054 0.297386
0.853741 0.380027 0.299359
0.853741 0.380027 0.299359
0.155160 0.352223 0.229407
0.195940 0.356855 0.234039
0.238922 0.361737 0.238922
0.283677 0.366821 0.244005
0.329927 0.372074 0.249259
0.377475 0.377475 0.254660
0.426174 0.383006 0.260191
0.475909 0.388656 0.265840
0.526588 0.394412 0.271597
0.578135 0.400267 0.277452
0.630488 0.406214 0.283399
0.683592 0.412246 0.289431
0.737400 0.418358 0.295542
0.791872 0.424545 0.301730
0.846973 0.430804 0.307989
0.864344 0.432777 0.309962
0.864344 0.432777 0.309962
0.166020 0.406250 0.240267
0.206799 0.410882 0.244899
0.249781 0.415764 0.249781
0.294537 0.420847 0.254865
0.340787 0.426101 0.260118
0.388335 0.431502 0.265519
0.437033 0.437033 0.271051
0.486768 0.442683 0.276700
0.537447 0.448439 0.282456
0.588995 0.454294 0.288312
0.641347 0.460241 0.294258
0.694451 0.466273 0.300290
0.748260 0.472385 0.306402
0.802732 0.478572 0.312589
0.857833 0.484831 0.318848
0.875204 0.486804 0.320821
0.875204 0.486804 0.320821
0.177111 0.461426 0.251358
0.217890 0.466058 0.255990
0.260872 0.470940 0.260872
0.305627 0.476024 0.265956
0.351877 0.481277 0.271209
0.399425 0.486678 0.276610
0.448124 0.492210 0.282141
0.497859 0.497859 0.287791
0.548538 0.503615 0.293547
0.600085 0.509471 0.299402
0.652438 0.515417 0.305349
0.705542 0.521449 0.311381
0.759350 0.527561 0.317493
0.813823 0.533748 0.323680
0.868923 0.540007 0.329939
0.886295 0.541980 0.331912
0.886295 0.541980 0.331912
0.188412 0.517650 0.262659
0.229191 0.522282 0.267291
0.272173 0.527164 0.272173
0.316928 0.532248 0.277257
0.363178 0.537501 0.282510
0.410726 0.542902 0.287911
0.459425 0.548433 0.293443
0.509160 0.554083 0.299092
0.559839 0.559839 0.304848
0.611387 0.565694 0.310704
0.663739 0.571641 0.316650
0.716843 0.577673 0.322682
0.770652 0.583785 0.328794
0.825124 0.589972 0.334981
0.880224 0.596231 0.341240
0.897596 0.598204 0.343213
0.897596 0.598204 0.343213
0.199907 0.574837 0.274154
0.240686 0.579469 0.278786
0.283668 0.584351 0.283668
0.328423 0.589435 0.288752
0.374673 0.594688 0.294005
0.422221 0.600089 0.299406
0.470920 0.605621 0.304938
0.520655 0.611270 0.310587
0.571334 0.617026 0.316343
0.622882 0.622882 0.322198
0.675234 0.628828 0.328145
0.728338 0.634860 0.334177
0.782146 0.640972 0.340289
0.836619 0.647159 0.346476
0.891719 0.653418 0.352735
0.909091 0.655391 0.354708
0.909091 0.655391 0.354708
0.211581 0.632918 0.285828
0.252360 0.637550 0.290460
0.295342 0.642432 0.295342
0.340098 0.647515 0.300426
0.386348 0.652769 0.305680
0.433896 0.658170 0.311080
0.482595 0.663701 0.316612
0.532329 0.669350 0.322261
0.583008 0.675107 0.328018
0.634556 0.680962 0.333873
0.686909 0.686909 0.339819
0.740013 0.692941 0.345851
0.793821 0.699053 0.351963
0.848293 0.705240 0.358151
0.903394 0.711499 0.364409
0.920765 0.713472 0.366383
0.920765 0.713472 0.366383
0.223423 0.691831 0.297670
0.264202 0.696463 0.302302
0.307184 0.701346 0.307184
0.351940 0.706429 0.312268
0.398190 0.711683 0.317521
0.445738 0.717083 0.322922
0.494436 0.722615 0.328454
0.544171 0.728264 0.334103
0.594850 0.734021 0.339860
0.646398 0.739876 0.345715
0.698751 0.745823 0.351661
0.751854 0.751854 0.357693
0.805663 0.757966 0.363805
0.860135 0.764154 0.369993
0.915236 0.770413 0.376251
0.932607 0.772386 0.378225
0.932607 0.772386 0.378225
0.235422 0.751527 0.309669
0.276201 0.756159 0.314301
0.319183 0.761041 0.319183
0.363939 0.766125 0.324267
0.410189 0.771378 0.329521
0.457737 0.776779 0.334921
0.506436 0.782311 0.340453
0.556170 0.787960 0.346102
0.606849 0.793716 0.351859
0.658397 0.799571 0.357714
0.710750 0.805518 0.363660
0.763854 0.811550 0.369692
0.817662 0.817662 0.375804
0.872134 0.823849 0.381992
0.927235 0.830108 0.388250
0.944606 0.832081 0.390224
0.944606 0.832081 0.390224
0.247569 0.811959 0.321816
0.288349 0.816591 0.326448
0.331331 0.821473 0.331331
0.376086 0.826557 0.336414
0.422336 0.831810 0.341668
0.469884 0.837211 0.347069
0.518583 0.842743 0.352600
0.568318 0.848392 0.358249
0.618997 0.854148 0.364006
0.670544 0.860004 0.369861
0.722897 0.865950 0.375808
0.776001 0.871982 0.381840
0.829809 0.878094 0.387951
0.884281 0.884281 0.394139
0.939382 0.890540 0.400398
0.956753 0.892513 0.402371
0.956753 0.892513 0.402371
0.259857 0.873088 0.334104
0.300636 0.877720 0.338736
0.343618 0.882602 0.343618
0.388373 0.887686 0.348701
0.434623 0.892939 0.353955
0.482171 0.898340 0.359356
0.530870 0.903872 0.364887
0.580605 0.909521 0.370537
0.631284 0.915277 0.376293
0.682831 0.921133 0.382148
0.735184 0.927079 0.388095
0.788288 0.933111 0.394127
0.842096 0.939223 0.400239
0.896569 0.945410 0.406426
0.951669 0.951669 0.412685
0.969041 0.953642 0.414658
0.969041 0.953642 0.414658
0.263730 0.892360 0.337977
0.304510 0.896992 0.342609
0.347492 0.901874 0.347492
0.392247 0.906958 0.352575
0.438497 0.912211 0.357829
0.486045 0.917612 0.363230
0.534744 0.923144 0.368761
0.584479 0.928793 0.374410
0.635158 0.934550 0.380167
0.686705 0.940405 0.386022
0.739058 0.946351 0.391969
0.792162 0.952383 0.398001
0.845970 0.958495 0.404112
0.900442 0.964683 0.410300
0.955543 0.970941 0.416559
0.972914 0.972914 0.418532
0.972914 0.972914 0.418532
0.263730 0.892360 0.337977
0.304510 0.896992 0.342609
0.347492 0.901874 0.347492
0.392247 0.906958 0.352575
0.438497 0.912211 0.357829
0.486045 0.917612 0.363230
0.534744 0.923144 0.368761
0.584479 0.928793 0.374410
0.635158 0.934550 0.380167
0.686705 0.940405 0.386022
0.739058 0.946351 0.391969
0.792162 0.952383 0.398001
0.845970 0.958495 0.404112
0.900442 0.964683 0.410300
0.955543 0.970941 0.416559
0.972914 0.972914 0.418532
0.972914 0.972914 0.418532
0.107523 0.107523 0.221442
0.148303 0.112155 0.226074
0.191285 0.117037 0.230956
0.236040 0.122121 0.236040
0.282290 0.127375 0.241293
0.329838 0.132775 0.246694
0.378537 0.138307 0.252226
0.428271 0.143956 0.257875
0.478951 0.149713 0.263631
0.530498 0.155568 0.269487
0.582851 0.161514 0.275433
0.635955 0.167546 0.281465
0.689763 0.173658 0.287577
0.744235 0.179846 0.293764
0.799336 0.186104 0.300023
0.816707 0.188078 0.301996
0.816707 0.188078 0.301996
0.116617 0.152764 0.230536
