app/src/main/assets/luts/peachy_glow.cube
# ApexStudio filter: peachy_glow
LUT_3D_SIZE 9
DOMAIN_MIN 0.0 0.0 0.0
DOMAIN_MAX 1.0 1.0 1.0
0.060000 0.000000 0.000000
0.185000 0.000000 0.000000
0.310000 0.000000 0.000000
0.435000 0.000000 0.000000
0.560000 0.000000 0.000000
0.685000 0.000000 0.000000
0.810000 0.000000 0.000000
0.935000 0.000000 0.000000
1.000000 0.000000 0.000000
0.060000 0.105000 0.000000
0.185000 0.105000 0.000000
0.310000 0.105000 0.000000
0.435000 0.105000 0.000000
0.560000 0.105000 0.000000
0.685000 0.105000 0.000000
0.810000 0.105000 0.000000
0.935000 0.105000 0.000000
1.000000 0.105000 0.000000
0.060000 0.230000 0.000000
0.185000 0.230000 0.000000
0.310000 0.230000 0.000000
0.435000 0.230000 0.000000
0.560000 0.230000 0.000000
0.685000 0.230000 0.000000
0.810000 0.230000 0.000000
0.935000 0.230000 0.000000
1.000000 0.230000 0.000000
0.060000 0.355000 0.000000
0.185000 0.355000 0.000000
0.310000 0.355000 0.000000
0.435000 0.355000 0.000000
0.560000 0.355000 0.000000
0.685000 0.355000 0.000000
0.810000 0.355000 0.000000
0.935000 0.355000 0.000000
1.000000 0.355000 0.000000
0.060000 0.480000 0.000000
0.185000 0.480000 0.000000
0.310000 0.480000 0.000000
0.435000 0.480000 0.000000
0.560000 0.480000 0.000000
0.685000 0.480000 0.000000
0.810000 0.480000 0.000000
0.935000 0.480000 0.000000
1.000000 0.480000 0.000000
0.060000 0.605000 0.000000
0.185000 0.605000 0.000000
0.310000 0.605000 0.000000
0.435000 0.605000 0.000000
0.560000 0.605000 0.000000
0.685000 0.605000 0.000000
0.810000 0.605000 0.000000
0.935000 0.605000 0.000000
1.000000 0.605000 0.000000
0.060000 0.730000 0.000000
0.185000 0.730000 0.000000
0.310000 0.730000 0.000000
0.435000 0.730000 0.000000
0.560000 0.730000 0.000000
0.685000 0.730000 0.000000
0.810000 0.730000 0.000000
0.935000 0.730000 0.000000
1.000000 0.730000 0.000000
0.060000 0.855000 0.000000
0.185000 0.855000 0.000000
0.310000 0.855000 0.000000
0.435000 0.855000 0.000000
0.560000 0.855000 0.000000
0.685000 0.855000 0.000000
0.810000 0.855000 0.000000
0.935000 0.855000 0.000000
1.000000 0.855000 0.000000
0.060000 0.980000 0.000000
0.185000 0.980000 0.000000
0.310000 0.980000 0.000000
0.435000 0.980000 0.000000
0.560000 0.980000 0.000000
0.685000 0.980000 0.000000
0.810000 0.980000 0.000000
0.935000 0.980000 0.000000
1.000000 0.980000 0.000000
0.060000 0.000000 0.065000
0.185000 0.000000 0.065000
0.310000 0.000000 0.065000
0.435000 0.000000 0.065000
0.560000 0.000000 0.065000
0.685000 0.000000 0.065000
0.810000 0.000000 0.065000
0.935000 0.000000 0.065000
1.000000 0.000000 0.065000
0.060000 0.105000 0.065000
0.185000 0.105000 0.065000
0.310000 0.105000 0.065000
0.435000 0.105000 0.065000
0.560000 0.105000 0.065000
0.685000 0.105000 0.065000
0.810000 0.105000 0.065000
0.935000 0.105000 0.065000
1.000000 0.105000 0.065000
0.060000 0.230000 0.065000
0.185000 0.230000 0.065000
0.310000 0.230000 0.065000
0.435000 0.230000 0.065000
0.560000 0.230000 0.065000
0.685000 0.230000 0.065000
0.810000 0.230000 0.065000
0.935000 0.230000 0.065000
1.000000 0.230000 0.065000
0.060000 0.355000 0.065000
0.185000 0.355000 0.065000
0.310000 0.355000 0.065000
0.435000 0.355000 0.065000
0.560000 0.355000 0.065000
0.685000 0.355000 0.065000
0.810000 0.355000 0.065000
0.935000 0.355000 0.065000
1.000000 0.355000 0.065000
0.060000 0.480000 0.065000
0.185000 0.480000 0.065000
0.310000 0.480000 0.065000
0.435000 0.480000 0.065000
0.560000 0.480000 0.065000
0.685000 0.480000 0.065000
0.810000 0.480000 0.065000
0.935000 0.480000 0.065000
1.000000 0.480000 0.065000
0.060000 0.605000 0.065000
0.185000 0.605000 0.065000
0.310000 0.605000 0.065000
0.435000 0.605000 0.065000
0.560000 0.605000 0.065000
0.685000 0.605000 0.065000
0.810000 0.605000 0.065000
0.935000 0.605000 0.065000
1.000000 0.605000 0.065000
0.060000 0.730000 0.065000
0.185000 0.730000 0.065000
0.310000 0.730000 0.065000
0.435000 0.730000 0.065000
0.560000 0.730000 0.065000
0.685000 0.730000 0.065000
0.810000 0.730000 0.065000
0.935000 0.730000 0.065000
1.000000 0.730000 0.065000
0.060000 0.855000 0.065000
0.185000 0.855000 0.065000
0.310000 0.855000 0.065000
0.435000 0.855000 0.065000
0.560000 0.855000 0.065000
0.685000 0.855000 0.065000
0.810000 0.855000 0.065000
0.935000 0.855000 0.065000
1.000000 0.855000 0.065000
0.060000 0.980000 0.065000
0.185000 0.980000 0.065000
0.310000 0.980000 0.065000
0.435000 0.980000 0.065000
0.560000 0.980000 0.065000
0.685000 0.980000 0.065000
0.810000 0.980000 0.065000
0.935000 0.980000 0.065000
1.000000 0.980000 0.065000
0.060000 0.000000 0.190000
0.185000 0.000000 0.190000
0.310000 0.000000 0.190000
0.435000 0.000000 0.190000
0.560000 0.000000 0.190000
0.685000 0.000000 0.190000
0.810000 0.000000 0.190000
0.935000 0.000000 0.190000
1.000000 0.000000 0.190000
0.060000 0.105000 0.190000
0.185000 0.105000 0.190000
0.310000 0.105000 0.190000
0.435000 0.105000 0.190000
0.560000 0.105000 0.190000
0.685000 0.105000 0.190000
0.810000 0.105000 0.190000
0.935000 0.105000 0.190000
1.000000 0.105000 0.190000
0.060000 0.230000 0.190000
0.185000 0.230000 0.190000
0.310000 0.230000 0.190000
0.435000 0.230000 0.190000
0.560000 0.230000 0.190000
0.685000 0.230000 0.190000
0.810000 0.230000 0.190000
0.935000 0.230000 0.190000
1.000000 0.230000 0.190000
0.060000 0.355000 0.190000
0.185000 0.355000 0.190000
0.310000 0.355000 0.190000
0.435000 0.355000 0.190000
0.560000 0.355000 0.190000
0.685000 0.355000 0.190000
0.810000 0.355000 0.190000
0.935000 0.355000 0.190000
1.000000 0.355000 0.190000
0.060000 0.480000 0.190000
0.185000 0.480000 0.190000
0.310000 0.480000 0.190000
0.435000 0.480000 0.190000
0.560000 0.480000 0.190000
0.685000 0.480000 0.190000
0.810000 0.480000 0.190000
0.935000 0.480000 0.190000
1.000000 0.480000 0.190000
0.060000 0.605000 0.190000
0.185000 0.605000 0.190000
0.310000 0.605000 0.190000
0.435000 0.605000 0.190000
0.560000 0.605000 0.190000
0.685000 0.605000 0.190000
0.810000 0.605000 0.190000
0.935000 0.605000 0.190000
1.000000 0.605000 0.190000
0.060000 0.730000 0.190000
0.185000 0.730000 0.190000
0.310000 0.730000 0.190000
0.435000 0.730000 0.190000
0.560000 0.730000 0.190000
0.685000 0.730000 0.190000
0.810000 0.730000 0.190000
0.935000 0.730000 0.190000
1.000000 0.730000 0.190000
0.060000 0.855000 0.190000
0.185000 0.855000 0.190000
0.310000 0.855000 0.190000
0.435000 0.855000 0.190000
0.560000 0.855000 0.190000
0.685000 0.855000 0.190000
0.810000 0.855000 0.190000
0.935000 0.855000 0.190000
1.000000 0.855000 0.190000
0.060000 0.980000 0.190000
0.185000 0.980000 0.190000
0.310000 0.980000 0.190000
0.435000 0.980000 0.190000
0.560000 0.980000 0.190000
0.685000 0.980000 0.190000
0.810000 0.980000 0.190000
0.935000 0.980000 0.190000
1.000000 0.980000 0.190000
0.060000 0.000000 0.315000
0.185000 0.000000 0.315000
0.310000 0.000000 0.315000
0.435000 0.000000 0.315000
0.560000 0.000000 0.315000
0.685000 0.000000 0.315000
0.810000 0.000000 0.315000
0.935000 0.000000 0.315000
1.000000 0.000000 0.315000
0.060000 0.105000 0.315000
0.185000 0.105000 0.315000
0.310000 0.105000 0.315000
0.435000 0.105000 0.315000
0.560000 0.105000 0.315000
0.685000 0.105000 0.315000
0.810000 0.105000 0.315000
0.935000 0.105000 0.315000
1.000000 0.105000 0.315000
0.060000 0.230000 0.315000
0.185000 0.230000 0.315000
0.310000 0.230000 0.315000
0.435000 0.230000 0.315000
0.560000 0.230000 0.315000
0.685000 0.230000 0.315000
0.810000 0.230000 0.315000
0.935000 0.230000 0.315000
1.000000 0.230000 0.315000
0.060000 0.355000 0.315000
0.185000 0.355000 0.315000
0.310000 0.355000 0.315000
0.435000 0.355000 0.315000
0.560000 0.355000 0.315000
0.685000 0.355000 0.315000
0.810000 0.355000 0.315000
0.935000 0.355000 0.315000
1.000000 0.355000 0.315000
0.060000 0.480000 0.315000
0.185000 0.480000 0.315000
0.310000 0.480000 0.315000
0.435000 0.480000 0.315000
0.560000 0.480000 0.315000
0.685000 0.480000 0.315000
0.810000 0.480000 0.315000
0.935000 0.480000 0.315000
1.000000 0.480000 0.315000
0.060000 0.605000 0.315000
0.185000 0.605000 0.315000
0.310000 0.605000 0.315000
0.435000 0.605000 0.315000
0.560000 0.605000 0.315000
0.685000 0.605000 0.315000
0.810000 0.605000 0.315000
0.935000 0.605000 0.315000
1.000000 0.605000 0.315000
0.060000 0.730000 0.315000
0.185000 0.730000 0.315000
0.310000 0.730000 0.315000
0.435000 0.730000 0.315000
0.560000 0.730000 0.315000
0.685000 0.730000 0.315000
0.810000 0.730000 0.315000
0.935000 0.730000 0.315000
1.000000 0.730000 0.315000
0.060000 0.855000 0.315000
0.185000 0.855000 0.315000
0.310000 0.855000 0.315000
0.435000 0.855000 0.315000
0.560000 0.855000 0.315000
0.685000 0.855000 0.315000
0.810000 0.855000 0.315000
0.935000 0.855000 0.315000
1.000000 0.855000 0.315000
0.060000 0.980000 0.315000
0.185000 0.980000 0.315000
0.310000 0.980000 0.315000
0.435000 0.980000 0.315000
0.560000 0.980000 0.315000
0.685000 0.980000 0.315000
0.810000 0.980000 0.315000
0.935000 0.980000 0.315000
1.000000 0.980000 0.315000
0.060000 0.000000 0.440000
0.185000 0.000000 0.440000
0.310000 0.000000 0.440000
0.435000 0.000000 0.440000
0.560000 0.000000 0.440000
0.685000 0.000000 0.440000
0.810000 0.000000 0.440000
0.935000 0.000000 0.440000
1.000000 0.000000 0.440000
0.060000 0.105000 0.440000
0.185000 0.105000 0.440000
0.310000 0.105000 0.440000
0.435000 0.105000 0.440000
0.560000 0.105000 0.440000
0.685000 0.105000 0.440000
0.810000 0.105000 0.440000
0.935000 0.105000 0.440000
1.000000 0.105000 0.440000
0.060000 0.230000 0.440000
0.185000 0.230000 0.440000
0.310000 0.230000 0.440000
0.435000 0.230000 0.440000
0.560000 0.230000 0.440000
0.685000 0.230000 0.440000
0.810000 0.230000 0.440000
0.935000 0.230000 0.440000
1.000000 0.230000 0.440000
0.060000 0.355000 0.440000
0.185000 0.355000 0.440000
0.310000 0.355000 0.440000
0.435000 0.355000 0.440000
0.560000 0.355000 0.440000
0.685000 0.355000 0.440000
0.810000 0.355000 0.440000
0.935000 0.355000 0.440000
1.000000 0.355000 0.440000
0.060000 0.480000 0.440000
0.185000 0.480000 0.440000
0.310000 0.480000 0.440000
0.435000 0.480000 0.440000
0.560000 0.480000 0.440000
0.685000 0.480000 0.440000
0.810000 0.480000 0.440000
0.935000 0.480000 0.440000
1.000000 0.480000 0.440000
0.060000 0.605000 0.440000
0.185000 0.605000 0.440000
0.310000 0.605000 0.440000
0.435000 0.605000 0.440000
0.560000 0.605000 0.440000
0.685000 0.605000 0.440000
0.810000 0.605000 0.440000
0.935000 0.605000 0.440000
1.000000 0.605000 0.440000
0.060000 0.730000 0.440000
0.185000 0.730000 0.440000
0.310000 0.730000 0.440000
0.435000 0.730000 0.440000
0.560000 0.730000 0.440000
0.685000 0.730000 0.440000
0.810000 0.730000 0.440000
0.935000 0.730000 0.440000
1.000000 0.730000 0.440000
0.060000 0.855000 0.440000
0.185000 0.855000 0.440000
0.310000 0.855000 0.440000
0.435000 0.855000 0.440000
0.560000 0.855000 0.440000
0.685000 0.855000 0.440000
0.810000 0.855000 0.440000
0.935000 0.855000 0.440000
1.000000 0.855000 0.440000
0.060000 0.980000 0.440000
0.185000 0.980000 0.440000
0.310000 0.980000 0.440000
0.435000 0.980000 0.440000
0.560000 0.980000 0.440000
0.685000 0.980000 0.440000
0.810000 0.980000 0.440000
0.935000 0.980000 0.440000
1.000000 0.980000 0.440000
0.060000 0.000000 0.565000
0.185000 0.000000 0.565000
0.310000 0.000000 0.565000
0.435000 0.000000 0.565000
0.560000 0.000000 0.565000
0.685000 0.000000 0.565000
0.810000 0.000000 0.565000
0.935000 0.000000 0.565000
1.000000 0.000000 0.565000
0.060000 0.105000 0.565000
0.185000 0.105000 0.565000
0.310000 0.105000 0.565000
0.435000 0.105000 0.565000
0.560000 0.105000 0.565000
0.685000 0.105000 0.565000
0.810000 0.105000 0.565000
0.935000 0.105000 0.565000
1.000000 0.105000 0.565000
0.060000 0.230000 0.565000
0.185000 0.230000 0.565000
0.310000 0.230000 0.565000
0.435000 0.230000 0.565000
0.560000 0.230000 0.565000
0.685000 0.230000 0.565000
0.810000 0.230000 0.565000
0.935000 0.230000 0.565000
1.000000 0.230000 0.565000
0.060000 0.355000 0.565000
0.185000 0.355000 0.565000
0.310000 0.355000 0.565000
0.435000 0.355000 0.565000
0.560000 0.355000 0.565000
0.685000 0.355000 0.565000
0.810000 0.355000 0.565000
0.935000 0.355000 0.565000
1.000000 0.355000 0.565000
0.060000 0.480000 0.565000
0.185000 0.480000 0.565000
0.310000 0.480000 0.565000
0.435000 0.480000 0.565000
0.560000 0.480000 0.565000
0.685000 0.480000 0.565000
0.810000 0.480000 0.565000
0.935000 0.480000 0.565000
1.000000 0.480000 0.565000
0.060000 0.605000 0.565000
0.185000 0.605000 0.565000
0.310000 0.605000 0.565000
0.435000 0.605000 0.565000
0.560000 0.605000 0.565000
0.685000 0.605000 0.565000
0.810000 0.605000 0.565000
0.935000 0.605000 0.565000
1.000000 0.605000 0.565000
0.060000 0.730000 0.565000
0.185000 0.730000 0.565000
0.310000 0.730000 0.565000
0.435000 0.730000 0.565000
0.560000 0.730000 0.565000
0.685000 0.730000 0.565000
0.810000 0.730000 0.565000
0.935000 0.730000 0.565000
1.000000 0.730000 0.565000
0.060000 0.855000 0.565000
0.185000 0.855000 0.565000
0.310000 0.855000 0.565000
0.435000 0.855000 0.565000
0.560000 0.855000 0.565000
0.685000 0.855000 0.565000
0.810000 0.855000 0.565000
0.935000 0.855000 0.565000
1.000000 0.855000 0.565000
0.060000 0.980000 0.565000
0.185000 0.980000 0.565000
0.310000 0.980000 0.565000
0.435000 0.980000 0.565000
0.560000 0.980000 0.565000
0.685000 0.980000 0.565000
0.810000 0.980000 0.565000
0.935000 0.980000 0.565000
1.000000 0.980000 0.565000
0.060000 0.000000 0.690000
0.185000 0.000000 0.690000
0.310000 0.000000 0.690000
0.435000 0.000000 0.690000
0.560000 0.000000 0.690000
0.685000 0.000000 0.690000
0.810000 0.000000 0.690000
0.935000 0.000000 0.690000
1.000000 0.000000 0.690000
0.060000 0.105000 0.690000
0.185000 0.105000 0.690000
0.310000 0.105000 0.690000
0.435000 0.105000 0.690000
0.560000 0.105000 0.690000
0.685000 0.105000 0.690000
0.810000 0.105000 0.690000
0.935000 0.105000 0.690000
1.000000 0.105000 0.690000
0.060000 0.230000 0.690000
0.185000 0.230000 0.690000
0.310000 0.230000 0.690000
0.435000 0.230000 0.690000
0.560000 0.230000 0.690000
0.685000 0.230000 0.690000
0.810000 0.230000 0.690000
0.935000 0.230000 0.690000
1.000000 0.230000 0.690000
0.060000 0.355000 0.690000
0.185000 0.355000 0.690000
0.310000 0.355000 0.690000
0.435000 0.355000 0.690000
0.560000 0.355000 0.690000
0.685000 0.355000 0.690000
0.810000 0.355000 0.690000
0.935000 0.355000 0.690000
1.000000 0.355000 0.690000
0.060000 0.480000 0.690000
0.185000 0.480000 0.690000
0.310000 0.480000 0.690000
0.435000 0.480000 0.690000
0.560000 0.480000 0.690000
0.685000 0.480000 0.690000
0.810000 0.480000 0.690000
0.935000 0.480000 0.690000
1.000000 0.480000 0.690000
0.060000 0.605000 0.690000
0.185000 0.605000 0.690000
0.310000 0.605000 0.690000
0.435000 0.605000 0.690000
0.560000 0.605000 0.690000
0.685000 0.605000 0.690000
0.810000 0.605000 0.690000
0.935000 0.605000 0.690000
1.000000 0.605000 0.690000
0.060000 0.730000 0.690000
0.185000 0.730000 0.690000
0.310000 0.730000 0.690000
0.435000 0.730000 0.690000
0.560000 0.730000 0.690000
0.685000 0.730000 0.690000
0.810000 0.730000 0.690000
0.935000 0.730000 0.690000
1.000000 0.730000 0.690000
0.060000 0.855000 0.690000
0.185000 0.855000 0.690000
0.310000 0.855000 0.690000
0.435000 0.855000 0.690000
0.560000 0.855000 0.690000
0.685000 0.855000 0.690000
0.810000 0.855000 0.690000
0.935000 0.855000 0.690000
1.000000 0.855000 0.690000
0.060000 0.980000 0.690000
0.185000 0.980000 0.690000
0.310000 0.980000 0.690000
0.435000 0.980000 0.690000
0.560000 0.980000 0.690000
0.685000 0.980000 0.690000
0.810000 0.980000 0.690000
0.935000 0.980000 0.690000
1.000000 0.980000 0.690000
0.060000 0.000000 0.815000
0.185000 0.000000 0.815000
0.310000 0.000000 0.815000
0.435000 0.000000 0.815000
0.560000 0.000000 0.815000
0.685000 0.000000 0.815000
0.810000 0.000000 0.815000
0.935000 0.000000 0.815000
1.000000 0.000000 0.815000
0.060000 0.105000 0.815000
0.185000 0.105000 0.815000
0.310000 0.105000 0.815000
0.435000 0.105000 0.815000
0.560000 0.105000 0.815000
0.685000 0.105000 0.815000
0.810000 0.105000 0.815000
0.935000 0.105000 0.815000
1.000000 0.105000 0.815000
0.060000 0.230000 0.815000
0.185000 0.230000 0.815000
0.310000 0.230000 0.815000
0.435000 0.230000 0.815000
0.560000 0.230000 0.815000
0.685000 0.230000 0.815000
0.810000 0.230000 0.815000
0.935000 0.230000 0.815000
1.000000 0.230000 0.815000
0.060000 0.355000 0.815000
0.185000 0.355000 0.815000
0.310000 0.355000 0.815000
0.435000 0.355000 0.815000
0.560000 0.355000 0.815000
0.685000 0.355000 0.815000
0.810000 0.355000 0.815000
0.935000 0.355000 0.815000
1.000000 0.355000 0.815000
0.060000 0.480000 0.815000
0.185000 0.480000 0.815000
0.310000 0.480000 0.815000
0.435000 0.480000 0.815000
0.560000 0.480000 0.815000
0.685000 0.480000 0.815000
0.810000 0.480000 0.815000
0.935000 0.480000 0.815000
1.000000 0.480000 0.815000
0.060000 0.605000 0.815000
0.185000 0.605000 0.815000
0.310000 0.605000 0.815000
0.435000 0.605000 0.815000
0.560000 0.605000 0.815000
0.685000 0.605000 0.815000
0.810000 0.605000 0.815000
0.935000 0.605000 0.815000
1.000000 0.605000 0.815000
0.060000 0.730000 0.815000
0.185000 0.730000 0.815000
0.310000 0.730000 0.815000
0.435000 0.730000 0.815000
0.560000 0.730000 0.815000
0.685000 0.730000 0.815000
0.810000 0.730000 0.815000
0.935000 0.730000 0.815000
1.000000 0.730000 0.815000
0.060000 0.855000 0.815000
0.185000 0.855000 0.815000
0.310000 0.855000 0.815000
0.435000 0.855000 0.815000
0.560000 0.855000 0.815000
0.685000 0.855000 0.815000
0.810000 0.855000 0.815000
0.935000 0.855000 0.815000
1.000000 0.855000 0.815000
0.060000 0.980000 0.815000
0.185000 0.980000 0.815000
0.310000 0.980000 0.815000
0.435000 0.980000 0.815000
0.560000 0.980000 0.815000
0.685000 0.980000 0.815000
0.810000 0.980000 0.815000
0.935000 0.980000 0.815000
1.000000 0.980000 0.815000
0.060000 0.000000 0.940000
0.185000 0.000000 0.940000
0.310000 0.000000 0.940000
0.435000 0.000000 0.940000
0.560000 0.000000 0.940000
0.685000 0.000000 0.940000
0.810000 0.000000 0.940000
0.935000 0.000000 0.940000
1.000000 0.000000 0.940000
0.060000 0.105000 0.940000
0.185000 0.105000 0.940000
0.310000 0.105000 0.940000
0.435000 0.105000 0.940000
0.560000 0.105000 0.940000
0.685000 0.105000 0.940000
0.810000 0.105000 0.940000
0.935000 0.105000 0.940000
1.000000 0.105000 0.940000
0.060000 0.230000 0.940000
0.185000 0.230000 0.940000
0.310000 0.230000 0.940000
0.435000 0.230000 0.940000
0.560000 0.230000 0.940000
0.685000 0.230000 0.940000
0.810000 0.230000 0.940000
0.935000 0.230000 0.940000
1.000000 0.230000 0.940000
0.060000 0.355000 0.940000
0.185000 0.355000 0.940000
0.310000 0.355000 0.940000
0.435000 0.355000 0.940000
0.560000 0.355000 0.940000
0.685000 0.355000 0.940000
0.810000 0.355000 0.940000
0.935000 0.355000 0.940000
1.000000 0.355000 0.940000
0.060000 0.480000 0.940000
0.185000 0.480000 0.940000
0.310000 0.480000 0.940000
0.435000 0.480000 0.940000
0.560000 0.480000 0.940000
0.685000 0.480000 0.940000
0.810000 0.480000 0.940000
0.935000 0.480000 0.940000
1.000000 0.480000 0.940000
0.060000 0.605000 0.940000
0.185000 0.605000 0.940000
0.310000 0.605000 0.940000
0.435000 0.605000 0.940000
0.560000 0.605000 0.940000
0.685000 0.605000 0.940000
0.810000 0.605000 0.940000
0.935000 0.605000 0.940000
1.000000 0.605000 0.940000
0.060000 0.730000 0.940000
0.185000 0.730000 0.940000
0.310000 0.730000 0.940000
0.435000 0.730000 0.940000
0.560000 0.730000 0.940000
0.685000 0.730000 0.940000
0.810000 0.730000 0.940000
0.935000 0.730000 0.940000
1.000000 0.730000 0.940000
0.060000 0.855000 0.940000
0.185000 0.855000 0.940000
0.310000 0.855000 0.940000
0.435000 0.855000 0.940000
0.560000 0.855000 0.940000
0.685000 0.855000 0.940000
0.810000 0.855000 0.940000
0.935000 0.855000 0.940000
1.000000 0.855000 0.940000
0.060000 0.980000 0.940000
0.185000 0.980000 0.940000
0.310000 0.980000 0.940000
0.435000 0.980000 0.940000
0.560000 0.980000 0.940000
0.685000 0.980000 0.940000
0.810000 0.980000 0.940000
0.935000 0.980000 0.940000
1.000000 0.980000 0.940000
