app/src/main/assets/luts/peachy_glow.cube
# ApexStudio filter: peachy_glow
LUT_3D_SIZE 5
DOMAIN_MIN 0.0 0.0 0.0
DOMAIN_MAX 1.0 1.0 1.0
0.060000 0.000000 0.000000
0.310000 0.000000 0.000000
0.560000 0.000000 0.000000
0.810000 0.000000 0.000000
1.000000 0.000000 0.000000
0.060000 0.230000 0.000000
0.310000 0.230000 0.000000
0.560000 0.230000 0.000000
0.810000 0.230000 0.000000
1.000000 0.230000 0.000000
0.060000 0.480000 0.000000
0.310000 0.480000 0.000000
0.560000 0.480000 0.000000
0.810000 0.480000 0.000000
1.000000 0.480000 0.000000
0.060000 0.730000 0.000000
0.310000 0.730000 0.000000
0.560000 0.730000 0.000000
0.810000 0.730000 0.000000
1.000000 0.730000 0.000000
0.060000 0.980000 0.000000
0.310000 0.980000 0.000000
0.560000 0.980000 0.000000
0.810000 0.980000 0.000000
1.000000 0.980000 0.000000
0.060000 0.000000 0.190000
0.310000 0.000000 0.190000
0.560000 0.000000 0.190000
0.810000 0.000000 0.190000
1.000000 0.000000 0.190000
0.060000 0.230000 0.190000
0.310000 0.230000 0.190000
0.560000 0.230000 0.190000
0.810000 0.230000 0.190000
1.000000 0.230000 0.190000
0.060000 0.480000 0.190000
0.310000 0.480000 0.190000
0.560000 0.480000 0.190000
0.810000 0.480000 0.190000
1.000000 0.480000 0.190000
0.060000 0.730000 0.190000
0.310000 0.730000 0.190000
0.560000 0.730000 0.190000
0.810000 0.730000 0.190000
1.000000 0.730000 0.190000
0.060000 0.980000 0.190000
0.310000 0.980000 0.190000
0.560000 0.980000 0.190000
0.810000 0.980000 0.190000
1.000000 0.980000 0.190000
0.060000 0.000000 0.440000
0.310000 0.000000 0.440000
0.560000 0.000000 0.440000
0.810000 0.000000 0.440000
1.000000 0.000000 0.440000
0.060000 0.230000 0.440000
0.310000 0.230000 0.440000
0.560000 0.230000 0.440000
0.810000 0.230000 0.440000
1.000000 0.230000 0.440000
0.060000 0.480000 0.440000
0.310000 0.480000 0.440000
0.560000 0.480000 0.440000
0.810000 0.480000 0.440000
1.000000 0.480000 0.440000
0.060000 0.730000 0.440000
0.310000 0.730000 0.440000
0.560000 0.730000 0.440000
0.810000 0.730000 0.440000
1.000000 0.730000 0.440000
0.060000 0.980000 0.440000
0.310000 0.980000 0.440000
0.560000 0.980000 0.440000
0.810000 0.980000 0.440000
1.000000 0.980000 0.440000
0.060000 0.000000 0.690000
0.310000 0.000000 0.690000
0.560000 0.000000 0.690000
0.810000 0.000000 0.690000
1.000000 0.000000 0.690000
0.060000 0.230000 0.690000
0.310000 0.230000 0.690000
0.560000 0.230000 0.690000
0.810000 0.230000 0.690000
1.000000 0.230000 0.690000
0.060000 0.480000 0.690000
0.310000 0.480000 0.690000
0.560000 0.480000 0.690000
0.810000 0.480000 0.690000
1.000000 0.480000 0.690000
0.060000 0.730000 0.690000
0.310000 0.730000 0.690000
0.560000 0.730000 0.690000
0.810000 0.730000 0.690000
1.000000 0.730000 0.690000
0.060000 0.980000 0.690000
0.310000 0.980000 0.690000
0.560000 0.980000 0.690000
0.810000 0.980000 0.690000
1.000000 0.980000 0.690000
0.060000 0.000000 0.940000
0.310000 0.000000 0.940000
0.560000 0.000000 0.940000
0.810000 0.000000 0.940000
1.000000 0.000000 0.940000
0.060000 0.230000 0.940000
0.310000 0.230000 0.940000
0.560000 0.230000 0.940000
0.810000 0.230000 0.940000
1.000000 0.230000 0.940000
0.060000 0.480000 0.940000
0.310000 0.480000 0.940000
0.560000 0.480000 0.940000
0.810000 0.480000 0.940000
1.000000 0.480000 0.940000
0.060000 0.730000 0.940000
0.310000 0.730000 0.940000
0.560000 0.730000 0.940000
0.810000 0.730000 0.940000
1.000000 0.730000 0.940000
0.060000 0.980000 0.940000
0.310000 0.980000 0.940000
0.560000 0.980000 0.940000
0.810000 0.980000 0.940000
1.000000 0.980000 0.940000
