app/src/main/assets/luts/peachy_glow.cube
# ApexStudio filter: peachy_glow
LUT_3D_SIZE 17
DOMAIN_MIN 0.0 0.0 0.0
DOMAIN_MAX 1.0 1.0 1.0
0.060000 0.000000 0.000000
0.122500 0.000000 0.000000
0.185000 0.000000 0.000000
0.247500 0.000000 0.000000
0.310000 0.000000 0.000000
0.372500 0.000000 0.000000
0.435000 0.000000 0.000000
0.497500 0.000000 0.000000
0.560000 0.000000 0.000000
0.622500 0.000000 0.000000
0.685000 0.000000 0.000000
0.747500 0.000000 0.000000
0.810000 0.000000 0.000000
0.872500 0.000000 0.000000
0.935000 0.000000 0.000000
0.997500 0.000000 0.000000
1.000000 0.000000 0.000000
0.060000 0.042500 0.000000
0.122500 0.042500 0.000000
0.185000 0.042500 0.000000
0.247500 0.042500 0.000000
0.310000 0.042500 0.000000
0.372500 0.042500 0.000000
0.435000 0.042500 0.000000
0.497500 0.042500 0.000000
0.560000 0.042500 0.000000
0.622500 0.042500 0.000000
0.685000 0.042500 0.000000
0.747500 0.042500 0.000000
0.810000 0.042500 0.000000
0.872500 0.042500 0.000000
0.935000 0.042500 0.000000
0.997500 0.042500 0.000000
1.000000 0.042500 0.000000
0.060000 0.105000 0.000000
0.122500 0.105000 0.000000
0.185000 0.105000 0.000000
0.247500 0.105000 0.000000
0.310000 0.105000 0.000000
0.372500 0.105000 0.000000
0.435000 0.105000 0.000000
0.497500 0.105000 0.000000
0.560000 0.105000 0.000000
0.622500 0.105000 0.000000
0.685000 0.105000 0.000000
0.747500 0.105000 0.000000
0.810000 0.105000 0.000000
0.872500 0.105000 0.000000
0.935000 0.105000 0.000000
0.997500 0.105000 0.000000
1.000000 0.105000 0.000000
0.060000 0.167500 0.000000
0.122500 0.167500 0.000000
0.185000 0.167500 0.000000
0.247500 0.167500 0.000000
0.310000 0.167500 0.000000
0.372500 0.167500 0.000000
0.435000 0.167500 0.000000
0.497500 0.167500 0.000000
0.560000 0.167500 0.000000
0.622500 0.167500 0.000000
0.685000 0.167500 0.000000
0.747500 0.167500 0.000000
0.810000 0.167500 0.000000
0.872500 0.167500 0.000000
0.935000 0.167500 0.000000
0.997500 0.167500 0.000000
1.000000 0.167500 0.000000
0.060000 0.230000 0.000000
0.122500 0.230000 0.000000
0.185000 0.230000 0.000000
0.247500 0.230000 0.000000
0.310000 0.230000 0.000000
0.372500 0.230000 0.000000
0.435000 0.230000 0.000000
0.497500 0.230000 0.000000
0.560000 0.230000 0.000000
0.622500 0.230000 0.000000
0.685000 0.230000 0.000000
0.747500 0.230000 0.000000
0.810000 0.230000 0.000000
0.872500 0.230000 0.000000
0.935000 0.230000 0.000000
0.997500 0.230000 0.000000
1.000000 0.230000 0.000000
0.060000 0.292500 0.000000
0.122500 0.292500 0.000000
0.185000 0.292500 0.000000
0.247500 0.292500 0.000000
0.310000 0.292500 0.000000
0.372500 0.292500 0.000000
0.435000 0.292500 0.000000
0.497500 0.292500 0.000000
0.560000 0.292500 0.000000
0.622500 0.292500 0.000000
0.685000 0.292500 0.000000
0.747500 0.292500 0.000000
0.810000 0.292500 0.000000
0.872500 0.292500 0.000000
0.935000 0.292500 0.000000
0.997500 0.292500 0.000000
1.000000 0.292500 0.000000
0.060000 0.355000 0.000000
0.122500 0.355000 0.000000
0.185000 0.355000 0.000000
0.247500 0.355000 0.000000
0.310000 0.355000 0.000000
0.372500 0.355000 0.000000
0.435000 0.355000 0.000000
0.497500 0.355000 0.000000
0.560000 0.355000 0.000000
0.622500 0.355000 0.000000
0.685000 0.355000 0.000000
0.747500 0.355000 0.000000
0.810000 0.355000 0.000000
0.872500 0.355000 0.000000
0.935000 0.355000 0.000000
0.997500 0.355000 0.000000
1.000000 0.355000 0.000000
0.060000 0.417500 0.000000
0.122500 0.417500 0.000000
0.185000 0.417500 0.000000
0.247500 0.417500 0.000000
0.310000 0.417500 0.000000
0.372500 0.417500 0.000000
0.435000 0.417500 0.000000
0.497500 0.417500 0.000000
0.560000 0.417500 0.000000
0.622500 0.417500 0.000000
0.685000 0.417500 0.000000
0.747500 0.417500 0.000000
0.810000 0.417500 0.000000
0.872500 0.417500 0.000000
0.935000 0.417500 0.000000
0.997500 0.417500 0.000000
1.000000 0.417500 0.000000
0.060000 0.480000 0.000000
0.122500 0.480000 0.000000
0.185000 0.480000 0.000000
0.247500 0.480000 0.000000
0.310000 0.480000 0.000000
0.372500 0.480000 0.000000
0.435000 0.480000 0.000000
0.497500 0.480000 0.000000
0.560000 0.480000 0.000000
0.622500 0.480000 0.000000
0.685000 0.480000 0.000000
0.747500 0.480000 0.000000
0.810000 0.480000 0.000000
0.872500 0.480000 0.000000
0.935000 0.480000 0.000000
0.997500 0.480000 0.000000
1.000000 0.480000 0.000000
0.060000 0.542500 0.000000
0.122500 0.542500 0.000000
0.185000 0.542500 0.000000
0.247500 0.542500 0.000000
0.310000 0.542500 0.000000
0.372500 0.542500 0.000000
0.435000 0.542500 0.000000
0.497500 0.542500 0.000000
0.560000 0.542500 0.000000
0.622500 0.542500 0.000000
0.685000 0.542500 0.000000
0.747500 0.542500 0.000000
0.810000 0.542500 0.000000
0.872500 0.542500 0.000000
0.935000 0.542500 0.000000
0.997500 0.542500 0.000000
1.000000 0.542500 0.000000
0.060000 0.605000 0.000000
0.122500 0.605000 0.000000
0.185000 0.605000 0.000000
0.247500 0.605000 0.000000
0.310000 0.605000 0.000000
0.372500 0.605000 0.000000
0.435000 0.605000 0.000000
0.497500 0.605000 0.000000
0.560000 0.605000 0.000000
0.622500 0.605000 0.000000
0.685000 0.605000 0.000000
0.747500 0.605000 0.000000
0.810000 0.605000 0.000000
0.872500 0.605000 0.000000
0.935000 0.605000 0.000000
0.997500 0.605000 0.000000
1.000000 0.605000 0.000000
0.060000 0.667500 0.000000
0.122500 0.667500 0.000000
0.185000 0.667500 0.000000
0.247500 0.667500 0.000000
0.310000 0.667500 0.000000
0.372500 0.667500 0.000000
0.435000 0.667500 0.000000
0.497500 0.667500 0.000000
0.560000 0.667500 0.000000
0.622500 0.667500 0.000000
0.685000 0.667500 0.000000
0.747500 0.667500 0.000000
0.810000 0.667500 0.000000
0.872500 0.667500 0.000000
0.935000 0.667500 0.000000
0.997500 0.667500 0.000000
1.000000 0.667500 0.000000
0.060000 0.730000 0.000000
0.122500 0.730000 0.000000
0.185000 0.730000 0.000000
0.247500 0.730000 0.000000
0.310000 0.730000 0.000000
0.372500 0.730000 0.000000
0.435000 0.730000 0.000000
0.497500 0.730000 0.000000
0.560000 0.730000 0.000000
0.622500 0.730000 0.000000
0.685000 0.730000 0.000000
0.747500 0.730000 0.000000
0.810000 0.730000 0.000000
0.872500 0.730000 0.000000
0.935000 0.730000 0.000000
0.997500 0.730000 0.000000
1.000000 0.730000 0.000000
0.060000 0.792500 0.000000
0.122500 0.792500 0.000000
0.185000 0.792500 0.000000
0.247500 0.792500 0.000000
0.310000 0.792500 0.000000
0.372500 0.792500 0.000000
0.435000 0.792500 0.000000
0.497500 0.792500 0.000000
0.560000 0.792500 0.000000
0.622500 0.792500 0.000000
0.685000 0.792500 0.000000
0.747500 0.792500 0.000000
0.810000 0.792500 0.000000
0.872500 0.792500 0.000000
0.935000 0.792500 0.000000
0.997500 0.792500 0.000000
1.000000 0.792500 0.000000
0.060000 0.855000 0.000000
0.122500 0.855000 0.000000
0.185000 0.855000 0.000000
0.247500 0.855000 0.000000
0.310000 0.855000 0.000000
0.372500 0.855000 0.000000
0.435000 0.855000 0.000000
0.497500 0.855000 0.000000
0.560000 0.855000 0.000000
0.622500 0.855000 0.000000
0.685000 0.855000 0.000000
0.747500 0.855000 0.000000
0.810000 0.855000 0.000000
0.872500 0.855000 0.000000
0.935000 0.855000 0.000000
0.997500 0.855000 0.000000
1.000000 0.855000 0.000000
0.060000 0.917500 0.000000
0.122500 0.917500 0.000000
0.185000 0.917500 0.000000
0.247500 0.917500 0.000000
0.310000 0.917500 0.000000
0.372500 0.917500 0.000000
0.435000 0.917500 0.000000
0.497500 0.917500 0.000000
0.560000 0.917500 0.000000
0.622500 0.917500 0.000000
0.685000 0.917500 0.000000
0.747500 0.917500 0.000000
0.810000 0.917500 0.000000
0.872500 0.917500 0.000000
0.935000 0.917500 0.000000
0.997500 0.917500 0.000000
1.000000 0.917500 0.000000
0.060000 0.980000 0.000000
0.122500 0.980000 0.000000
0.185000 0.980000 0.000000
0.247500 0.980000 0.000000
0.310000 0.980000 0.000000
0.372500 0.980000 0.000000
0.435000 0.980000 0.000000
0.497500 0.980000 0.000000
0.560000 0.980000 0.000000
0.622500 0.980000 0.000000
0.685000 0.980000 0.000000
0.747500 0.980000 0.000000
0.810000 0.980000 0.000000
0.872500 0.980000 0.000000
0.935000 0.980000 0.000000
0.997500 0.980000 0.000000
1.000000 0.980000 0.000000
0.060000 0.000000 0.002500
0.122500 0.000000 0.002500
0.185000 0.000000 0.002500
0.247500 0.000000 0.002500
0.310000 0.000000 0.002500
0.372500 0.000000 0.002500
0.435000 0.000000 0.002500
0.497500 0.000000 0.002500
0.560000 0.000000 0.002500
0.622500 0.000000 0.002500
0.685000 0.000000 0.002500
0.747500 0.000000 0.002500
0.810000 0.000000 0.002500
0.872500 0.000000 0.002500
0.935000 0.000000 0.002500
0.997500 0.000000 0.002500
1.000000 0.000000 0.002500
0.060000 0.042500 0.002500
0.122500 0.042500 0.002500
0.185000 0.042500 0.002500
0.247500 0.042500 0.002500
0.310000 0.042500 0.002500
0.372500 0.042500 0.002500
0.435000 0.042500 0.002500
0.497500 0.042500 0.002500
0.560000 0.042500 0.002500
0.622500 0.042500 0.002500
0.685000 0.042500 0.002500
0.747500 0.042500 0.002500
0.810000 0.042500 0.002500
0.872500 0.042500 0.002500
0.935000 0.042500 0.002500
0.997500 0.042500 0.002500
1.000000 0.042500 0.002500
0.060000 0.105000 0.002500
0.122500 0.105000 0.002500
0.185000 0.105000 0.002500
0.247500 0.105000 0.002500
0.310000 0.105000 0.002500
0.372500 0.105000 0.002500
0.435000 0.105000 0.002500
0.497500 0.105000 0.002500
0.560000 0.105000 0.002500
0.622500 0.105000 0.002500
0.685000 0.105000 0.002500
0.747500 0.105000 0.002500
0.810000 0.105000 0.002500
0.872500 0.105000 0.002500
0.935000 0.105000 0.002500
0.997500 0.105000 0.002500
1.000000 0.105000 0.002500
0.060000 0.167500 0.002500
0.122500 0.167500 0.002500
0.185000 0.167500 0.002500
0.247500 0.167500 0.002500
0.310000 0.167500 0.002500
0.372500 0.167500 0.002500
0.435000 0.167500 0.002500
0.497500 0.167500 0.002500
0.560000 0.167500 0.002500
0.622500 0.167500 0.002500
0.685000 0.167500 0.002500
0.747500 0.167500 0.002500
0.810000 0.167500 0.002500
0.872500 0.167500 0.002500
0.935000 0.167500 0.002500
0.997500 0.167500 0.002500
1.000000 0.167500 0.002500
0.060000 0.230000 0.002500
0.122500 0.230000 0.002500
0.185000 0.230000 0.002500
0.247500 0.230000 0.002500
0.310000 0.230000 0.002500
0.372500 0.230000 0.002500
0.435000 0.230000 0.002500
0.497500 0.230000 0.002500
0.560000 0.230000 0.002500
0.622500 0.230000 0.002500
0.685000 0.230000 0.002500
0.747500 0.230000 0.002500
0.810000 0.230000 0.002500
0.872500 0.230000 0.002500
0.935000 0.230000 0.002500
0.997500 0.230000 0.002500
1.000000 0.230000 0.002500
0.060000 0.292500 0.002500
0.122500 0.292500 0.002500
0.185000 0.292500 0.002500
0.247500 0.292500 0.002500
0.310000 0.292500 0.002500
0.372500 0.292500 0.002500
0.435000 0.292500 0.002500
0.497500 0.292500 0.002500
0.560000 0.292500 0.002500
0.622500 0.292500 0.002500
0.685000 0.292500 0.002500
0.747500 0.292500 0.002500
0.810000 0.292500 0.002500
0.872500 0.292500 0.002500
0.935000 0.292500 0.002500
0.997500 0.292500 0.002500
1.000000 0.292500 0.002500
0.060000 0.355000 0.002500
0.122500 0.355000 0.002500
0.185000 0.355000 0.002500
0.247500 0.355000 0.002500
0.310000 0.355000 0.002500
0.372500 0.355000 0.002500
0.435000 0.355000 0.002500
0.497500 0.355000 0.002500
0.560000 0.355000 0.002500
0.622500 0.355000 0.002500
0.685000 0.355000 0.002500
0.747500 0.355000 0.002500
0.810000 0.355000 0.002500
0.872500 0.355000 0.002500
0.935000 0.355000 0.002500
0.997500 0.355000 0.002500
1.000000 0.355000 0.002500
0.060000 0.417500 0.002500
0.122500 0.417500 0.002500
0.185000 0.417500 0.002500
0.247500 0.417500 0.002500
0.310000 0.417500 0.002500
0.372500 0.417500 0.002500
0.435000 0.417500 0.002500
0.497500 0.417500 0.002500
0.560000 0.417500 0.002500
0.622500 0.417500 0.002500
0.685000 0.417500 0.002500
0.747500 0.417500 0.002500
0.810000 0.417500 0.002500
0.872500 0.417500 0.002500
0.935000 0.417500 0.002500
0.997500 0.417500 0.002500
1.000000 0.417500 0.002500
0.060000 0.480000 0.002500
0.122500 0.480000 0.002500
0.185000 0.480000 0.002500
0.247500 0.480000 0.002500
0.310000 0.480000 0.002500
0.372500 0.480000 0.002500
0.435000 0.480000 0.002500
0.497500 0.480000 0.002500
0.560000 0.480000 0.002500
0.622500 0.480000 0.002500
0.685000 0.480000 0.002500
0.747500 0.480000 0.002500
0.810000 0.480000 0.002500
0.872500 0.480000 0.002500
0.935000 0.480000 0.002500
0.997500 0.480000 0.002500
1.000000 0.480000 0.002500
0.060000 0.542500 0.002500
0.122500 0.542500 0.002500
0.185000 0.542500 0.002500
0.247500 0.542500 0.002500
0.310000 0.542500 0.002500
0.372500 0.542500 0.002500
0.435000 0.542500 0.002500
0.497500 0.542500 0.002500
0.560000 0.542500 0.002500
0.622500 0.542500 0.002500
0.685000 0.542500 0.002500
0.747500 0.542500 0.002500
0.810000 0.542500 0.002500
0.872500 0.542500 0.002500
0.935000 0.542500 0.002500
0.997500 0.542500 0.002500
1.000000 0.542500 0.002500
0.060000 0.605000 0.002500
0.122500 0.605000 0.002500
0.185000 0.605000 0.002500
0.247500 0.605000 0.002500
0.310000 0.605000 0.002500
0.372500 0.605000 0.002500
0.435000 0.605000 0.002500
0.497500 0.605000 0.002500
0.560000 0.605000 0.002500
0.622500 0.605000 0.002500
0.685000 0.605000 0.002500
0.747500 0.605000 0.002500
0.810000 0.605000 0.002500
0.872500 0.605000 0.002500
0.935000 0.605000 0.002500
0.997500 0.605000 0.002500
1.000000 0.605000 0.002500
0.060000 0.667500 0.002500
0.122500 0.667500 0.002500
0.185000 0.667500 0.002500
0.247500 0.667500 0.002500
0.310000 0.667500 0.002500
0.372500 0.667500 0.002500
0.435000 0.667500 0.002500
0.497500 0.667500 0.002500
0.560000 0.667500 0.002500
0.622500 0.667500 0.002500
0.685000 0.667500 0.002500
0.747500 0.667500 0.002500
0.810000 0.667500 0.002500
0.872500 0.667500 0.002500
0.935000 0.667500 0.002500
0.997500 0.667500 0.002500
1.000000 0.667500 0.002500
0.060000 0.730000 0.002500
0.122500 0.730000 0.002500
0.185000 0.730000 0.002500
0.247500 0.730000 0.002500
0.310000 0.730000 0.002500
0.372500 0.730000 0.002500
0.435000 0.730000 0.002500
0.497500 0.730000 0.002500
0.560000 0.730000 0.002500
0.622500 0.730000 0.002500
0.685000 0.730000 0.002500
0.747500 0.730000 0.002500
0.810000 0.730000 0.002500
0.872500 0.730000 0.002500
0.935000 0.730000 0.002500
0.997500 0.730000 0.002500
1.000000 0.730000 0.002500
0.060000 0.792500 0.002500
0.122500 0.792500 0.002500
0.185000 0.792500 0.002500
0.247500 0.792500 0.002500
0.310000 0.792500 0.002500
0.372500 0.792500 0.002500
0.435000 0.792500 0.002500
0.497500 0.792500 0.002500
0.560000 0.792500 0.002500
0.622500 0.792500 0.002500
0.685000 0.792500 0.002500
0.747500 0.792500 0.002500
0.810000 0.792500 0.002500
0.872500 0.792500 0.002500
0.935000 0.792500 0.002500
0.997500 0.792500 0.002500
1.000000 0.792500 0.002500
0.060000 0.855000 0.002500
0.122500 0.855000 0.002500
0.185000 0.855000 0.002500
0.247500 0.855000 0.002500
0.310000 0.855000 0.002500
0.372500 0.855000 0.002500
0.435000 0.855000 0.002500
0.497500 0.855000 0.002500
0.560000 0.855000 0.002500
0.622500 0.855000 0.002500
0.685000 0.855000 0.002500
0.747500 0.855000 0.002500
0.810000 0.855000 0.002500
0.872500 0.855000 0.002500
0.935000 0.855000 0.002500
0.997500 0.855000 0.002500
1.000000 0.855000 0.002500
0.060000 0.917500 0.002500
0.122500 0.917500 0.002500
0.185000 0.917500 0.002500
0.247500 0.917500 0.002500
0.310000 0.917500 0.002500
0.372500 0.917500 0.002500
0.435000 0.917500 0.002500
0.497500 0.917500 0.002500
0.560000 0.917500 0.002500
0.622500 0.917500 0.002500
0.685000 0.917500 0.002500
0.747500 0.917500 0.002500
0.810000 0.917500 0.002500
0.872500 0.917500 0.002500
0.935000 0.917500 0.002500
0.997500 0.917500 0.002500
1.000000 0.917500 0.002500
0.060000 0.980000 0.002500
0.122500 0.980000 0.002500
0.185000 0.980000 0.002500
0.247500 0.980000 0.002500
0.310000 0.980000 0.002500
0.372500 0.980000 0.002500
0.435000 0.980000 0.002500
0.497500 0.980000 0.002500
0.560000 0.980000 0.002500
0.622500 0.980000 0.002500
0.685000 0.980000 0.002500
0.747500 0.980000 0.002500
0.810000 0.980000 0.002500
0.872500 0.980000 0.002500
0.935000 0.980000 0.002500
0.997500 0.980000 0.002500
1.000000 0.980000 0.002500
0.060000 0.000000 0.065000
0.122500 0.000000 0.065000
0.185000 0.000000 0.065000
0.247500 0.000000 0.065000
0.310000 0.000000 0.065000
0.372500 0.000000 0.065000
0.435000 0.000000 0.065000
0.497500 0.000000 0.065000
0.560000 0.000000 0.065000
0.622500 0.000000 0.065000
0.685000 0.000000 0.065000
0.747500 0.000000 0.065000
0.810000 0.000000 0.065000
0.872500 0.000000 0.065000
0.935000 0.000000 0.065000
0.997500 0.000000 0.065000
1.000000 0.000000 0.065000
0.060000 0.042500 0.065000
0.122500 0.042500 0.065000
0.185000 0.042500 0.065000
0.247500 0.042500 0.065000
0.310000 0.042500 0.065000
0.372500 0.042500 0.065000
0.435000 0.042500 0.065000
0.497500 0.042500 0.065000
0.560000 0.042500 0.065000
0.622500 0.042500 0.065000
0.685000 0.042500 0.065000
0.747500 0.042500 0.065000
0.810000 0.042500 0.065000
0.872500 0.042500 0.065000
0.935000 0.042500 0.065000
0.997500 0.042500 0.065000
1.000000 0.042500 0.065000
0.060000 0.105000 0.065000
0.122500 0.105000 0.065000
0.185000 0.105000 0.065000
0.247500 0.105000 0.065000
0.310000 0.105000 0.065000
0.372500 0.105000 0.065000
0.435000 0.105000 0.065000
0.497500 0.105000 0.065000
0.560000 0.105000 0.065000
0.622500 0.105000 0.065000
0.685000 0.105000 0.065000
0.747500 0.105000 0.065000
0.810000 0.105000 0.065000
0.872500 0.105000 0.065000
0.935000 0.105000 0.065000
0.997500 0.105000 0.065000
1.000000 0.105000 0.065000
0.060000 0.167500 0.065000
0.122500 0.167500 0.065000
0.185000 0.167500 0.065000
0.247500 0.167500 0.065000
0.310000 0.167500 0.065000
0.372500 0.167500 0.065000
0.435000 0.167500 0.065000
0.497500 0.167500 0.065000
0.560000 0.167500 0.065000
0.622500 0.167500 0.065000
0.685000 0.167500 0.065000
0.747500 0.167500 0.065000
0.810000 0.167500 0.065000
0.872500 0.167500 0.065000
0.935000 0.167500 0.065000
0.997500 0.167500 0.065000
1.000000 0.167500 0.065000
0.060000 0.230000 0.065000
0.122500 0.230000 0.065000
0.185000 0.230000 0.065000
0.247500 0.230000 0.065000
0.310000 0.230000 0.065000
0.372500 0.230000 0.065000
0.435000 0.230000 0.065000
0.497500 0.230000 0.065000
0.560000 0.230000 0.065000
0.622500 0.230000 0.065000
0.685000 0.230000 0.065000
0.747500 0.230000 0.065000
0.810000 0.230000 0.065000
0.872500 0.230000 0.065000
0.935000 0.230000 0.065000
0.997500 0.230000 0.065000
1.000000 0.230000 0.065000
0.060000 0.292500 0.065000
0.122500 0.292500 0.065000
0.185000 0.292500 0.065000
0.247500 0.292500 0.065000
0.310000 0.292500 0.065000
0.372500 0.292500 0.065000
0.435000 0.292500 0.065000
0.497500 0.292500 0.065000
0.560000 0.292500 0.065000
0.622500 0.292500 0.065000
0.685000 0.292500 0.065000
0.747500 0.292500 0.065000
0.810000 0.292500 0.065000
0.872500 0.292500 0.065000
0.935000 0.292500 0.065000
0.997500 0.292500 0.065000
1.000000 0.292500 0.065000
0.060000 0.355000 0.065000
0.122500 0.355000 0.065000
0.185000 0.355000 0.065000
0.247500 0.355000 0.065000
0.310000 0.355000 0.065000
0.372500 0.355000 0.065000
0.435000 0.355000 0.065000
0.497500 0.355000 0.065000
0.560000 0.355000 0.065000
0.622500 0.355000 0.065000
0.685000 0.355000 0.065000
0.747500 0.355000 0.065000
0.810000 0.355000 0.065000
0.872500 0.355000 0.065000
0.935000 0.355000 0.065000
0.997500 0.355000 0.065000
1.000000 0.355000 0.065000
0.060000 0.417500 0.065000
0.122500 0.417500 0.065000
0.185000 0.417500 0.065000
0.247500 0.417500 0.065000
0.310000 0.417500 0.065000
0.372500 0.417500 0.065000
0.435000 0.417500 0.065000
0.497500 0.417500 0.065000
0.560000 0.417500 0.065000
0.622500 0.417500 0.065000
0.685000 0.417500 0.065000
0.747500 0.417500 0.065000
0.810000 0.417500 0.065000
0.872500 0.417500 0.065000
0.935000 0.417500 0.065000
0.997500 0.417500 0.065000
1.000000 0.417500 0.065000
0.060000 0.480000 0.065000
0.122500 0.480000 0.065000
0.185000 0.480000 0.065000
0.247500 0.480000 0.065000
0.310000 0.480000 0.065000
0.372500 0.480000 0.065000
0.435000 0.480000 0.065000
0.497500 0.480000 0.065000
0.560000 0.480000 0.065000
0.622500 0.480000 0.065000
0.685000 0.480000 0.065000
0.747500 0.480000 0.065000
0.810000 0.480000 0.065000
0.872500 0.480000 0.065000
0.935000 0.480000 0.065000
0.997500 0.480000 0.065000
1.000000 0.480000 0.065000
0.060000 0.542500 0.065000
0.122500 0.542500 0.065000
0.185000 0.542500 0.065000
0.247500 0.542500 0.065000
0.310000 0.542500 0.065000
0.372500 0.542500 0.065000
0.435000 0.542500 0.065000
0.497500 0.542500 0.065000
0.560000 0.542500 0.065000
0.622500 0.542500 0.065000
0.685000 0.542500 0.065000
0.747500 0.542500 0.065000
0.810000 0.542500 0.065000
0.872500 0.542500 0.065000
0.935000 0.542500 0.065000
0.997500 0.542500 0.065000
1.000000 0.542500 0.065000
0.060000 0.605000 0.065000
0.122500 0.605000 0.065000
0.185000 0.605000 0.065000
0.247500 0.605000 0.065000
0.310000 0.605000 0.065000
0.372500 0.605000 0.065000
0.435000 0.605000 0.065000
0.497500 0.605000 0.065000
0.560000 0.605000 0.065000
0.622500 0.605000 0.065000
0.685000 0.605000 0.065000
0.747500 0.605000 0.065000
0.810000 0.605000 0.065000
0.872500 0.605000 0.065000
0.935000 0.605000 0.065000
0.997500 0.605000 0.065000
1.000000 0.605000 0.065000
0.060000 0.667500 0.065000
0.122500 0.667500 0.065000
0.185000 0.667500 0.065000
0.247500 0.667500 0.065000
0.310000 0.667500 0.065000
0.372500 0.667500 0.065000
0.435000 0.667500 0.065000
0.497500 0.667500 0.065000
0.560000 0.667500 0.065000
0.622500 0.667500 0.065000
0.685000 0.667500 0.065000
0.747500 0.667500 0.065000
0.810000 0.667500 0.065000
0.872500 0.667500 0.065000
0.935000 0.667500 0.065000
0.997500 0.667500 0.065000
1.000000 0.667500 0.065000
0.060000 0.730000 0.065000
0.122500 0.730000 0.065000
0.185000 0.730000 0.065000
0.247500 0.730000 0.065000
0.310000 0.730000 0.065000
0.372500 0.730000 0.065000
0.435000 0.730000 0.065000
0.497500 0.730000 0.065000
0.560000 0.730000 0.065000
0.622500 0.730000 0.065000
0.685000 0.730000 0.065000
0.747500 0.730000 0.065000
0.810000 0.730000 0.065000
0.872500 0.730000 0.065000
0.935000 0.730000 0.065000
0.997500 0.730000 0.065000
1.000000 0.730000 0.065000
0.060000 0.792500 0.065000
0.122500 0.792500 0.065000
0.185000 0.792500 0.065000
0.247500 0.792500 0.065000
0.310000 0.792500 0.065000
0.372500 0.792500 0.065000
0.435000 0.792500 0.065000
0.497500 0.792500 0.065000
0.560000 0.792500 0.065000
0.622500 0.792500 0.065000
0.685000 0.792500 0.065000
0.747500 0.792500 0.065000
0.810000 0.792500 0.065000
0.872500 0.792500 0.065000
0.935000 0.792500 0.065000
0.997500 0.792500 0.065000
1.000000 0.792500 0.065000
0.060000 0.855000 0.065000
0.122500 0.855000 0.065000
0.185000 0.855000 0.065000
0.247500 0.855000 0.065000
0.310000 0.855000 0.065000
0.372500 0.855000 0.065000
0.435000 0.855000 0.065000
0.497500 0.855000 0.065000
0.560000 0.855000 0.065000
0.622500 0.855000 0.065000
0.685000 0.855000 0.065000
0.747500 0.855000 0.065000
0.810000 0.855000 0.065000
0.872500 0.855000 0.065000
0.935000 0.855000 0.065000
0.997500 0.855000 0.065000
1.000000 0.855000 0.065000
0.060000 0.917500 0.065000
0.122500 0.917500 0.065000
0.185000 0.917500 0.065000
0.247500 0.917500 0.065000
0.310000 0.917500 0.065000
0.372500 0.917500 0.065000
0.435000 0.917500 0.065000
0.497500 0.917500 0.065000
0.560000 0.917500 0.065000
0.622500 0.917500 0.065000
0.685000 0.917500 0.065000
0.747500 0.917500 0.065000
0.810000 0.917500 0.065000
0.872500 0.917500 0.065000
0.935000 0.917500 0.065000
0.997500 0.917500 0.065000
1.000000 0.917500 0.065000
0.060000 0.980000 0.065000
0.122500 0.980000 0.065000
0.185000 0.980000 0.065000
0.247500 0.980000 0.065000
0.310000 0.980000 0.065000
0.372500 0.980000 0.065000
0.435000 0.980000 0.065000
0.497500 0.980000 0.065000
0.560000 0.980000 0.065000
0.622500 0.980000 0.065000
0.685000 0.980000 0.065000
0.747500 0.980000 0.065000
0.810000 0.980000 0.065000
0.872500 0.980000 0.065000
0.935000 0.980000 0.065000
0.997500 0.980000 0.065000
1.000000 0.980000 0.065000
0.060000 0.000000 0.127500
0.122500 0.000000 0.127500
0.185000 0.000000 0.127500
0.247500 0.000000 0.127500
0.310000 0.000000 0.127500
0.372500 0.000000 0.127500
0.435000 0.000000 0.127500
0.497500 0.000000 0.127500
0.560000 0.000000 0.127500
0.622500 0.000000 0.127500
0.685000 0.000000 0.127500
0.747500 0.000000 0.127500
0.810000 0.000000 0.127500
0.872500 0.000000 0.127500
0.935000 0.000000 0.127500
0.997500 0.000000 0.127500
1.000000 0.000000 0.127500
0.060000 0.042500 0.127500
