app/src/main/assets/luts/pine_needle.cube
# ApexStudio filter: pine_needle
LUT_3D_SIZE 9
DOMAIN_MIN 0.0 0.0 0.0
DOMAIN_MAX 1.0 1.0 1.0
0.000000 0.100000 0.000000
0.072500 0.100000 0.000000
0.185000 0.100000 0.000000
0.297500 0.100000 0.000000
0.410000 0.100000 0.000000
0.522500 0.100000 0.000000
0.635000 0.100000 0.000000
0.747500 0.100000 0.000000
0.860000 0.100000 0.000000
0.000000 0.256250 0.000000
0.072500 0.256250 0.000000
0.185000 0.256250 0.000000
0.297500 0.256250 0.000000
0.410000 0.256250 0.000000
0.522500 0.256250 0.000000
0.635000 0.256250 0.000000
0.747500 0.256250 0.000000
0.860000 0.256250 0.000000
0.000000 0.412500 0.000000
0.072500 0.412500 0.000000
0.185000 0.412500 0.000000
0.297500 0.412500 0.000000
0.410000 0.412500 0.000000
0.522500 0.412500 0.000000
0.635000 0.412500 0.000000
0.747500 0.412500 0.000000
0.860000 0.412500 0.000000
0.000000 0.568750 0.000000
0.072500 0.568750 0.000000
0.185000 0.568750 0.000000
0.297500 0.568750 0.000000
0.410000 0.568750 0.000000
0.522500 0.568750 0.000000
0.635000 0.568750 0.000000
0.747500 0.568750 0.000000
0.860000 0.568750 0.000000
0.000000 0.725000 0.000000
0.072500 0.725000 0.000000
0.185000 0.725000 0.000000
0.297500 0.725000 0.000000
0.410000 0.725000 0.000000
0.522500 0.725000 0.000000
0.635000 0.725000 0.000000
0.747500 0.725000 0.000000
0.860000 0.725000 0.000000
0.000000 0.881250 0.000000
0.072500 0.881250 0.000000
0.185000 0.881250 0.000000
0.297500 0.881250 0.000000
0.410000 0.881250 0.000000
0.522500 0.881250 0.000000
0.635000 0.881250 0.000000
0.747500 0.881250 0.000000
0.860000 0.881250 0.000000
0.000000 1.000000 0.000000
0.072500 1.000000 0.000000
0.185000 1.000000 0.000000
0.297500 1.000000 0.000000
0.410000 1.000000 0.000000
0.522500 1.000000 0.000000
0.635000 1.000000 0.000000
0.747500 1.000000 0.000000
0.860000 1.000000 0.000000
0.000000 1.000000 0.000000
0.072500 1.000000 0.000000
0.185000 1.000000 0.000000
0.297500 1.000000 0.000000
0.410000 1.000000 0.000000
0.522500 1.000000 0.000000
0.635000 1.000000 0.000000
0.747500 1.000000 0.000000
0.860000 1.000000 0.000000
0.000000 1.000000 0.000000
0.072500 1.000000 0.000000
0.185000 1.000000 0.000000
0.297500 1.000000 0.000000
0.410000 1.000000 0.000000
0.522500 1.000000 0.000000
0.635000 1.000000 0.000000
0.747500 1.000000 0.000000
0.860000 1.000000 0.000000
0.000000 0.100000 0.098750
0.072500 0.100000 0.098750
0.185000 0.100000 0.098750
0.297500 0.100000 0.098750
0.410000 0.100000 0.098750
0.522500 0.100000 0.098750
0.635000 0.100000 0.098750
0.747500 0.100000 0.098750
0.860000 0.100000 0.098750
0.000000 0.256250 0.098750
0.072500 0.256250 0.098750
0.185000 0.256250 0.098750
0.297500 0.256250 0.098750
0.410000 0.256250 0.098750
0.522500 0.256250 0.098750
0.635000 0.256250 0.098750
0.747500 0.256250 0.098750
0.860000 0.256250 0.098750
0.000000 0.412500 0.098750
0.072500 0.412500 0.098750
0.185000 0.412500 0.098750
0.297500 0.412500 0.098750
0.410000 0.412500 0.098750
0.522500 0.412500 0.098750
0.635000 0.412500 0.098750
0.747500 0.412500 0.098750
0.860000 0.412500 0.098750
0.000000 0.568750 0.098750
0.072500 0.568750 0.098750
0.185000 0.568750 0.098750
0.297500 0.568750 0.098750
0.410000 0.568750 0.098750
0.522500 0.568750 0.098750
0.635000 0.568750 0.098750
0.747500 0.568750 0.098750
0.860000 0.568750 0.098750
0.000000 0.725000 0.098750
0.072500 0.725000 0.098750
0.185000 0.725000 0.098750
0.297500 0.725000 0.098750
0.410000 0.725000 0.098750
0.522500 0.725000 0.098750
0.635000 0.725000 0.098750
0.747500 0.725000 0.098750
0.860000 0.725000 0.098750
0.000000 0.881250 0.098750
0.072500 0.881250 0.098750
0.185000 0.881250 0.098750
0.297500 0.881250 0.098750
0.410000 0.881250 0.098750
0.522500 0.881250 0.098750
0.635000 0.881250 0.098750
0.747500 0.881250 0.098750
0.860000 0.881250 0.098750
0.000000 1.000000 0.098750
0.072500 1.000000 0.098750
0.185000 1.000000 0.098750
0.297500 1.000000 0.098750
0.410000 1.000000 0.098750
0.522500 1.000000 0.098750
0.635000 1.000000 0.098750
0.747500 1.000000 0.098750
0.860000 1.000000 0.098750
0.000000 1.000000 0.098750
0.072500 1.000000 0.098750
0.185000 1.000000 0.098750
0.297500 1.000000 0.098750
0.410000 1.000000 0.098750
0.522500 1.000000 0.098750
0.635000 1.000000 0.098750
0.747500 1.000000 0.098750
0.860000 1.000000 0.098750
0.000000 1.000000 0.098750
0.072500 1.000000 0.098750
0.185000 1.000000 0.098750
0.297500 1.000000 0.098750
0.410000 1.000000 0.098750
0.522500 1.000000 0.098750
0.635000 1.000000 0.098750
0.747500 1.000000 0.098750
0.860000 1.000000 0.098750
0.000000 0.100000 0.217500
0.072500 0.100000 0.217500
0.185000 0.100000 0.217500
0.297500 0.100000 0.217500
0.410000 0.100000 0.217500
0.522500 0.100000 0.217500
0.635000 0.100000 0.217500
0.747500 0.100000 0.217500
0.860000 0.100000 0.217500
0.000000 0.256250 0.217500
0.072500 0.256250 0.217500
0.185000 0.256250 0.217500
0.297500 0.256250 0.217500
0.410000 0.256250 0.217500
0.522500 0.256250 0.217500
0.635000 0.256250 0.217500
0.747500 0.256250 0.217500
0.860000 0.256250 0.217500
0.000000 0.412500 0.217500
0.072500 0.412500 0.217500
0.185000 0.412500 0.217500
0.297500 0.412500 0.217500
0.410000 0.412500 0.217500
0.522500 0.412500 0.217500
0.635000 0.412500 0.217500
0.747500 0.412500 0.217500
0.860000 0.412500 0.217500
0.000000 0.568750 0.217500
0.072500 0.568750 0.217500
0.185000 0.568750 0.217500
0.297500 0.568750 0.217500
0.410000 0.568750 0.217500
0.522500 0.568750 0.217500
0.635000 0.568750 0.217500
0.747500 0.568750 0.217500
0.860000 0.568750 0.217500
0.000000 0.725000 0.217500
0.072500 0.725000 0.217500
0.185000 0.725000 0.217500
0.297500 0.725000 0.217500
0.410000 0.725000 0.217500
0.522500 0.725000 0.217500
0.635000 0.725000 0.217500
0.747500 0.725000 0.217500
0.860000 0.725000 0.217500
0.000000 0.881250 0.217500
0.072500 0.881250 0.217500
0.185000 0.881250 0.217500
0.297500 0.881250 0.217500
0.410000 0.881250 0.217500
0.522500 0.881250 0.217500
0.635000 0.881250 0.217500
0.747500 0.881250 0.217500
0.860000 0.881250 0.217500
0.000000 1.000000 0.217500
0.072500 1.000000 0.217500
0.185000 1.000000 0.217500
0.297500 1.000000 0.217500
0.410000 1.000000 0.217500
0.522500 1.000000 0.217500
0.635000 1.000000 0.217500
0.747500 1.000000 0.217500
0.860000 1.000000 0.217500
0.000000 1.000000 0.217500
0.072500 1.000000 0.217500
0.185000 1.000000 0.217500
0.297500 1.000000 0.217500
0.410000 1.000000 0.217500
0.522500 1.000000 0.217500
0.635000 1.000000 0.217500
0.747500 1.000000 0.217500
0.860000 1.000000 0.217500
0.000000 1.000000 0.217500
0.072500 1.000000 0.217500
0.185000 1.000000 0.217500
0.297500 1.000000 0.217500
0.410000 1.000000 0.217500
0.522500 1.000000 0.217500
0.635000 1.000000 0.217500
0.747500 1.000000 0.217500
0.860000 1.000000 0.217500
0.000000 0.100000 0.336250
0.072500 0.100000 0.336250
0.185000 0.100000 0.336250
0.297500 0.100000 0.336250
0.410000 0.100000 0.336250
0.522500 0.100000 0.336250
0.635000 0.100000 0.336250
0.747500 0.100000 0.336250
0.860000 0.100000 0.336250
0.000000 0.256250 0.336250
0.072500 0.256250 0.336250
0.185000 0.256250 0.336250
0.297500 0.256250 0.336250
0.410000 0.256250 0.336250
0.522500 0.256250 0.336250
0.635000 0.256250 0.336250
0.747500 0.256250 0.336250
0.860000 0.256250 0.336250
0.000000 0.412500 0.336250
0.072500 0.412500 0.336250
0.185000 0.412500 0.336250
0.297500 0.412500 0.336250
0.410000 0.412500 0.336250
0.522500 0.412500 0.336250
0.635000 0.412500 0.336250
0.747500 0.412500 0.336250
0.860000 0.412500 0.336250
0.000000 0.568750 0.336250
0.072500 0.568750 0.336250
0.185000 0.568750 0.336250
0.297500 0.568750 0.336250
0.410000 0.568750 0.336250
0.522500 0.568750 0.336250
0.635000 0.568750 0.336250
0.747500 0.568750 0.336250
0.860000 0.568750 0.336250
0.000000 0.725000 0.336250
0.072500 0.725000 0.336250
0.185000 0.725000 0.336250
0.297500 0.725000 0.336250
0.410000 0.725000 0.336250
0.522500 0.725000 0.336250
0.635000 0.725000 0.336250
0.747500 0.725000 0.336250
0.860000 0.725000 0.336250
0.000000 0.881250 0.336250
0.072500 0.881250 0.336250
0.185000 0.881250 0.336250
0.297500 0.881250 0.336250
0.410000 0.881250 0.336250
0.522500 0.881250 0.336250
0.635000 0.881250 0.336250
0.747500 0.881250 0.336250
0.860000 0.881250 0.336250
0.000000 1.000000 0.336250
0.072500 1.000000 0.336250
0.185000 1.000000 0.336250
0.297500 1.000000 0.336250
0.410000 1.000000 0.336250
0.522500 1.000000 0.336250
0.635000 1.000000 0.336250
0.747500 1.000000 0.336250
0.860000 1.000000 0.336250
0.000000 1.000000 0.336250
0.072500 1.000000 0.336250
0.185000 1.000000 0.336250
0.297500 1.000000 0.336250
0.410000 1.000000 0.336250
0.522500 1.000000 0.336250
0.635000 1.000000 0.336250
0.747500 1.000000 0.336250
0.860000 1.000000 0.336250
0.000000 1.000000 0.336250
0.072500 1.000000 0.336250
0.185000 1.000000 0.336250
0.297500 1.000000 0.336250
0.410000 1.000000 0.336250
0.522500 1.000000 0.336250
0.635000 1.000000 0.336250
0.747500 1.000000 0.336250
0.860000 1.000000 0.336250
0.000000 0.100000 0.455000
0.072500 0.100000 0.455000
0.185000 0.100000 0.455000
0.297500 0.100000 0.455000
0.410000 0.100000 0.455000
0.522500 0.100000 0.455000
0.635000 0.100000 0.455000
0.747500 0.100000 0.455000
0.860000 0.100000 0.455000
0.000000 0.256250 0.455000
0.072500 0.256250 0.455000
0.185000 0.256250 0.455000
0.297500 0.256250 0.455000
0.410000 0.256250 0.455000
0.522500 0.256250 0.455000
0.635000 0.256250 0.455000
0.747500 0.256250 0.455000
0.860000 0.256250 0.455000
0.000000 0.412500 0.455000
0.072500 0.412500 0.455000
0.185000 0.412500 0.455000
0.297500 0.412500 0.455000
0.410000 0.412500 0.455000
0.522500 0.412500 0.455000
0.635000 0.412500 0.455000
0.747500 0.412500 0.455000
0.860000 0.412500 0.455000
0.000000 0.568750 0.455000
0.072500 0.568750 0.455000
0.185000 0.568750 0.455000
0.297500 0.568750 0.455000
0.410000 0.568750 0.455000
0.522500 0.568750 0.455000
0.635000 0.568750 0.455000
0.747500 0.568750 0.455000
0.860000 0.568750 0.455000
0.000000 0.725000 0.455000
0.072500 0.725000 0.455000
0.185000 0.725000 0.455000
0.297500 0.725000 0.455000
0.410000 0.725000 0.455000
0.522500 0.725000 0.455000
0.635000 0.725000 0.455000
0.747500 0.725000 0.455000
0.860000 0.725000 0.455000
0.000000 0.881250 0.455000
0.072500 0.881250 0.455000
0.185000 0.881250 0.455000
0.297500 0.881250 0.455000
0.410000 0.881250 0.455000
0.522500 0.881250 0.455000
0.635000 0.881250 0.455000
0.747500 0.881250 0.455000
0.860000 0.881250 0.455000
0.000000 1.000000 0.455000
0.072500 1.000000 0.455000
0.185000 1.000000 0.455000
0.297500 1.000000 0.455000
0.410000 1.000000 0.455000
0.522500 1.000000 0.455000
0.635000 1.000000 0.455000
0.747500 1.000000 0.455000
0.860000 1.000000 0.455000
0.000000 1.000000 0.455000
0.072500 1.000000 0.455000
0.185000 1.000000 0.455000
0.297500 1.000000 0.455000
0.410000 1.000000 0.455000
0.522500 1.000000 0.455000
0.635000 1.000000 0.455000
0.747500 1.000000 0.455000
0.860000 1.000000 0.455000
0.000000 1.000000 0.455000
0.072500 1.000000 0.455000
0.185000 1.000000 0.455000
0.297500 1.000000 0.455000
0.410000 1.000000 0.455000
0.522500 1.000000 0.455000
0.635000 1.000000 0.455000
0.747500 1.000000 0.455000
0.860000 1.000000 0.455000
0.000000 0.100000 0.573750
0.072500 0.100000 0.573750
0.185000 0.100000 0.573750
0.297500 0.100000 0.573750
0.410000 0.100000 0.573750
0.522500 0.100000 0.573750
0.635000 0.100000 0.573750
0.747500 0.100000 0.573750
0.860000 0.100000 0.573750
0.000000 0.256250 0.573750
0.072500 0.256250 0.573750
0.185000 0.256250 0.573750
0.297500 0.256250 0.573750
0.410000 0.256250 0.573750
0.522500 0.256250 0.573750
0.635000 0.256250 0.573750
0.747500 0.256250 0.573750
0.860000 0.256250 0.573750
0.000000 0.412500 0.573750
0.072500 0.412500 0.573750
0.185000 0.412500 0.573750
0.297500 0.412500 0.573750
0.410000 0.412500 0.573750
0.522500 0.412500 0.573750
0.635000 0.412500 0.573750
0.747500 0.412500 0.573750
0.860000 0.412500 0.573750
0.000000 0.568750 0.573750
0.072500 0.568750 0.573750
0.185000 0.568750 0.573750
0.297500 0.568750 0.573750
0.410000 0.568750 0.573750
0.522500 0.568750 0.573750
0.635000 0.568750 0.573750
0.747500 0.568750 0.573750
0.860000 0.568750 0.573750
0.000000 0.725000 0.573750
0.072500 0.725000 0.573750
0.185000 0.725000 0.573750
0.297500 0.725000 0.573750
0.410000 0.725000 0.573750
0.522500 0.725000 0.573750
0.635000 0.725000 0.573750
0.747500 0.725000 0.573750
0.860000 0.725000 0.573750
0.000000 0.881250 0.573750
0.072500 0.881250 0.573750
0.185000 0.881250 0.573750
0.297500 0.881250 0.573750
0.410000 0.881250 0.573750
0.522500 0.881250 0.573750
0.635000 0.881250 0.573750
0.747500 0.881250 0.573750
0.860000 0.881250 0.573750
0.000000 1.000000 0.573750
0.072500 1.000000 0.573750
0.185000 1.000000 0.573750
0.297500 1.000000 0.573750
0.410000 1.000000 0.573750
0.522500 1.000000 0.573750
0.635000 1.000000 0.573750
0.747500 1.000000 0.573750
0.860000 1.000000 0.573750
0.000000 1.000000 0.573750
0.072500 1.000000 0.573750
0.185000 1.000000 0.573750
0.297500 1.000000 0.573750
0.410000 1.000000 0.573750
0.522500 1.000000 0.573750
0.635000 1.000000 0.573750
0.747500 1.000000 0.573750
0.860000 1.000000 0.573750
0.000000 1.000000 0.573750
0.072500 1.000000 0.573750
0.185000 1.000000 0.573750
0.297500 1.000000 0.573750
0.410000 1.000000 0.573750
0.522500 1.000000 0.573750
0.635000 1.000000 0.573750
0.747500 1.000000 0.573750
0.860000 1.000000 0.573750
0.000000 0.100000 0.692500
0.072500 0.100000 0.692500
0.185000 0.100000 0.692500
0.297500 0.100000 0.692500
0.410000 0.100000 0.692500
0.522500 0.100000 0.692500
0.635000 0.100000 0.692500
0.747500 0.100000 0.692500
0.860000 0.100000 0.692500
0.000000 0.256250 0.692500
0.072500 0.256250 0.692500
0.185000 0.256250 0.692500
0.297500 0.256250 0.692500
0.410000 0.256250 0.692500
0.522500 0.256250 0.692500
0.635000 0.256250 0.692500
0.747500 0.256250 0.692500
0.860000 0.256250 0.692500
0.000000 0.412500 0.692500
0.072500 0.412500 0.692500
0.185000 0.412500 0.692500
0.297500 0.412500 0.692500
0.410000 0.412500 0.692500
0.522500 0.412500 0.692500
0.635000 0.412500 0.692500
0.747500 0.412500 0.692500
0.860000 0.412500 0.692500
0.000000 0.568750 0.692500
0.072500 0.568750 0.692500
0.185000 0.568750 0.692500
0.297500 0.568750 0.692500
0.410000 0.568750 0.692500
0.522500 0.568750 0.692500
0.635000 0.568750 0.692500
0.747500 0.568750 0.692500
0.860000 0.568750 0.692500
0.000000 0.725000 0.692500
0.072500 0.725000 0.692500
0.185000 0.725000 0.692500
0.297500 0.725000 0.692500
0.410000 0.725000 0.692500
0.522500 0.725000 0.692500
0.635000 0.725000 0.692500
0.747500 0.725000 0.692500
0.860000 0.725000 0.692500
0.000000 0.881250 0.692500
0.072500 0.881250 0.692500
0.185000 0.881250 0.692500
0.297500 0.881250 0.692500
0.410000 0.881250 0.692500
0.522500 0.881250 0.692500
0.635000 0.881250 0.692500
0.747500 0.881250 0.692500
0.860000 0.881250 0.692500
0.000000 1.000000 0.692500
0.072500 1.000000 0.692500
0.185000 1.000000 0.692500
0.297500 1.000000 0.692500
0.410000 1.000000 0.692500
0.522500 1.000000 0.692500
0.635000 1.000000 0.692500
0.747500 1.000000 0.692500
0.860000 1.000000 0.692500
0.000000 1.000000 0.692500
0.072500 1.000000 0.692500
0.185000 1.000000 0.692500
0.297500 1.000000 0.692500
0.410000 1.000000 0.692500
0.522500 1.000000 0.692500
0.635000 1.000000 0.692500
0.747500 1.000000 0.692500
0.860000 1.000000 0.692500
0.000000 1.000000 0.692500
0.072500 1.000000 0.692500
0.185000 1.000000 0.692500
0.297500 1.000000 0.692500
0.410000 1.000000 0.692500
0.522500 1.000000 0.692500
0.635000 1.000000 0.692500
0.747500 1.000000 0.692500
0.860000 1.000000 0.692500
0.000000 0.100000 0.811250
0.072500 0.100000 0.811250
0.185000 0.100000 0.811250
0.297500 0.100000 0.811250
0.410000 0.100000 0.811250
0.522500 0.100000 0.811250
0.635000 0.100000 0.811250
0.747500 0.100000 0.811250
0.860000 0.100000 0.811250
0.000000 0.256250 0.811250
0.072500 0.256250 0.811250
0.185000 0.256250 0.811250
0.297500 0.256250 0.811250
0.410000 0.256250 0.811250
0.522500 0.256250 0.811250
0.635000 0.256250 0.811250
0.747500 0.256250 0.811250
0.860000 0.256250 0.811250
0.000000 0.412500 0.811250
0.072500 0.412500 0.811250
0.185000 0.412500 0.811250
0.297500 0.412500 0.811250
0.410000 0.412500 0.811250
0.522500 0.412500 0.811250
0.635000 0.412500 0.811250
0.747500 0.412500 0.811250
0.860000 0.412500 0.811250
0.000000 0.568750 0.811250
0.072500 0.568750 0.811250
0.185000 0.568750 0.811250
0.297500 0.568750 0.811250
0.410000 0.568750 0.811250
0.522500 0.568750 0.811250
0.635000 0.568750 0.811250
0.747500 0.568750 0.811250
0.860000 0.568750 0.811250
0.000000 0.725000 0.811250
0.072500 0.725000 0.811250
0.185000 0.725000 0.811250
0.297500 0.725000 0.811250
0.410000 0.725000 0.811250
0.522500 0.725000 0.811250
0.635000 0.725000 0.811250
0.747500 0.725000 0.811250
0.860000 0.725000 0.811250
0.000000 0.881250 0.811250
0.072500 0.881250 0.811250
0.185000 0.881250 0.811250
0.297500 0.881250 0.811250
0.410000 0.881250 0.811250
0.522500 0.881250 0.811250
0.635000 0.881250 0.811250
0.747500 0.881250 0.811250
0.860000 0.881250 0.811250
0.000000 1.000000 0.811250
0.072500 1.000000 0.811250
0.185000 1.000000 0.811250
0.297500 1.000000 0.811250
0.410000 1.000000 0.811250
0.522500 1.000000 0.811250
0.635000 1.000000 0.811250
0.747500 1.000000 0.811250
0.860000 1.000000 0.811250
0.000000 1.000000 0.811250
0.072500 1.000000 0.811250
0.185000 1.000000 0.811250
0.297500 1.000000 0.811250
0.410000 1.000000 0.811250
0.522500 1.000000 0.811250
0.635000 1.000000 0.811250
0.747500 1.000000 0.811250
0.860000 1.000000 0.811250
0.000000 1.000000 0.811250
0.072500 1.000000 0.811250
0.185000 1.000000 0.811250
0.297500 1.000000 0.811250
0.410000 1.000000 0.811250
0.522500 1.000000 0.811250
0.635000 1.000000 0.811250
0.747500 1.000000 0.811250
0.860000 1.000000 0.811250
0.000000 0.100000 0.930000
0.072500 0.100000 0.930000
0.185000 0.100000 0.930000
0.297500 0.100000 0.930000
0.410000 0.100000 0.930000
0.522500 0.100000 0.930000
0.635000 0.100000 0.930000
0.747500 0.100000 0.930000
0.860000 0.100000 0.930000
0.000000 0.256250 0.930000
0.072500 0.256250 0.930000
0.185000 0.256250 0.930000
0.297500 0.256250 0.930000
0.410000 0.256250 0.930000
0.522500 0.256250 0.930000
0.635000 0.256250 0.930000
0.747500 0.256250 0.930000
0.860000 0.256250 0.930000
0.000000 0.412500 0.930000
0.072500 0.412500 0.930000
0.185000 0.412500 0.930000
0.297500 0.412500 0.930000
0.410000 0.412500 0.930000
0.522500 0.412500 0.930000
0.635000 0.412500 0.930000
0.747500 0.412500 0.930000
0.860000 0.412500 0.930000
0.000000 0.568750 0.930000
0.072500 0.568750 0.930000
0.185000 0.568750 0.930000
0.297500 0.568750 0.930000
0.410000 0.568750 0.930000
0.522500 0.568750 0.930000
0.635000 0.568750 0.930000
0.747500 0.568750 0.930000
0.860000 0.568750 0.930000
0.000000 0.725000 0.930000
0.072500 0.725000 0.930000
0.185000 0.725000 0.930000
0.297500 0.725000 0.930000
0.410000 0.725000 0.930000
0.522500 0.725000 0.930000
0.635000 0.725000 0.930000
0.747500 0.725000 0.930000
0.860000 0.725000 0.930000
0.000000 0.881250 0.930000
0.072500 0.881250 0.930000
0.185000 0.881250 0.930000
0.297500 0.881250 0.930000
0.410000 0.881250 0.930000
0.522500 0.881250 0.930000
0.635000 0.881250 0.930000
0.747500 0.881250 0.930000
0.860000 0.881250 0.930000
0.000000 1.000000 0.930000
0.072500 1.000000 0.930000
0.185000 1.000000 0.930000
0.297500 1.000000 0.930000
0.410000 1.000000 0.930000
0.522500 1.000000 0.930000
0.635000 1.000000 0.930000
0.747500 1.000000 0.930000
0.860000 1.000000 0.930000
0.000000 1.000000 0.930000
0.072500 1.000000 0.930000
0.185000 1.000000 0.930000
0.297500 1.000000 0.930000
0.410000 1.000000 0.930000
0.522500 1.000000 0.930000
0.635000 1.000000 0.930000
0.747500 1.000000 0.930000
0.860000 1.000000 0.930000
0.000000 1.000000 0.930000
0.072500 1.000000 0.930000
0.185000 1.000000 0.930000
0.297500 1.000000 0.930000
0.410000 1.000000 0.930000
0.522500 1.000000 0.930000
0.635000 1.000000 0.930000
0.747500 1.000000 0.930000
0.860000 1.000000 0.930000
