app/src/main/assets/luts/pine_needle.cube
# ApexStudio filter: pine_needle
LUT_3D_SIZE 17
DOMAIN_MIN 0.0 0.0 0.0
DOMAIN_MAX 1.0 1.0 1.0
0.000000 0.100000 0.000000
0.016250 0.100000 0.000000
0.072500 0.100000 0.000000
0.128750 0.100000 0.000000
0.185000 0.100000 0.000000
0.241250 0.100000 0.000000
0.297500 0.100000 0.000000
0.353750 0.100000 0.000000
0.410000 0.100000 0.000000
0.466250 0.100000 0.000000
0.522500 0.100000 0.000000
0.578750 0.100000 0.000000
0.635000 0.100000 0.000000
0.691250 0.100000 0.000000
0.747500 0.100000 0.000000
0.803750 0.100000 0.000000
0.860000 0.100000 0.000000
0.000000 0.178125 0.000000
0.016250 0.178125 0.000000
0.072500 0.178125 0.000000
0.128750 0.178125 0.000000
0.185000 0.178125 0.000000
0.241250 0.178125 0.000000
0.297500 0.178125 0.000000
0.353750 0.178125 0.000000
0.410000 0.178125 0.000000
0.466250 0.178125 0.000000
0.522500 0.178125 0.000000
0.578750 0.178125 0.000000
0.635000 0.178125 0.000000
0.691250 0.178125 0.000000
0.747500 0.178125 0.000000
0.803750 0.178125 0.000000
0.860000 0.178125 0.000000
0.000000 0.256250 0.000000
0.016250 0.256250 0.000000
0.072500 0.256250 0.000000
0.128750 0.256250 0.000000
0.185000 0.256250 0.000000
0.241250 0.256250 0.000000
0.297500 0.256250 0.000000
0.353750 0.256250 0.000000
0.410000 0.256250 0.000000
0.466250 0.256250 0.000000
0.522500 0.256250 0.000000
0.578750 0.256250 0.000000
0.635000 0.256250 0.000000
0.691250 0.256250 0.000000
0.747500 0.256250 0.000000
0.803750 0.256250 0.000000
0.860000 0.256250 0.000000
0.000000 0.334375 0.000000
0.016250 0.334375 0.000000
0.072500 0.334375 0.000000
0.128750 0.334375 0.000000
0.185000 0.334375 0.000000
0.241250 0.334375 0.000000
0.297500 0.334375 0.000000
0.353750 0.334375 0.000000
0.410000 0.334375 0.000000
0.466250 0.334375 0.000000
0.522500 0.334375 0.000000
0.578750 0.334375 0.000000
0.635000 0.334375 0.000000
0.691250 0.334375 0.000000
0.747500 0.334375 0.000000
0.803750 0.334375 0.000000
0.860000 0.334375 0.000000
0.000000 0.412500 0.000000
0.016250 0.412500 0.000000
0.072500 0.412500 0.000000
0.128750 0.412500 0.000000
0.185000 0.412500 0.000000
0.241250 0.412500 0.000000
0.297500 0.412500 0.000000
0.353750 0.412500 0.000000
0.410000 0.412500 0.000000
0.466250 0.412500 0.000000
0.522500 0.412500 0.000000
0.578750 0.412500 0.000000
0.635000 0.412500 0.000000
0.691250 0.412500 0.000000
0.747500 0.412500 0.000000
0.803750 0.412500 0.000000
0.860000 0.412500 0.000000
0.000000 0.490625 0.000000
0.016250 0.490625 0.000000
0.072500 0.490625 0.000000
0.128750 0.490625 0.000000
0.185000 0.490625 0.000000
0.241250 0.490625 0.000000
0.297500 0.490625 0.000000
0.353750 0.490625 0.000000
0.410000 0.490625 0.000000
0.466250 0.490625 0.000000
0.522500 0.490625 0.000000
0.578750 0.490625 0.000000
0.635000 0.490625 0.000000
0.691250 0.490625 0.000000
0.747500 0.490625 0.000000
0.803750 0.490625 0.000000
0.860000 0.490625 0.000000
0.000000 0.568750 0.000000
0.016250 0.568750 0.000000
0.072500 0.568750 0.000000
0.128750 0.568750 0.000000
0.185000 0.568750 0.000000
0.241250 0.568750 0.000000
0.297500 0.568750 0.000000
0.353750 0.568750 0.000000
0.410000 0.568750 0.000000
0.466250 0.568750 0.000000
0.522500 0.568750 0.000000
0.578750 0.568750 0.000000
0.635000 0.568750 0.000000
0.691250 0.568750 0.000000
0.747500 0.568750 0.000000
0.803750 0.568750 0.000000
0.860000 0.568750 0.000000
0.000000 0.646875 0.000000
0.016250 0.646875 0.000000
0.072500 0.646875 0.000000
0.128750 0.646875 0.000000
0.185000 0.646875 0.000000
0.241250 0.646875 0.000000
0.297500 0.646875 0.000000
0.353750 0.646875 0.000000
0.410000 0.646875 0.000000
0.466250 0.646875 0.000000
0.522500 0.646875 0.000000
0.578750 0.646875 0.000000
0.635000 0.646875 0.000000
0.691250 0.646875 0.000000
0.747500 0.646875 0.000000
0.803750 0.646875 0.000000
0.860000 0.646875 0.000000
0.000000 0.725000 0.000000
0.016250 0.725000 0.000000
0.072500 0.725000 0.000000
0.128750 0.725000 0.000000
0.185000 0.725000 0.000000
0.241250 0.725000 0.000000
0.297500 0.725000 0.000000
0.353750 0.725000 0.000000
0.410000 0.725000 0.000000
0.466250 0.725000 0.000000
0.522500 0.725000 0.000000
0.578750 0.725000 0.000000
0.635000 0.725000 0.000000
0.691250 0.725000 0.000000
0.747500 0.725000 0.000000
0.803750 0.725000 0.000000
0.860000 0.725000 0.000000
0.000000 0.803125 0.000000
0.016250 0.803125 0.000000
0.072500 0.803125 0.000000
0.128750 0.803125 0.000000
0.185000 0.803125 0.000000
0.241250 0.803125 0.000000
0.297500 0.803125 0.000000
0.353750 0.803125 0.000000
0.410000 0.803125 0.000000
0.466250 0.803125 0.000000
0.522500 0.803125 0.000000
0.578750 0.803125 0.000000
0.635000 0.803125 0.000000
0.691250 0.803125 0.000000
0.747500 0.803125 0.000000
0.803750 0.803125 0.000000
0.860000 0.803125 0.000000
0.000000 0.881250 0.000000
0.016250 0.881250 0.000000
0.072500 0.881250 0.000000
0.128750 0.881250 0.000000
0.185000 0.881250 0.000000
0.241250 0.881250 0.000000
0.297500 0.881250 0.000000
0.353750 0.881250 0.000000
0.410000 0.881250 0.000000
0.466250 0.881250 0.000000
0.522500 0.881250 0.000000
0.578750 0.881250 0.000000
0.635000 0.881250 0.000000
0.691250 0.881250 0.000000
0.747500 0.881250 0.000000
0.803750 0.881250 0.000000
0.860000 0.881250 0.000000
0.000000 0.959375 0.000000
0.016250 0.959375 0.000000
0.072500 0.959375 0.000000
0.128750 0.959375 0.000000
0.185000 0.959375 0.000000
0.241250 0.959375 0.000000
0.297500 0.959375 0.000000
0.353750 0.959375 0.000000
0.410000 0.959375 0.000000
0.466250 0.959375 0.000000
0.522500 0.959375 0.000000
0.578750 0.959375 0.000000
0.635000 0.959375 0.000000
0.691250 0.959375 0.000000
0.747500 0.959375 0.000000
0.803750 0.959375 0.000000
0.860000 0.959375 0.000000
0.000000 1.000000 0.000000
0.016250 1.000000 0.000000
0.072500 1.000000 0.000000
0.128750 1.000000 0.000000
0.185000 1.000000 0.000000
0.241250 1.000000 0.000000
0.297500 1.000000 0.000000
0.353750 1.000000 0.000000
0.410000 1.000000 0.000000
0.466250 1.000000 0.000000
0.522500 1.000000 0.000000
0.578750 1.000000 0.000000
0.635000 1.000000 0.000000
0.691250 1.000000 0.000000
0.747500 1.000000 0.000000
0.803750 1.000000 0.000000
0.860000 1.000000 0.000000
0.000000 1.000000 0.000000
0.016250 1.000000 0.000000
0.072500 1.000000 0.000000
0.128750 1.000000 0.000000
0.185000 1.000000 0.000000
0.241250 1.000000 0.000000
0.297500 1.000000 0.000000
0.353750 1.000000 0.000000
0.410000 1.000000 0.000000
0.466250 1.000000 0.000000
0.522500 1.000000 0.000000
0.578750 1.000000 0.000000
0.635000 1.000000 0.000000
0.691250 1.000000 0.000000
0.747500 1.000000 0.000000
0.803750 1.000000 0.000000
0.860000 1.000000 0.000000
0.000000 1.000000 0.000000
0.016250 1.000000 0.000000
0.072500 1.000000 0.000000
0.128750 1.000000 0.000000
0.185000 1.000000 0.000000
0.241250 1.000000 0.000000
0.297500 1.000000 0.000000
0.353750 1.000000 0.000000
0.410000 1.000000 0.000000
0.466250 1.000000 0.000000
0.522500 1.000000 0.000000
0.578750 1.000000 0.000000
0.635000 1.000000 0.000000
0.691250 1.000000 0.000000
0.747500 1.000000 0.000000
0.803750 1.000000 0.000000
0.860000 1.000000 0.000000
0.000000 1.000000 0.000000
0.016250 1.000000 0.000000
0.072500 1.000000 0.000000
0.128750 1.000000 0.000000
0.185000 1.000000 0.000000
0.241250 1.000000 0.000000
0.297500 1.000000 0.000000
0.353750 1.000000 0.000000
0.410000 1.000000 0.000000
0.466250 1.000000 0.000000
0.522500 1.000000 0.000000
0.578750 1.000000 0.000000
0.635000 1.000000 0.000000
0.691250 1.000000 0.000000
0.747500 1.000000 0.000000
0.803750 1.000000 0.000000
0.860000 1.000000 0.000000
0.000000 1.000000 0.000000
0.016250 1.000000 0.000000
0.072500 1.000000 0.000000
0.128750 1.000000 0.000000
0.185000 1.000000 0.000000
0.241250 1.000000 0.000000
0.297500 1.000000 0.000000
0.353750 1.000000 0.000000
0.410000 1.000000 0.000000
0.466250 1.000000 0.000000
0.522500 1.000000 0.000000
0.578750 1.000000 0.000000
0.635000 1.000000 0.000000
0.691250 1.000000 0.000000
0.747500 1.000000 0.000000
0.803750 1.000000 0.000000
0.860000 1.000000 0.000000
0.000000 0.100000 0.039375
0.016250 0.100000 0.039375
0.072500 0.100000 0.039375
0.128750 0.100000 0.039375
0.185000 0.100000 0.039375
0.241250 0.100000 0.039375
0.297500 0.100000 0.039375
0.353750 0.100000 0.039375
0.410000 0.100000 0.039375
0.466250 0.100000 0.039375
0.522500 0.100000 0.039375
0.578750 0.100000 0.039375
0.635000 0.100000 0.039375
0.691250 0.100000 0.039375
0.747500 0.100000 0.039375
0.803750 0.100000 0.039375
0.860000 0.100000 0.039375
0.000000 0.178125 0.039375
0.016250 0.178125 0.039375
0.072500 0.178125 0.039375
0.128750 0.178125 0.039375
0.185000 0.178125 0.039375
0.241250 0.178125 0.039375
0.297500 0.178125 0.039375
0.353750 0.178125 0.039375
0.410000 0.178125 0.039375
0.466250 0.178125 0.039375
0.522500 0.178125 0.039375
0.578750 0.178125 0.039375
0.635000 0.178125 0.039375
0.691250 0.178125 0.039375
0.747500 0.178125 0.039375
0.803750 0.178125 0.039375
0.860000 0.178125 0.039375
0.000000 0.256250 0.039375
0.016250 0.256250 0.039375
0.072500 0.256250 0.039375
0.128750 0.256250 0.039375
0.185000 0.256250 0.039375
0.241250 0.256250 0.039375
0.297500 0.256250 0.039375
0.353750 0.256250 0.039375
0.410000 0.256250 0.039375
0.466250 0.256250 0.039375
0.522500 0.256250 0.039375
0.578750 0.256250 0.039375
0.635000 0.256250 0.039375
0.691250 0.256250 0.039375
0.747500 0.256250 0.039375
0.803750 0.256250 0.039375
0.860000 0.256250 0.039375
0.000000 0.334375 0.039375
0.016250 0.334375 0.039375
0.072500 0.334375 0.039375
0.128750 0.334375 0.039375
0.185000 0.334375 0.039375
0.241250 0.334375 0.039375
0.297500 0.334375 0.039375
0.353750 0.334375 0.039375
0.410000 0.334375 0.039375
0.466250 0.334375 0.039375
0.522500 0.334375 0.039375
0.578750 0.334375 0.039375
0.635000 0.334375 0.039375
0.691250 0.334375 0.039375
0.747500 0.334375 0.039375
0.803750 0.334375 0.039375
0.860000 0.334375 0.039375
0.000000 0.412500 0.039375
0.016250 0.412500 0.039375
0.072500 0.412500 0.039375
0.128750 0.412500 0.039375
0.185000 0.412500 0.039375
0.241250 0.412500 0.039375
0.297500 0.412500 0.039375
0.353750 0.412500 0.039375
0.410000 0.412500 0.039375
0.466250 0.412500 0.039375
0.522500 0.412500 0.039375
0.578750 0.412500 0.039375
0.635000 0.412500 0.039375
0.691250 0.412500 0.039375
0.747500 0.412500 0.039375
0.803750 0.412500 0.039375
0.860000 0.412500 0.039375
0.000000 0.490625 0.039375
0.016250 0.490625 0.039375
0.072500 0.490625 0.039375
0.128750 0.490625 0.039375
0.185000 0.490625 0.039375
0.241250 0.490625 0.039375
0.297500 0.490625 0.039375
0.353750 0.490625 0.039375
0.410000 0.490625 0.039375
0.466250 0.490625 0.039375
0.522500 0.490625 0.039375
0.578750 0.490625 0.039375
0.635000 0.490625 0.039375
0.691250 0.490625 0.039375
0.747500 0.490625 0.039375
0.803750 0.490625 0.039375
0.860000 0.490625 0.039375
0.000000 0.568750 0.039375
0.016250 0.568750 0.039375
0.072500 0.568750 0.039375
0.128750 0.568750 0.039375
0.185000 0.568750 0.039375
0.241250 0.568750 0.039375
0.297500 0.568750 0.039375
0.353750 0.568750 0.039375
0.410000 0.568750 0.039375
0.466250 0.568750 0.039375
0.522500 0.568750 0.039375
0.578750 0.568750 0.039375
0.635000 0.568750 0.039375
0.691250 0.568750 0.039375
0.747500 0.568750 0.039375
0.803750 0.568750 0.039375
0.860000 0.568750 0.039375
0.000000 0.646875 0.039375
0.016250 0.646875 0.039375
0.072500 0.646875 0.039375
0.128750 0.646875 0.039375
0.185000 0.646875 0.039375
0.241250 0.646875 0.039375
0.297500 0.646875 0.039375
0.353750 0.646875 0.039375
0.410000 0.646875 0.039375
0.466250 0.646875 0.039375
0.522500 0.646875 0.039375
0.578750 0.646875 0.039375
0.635000 0.646875 0.039375
0.691250 0.646875 0.039375
0.747500 0.646875 0.039375
0.803750 0.646875 0.039375
0.860000 0.646875 0.039375
0.000000 0.725000 0.039375
0.016250 0.725000 0.039375
0.072500 0.725000 0.039375
0.128750 0.725000 0.039375
0.185000 0.725000 0.039375
0.241250 0.725000 0.039375
0.297500 0.725000 0.039375
0.353750 0.725000 0.039375
0.410000 0.725000 0.039375
0.466250 0.725000 0.039375
0.522500 0.725000 0.039375
0.578750 0.725000 0.039375
0.635000 0.725000 0.039375
0.691250 0.725000 0.039375
0.747500 0.725000 0.039375
0.803750 0.725000 0.039375
0.860000 0.725000 0.039375
0.000000 0.803125 0.039375
0.016250 0.803125 0.039375
0.072500 0.803125 0.039375
0.128750 0.803125 0.039375
0.185000 0.803125 0.039375
0.241250 0.803125 0.039375
0.297500 0.803125 0.039375
0.353750 0.803125 0.039375
0.410000 0.803125 0.039375
0.466250 0.803125 0.039375
0.522500 0.803125 0.039375
0.578750 0.803125 0.039375
0.635000 0.803125 0.039375
0.691250 0.803125 0.039375
0.747500 0.803125 0.039375
0.803750 0.803125 0.039375
0.860000 0.803125 0.039375
0.000000 0.881250 0.039375
0.016250 0.881250 0.039375
0.072500 0.881250 0.039375
0.128750 0.881250 0.039375
0.185000 0.881250 0.039375
0.241250 0.881250 0.039375
0.297500 0.881250 0.039375
0.353750 0.881250 0.039375
0.410000 0.881250 0.039375
0.466250 0.881250 0.039375
0.522500 0.881250 0.039375
0.578750 0.881250 0.039375
0.635000 0.881250 0.039375
0.691250 0.881250 0.039375
0.747500 0.881250 0.039375
0.803750 0.881250 0.039375
0.860000 0.881250 0.039375
0.000000 0.959375 0.039375
0.016250 0.959375 0.039375
0.072500 0.959375 0.039375
0.128750 0.959375 0.039375
0.185000 0.959375 0.039375
0.241250 0.959375 0.039375
0.297500 0.959375 0.039375
0.353750 0.959375 0.039375
0.410000 0.959375 0.039375
0.466250 0.959375 0.039375
0.522500 0.959375 0.039375
0.578750 0.959375 0.039375
0.635000 0.959375 0.039375
0.691250 0.959375 0.039375
0.747500 0.959375 0.039375
0.803750 0.959375 0.039375
0.860000 0.959375 0.039375
0.000000 1.000000 0.039375
0.016250 1.000000 0.039375
0.072500 1.000000 0.039375
0.128750 1.000000 0.039375
0.185000 1.000000 0.039375
0.241250 1.000000 0.039375
0.297500 1.000000 0.039375
0.353750 1.000000 0.039375
0.410000 1.000000 0.039375
0.466250 1.000000 0.039375
0.522500 1.000000 0.039375
0.578750 1.000000 0.039375
0.635000 1.000000 0.039375
0.691250 1.000000 0.039375
0.747500 1.000000 0.039375
0.803750 1.000000 0.039375
0.860000 1.000000 0.039375
0.000000 1.000000 0.039375
0.016250 1.000000 0.039375
0.072500 1.000000 0.039375
0.128750 1.000000 0.039375
0.185000 1.000000 0.039375
0.241250 1.000000 0.039375
0.297500 1.000000 0.039375
0.353750 1.000000 0.039375
0.410000 1.000000 0.039375
0.466250 1.000000 0.039375
0.522500 1.000000 0.039375
0.578750 1.000000 0.039375
0.635000 1.000000 0.039375
0.691250 1.000000 0.039375
0.747500 1.000000 0.039375
0.803750 1.000000 0.039375
0.860000 1.000000 0.039375
0.000000 1.000000 0.039375
0.016250 1.000000 0.039375
0.072500 1.000000 0.039375
0.128750 1.000000 0.039375
0.185000 1.000000 0.039375
0.241250 1.000000 0.039375
0.297500 1.000000 0.039375
0.353750 1.000000 0.039375
0.410000 1.000000 0.039375
0.466250 1.000000 0.039375
0.522500 1.000000 0.039375
0.578750 1.000000 0.039375
0.635000 1.000000 0.039375
0.691250 1.000000 0.039375
0.747500 1.000000 0.039375
0.803750 1.000000 0.039375
0.860000 1.000000 0.039375
0.000000 1.000000 0.039375
0.016250 1.000000 0.039375
0.072500 1.000000 0.039375
0.128750 1.000000 0.039375
0.185000 1.000000 0.039375
0.241250 1.000000 0.039375
0.297500 1.000000 0.039375
0.353750 1.000000 0.039375
0.410000 1.000000 0.039375
0.466250 1.000000 0.039375
0.522500 1.000000 0.039375
0.578750 1.000000 0.039375
0.635000 1.000000 0.039375
0.691250 1.000000 0.039375
0.747500 1.000000 0.039375
0.803750 1.000000 0.039375
0.860000 1.000000 0.039375
0.000000 1.000000 0.039375
0.016250 1.000000 0.039375
0.072500 1.000000 0.039375
0.128750 1.000000 0.039375
0.185000 1.000000 0.039375
0.241250 1.000000 0.039375
0.297500 1.000000 0.039375
0.353750 1.000000 0.039375
0.410000 1.000000 0.039375
0.466250 1.000000 0.039375
0.522500 1.000000 0.039375
0.578750 1.000000 0.039375
0.635000 1.000000 0.039375
0.691250 1.000000 0.039375
0.747500 1.000000 0.039375
0.803750 1.000000 0.039375
0.860000 1.000000 0.039375
0.000000 0.100000 0.098750
0.016250 0.100000 0.098750
0.072500 0.100000 0.098750
0.128750 0.100000 0.098750
0.185000 0.100000 0.098750
0.241250 0.100000 0.098750
0.297500 0.100000 0.098750
0.353750 0.100000 0.098750
0.410000 0.100000 0.098750
0.466250 0.100000 0.098750
0.522500 0.100000 0.098750
0.578750 0.100000 0.098750
0.635000 0.100000 0.098750
0.691250 0.100000 0.098750
0.747500 0.100000 0.098750
0.803750 0.100000 0.098750
0.860000 0.100000 0.098750
0.000000 0.178125 0.098750
0.016250 0.178125 0.098750
0.072500 0.178125 0.098750
0.128750 0.178125 0.098750
0.185000 0.178125 0.098750
0.241250 0.178125 0.098750
0.297500 0.178125 0.098750
0.353750 0.178125 0.098750
0.410000 0.178125 0.098750
0.466250 0.178125 0.098750
0.522500 0.178125 0.098750
0.578750 0.178125 0.098750
0.635000 0.178125 0.098750
0.691250 0.178125 0.098750
0.747500 0.178125 0.098750
0.803750 0.178125 0.098750
0.860000 0.178125 0.098750
0.000000 0.256250 0.098750
0.016250 0.256250 0.098750
0.072500 0.256250 0.098750
0.128750 0.256250 0.098750
0.185000 0.256250 0.098750
0.241250 0.256250 0.098750
0.297500 0.256250 0.098750
0.353750 0.256250 0.098750
0.410000 0.256250 0.098750
0.466250 0.256250 0.098750
0.522500 0.256250 0.098750
0.578750 0.256250 0.098750
0.635000 0.256250 0.098750
0.691250 0.256250 0.098750
0.747500 0.256250 0.098750
0.803750 0.256250 0.098750
0.860000 0.256250 0.098750
0.000000 0.334375 0.098750
0.016250 0.334375 0.098750
0.072500 0.334375 0.098750
0.128750 0.334375 0.098750
0.185000 0.334375 0.098750
0.241250 0.334375 0.098750
0.297500 0.334375 0.098750
0.353750 0.334375 0.098750
0.410000 0.334375 0.098750
0.466250 0.334375 0.098750
0.522500 0.334375 0.098750
0.578750 0.334375 0.098750
0.635000 0.334375 0.098750
0.691250 0.334375 0.098750
0.747500 0.334375 0.098750
0.803750 0.334375 0.098750
0.860000 0.334375 0.098750
0.000000 0.412500 0.098750
0.016250 0.412500 0.098750
0.072500 0.412500 0.098750
0.128750 0.412500 0.098750
0.185000 0.412500 0.098750
0.241250 0.412500 0.098750
0.297500 0.412500 0.098750
0.353750 0.412500 0.098750
0.410000 0.412500 0.098750
0.466250 0.412500 0.098750
0.522500 0.412500 0.098750
0.578750 0.412500 0.098750
0.635000 0.412500 0.098750
0.691250 0.412500 0.098750
0.747500 0.412500 0.098750
0.803750 0.412500 0.098750
0.860000 0.412500 0.098750
0.000000 0.490625 0.098750
0.016250 0.490625 0.098750
0.072500 0.490625 0.098750
0.128750 0.490625 0.098750
0.185000 0.490625 0.098750
0.241250 0.490625 0.098750
0.297500 0.490625 0.098750
0.353750 0.490625 0.098750
0.410000 0.490625 0.098750
0.466250 0.490625 0.098750
0.522500 0.490625 0.098750
0.578750 0.490625 0.098750
0.635000 0.490625 0.098750
0.691250 0.490625 0.098750
0.747500 0.490625 0.098750
0.803750 0.490625 0.098750
0.860000 0.490625 0.098750
0.000000 0.568750 0.098750
0.016250 0.568750 0.098750
0.072500 0.568750 0.098750
0.128750 0.568750 0.098750
0.185000 0.568750 0.098750
0.241250 0.568750 0.098750
0.297500 0.568750 0.098750
0.353750 0.568750 0.098750
0.410000 0.568750 0.098750
0.466250 0.568750 0.098750
0.522500 0.568750 0.098750
0.578750 0.568750 0.098750
0.635000 0.568750 0.098750
0.691250 0.568750 0.098750
0.747500 0.568750 0.098750
0.803750 0.568750 0.098750
0.860000 0.568750 0.098750
0.000000 0.646875 0.098750
0.016250 0.646875 0.098750
0.072500 0.646875 0.098750
0.128750 0.646875 0.098750
0.185000 0.646875 0.098750
0.241250 0.646875 0.098750
0.297500 0.646875 0.098750
0.353750 0.646875 0.098750
0.410000 0.646875 0.098750
0.466250 0.646875 0.098750
0.522500 0.646875 0.098750
0.578750 0.646875 0.098750
0.635000 0.646875 0.098750
0.691250 0.646875 0.098750
0.747500 0.646875 0.098750
0.803750 0.646875 0.098750
0.860000 0.646875 0.098750
0.000000 0.725000 0.098750
0.016250 0.725000 0.098750
0.072500 0.725000 0.098750
0.128750 0.725000 0.098750
0.185000 0.725000 0.098750
0.241250 0.725000 0.098750
0.297500 0.725000 0.098750
0.353750 0.725000 0.098750
0.410000 0.725000 0.098750
0.466250 0.725000 0.098750
0.522500 0.725000 0.098750
0.578750 0.725000 0.098750
0.635000 0.725000 0.098750
0.691250 0.725000 0.098750
0.747500 0.725000 0.098750
0.803750 0.725000 0.098750
0.860000 0.725000 0.098750
0.000000 0.803125 0.098750
0.016250 0.803125 0.098750
0.072500 0.803125 0.098750
0.128750 0.803125 0.098750
0.185000 0.803125 0.098750
0.241250 0.803125 0.098750
0.297500 0.803125 0.098750
0.353750 0.803125 0.098750
0.410000 0.803125 0.098750
0.466250 0.803125 0.098750
0.522500 0.803125 0.098750
0.578750 0.803125 0.098750
0.635000 0.803125 0.098750
0.691250 0.803125 0.098750
0.747500 0.803125 0.098750
0.803750 0.803125 0.098750
0.860000 0.803125 0.098750
0.000000 0.881250 0.098750
0.016250 0.881250 0.098750
0.072500 0.881250 0.098750
0.128750 0.881250 0.098750
0.185000 0.881250 0.098750
0.241250 0.881250 0.098750
0.297500 0.881250 0.098750
0.353750 0.881250 0.098750
0.410000 0.881250 0.098750
0.466250 0.881250 0.098750
0.522500 0.881250 0.098750
0.578750 0.881250 0.098750
0.635000 0.881250 0.098750
0.691250 0.881250 0.098750
0.747500 0.881250 0.098750
0.803750 0.881250 0.098750
0.860000 0.881250 0.098750
0.000000 0.959375 0.098750
0.016250 0.959375 0.098750
0.072500 0.959375 0.098750
0.128750 0.959375 0.098750
0.185000 0.959375 0.098750
0.241250 0.959375 0.098750
0.297500 0.959375 0.098750
0.353750 0.959375 0.098750
0.410000 0.959375 0.098750
0.466250 0.959375 0.098750
0.522500 0.959375 0.098750
0.578750 0.959375 0.098750
0.635000 0.959375 0.098750
0.691250 0.959375 0.098750
0.747500 0.959375 0.098750
0.803750 0.959375 0.098750
0.860000 0.959375 0.098750
0.000000 1.000000 0.098750
0.016250 1.000000 0.098750
0.072500 1.000000 0.098750
0.128750 1.000000 0.098750
0.185000 1.000000 0.098750
0.241250 1.000000 0.098750
0.297500 1.000000 0.098750
0.353750 1.000000 0.098750
0.410000 1.000000 0.098750
0.466250 1.000000 0.098750
0.522500 1.000000 0.098750
0.578750 1.000000 0.098750
0.635000 1.000000 0.098750
0.691250 1.000000 0.098750
0.747500 1.000000 0.098750
0.803750 1.000000 0.098750
0.860000 1.000000 0.098750
0.000000 1.000000 0.098750
0.016250 1.000000 0.098750
0.072500 1.000000 0.098750
0.128750 1.000000 0.098750
0.185000 1.000000 0.098750
0.241250 1.000000 0.098750
0.297500 1.000000 0.098750
0.353750 1.000000 0.098750
0.410000 1.000000 0.098750
0.466250 1.000000 0.098750
0.522500 1.000000 0.098750
0.578750 1.000000 0.098750
0.635000 1.000000 0.098750
0.691250 1.000000 0.098750
0.747500 1.000000 0.098750
0.803750 1.000000 0.098750
0.860000 1.000000 0.098750
0.000000 1.000000 0.098750
0.016250 1.000000 0.098750
0.072500 1.000000 0.098750
0.128750 1.000000 0.098750
0.185000 1.000000 0.098750
0.241250 1.000000 0.098750
0.297500 1.000000 0.098750
0.353750 1.000000 0.098750
0.410000 1.000000 0.098750
0.466250 1.000000 0.098750
0.522500 1.000000 0.098750
0.578750 1.000000 0.098750
0.635000 1.000000 0.098750
0.691250 1.000000 0.098750
0.747500 1.000000 0.098750
0.803750 1.000000 0.098750
0.860000 1.000000 0.098750
0.000000 1.000000 0.098750
0.016250 1.000000 0.098750
0.072500 1.000000 0.098750
0.128750 1.000000 0.098750
0.185000 1.000000 0.098750
0.241250 1.000000 0.098750
0.297500 1.000000 0.098750
0.353750 1.000000 0.098750
0.410000 1.000000 0.098750
0.466250 1.000000 0.098750
0.522500 1.000000 0.098750
0.578750 1.000000 0.098750
0.635000 1.000000 0.098750
0.691250 1.000000 0.098750
0.747500 1.000000 0.098750
0.803750 1.000000 0.098750
0.860000 1.000000 0.098750
0.000000 1.000000 0.098750
0.016250 1.000000 0.098750
0.072500 1.000000 0.098750
0.128750 1.000000 0.098750
0.185000 1.000000 0.098750
0.241250 1.000000 0.098750
0.297500 1.000000 0.098750
0.353750 1.000000 0.098750
0.410000 1.000000 0.098750
0.466250 1.000000 0.098750
0.522500 1.000000 0.098750
0.578750 1.000000 0.098750
0.635000 1.000000 0.098750
0.691250 1.000000 0.098750
0.747500 1.000000 0.098750
0.803750 1.000000 0.098750
0.860000 1.000000 0.098750
0.000000 0.100000 0.158125
0.016250 0.100000 0.158125
0.072500 0.100000 0.158125
0.128750 0.100000 0.158125
0.185000 0.100000 0.158125
0.241250 0.100000 0.158125
0.297500 0.100000 0.158125
0.353750 0.100000 0.158125
0.410000 0.100000 0.158125
0.466250 0.100000 0.158125
0.522500 0.100000 0.158125
0.578750 0.100000 0.158125
0.635000 0.100000 0.158125
0.691250 0.100000 0.158125
0.747500 0.100000 0.158125
0.803750 0.100000 0.158125
0.860000 0.100000 0.158125
0.000000 0.178125 0.158125
