app/src/main/assets/luts/pine_needle.cube
# ApexStudio filter: pine_needle
LUT_3D_SIZE 5
DOMAIN_MIN 0.0 0.0 0.0
DOMAIN_MAX 1.0 1.0 1.0
0.000000 0.100000 0.000000
0.185000 0.100000 0.000000
0.410000 0.100000 0.000000
0.635000 0.100000 0.000000
0.860000 0.100000 0.000000
0.000000 0.412500 0.000000
0.185000 0.412500 0.000000
0.410000 0.412500 0.000000
0.635000 0.412500 0.000000
0.860000 0.412500 0.000000
0.000000 0.725000 0.000000
0.185000 0.725000 0.000000
0.410000 0.725000 0.000000
0.635000 0.725000 0.000000
0.860000 0.725000 0.000000
0.000000 1.000000 0.000000
0.185000 1.000000 0.000000
0.410000 1.000000 0.000000
0.635000 1.000000 0.000000
0.860000 1.000000 0.000000
0.000000 1.000000 0.000000
0.185000 1.000000 0.000000
0.410000 1.000000 0.000000
0.635000 1.000000 0.000000
0.860000 1.000000 0.000000
0.000000 0.100000 0.217500
0.185000 0.100000 0.217500
0.410000 0.100000 0.217500
0.635000 0.100000 0.217500
0.860000 0.100000 0.217500
0.000000 0.412500 0.217500
0.185000 0.412500 0.217500
0.410000 0.412500 0.217500
0.635000 0.412500 0.217500
0.860000 0.412500 0.217500
0.000000 0.725000 0.217500
0.185000 0.725000 0.217500
0.410000 0.725000 0.217500
0.635000 0.725000 0.217500
0.860000 0.725000 0.217500
0.000000 1.000000 0.217500
0.185000 1.000000 0.217500
0.410000 1.000000 0.217500
0.635000 1.000000 0.217500
0.860000 1.000000 0.217500
0.000000 1.000000 0.217500
0.185000 1.000000 0.217500
0.410000 1.000000 0.217500
0.635000 1.000000 0.217500
0.860000 1.000000 0.217500
0.000000 0.100000 0.455000
0.185000 0.100000 0.455000
0.410000 0.100000 0.455000
0.635000 0.100000 0.455000
0.860000 0.100000 0.455000
0.000000 0.412500 0.455000
0.185000 0.412500 0.455000
0.410000 0.412500 0.455000
0.635000 0.412500 0.455000
0.860000 0.412500 0.455000
0.000000 0.725000 0.455000
0.185000 0.725000 0.455000
0.410000 0.725000 0.455000
0.635000 0.725000 0.455000
0.860000 0.725000 0.455000
0.000000 1.000000 0.455000
0.185000 1.000000 0.455000
0.410000 1.000000 0.455000
0.635000 1.000000 0.455000
0.860000 1.000000 0.455000
0.000000 1.000000 0.455000
0.185000 1.000000 0.455000
0.410000 1.000000 0.455000
0.635000 1.000000 0.455000
0.860000 1.000000 0.455000
0.000000 0.100000 0.692500
0.185000 0.100000 0.692500
0.410000 0.100000 0.692500
0.635000 0.100000 0.692500
0.860000 0.100000 0.692500
0.000000 0.412500 0.692500
0.185000 0.412500 0.692500
0.410000 0.412500 0.692500
0.635000 0.412500 0.692500
0.860000 0.412500 0.692500
0.000000 0.725000 0.692500
0.185000 0.725000 0.692500
0.410000 0.725000 0.692500
0.635000 0.725000 0.692500
0.860000 0.725000 0.692500
0.000000 1.000000 0.692500
0.185000 1.000000 0.692500
0.410000 1.000000 0.692500
0.635000 1.000000 0.692500
0.860000 1.000000 0.692500
0.000000 1.000000 0.692500
0.185000 1.000000 0.692500
0.410000 1.000000 0.692500
0.635000 1.000000 0.692500
0.860000 1.000000 0.692500
0.000000 0.100000 0.930000
0.185000 0.100000 0.930000
0.410000 0.100000 0.930000
0.635000 0.100000 0.930000
0.860000 0.100000 0.930000
0.000000 0.412500 0.930000
0.185000 0.412500 0.930000
0.410000 0.412500 0.930000
0.635000 0.412500 0.930000
0.860000 0.412500 0.930000
0.000000 0.725000 0.930000
0.185000 0.725000 0.930000
0.410000 0.725000 0.930000
0.635000 0.725000 0.930000
0.860000 0.725000 0.930000
0.000000 1.000000 0.930000
0.185000 1.000000 0.930000
0.410000 1.000000 0.930000
0.635000 1.000000 0.930000
0.860000 1.000000 0.930000
0.000000 1.000000 0.930000
0.185000 1.000000 0.930000
0.410000 1.000000 0.930000
0.635000 1.000000 0.930000
0.860000 1.000000 0.930000
