app/src/main/assets/luts/polaroid_sx70.cube
# ApexStudio filter: polaroid_sx70
LUT_3D_SIZE 5
DOMAIN_MIN 0.0 0.0 0.0
DOMAIN_MAX 1.0 1.0 1.0
0.080000 0.030000 0.000000
0.367500 0.030000 0.000000
0.655000 0.030000 0.000000
0.942500 0.030000 0.000000
1.000000 0.030000 0.000000
0.080000 0.267500 0.000000
0.367500 0.267500 0.000000
0.655000 0.267500 0.000000
0.942500 0.267500 0.000000
1.000000 0.267500 0.000000
0.080000 0.505000 0.000000
0.367500 0.505000 0.000000
0.655000 0.505000 0.000000
0.942500 0.505000 0.000000
1.000000 0.505000 0.000000
0.080000 0.742500 0.000000
0.367500 0.742500 0.000000
0.655000 0.742500 0.000000
0.942500 0.742500 0.000000
1.000000 0.742500 0.000000
0.080000 0.980000 0.000000
0.367500 0.980000 0.000000
0.655000 0.980000 0.000000
0.942500 0.980000 0.000000
1.000000 0.980000 0.000000
0.080000 0.030000 0.152500
0.367500 0.030000 0.152500
0.655000 0.030000 0.152500
0.942500 0.030000 0.152500
1.000000 0.030000 0.152500
0.080000 0.267500 0.152500
0.367500 0.267500 0.152500
0.655000 0.267500 0.152500
0.942500 0.267500 0.152500
1.000000 0.267500 0.152500
0.080000 0.505000 0.152500
0.367500 0.505000 0.152500
0.655000 0.505000 0.152500
0.942500 0.505000 0.152500
1.000000 0.505000 0.152500
0.080000 0.742500 0.152500
0.367500 0.742500 0.152500
0.655000 0.742500 0.152500
0.942500 0.742500 0.152500
1.000000 0.742500 0.152500
0.080000 0.980000 0.152500
0.367500 0.980000 0.152500
0.655000 0.980000 0.152500
0.942500 0.980000 0.152500
1.000000 0.980000 0.152500
0.080000 0.030000 0.365000
0.367500 0.030000 0.365000
0.655000 0.030000 0.365000
0.942500 0.030000 0.365000
1.000000 0.030000 0.365000
0.080000 0.267500 0.365000
0.367500 0.267500 0.365000
0.655000 0.267500 0.365000
0.942500 0.267500 0.365000
1.000000 0.267500 0.365000
0.080000 0.505000 0.365000
0.367500 0.505000 0.365000
0.655000 0.505000 0.365000
0.942500 0.505000 0.365000
1.000000 0.505000 0.365000
0.080000 0.742500 0.365000
0.367500 0.742500 0.365000
0.655000 0.742500 0.365000
0.942500 0.742500 0.365000
1.000000 0.742500 0.365000
0.080000 0.980000 0.365000
0.367500 0.980000 0.365000
0.655000 0.980000 0.365000
0.942500 0.980000 0.365000
1.000000 0.980000 0.365000
0.080000 0.030000 0.577500
0.367500 0.030000 0.577500
0.655000 0.030000 0.577500
0.942500 0.030000 0.577500
1.000000 0.030000 0.577500
0.080000 0.267500 0.577500
0.367500 0.267500 0.577500
0.655000 0.267500 0.577500
0.942500 0.267500 0.577500
1.000000 0.267500 0.577500
0.080000 0.505000 0.577500
0.367500 0.505000 0.577500
0.655000 0.505000 0.577500
0.942500 0.505000 0.577500
1.000000 0.505000 0.577500
0.080000 0.742500 0.577500
0.367500 0.742500 0.577500
0.655000 0.742500 0.577500
0.942500 0.742500 0.577500
1.000000 0.742500 0.577500
0.080000 0.980000 0.577500
0.367500 0.980000 0.577500
0.655000 0.980000 0.577500
0.942500 0.980000 0.577500
1.000000 0.980000 0.577500
0.080000 0.030000 0.790000
0.367500 0.030000 0.790000
0.655000 0.030000 0.790000
0.942500 0.030000 0.790000
1.000000 0.030000 0.790000
0.080000 0.267500 0.790000
0.367500 0.267500 0.790000
0.655000 0.267500 0.790000
0.942500 0.267500 0.790000
1.000000 0.267500 0.790000
0.080000 0.505000 0.790000
0.367500 0.505000 0.790000
0.655000 0.505000 0.790000
0.942500 0.505000 0.790000
1.000000 0.505000 0.790000
0.080000 0.742500 0.790000
0.367500 0.742500 0.790000
0.655000 0.742500 0.790000
0.942500 0.742500 0.790000
1.000000 0.742500 0.790000
0.080000 0.980000 0.790000
0.367500 0.980000 0.790000
0.655000 0.980000 0.790000
0.942500 0.980000 0.790000
1.000000 0.980000 0.790000
