app/src/main/assets/luts/polaroid_sx70.cube
# ApexStudio filter: polaroid_sx70
LUT_3D_SIZE 9
DOMAIN_MIN 0.0 0.0 0.0
DOMAIN_MAX 1.0 1.0 1.0
0.080000 0.030000 0.000000
0.223750 0.030000 0.000000
0.367500 0.030000 0.000000
0.511250 0.030000 0.000000
0.655000 0.030000 0.000000
0.798750 0.030000 0.000000
0.942500 0.030000 0.000000
1.000000 0.030000 0.000000
1.000000 0.030000 0.000000
0.080000 0.148750 0.000000
0.223750 0.148750 0.000000
0.367500 0.148750 0.000000
0.511250 0.148750 0.000000
0.655000 0.148750 0.000000
0.798750 0.148750 0.000000
0.942500 0.148750 0.000000
1.000000 0.148750 0.000000
1.000000 0.148750 0.000000
0.080000 0.267500 0.000000
0.223750 0.267500 0.000000
0.367500 0.267500 0.000000
0.511250 0.267500 0.000000
0.655000 0.267500 0.000000
0.798750 0.267500 0.000000
0.942500 0.267500 0.000000
1.000000 0.267500 0.000000
1.000000 0.267500 0.000000
0.080000 0.386250 0.000000
0.223750 0.386250 0.000000
0.367500 0.386250 0.000000
0.511250 0.386250 0.000000
0.655000 0.386250 0.000000
0.798750 0.386250 0.000000
0.942500 0.386250 0.000000
1.000000 0.386250 0.000000
1.000000 0.386250 0.000000
0.080000 0.505000 0.000000
0.223750 0.505000 0.000000
0.367500 0.505000 0.000000
0.511250 0.505000 0.000000
0.655000 0.505000 0.000000
0.798750 0.505000 0.000000
0.942500 0.505000 0.000000
1.000000 0.505000 0.000000
1.000000 0.505000 0.000000
0.080000 0.623750 0.000000
0.223750 0.623750 0.000000
0.367500 0.623750 0.000000
0.511250 0.623750 0.000000
0.655000 0.623750 0.000000
0.798750 0.623750 0.000000
0.942500 0.623750 0.000000
1.000000 0.623750 0.000000
1.000000 0.623750 0.000000
0.080000 0.742500 0.000000
0.223750 0.742500 0.000000
0.367500 0.742500 0.000000
0.511250 0.742500 0.000000
0.655000 0.742500 0.000000
0.798750 0.742500 0.000000
0.942500 0.742500 0.000000
1.000000 0.742500 0.000000
1.000000 0.742500 0.000000
0.080000 0.861250 0.000000
0.223750 0.861250 0.000000
0.367500 0.861250 0.000000
0.511250 0.861250 0.000000
0.655000 0.861250 0.000000
0.798750 0.861250 0.000000
0.942500 0.861250 0.000000
1.000000 0.861250 0.000000
1.000000 0.861250 0.000000
0.080000 0.980000 0.000000
0.223750 0.980000 0.000000
0.367500 0.980000 0.000000
0.511250 0.980000 0.000000
0.655000 0.980000 0.000000
0.798750 0.980000 0.000000
0.942500 0.980000 0.000000
1.000000 0.980000 0.000000
1.000000 0.980000 0.000000
0.080000 0.030000 0.046250
0.223750 0.030000 0.046250
0.367500 0.030000 0.046250
0.511250 0.030000 0.046250
0.655000 0.030000 0.046250
0.798750 0.030000 0.046250
0.942500 0.030000 0.046250
1.000000 0.030000 0.046250
1.000000 0.030000 0.046250
0.080000 0.148750 0.046250
0.223750 0.148750 0.046250
0.367500 0.148750 0.046250
0.511250 0.148750 0.046250
0.655000 0.148750 0.046250
0.798750 0.148750 0.046250
0.942500 0.148750 0.046250
1.000000 0.148750 0.046250
1.000000 0.148750 0.046250
0.080000 0.267500 0.046250
0.223750 0.267500 0.046250
0.367500 0.267500 0.046250
0.511250 0.267500 0.046250
0.655000 0.267500 0.046250
0.798750 0.267500 0.046250
0.942500 0.267500 0.046250
1.000000 0.267500 0.046250
1.000000 0.267500 0.046250
0.080000 0.386250 0.046250
0.223750 0.386250 0.046250
0.367500 0.386250 0.046250
0.511250 0.386250 0.046250
0.655000 0.386250 0.046250
0.798750 0.386250 0.046250
0.942500 0.386250 0.046250
1.000000 0.386250 0.046250
1.000000 0.386250 0.046250
0.080000 0.505000 0.046250
0.223750 0.505000 0.046250
0.367500 0.505000 0.046250
0.511250 0.505000 0.046250
0.655000 0.505000 0.046250
0.798750 0.505000 0.046250
0.942500 0.505000 0.046250
1.000000 0.505000 0.046250
1.000000 0.505000 0.046250
0.080000 0.623750 0.046250
0.223750 0.623750 0.046250
0.367500 0.623750 0.046250
0.511250 0.623750 0.046250
0.655000 0.623750 0.046250
0.798750 0.623750 0.046250
0.942500 0.623750 0.046250
1.000000 0.623750 0.046250
1.000000 0.623750 0.046250
0.080000 0.742500 0.046250
0.223750 0.742500 0.046250
0.367500 0.742500 0.046250
0.511250 0.742500 0.046250
0.655000 0.742500 0.046250
0.798750 0.742500 0.046250
0.942500 0.742500 0.046250
1.000000 0.742500 0.046250
1.000000 0.742500 0.046250
0.080000 0.861250 0.046250
0.223750 0.861250 0.046250
0.367500 0.861250 0.046250
0.511250 0.861250 0.046250
0.655000 0.861250 0.046250
0.798750 0.861250 0.046250
0.942500 0.861250 0.046250
1.000000 0.861250 0.046250
1.000000 0.861250 0.046250
0.080000 0.980000 0.046250
0.223750 0.980000 0.046250
0.367500 0.980000 0.046250
0.511250 0.980000 0.046250
0.655000 0.980000 0.046250
0.798750 0.980000 0.046250
0.942500 0.980000 0.046250
1.000000 0.980000 0.046250
1.000000 0.980000 0.046250
0.080000 0.030000 0.152500
0.223750 0.030000 0.152500
0.367500 0.030000 0.152500
0.511250 0.030000 0.152500
0.655000 0.030000 0.152500
0.798750 0.030000 0.152500
0.942500 0.030000 0.152500
1.000000 0.030000 0.152500
1.000000 0.030000 0.152500
0.080000 0.148750 0.152500
0.223750 0.148750 0.152500
0.367500 0.148750 0.152500
0.511250 0.148750 0.152500
0.655000 0.148750 0.152500
0.798750 0.148750 0.152500
0.942500 0.148750 0.152500
1.000000 0.148750 0.152500
1.000000 0.148750 0.152500
0.080000 0.267500 0.152500
0.223750 0.267500 0.152500
0.367500 0.267500 0.152500
0.511250 0.267500 0.152500
0.655000 0.267500 0.152500
0.798750 0.267500 0.152500
0.942500 0.267500 0.152500
1.000000 0.267500 0.152500
1.000000 0.267500 0.152500
0.080000 0.386250 0.152500
0.223750 0.386250 0.152500
0.367500 0.386250 0.152500
0.511250 0.386250 0.152500
0.655000 0.386250 0.152500
0.798750 0.386250 0.152500
0.942500 0.386250 0.152500
1.000000 0.386250 0.152500
1.000000 0.386250 0.152500
0.080000 0.505000 0.152500
0.223750 0.505000 0.152500
0.367500 0.505000 0.152500
0.511250 0.505000 0.152500
0.655000 0.505000 0.152500
0.798750 0.505000 0.152500
0.942500 0.505000 0.152500
1.000000 0.505000 0.152500
1.000000 0.505000 0.152500
0.080000 0.623750 0.152500
0.223750 0.623750 0.152500
0.367500 0.623750 0.152500
0.511250 0.623750 0.152500
0.655000 0.623750 0.152500
0.798750 0.623750 0.152500
0.942500 0.623750 0.152500
1.000000 0.623750 0.152500
1.000000 0.623750 0.152500
0.080000 0.742500 0.152500
0.223750 0.742500 0.152500
0.367500 0.742500 0.152500
0.511250 0.742500 0.152500
0.655000 0.742500 0.152500
0.798750 0.742500 0.152500
0.942500 0.742500 0.152500
1.000000 0.742500 0.152500
1.000000 0.742500 0.152500
0.080000 0.861250 0.152500
0.223750 0.861250 0.152500
0.367500 0.861250 0.152500
0.511250 0.861250 0.152500
0.655000 0.861250 0.152500
0.798750 0.861250 0.152500
0.942500 0.861250 0.152500
1.000000 0.861250 0.152500
1.000000 0.861250 0.152500
0.080000 0.980000 0.152500
0.223750 0.980000 0.152500
0.367500 0.980000 0.152500
0.511250 0.980000 0.152500
0.655000 0.980000 0.152500
0.798750 0.980000 0.152500
0.942500 0.980000 0.152500
1.000000 0.980000 0.152500
1.000000 0.980000 0.152500
0.080000 0.030000 0.258750
0.223750 0.030000 0.258750
0.367500 0.030000 0.258750
0.511250 0.030000 0.258750
0.655000 0.030000 0.258750
0.798750 0.030000 0.258750
0.942500 0.030000 0.258750
1.000000 0.030000 0.258750
1.000000 0.030000 0.258750
0.080000 0.148750 0.258750
0.223750 0.148750 0.258750
0.367500 0.148750 0.258750
0.511250 0.148750 0.258750
0.655000 0.148750 0.258750
0.798750 0.148750 0.258750
0.942500 0.148750 0.258750
1.000000 0.148750 0.258750
1.000000 0.148750 0.258750
0.080000 0.267500 0.258750
0.223750 0.267500 0.258750
0.367500 0.267500 0.258750
0.511250 0.267500 0.258750
0.655000 0.267500 0.258750
0.798750 0.267500 0.258750
0.942500 0.267500 0.258750
1.000000 0.267500 0.258750
1.000000 0.267500 0.258750
0.080000 0.386250 0.258750
0.223750 0.386250 0.258750
0.367500 0.386250 0.258750
0.511250 0.386250 0.258750
0.655000 0.386250 0.258750
0.798750 0.386250 0.258750
0.942500 0.386250 0.258750
1.000000 0.386250 0.258750
1.000000 0.386250 0.258750
0.080000 0.505000 0.258750
0.223750 0.505000 0.258750
0.367500 0.505000 0.258750
0.511250 0.505000 0.258750
0.655000 0.505000 0.258750
0.798750 0.505000 0.258750
0.942500 0.505000 0.258750
1.000000 0.505000 0.258750
1.000000 0.505000 0.258750
0.080000 0.623750 0.258750
0.223750 0.623750 0.258750
0.367500 0.623750 0.258750
0.511250 0.623750 0.258750
0.655000 0.623750 0.258750
0.798750 0.623750 0.258750
0.942500 0.623750 0.258750
1.000000 0.623750 0.258750
1.000000 0.623750 0.258750
0.080000 0.742500 0.258750
0.223750 0.742500 0.258750
0.367500 0.742500 0.258750
0.511250 0.742500 0.258750
0.655000 0.742500 0.258750
0.798750 0.742500 0.258750
0.942500 0.742500 0.258750
1.000000 0.742500 0.258750
1.000000 0.742500 0.258750
0.080000 0.861250 0.258750
0.223750 0.861250 0.258750
0.367500 0.861250 0.258750
0.511250 0.861250 0.258750
0.655000 0.861250 0.258750
0.798750 0.861250 0.258750
0.942500 0.861250 0.258750
1.000000 0.861250 0.258750
1.000000 0.861250 0.258750
0.080000 0.980000 0.258750
0.223750 0.980000 0.258750
0.367500 0.980000 0.258750
0.511250 0.980000 0.258750
0.655000 0.980000 0.258750
0.798750 0.980000 0.258750
0.942500 0.980000 0.258750
1.000000 0.980000 0.258750
1.000000 0.980000 0.258750
0.080000 0.030000 0.365000
0.223750 0.030000 0.365000
0.367500 0.030000 0.365000
0.511250 0.030000 0.365000
0.655000 0.030000 0.365000
0.798750 0.030000 0.365000
0.942500 0.030000 0.365000
1.000000 0.030000 0.365000
1.000000 0.030000 0.365000
0.080000 0.148750 0.365000
0.223750 0.148750 0.365000
0.367500 0.148750 0.365000
0.511250 0.148750 0.365000
0.655000 0.148750 0.365000
0.798750 0.148750 0.365000
0.942500 0.148750 0.365000
1.000000 0.148750 0.365000
1.000000 0.148750 0.365000
0.080000 0.267500 0.365000
0.223750 0.267500 0.365000
0.367500 0.267500 0.365000
0.511250 0.267500 0.365000
0.655000 0.267500 0.365000
0.798750 0.267500 0.365000
0.942500 0.267500 0.365000
1.000000 0.267500 0.365000
1.000000 0.267500 0.365000
0.080000 0.386250 0.365000
0.223750 0.386250 0.365000
0.367500 0.386250 0.365000
0.511250 0.386250 0.365000
0.655000 0.386250 0.365000
0.798750 0.386250 0.365000
0.942500 0.386250 0.365000
1.000000 0.386250 0.365000
1.000000 0.386250 0.365000
0.080000 0.505000 0.365000
0.223750 0.505000 0.365000
0.367500 0.505000 0.365000
0.511250 0.505000 0.365000
0.655000 0.505000 0.365000
0.798750 0.505000 0.365000
0.942500 0.505000 0.365000
1.000000 0.505000 0.365000
1.000000 0.505000 0.365000
0.080000 0.623750 0.365000
0.223750 0.623750 0.365000
0.367500 0.623750 0.365000
0.511250 0.623750 0.365000
0.655000 0.623750 0.365000
0.798750 0.623750 0.365000
0.942500 0.623750 0.365000
1.000000 0.623750 0.365000
1.000000 0.623750 0.365000
0.080000 0.742500 0.365000
0.223750 0.742500 0.365000
0.367500 0.742500 0.365000
0.511250 0.742500 0.365000
0.655000 0.742500 0.365000
0.798750 0.742500 0.365000
0.942500 0.742500 0.365000
1.000000 0.742500 0.365000
1.000000 0.742500 0.365000
0.080000 0.861250 0.365000
0.223750 0.861250 0.365000
0.367500 0.861250 0.365000
0.511250 0.861250 0.365000
0.655000 0.861250 0.365000
0.798750 0.861250 0.365000
0.942500 0.861250 0.365000
1.000000 0.861250 0.365000
1.000000 0.861250 0.365000
0.080000 0.980000 0.365000
0.223750 0.980000 0.365000
0.367500 0.980000 0.365000
0.511250 0.980000 0.365000
0.655000 0.980000 0.365000
0.798750 0.980000 0.365000
0.942500 0.980000 0.365000
1.000000 0.980000 0.365000
1.000000 0.980000 0.365000
0.080000 0.030000 0.471250
0.223750 0.030000 0.471250
0.367500 0.030000 0.471250
0.511250 0.030000 0.471250
0.655000 0.030000 0.471250
0.798750 0.030000 0.471250
0.942500 0.030000 0.471250
1.000000 0.030000 0.471250
1.000000 0.030000 0.471250
0.080000 0.148750 0.471250
0.223750 0.148750 0.471250
0.367500 0.148750 0.471250
0.511250 0.148750 0.471250
0.655000 0.148750 0.471250
0.798750 0.148750 0.471250
0.942500 0.148750 0.471250
1.000000 0.148750 0.471250
1.000000 0.148750 0.471250
0.080000 0.267500 0.471250
0.223750 0.267500 0.471250
0.367500 0.267500 0.471250
0.511250 0.267500 0.471250
0.655000 0.267500 0.471250
0.798750 0.267500 0.471250
0.942500 0.267500 0.471250
1.000000 0.267500 0.471250
1.000000 0.267500 0.471250
0.080000 0.386250 0.471250
0.223750 0.386250 0.471250
0.367500 0.386250 0.471250
0.511250 0.386250 0.471250
0.655000 0.386250 0.471250
0.798750 0.386250 0.471250
0.942500 0.386250 0.471250
1.000000 0.386250 0.471250
1.000000 0.386250 0.471250
0.080000 0.505000 0.471250
0.223750 0.505000 0.471250
0.367500 0.505000 0.471250
0.511250 0.505000 0.471250
0.655000 0.505000 0.471250
0.798750 0.505000 0.471250
0.942500 0.505000 0.471250
1.000000 0.505000 0.471250
1.000000 0.505000 0.471250
0.080000 0.623750 0.471250
0.223750 0.623750 0.471250
0.367500 0.623750 0.471250
0.511250 0.623750 0.471250
0.655000 0.623750 0.471250
0.798750 0.623750 0.471250
0.942500 0.623750 0.471250
1.000000 0.623750 0.471250
1.000000 0.623750 0.471250
0.080000 0.742500 0.471250
0.223750 0.742500 0.471250
0.367500 0.742500 0.471250
0.511250 0.742500 0.471250
0.655000 0.742500 0.471250
0.798750 0.742500 0.471250
0.942500 0.742500 0.471250
1.000000 0.742500 0.471250
1.000000 0.742500 0.471250
0.080000 0.861250 0.471250
0.223750 0.861250 0.471250
0.367500 0.861250 0.471250
0.511250 0.861250 0.471250
0.655000 0.861250 0.471250
0.798750 0.861250 0.471250
0.942500 0.861250 0.471250
1.000000 0.861250 0.471250
1.000000 0.861250 0.471250
0.080000 0.980000 0.471250
0.223750 0.980000 0.471250
0.367500 0.980000 0.471250
0.511250 0.980000 0.471250
0.655000 0.980000 0.471250
0.798750 0.980000 0.471250
0.942500 0.980000 0.471250
1.000000 0.980000 0.471250
1.000000 0.980000 0.471250
0.080000 0.030000 0.577500
0.223750 0.030000 0.577500
0.367500 0.030000 0.577500
0.511250 0.030000 0.577500
0.655000 0.030000 0.577500
0.798750 0.030000 0.577500
0.942500 0.030000 0.577500
1.000000 0.030000 0.577500
1.000000 0.030000 0.577500
0.080000 0.148750 0.577500
0.223750 0.148750 0.577500
0.367500 0.148750 0.577500
0.511250 0.148750 0.577500
0.655000 0.148750 0.577500
0.798750 0.148750 0.577500
0.942500 0.148750 0.577500
1.000000 0.148750 0.577500
1.000000 0.148750 0.577500
0.080000 0.267500 0.577500
0.223750 0.267500 0.577500
0.367500 0.267500 0.577500
0.511250 0.267500 0.577500
0.655000 0.267500 0.577500
0.798750 0.267500 0.577500
0.942500 0.267500 0.577500
1.000000 0.267500 0.577500
1.000000 0.267500 0.577500
0.080000 0.386250 0.577500
0.223750 0.386250 0.577500
0.367500 0.386250 0.577500
0.511250 0.386250 0.577500
0.655000 0.386250 0.577500
0.798750 0.386250 0.577500
0.942500 0.386250 0.577500
1.000000 0.386250 0.577500
1.000000 0.386250 0.577500
0.080000 0.505000 0.577500
0.223750 0.505000 0.577500
0.367500 0.505000 0.577500
0.511250 0.505000 0.577500
0.655000 0.505000 0.577500
0.798750 0.505000 0.577500
0.942500 0.505000 0.577500
1.000000 0.505000 0.577500
1.000000 0.505000 0.577500
0.080000 0.623750 0.577500
0.223750 0.623750 0.577500
0.367500 0.623750 0.577500
0.511250 0.623750 0.577500
0.655000 0.623750 0.577500
0.798750 0.623750 0.577500
0.942500 0.623750 0.577500
1.000000 0.623750 0.577500
1.000000 0.623750 0.577500
0.080000 0.742500 0.577500
0.223750 0.742500 0.577500
0.367500 0.742500 0.577500
0.511250 0.742500 0.577500
0.655000 0.742500 0.577500
0.798750 0.742500 0.577500
0.942500 0.742500 0.577500
1.000000 0.742500 0.577500
1.000000 0.742500 0.577500
0.080000 0.861250 0.577500
0.223750 0.861250 0.577500
0.367500 0.861250 0.577500
0.511250 0.861250 0.577500
0.655000 0.861250 0.577500
0.798750 0.861250 0.577500
0.942500 0.861250 0.577500
1.000000 0.861250 0.577500
1.000000 0.861250 0.577500
0.080000 0.980000 0.577500
0.223750 0.980000 0.577500
0.367500 0.980000 0.577500
0.511250 0.980000 0.577500
0.655000 0.980000 0.577500
0.798750 0.980000 0.577500
0.942500 0.980000 0.577500
1.000000 0.980000 0.577500
1.000000 0.980000 0.577500
0.080000 0.030000 0.683750
0.223750 0.030000 0.683750
0.367500 0.030000 0.683750
0.511250 0.030000 0.683750
0.655000 0.030000 0.683750
0.798750 0.030000 0.683750
0.942500 0.030000 0.683750
1.000000 0.030000 0.683750
1.000000 0.030000 0.683750
0.080000 0.148750 0.683750
0.223750 0.148750 0.683750
0.367500 0.148750 0.683750
0.511250 0.148750 0.683750
0.655000 0.148750 0.683750
0.798750 0.148750 0.683750
0.942500 0.148750 0.683750
1.000000 0.148750 0.683750
1.000000 0.148750 0.683750
0.080000 0.267500 0.683750
0.223750 0.267500 0.683750
0.367500 0.267500 0.683750
0.511250 0.267500 0.683750
0.655000 0.267500 0.683750
0.798750 0.267500 0.683750
0.942500 0.267500 0.683750
1.000000 0.267500 0.683750
1.000000 0.267500 0.683750
0.080000 0.386250 0.683750
0.223750 0.386250 0.683750
0.367500 0.386250 0.683750
0.511250 0.386250 0.683750
0.655000 0.386250 0.683750
0.798750 0.386250 0.683750
0.942500 0.386250 0.683750
1.000000 0.386250 0.683750
1.000000 0.386250 0.683750
0.080000 0.505000 0.683750
0.223750 0.505000 0.683750
0.367500 0.505000 0.683750
0.511250 0.505000 0.683750
0.655000 0.505000 0.683750
0.798750 0.505000 0.683750
0.942500 0.505000 0.683750
1.000000 0.505000 0.683750
1.000000 0.505000 0.683750
0.080000 0.623750 0.683750
0.223750 0.623750 0.683750
0.367500 0.623750 0.683750
0.511250 0.623750 0.683750
0.655000 0.623750 0.683750
0.798750 0.623750 0.683750
0.942500 0.623750 0.683750
1.000000 0.623750 0.683750
1.000000 0.623750 0.683750
0.080000 0.742500 0.683750
0.223750 0.742500 0.683750
0.367500 0.742500 0.683750
0.511250 0.742500 0.683750
0.655000 0.742500 0.683750
0.798750 0.742500 0.683750
0.942500 0.742500 0.683750
1.000000 0.742500 0.683750
1.000000 0.742500 0.683750
0.080000 0.861250 0.683750
0.223750 0.861250 0.683750
0.367500 0.861250 0.683750
0.511250 0.861250 0.683750
0.655000 0.861250 0.683750
0.798750 0.861250 0.683750
0.942500 0.861250 0.683750
1.000000 0.861250 0.683750
1.000000 0.861250 0.683750
0.080000 0.980000 0.683750
0.223750 0.980000 0.683750
0.367500 0.980000 0.683750
0.511250 0.980000 0.683750
0.655000 0.980000 0.683750
0.798750 0.980000 0.683750
0.942500 0.980000 0.683750
1.000000 0.980000 0.683750
1.000000 0.980000 0.683750
0.080000 0.030000 0.790000
0.223750 0.030000 0.790000
0.367500 0.030000 0.790000
0.511250 0.030000 0.790000
0.655000 0.030000 0.790000
0.798750 0.030000 0.790000
0.942500 0.030000 0.790000
1.000000 0.030000 0.790000
1.000000 0.030000 0.790000
0.080000 0.148750 0.790000
0.223750 0.148750 0.790000
0.367500 0.148750 0.790000
0.511250 0.148750 0.790000
0.655000 0.148750 0.790000
0.798750 0.148750 0.790000
0.942500 0.148750 0.790000
1.000000 0.148750 0.790000
1.000000 0.148750 0.790000
0.080000 0.267500 0.790000
0.223750 0.267500 0.790000
0.367500 0.267500 0.790000
0.511250 0.267500 0.790000
0.655000 0.267500 0.790000
0.798750 0.267500 0.790000
0.942500 0.267500 0.790000
1.000000 0.267500 0.790000
1.000000 0.267500 0.790000
0.080000 0.386250 0.790000
0.223750 0.386250 0.790000
0.367500 0.386250 0.790000
0.511250 0.386250 0.790000
0.655000 0.386250 0.790000
0.798750 0.386250 0.790000
0.942500 0.386250 0.790000
1.000000 0.386250 0.790000
1.000000 0.386250 0.790000
0.080000 0.505000 0.790000
0.223750 0.505000 0.790000
0.367500 0.505000 0.790000
0.511250 0.505000 0.790000
0.655000 0.505000 0.790000
0.798750 0.505000 0.790000
0.942500 0.505000 0.790000
1.000000 0.505000 0.790000
1.000000 0.505000 0.790000
0.080000 0.623750 0.790000
0.223750 0.623750 0.790000
0.367500 0.623750 0.790000
0.511250 0.623750 0.790000
0.655000 0.623750 0.790000
0.798750 0.623750 0.790000
0.942500 0.623750 0.790000
1.000000 0.623750 0.790000
1.000000 0.623750 0.790000
0.080000 0.742500 0.790000
0.223750 0.742500 0.790000
0.367500 0.742500 0.790000
0.511250 0.742500 0.790000
0.655000 0.742500 0.790000
0.798750 0.742500 0.790000
0.942500 0.742500 0.790000
1.000000 0.742500 0.790000
1.000000 0.742500 0.790000
0.080000 0.861250 0.790000
0.223750 0.861250 0.790000
0.367500 0.861250 0.790000
0.511250 0.861250 0.790000
0.655000 0.861250 0.790000
0.798750 0.861250 0.790000
0.942500 0.861250 0.790000
1.000000 0.861250 0.790000
1.000000 0.861250 0.790000
0.080000 0.980000 0.790000
0.223750 0.980000 0.790000
0.367500 0.980000 0.790000
0.511250 0.980000 0.790000
0.655000 0.980000 0.790000
0.798750 0.980000 0.790000
0.942500 0.980000 0.790000
1.000000 0.980000 0.790000
1.000000 0.980000 0.790000
