app/src/main/assets/luts/polaroid_sx70.cube
# ApexStudio filter: polaroid_sx70
LUT_3D_SIZE 17
DOMAIN_MIN 0.0 0.0 0.0
DOMAIN_MAX 1.0 1.0 1.0
0.080000 0.030000 0.000000
0.151875 0.030000 0.000000
0.223750 0.030000 0.000000
0.295625 0.030000 0.000000
0.367500 0.030000 0.000000
0.439375 0.030000 0.000000
0.511250 0.030000 0.000000
0.583125 0.030000 0.000000
0.655000 0.030000 0.000000
0.726875 0.030000 0.000000
0.798750 0.030000 0.000000
0.870625 0.030000 0.000000
0.942500 0.030000 0.000000
1.000000 0.030000 0.000000
1.000000 0.030000 0.000000
1.000000 0.030000 0.000000
1.000000 0.030000 0.000000
0.080000 0.089375 0.000000
0.151875 0.089375 0.000000
0.223750 0.089375 0.000000
0.295625 0.089375 0.000000
0.367500 0.089375 0.000000
0.439375 0.089375 0.000000
0.511250 0.089375 0.000000
0.583125 0.089375 0.000000
0.655000 0.089375 0.000000
0.726875 0.089375 0.000000
0.798750 0.089375 0.000000
0.870625 0.089375 0.000000
0.942500 0.089375 0.000000
1.000000 0.089375 0.000000
1.000000 0.089375 0.000000
1.000000 0.089375 0.000000
1.000000 0.089375 0.000000
0.080000 0.148750 0.000000
0.151875 0.148750 0.000000
0.223750 0.148750 0.000000
0.295625 0.148750 0.000000
0.367500 0.148750 0.000000
0.439375 0.148750 0.000000
0.511250 0.148750 0.000000
0.583125 0.148750 0.000000
0.655000 0.148750 0.000000
0.726875 0.148750 0.000000
0.798750 0.148750 0.000000
0.870625 0.148750 0.000000
0.942500 0.148750 0.000000
1.000000 0.148750 0.000000
1.000000 0.148750 0.000000
1.000000 0.148750 0.000000
1.000000 0.148750 0.000000
0.080000 0.208125 0.000000
0.151875 0.208125 0.000000
0.223750 0.208125 0.000000
0.295625 0.208125 0.000000
0.367500 0.208125 0.000000
0.439375 0.208125 0.000000
0.511250 0.208125 0.000000
0.583125 0.208125 0.000000
0.655000 0.208125 0.000000
0.726875 0.208125 0.000000
0.798750 0.208125 0.000000
0.870625 0.208125 0.000000
0.942500 0.208125 0.000000
1.000000 0.208125 0.000000
1.000000 0.208125 0.000000
1.000000 0.208125 0.000000
1.000000 0.208125 0.000000
0.080000 0.267500 0.000000
0.151875 0.267500 0.000000
0.223750 0.267500 0.000000
0.295625 0.267500 0.000000
0.367500 0.267500 0.000000
0.439375 0.267500 0.000000
0.511250 0.267500 0.000000
0.583125 0.267500 0.000000
0.655000 0.267500 0.000000
0.726875 0.267500 0.000000
0.798750 0.267500 0.000000
0.870625 0.267500 0.000000
0.942500 0.267500 0.000000
1.000000 0.267500 0.000000
1.000000 0.267500 0.000000
1.000000 0.267500 0.000000
1.000000 0.267500 0.000000
0.080000 0.326875 0.000000
0.151875 0.326875 0.000000
0.223750 0.326875 0.000000
0.295625 0.326875 0.000000
0.367500 0.326875 0.000000
0.439375 0.326875 0.000000
0.511250 0.326875 0.000000
0.583125 0.326875 0.000000
0.655000 0.326875 0.000000
0.726875 0.326875 0.000000
0.798750 0.326875 0.000000
0.870625 0.326875 0.000000
0.942500 0.326875 0.000000
1.000000 0.326875 0.000000
1.000000 0.326875 0.000000
1.000000 0.326875 0.000000
1.000000 0.326875 0.000000
0.080000 0.386250 0.000000
0.151875 0.386250 0.000000
0.223750 0.386250 0.000000
0.295625 0.386250 0.000000
0.367500 0.386250 0.000000
0.439375 0.386250 0.000000
0.511250 0.386250 0.000000
0.583125 0.386250 0.000000
0.655000 0.386250 0.000000
0.726875 0.386250 0.000000
0.798750 0.386250 0.000000
0.870625 0.386250 0.000000
0.942500 0.386250 0.000000
1.000000 0.386250 0.000000
1.000000 0.386250 0.000000
1.000000 0.386250 0.000000
1.000000 0.386250 0.000000
0.080000 0.445625 0.000000
0.151875 0.445625 0.000000
0.223750 0.445625 0.000000
0.295625 0.445625 0.000000
0.367500 0.445625 0.000000
0.439375 0.445625 0.000000
0.511250 0.445625 0.000000
0.583125 0.445625 0.000000
0.655000 0.445625 0.000000
0.726875 0.445625 0.000000
0.798750 0.445625 0.000000
0.870625 0.445625 0.000000
0.942500 0.445625 0.000000
1.000000 0.445625 0.000000
1.000000 0.445625 0.000000
1.000000 0.445625 0.000000
1.000000 0.445625 0.000000
0.080000 0.505000 0.000000
0.151875 0.505000 0.000000
0.223750 0.505000 0.000000
0.295625 0.505000 0.000000
0.367500 0.505000 0.000000
0.439375 0.505000 0.000000
0.511250 0.505000 0.000000
0.583125 0.505000 0.000000
0.655000 0.505000 0.000000
0.726875 0.505000 0.000000
0.798750 0.505000 0.000000
0.870625 0.505000 0.000000
0.942500 0.505000 0.000000
1.000000 0.505000 0.000000
1.000000 0.505000 0.000000
1.000000 0.505000 0.000000
1.000000 0.505000 0.000000
0.080000 0.564375 0.000000
0.151875 0.564375 0.000000
0.223750 0.564375 0.000000
0.295625 0.564375 0.000000
0.367500 0.564375 0.000000
0.439375 0.564375 0.000000
0.511250 0.564375 0.000000
0.583125 0.564375 0.000000
0.655000 0.564375 0.000000
0.726875 0.564375 0.000000
0.798750 0.564375 0.000000
0.870625 0.564375 0.000000
0.942500 0.564375 0.000000
1.000000 0.564375 0.000000
1.000000 0.564375 0.000000
1.000000 0.564375 0.000000
1.000000 0.564375 0.000000
0.080000 0.623750 0.000000
0.151875 0.623750 0.000000
0.223750 0.623750 0.000000
0.295625 0.623750 0.000000
0.367500 0.623750 0.000000
0.439375 0.623750 0.000000
0.511250 0.623750 0.000000
0.583125 0.623750 0.000000
0.655000 0.623750 0.000000
0.726875 0.623750 0.000000
0.798750 0.623750 0.000000
0.870625 0.623750 0.000000
0.942500 0.623750 0.000000
1.000000 0.623750 0.000000
1.000000 0.623750 0.000000
1.000000 0.623750 0.000000
1.000000 0.623750 0.000000
0.080000 0.683125 0.000000
0.151875 0.683125 0.000000
0.223750 0.683125 0.000000
0.295625 0.683125 0.000000
0.367500 0.683125 0.000000
0.439375 0.683125 0.000000
0.511250 0.683125 0.000000
0.583125 0.683125 0.000000
0.655000 0.683125 0.000000
0.726875 0.683125 0.000000
0.798750 0.683125 0.000000
0.870625 0.683125 0.000000
0.942500 0.683125 0.000000
1.000000 0.683125 0.000000
1.000000 0.683125 0.000000
1.000000 0.683125 0.000000
1.000000 0.683125 0.000000
0.080000 0.742500 0.000000
0.151875 0.742500 0.000000
0.223750 0.742500 0.000000
0.295625 0.742500 0.000000
0.367500 0.742500 0.000000
0.439375 0.742500 0.000000
0.511250 0.742500 0.000000
0.583125 0.742500 0.000000
0.655000 0.742500 0.000000
0.726875 0.742500 0.000000
0.798750 0.742500 0.000000
0.870625 0.742500 0.000000
0.942500 0.742500 0.000000
1.000000 0.742500 0.000000
1.000000 0.742500 0.000000
1.000000 0.742500 0.000000
1.000000 0.742500 0.000000
0.080000 0.801875 0.000000
0.151875 0.801875 0.000000
0.223750 0.801875 0.000000
0.295625 0.801875 0.000000
0.367500 0.801875 0.000000
0.439375 0.801875 0.000000
0.511250 0.801875 0.000000
0.583125 0.801875 0.000000
0.655000 0.801875 0.000000
0.726875 0.801875 0.000000
0.798750 0.801875 0.000000
0.870625 0.801875 0.000000
0.942500 0.801875 0.000000
1.000000 0.801875 0.000000
1.000000 0.801875 0.000000
1.000000 0.801875 0.000000
1.000000 0.801875 0.000000
0.080000 0.861250 0.000000
0.151875 0.861250 0.000000
0.223750 0.861250 0.000000
0.295625 0.861250 0.000000
0.367500 0.861250 0.000000
0.439375 0.861250 0.000000
0.511250 0.861250 0.000000
0.583125 0.861250 0.000000
0.655000 0.861250 0.000000
0.726875 0.861250 0.000000
0.798750 0.861250 0.000000
0.870625 0.861250 0.000000
0.942500 0.861250 0.000000
1.000000 0.861250 0.000000
1.000000 0.861250 0.000000
1.000000 0.861250 0.000000
1.000000 0.861250 0.000000
0.080000 0.920625 0.000000
0.151875 0.920625 0.000000
0.223750 0.920625 0.000000
0.295625 0.920625 0.000000
0.367500 0.920625 0.000000
0.439375 0.920625 0.000000
0.511250 0.920625 0.000000
0.583125 0.920625 0.000000
0.655000 0.920625 0.000000
0.726875 0.920625 0.000000
0.798750 0.920625 0.000000
0.870625 0.920625 0.000000
0.942500 0.920625 0.000000
1.000000 0.920625 0.000000
1.000000 0.920625 0.000000
1.000000 0.920625 0.000000
1.000000 0.920625 0.000000
0.080000 0.980000 0.000000
0.151875 0.980000 0.000000
0.223750 0.980000 0.000000
0.295625 0.980000 0.000000
0.367500 0.980000 0.000000
0.439375 0.980000 0.000000
0.511250 0.980000 0.000000
0.583125 0.980000 0.000000
0.655000 0.980000 0.000000
0.726875 0.980000 0.000000
0.798750 0.980000 0.000000
0.870625 0.980000 0.000000
0.942500 0.980000 0.000000
1.000000 0.980000 0.000000
1.000000 0.980000 0.000000
1.000000 0.980000 0.000000
1.000000 0.980000 0.000000
0.080000 0.030000 0.000000
0.151875 0.030000 0.000000
0.223750 0.030000 0.000000
0.295625 0.030000 0.000000
0.367500 0.030000 0.000000
0.439375 0.030000 0.000000
0.511250 0.030000 0.000000
0.583125 0.030000 0.000000
0.655000 0.030000 0.000000
0.726875 0.030000 0.000000
0.798750 0.030000 0.000000
0.870625 0.030000 0.000000
0.942500 0.030000 0.000000
1.000000 0.030000 0.000000
1.000000 0.030000 0.000000
1.000000 0.030000 0.000000
1.000000 0.030000 0.000000
0.080000 0.089375 0.000000
0.151875 0.089375 0.000000
0.223750 0.089375 0.000000
0.295625 0.089375 0.000000
0.367500 0.089375 0.000000
0.439375 0.089375 0.000000
0.511250 0.089375 0.000000
0.583125 0.089375 0.000000
0.655000 0.089375 0.000000
0.726875 0.089375 0.000000
0.798750 0.089375 0.000000
0.870625 0.089375 0.000000
0.942500 0.089375 0.000000
1.000000 0.089375 0.000000
1.000000 0.089375 0.000000
1.000000 0.089375 0.000000
1.000000 0.089375 0.000000
0.080000 0.148750 0.000000
0.151875 0.148750 0.000000
0.223750 0.148750 0.000000
0.295625 0.148750 0.000000
0.367500 0.148750 0.000000
0.439375 0.148750 0.000000
0.511250 0.148750 0.000000
0.583125 0.148750 0.000000
0.655000 0.148750 0.000000
0.726875 0.148750 0.000000
0.798750 0.148750 0.000000
0.870625 0.148750 0.000000
0.942500 0.148750 0.000000
1.000000 0.148750 0.000000
1.000000 0.148750 0.000000
1.000000 0.148750 0.000000
1.000000 0.148750 0.000000
0.080000 0.208125 0.000000
0.151875 0.208125 0.000000
0.223750 0.208125 0.000000
0.295625 0.208125 0.000000
0.367500 0.208125 0.000000
0.439375 0.208125 0.000000
0.511250 0.208125 0.000000
0.583125 0.208125 0.000000
0.655000 0.208125 0.000000
0.726875 0.208125 0.000000
0.798750 0.208125 0.000000
0.870625 0.208125 0.000000
0.942500 0.208125 0.000000
1.000000 0.208125 0.000000
1.000000 0.208125 0.000000
1.000000 0.208125 0.000000
1.000000 0.208125 0.000000
0.080000 0.267500 0.000000
0.151875 0.267500 0.000000
0.223750 0.267500 0.000000
0.295625 0.267500 0.000000
0.367500 0.267500 0.000000
0.439375 0.267500 0.000000
0.511250 0.267500 0.000000
0.583125 0.267500 0.000000
0.655000 0.267500 0.000000
0.726875 0.267500 0.000000
0.798750 0.267500 0.000000
0.870625 0.267500 0.000000
0.942500 0.267500 0.000000
1.000000 0.267500 0.000000
1.000000 0.267500 0.000000
1.000000 0.267500 0.000000
1.000000 0.267500 0.000000
0.080000 0.326875 0.000000
0.151875 0.326875 0.000000
0.223750 0.326875 0.000000
0.295625 0.326875 0.000000
0.367500 0.326875 0.000000
0.439375 0.326875 0.000000
0.511250 0.326875 0.000000
0.583125 0.326875 0.000000
0.655000 0.326875 0.000000
0.726875 0.326875 0.000000
0.798750 0.326875 0.000000
0.870625 0.326875 0.000000
0.942500 0.326875 0.000000
1.000000 0.326875 0.000000
1.000000 0.326875 0.000000
1.000000 0.326875 0.000000
1.000000 0.326875 0.000000
0.080000 0.386250 0.000000
0.151875 0.386250 0.000000
0.223750 0.386250 0.000000
0.295625 0.386250 0.000000
0.367500 0.386250 0.000000
0.439375 0.386250 0.000000
0.511250 0.386250 0.000000
0.583125 0.386250 0.000000
0.655000 0.386250 0.000000
0.726875 0.386250 0.000000
0.798750 0.386250 0.000000
0.870625 0.386250 0.000000
0.942500 0.386250 0.000000
1.000000 0.386250 0.000000
1.000000 0.386250 0.000000
1.000000 0.386250 0.000000
1.000000 0.386250 0.000000
0.080000 0.445625 0.000000
0.151875 0.445625 0.000000
0.223750 0.445625 0.000000
0.295625 0.445625 0.000000
0.367500 0.445625 0.000000
0.439375 0.445625 0.000000
0.511250 0.445625 0.000000
0.583125 0.445625 0.000000
0.655000 0.445625 0.000000
0.726875 0.445625 0.000000
0.798750 0.445625 0.000000
0.870625 0.445625 0.000000
0.942500 0.445625 0.000000
1.000000 0.445625 0.000000
1.000000 0.445625 0.000000
1.000000 0.445625 0.000000
1.000000 0.445625 0.000000
0.080000 0.505000 0.000000
0.151875 0.505000 0.000000
0.223750 0.505000 0.000000
0.295625 0.505000 0.000000
0.367500 0.505000 0.000000
0.439375 0.505000 0.000000
0.511250 0.505000 0.000000
0.583125 0.505000 0.000000
0.655000 0.505000 0.000000
0.726875 0.505000 0.000000
0.798750 0.505000 0.000000
0.870625 0.505000 0.000000
0.942500 0.505000 0.000000
1.000000 0.505000 0.000000
1.000000 0.505000 0.000000
1.000000 0.505000 0.000000
1.000000 0.505000 0.000000
0.080000 0.564375 0.000000
0.151875 0.564375 0.000000
0.223750 0.564375 0.000000
0.295625 0.564375 0.000000
0.367500 0.564375 0.000000
0.439375 0.564375 0.000000
0.511250 0.564375 0.000000
0.583125 0.564375 0.000000
0.655000 0.564375 0.000000
0.726875 0.564375 0.000000
0.798750 0.564375 0.000000
0.870625 0.564375 0.000000
0.942500 0.564375 0.000000
1.000000 0.564375 0.000000
1.000000 0.564375 0.000000
1.000000 0.564375 0.000000
1.000000 0.564375 0.000000
0.080000 0.623750 0.000000
0.151875 0.623750 0.000000
0.223750 0.623750 0.000000
0.295625 0.623750 0.000000
0.367500 0.623750 0.000000
0.439375 0.623750 0.000000
0.511250 0.623750 0.000000
0.583125 0.623750 0.000000
0.655000 0.623750 0.000000
0.726875 0.623750 0.000000
0.798750 0.623750 0.000000
0.870625 0.623750 0.000000
0.942500 0.623750 0.000000
1.000000 0.623750 0.000000
1.000000 0.623750 0.000000
1.000000 0.623750 0.000000
1.000000 0.623750 0.000000
0.080000 0.683125 0.000000
0.151875 0.683125 0.000000
0.223750 0.683125 0.000000
0.295625 0.683125 0.000000
0.367500 0.683125 0.000000
0.439375 0.683125 0.000000
0.511250 0.683125 0.000000
0.583125 0.683125 0.000000
0.655000 0.683125 0.000000
0.726875 0.683125 0.000000
0.798750 0.683125 0.000000
0.870625 0.683125 0.000000
0.942500 0.683125 0.000000
1.000000 0.683125 0.000000
1.000000 0.683125 0.000000
1.000000 0.683125 0.000000
1.000000 0.683125 0.000000
0.080000 0.742500 0.000000
0.151875 0.742500 0.000000
0.223750 0.742500 0.000000
0.295625 0.742500 0.000000
0.367500 0.742500 0.000000
0.439375 0.742500 0.000000
0.511250 0.742500 0.000000
0.583125 0.742500 0.000000
0.655000 0.742500 0.000000
0.726875 0.742500 0.000000
0.798750 0.742500 0.000000
0.870625 0.742500 0.000000
0.942500 0.742500 0.000000
1.000000 0.742500 0.000000
1.000000 0.742500 0.000000
1.000000 0.742500 0.000000
1.000000 0.742500 0.000000
0.080000 0.801875 0.000000
0.151875 0.801875 0.000000
0.223750 0.801875 0.000000
0.295625 0.801875 0.000000
0.367500 0.801875 0.000000
0.439375 0.801875 0.000000
0.511250 0.801875 0.000000
0.583125 0.801875 0.000000
0.655000 0.801875 0.000000
0.726875 0.801875 0.000000
0.798750 0.801875 0.000000
0.870625 0.801875 0.000000
0.942500 0.801875 0.000000
1.000000 0.801875 0.000000
1.000000 0.801875 0.000000
1.000000 0.801875 0.000000
1.000000 0.801875 0.000000
0.080000 0.861250 0.000000
0.151875 0.861250 0.000000
0.223750 0.861250 0.000000
0.295625 0.861250 0.000000
0.367500 0.861250 0.000000
0.439375 0.861250 0.000000
0.511250 0.861250 0.000000
0.583125 0.861250 0.000000
0.655000 0.861250 0.000000
0.726875 0.861250 0.000000
0.798750 0.861250 0.000000
0.870625 0.861250 0.000000
0.942500 0.861250 0.000000
1.000000 0.861250 0.000000
1.000000 0.861250 0.000000
1.000000 0.861250 0.000000
1.000000 0.861250 0.000000
0.080000 0.920625 0.000000
0.151875 0.920625 0.000000
0.223750 0.920625 0.000000
0.295625 0.920625 0.000000
0.367500 0.920625 0.000000
0.439375 0.920625 0.000000
0.511250 0.920625 0.000000
0.583125 0.920625 0.000000
0.655000 0.920625 0.000000
0.726875 0.920625 0.000000
0.798750 0.920625 0.000000
0.870625 0.920625 0.000000
0.942500 0.920625 0.000000
1.000000 0.920625 0.000000
1.000000 0.920625 0.000000
1.000000 0.920625 0.000000
1.000000 0.920625 0.000000
0.080000 0.980000 0.000000
0.151875 0.980000 0.000000
0.223750 0.980000 0.000000
0.295625 0.980000 0.000000
0.367500 0.980000 0.000000
0.439375 0.980000 0.000000
0.511250 0.980000 0.000000
0.583125 0.980000 0.000000
0.655000 0.980000 0.000000
0.726875 0.980000 0.000000
0.798750 0.980000 0.000000
0.870625 0.980000 0.000000
0.942500 0.980000 0.000000
1.000000 0.980000 0.000000
1.000000 0.980000 0.000000
1.000000 0.980000 0.000000
1.000000 0.980000 0.000000
0.080000 0.030000 0.046250
0.151875 0.030000 0.046250
0.223750 0.030000 0.046250
0.295625 0.030000 0.046250
0.367500 0.030000 0.046250
0.439375 0.030000 0.046250
0.511250 0.030000 0.046250
0.583125 0.030000 0.046250
0.655000 0.030000 0.046250
0.726875 0.030000 0.046250
0.798750 0.030000 0.046250
0.870625 0.030000 0.046250
0.942500 0.030000 0.046250
1.000000 0.030000 0.046250
1.000000 0.030000 0.046250
1.000000 0.030000 0.046250
1.000000 0.030000 0.046250
0.080000 0.089375 0.046250
0.151875 0.089375 0.046250
0.223750 0.089375 0.046250
0.295625 0.089375 0.046250
0.367500 0.089375 0.046250
0.439375 0.089375 0.046250
0.511250 0.089375 0.046250
0.583125 0.089375 0.046250
0.655000 0.089375 0.046250
0.726875 0.089375 0.046250
0.798750 0.089375 0.046250
0.870625 0.089375 0.046250
0.942500 0.089375 0.046250
1.000000 0.089375 0.046250
1.000000 0.089375 0.046250
1.000000 0.089375 0.046250
1.000000 0.089375 0.046250
0.080000 0.148750 0.046250
0.151875 0.148750 0.046250
0.223750 0.148750 0.046250
0.295625 0.148750 0.046250
0.367500 0.148750 0.046250
0.439375 0.148750 0.046250
0.511250 0.148750 0.046250
0.583125 0.148750 0.046250
0.655000 0.148750 0.046250
0.726875 0.148750 0.046250
0.798750 0.148750 0.046250
0.870625 0.148750 0.046250
0.942500 0.148750 0.046250
1.000000 0.148750 0.046250
1.000000 0.148750 0.046250
1.000000 0.148750 0.046250
1.000000 0.148750 0.046250
0.080000 0.208125 0.046250
0.151875 0.208125 0.046250
0.223750 0.208125 0.046250
0.295625 0.208125 0.046250
0.367500 0.208125 0.046250
0.439375 0.208125 0.046250
0.511250 0.208125 0.046250
0.583125 0.208125 0.046250
0.655000 0.208125 0.046250
0.726875 0.208125 0.046250
0.798750 0.208125 0.046250
0.870625 0.208125 0.046250
0.942500 0.208125 0.046250
1.000000 0.208125 0.046250
1.000000 0.208125 0.046250
1.000000 0.208125 0.046250
1.000000 0.208125 0.046250
0.080000 0.267500 0.046250
0.151875 0.267500 0.046250
0.223750 0.267500 0.046250
0.295625 0.267500 0.046250
0.367500 0.267500 0.046250
0.439375 0.267500 0.046250
0.511250 0.267500 0.046250
0.583125 0.267500 0.046250
0.655000 0.267500 0.046250
0.726875 0.267500 0.046250
0.798750 0.267500 0.046250
0.870625 0.267500 0.046250
0.942500 0.267500 0.046250
1.000000 0.267500 0.046250
1.000000 0.267500 0.046250
1.000000 0.267500 0.046250
1.000000 0.267500 0.046250
0.080000 0.326875 0.046250
0.151875 0.326875 0.046250
0.223750 0.326875 0.046250
0.295625 0.326875 0.046250
0.367500 0.326875 0.046250
0.439375 0.326875 0.046250
0.511250 0.326875 0.046250
0.583125 0.326875 0.046250
0.655000 0.326875 0.046250
0.726875 0.326875 0.046250
0.798750 0.326875 0.046250
0.870625 0.326875 0.046250
0.942500 0.326875 0.046250
1.000000 0.326875 0.046250
1.000000 0.326875 0.046250
1.000000 0.326875 0.046250
1.000000 0.326875 0.046250
0.080000 0.386250 0.046250
0.151875 0.386250 0.046250
0.223750 0.386250 0.046250
0.295625 0.386250 0.046250
0.367500 0.386250 0.046250
0.439375 0.386250 0.046250
0.511250 0.386250 0.046250
0.583125 0.386250 0.046250
0.655000 0.386250 0.046250
0.726875 0.386250 0.046250
0.798750 0.386250 0.046250
0.870625 0.386250 0.046250
0.942500 0.386250 0.046250
1.000000 0.386250 0.046250
1.000000 0.386250 0.046250
1.000000 0.386250 0.046250
1.000000 0.386250 0.046250
0.080000 0.445625 0.046250
0.151875 0.445625 0.046250
0.223750 0.445625 0.046250
0.295625 0.445625 0.046250
0.367500 0.445625 0.046250
0.439375 0.445625 0.046250
0.511250 0.445625 0.046250
0.583125 0.445625 0.046250
0.655000 0.445625 0.046250
0.726875 0.445625 0.046250
0.798750 0.445625 0.046250
0.870625 0.445625 0.046250
0.942500 0.445625 0.046250
1.000000 0.445625 0.046250
1.000000 0.445625 0.046250
1.000000 0.445625 0.046250
1.000000 0.445625 0.046250
0.080000 0.505000 0.046250
0.151875 0.505000 0.046250
0.223750 0.505000 0.046250
0.295625 0.505000 0.046250
0.367500 0.505000 0.046250
0.439375 0.505000 0.046250
0.511250 0.505000 0.046250
0.583125 0.505000 0.046250
0.655000 0.505000 0.046250
0.726875 0.505000 0.046250
0.798750 0.505000 0.046250
0.870625 0.505000 0.046250
0.942500 0.505000 0.046250
1.000000 0.505000 0.046250
1.000000 0.505000 0.046250
1.000000 0.505000 0.046250
1.000000 0.505000 0.046250
0.080000 0.564375 0.046250
0.151875 0.564375 0.046250
0.223750 0.564375 0.046250
0.295625 0.564375 0.046250
0.367500 0.564375 0.046250
0.439375 0.564375 0.046250
0.511250 0.564375 0.046250
0.583125 0.564375 0.046250
0.655000 0.564375 0.046250
0.726875 0.564375 0.046250
0.798750 0.564375 0.046250
0.870625 0.564375 0.046250
0.942500 0.564375 0.046250
1.000000 0.564375 0.046250
1.000000 0.564375 0.046250
1.000000 0.564375 0.046250
1.000000 0.564375 0.046250
0.080000 0.623750 0.046250
0.151875 0.623750 0.046250
0.223750 0.623750 0.046250
0.295625 0.623750 0.046250
0.367500 0.623750 0.046250
0.439375 0.623750 0.046250
0.511250 0.623750 0.046250
0.583125 0.623750 0.046250
0.655000 0.623750 0.046250
0.726875 0.623750 0.046250
0.798750 0.623750 0.046250
0.870625 0.623750 0.046250
0.942500 0.623750 0.046250
1.000000 0.623750 0.046250
1.000000 0.623750 0.046250
1.000000 0.623750 0.046250
1.000000 0.623750 0.046250
0.080000 0.683125 0.046250
0.151875 0.683125 0.046250
0.223750 0.683125 0.046250
0.295625 0.683125 0.046250
0.367500 0.683125 0.046250
0.439375 0.683125 0.046250
0.511250 0.683125 0.046250
0.583125 0.683125 0.046250
0.655000 0.683125 0.046250
0.726875 0.683125 0.046250
0.798750 0.683125 0.046250
0.870625 0.683125 0.046250
0.942500 0.683125 0.046250
1.000000 0.683125 0.046250
1.000000 0.683125 0.046250
1.000000 0.683125 0.046250
1.000000 0.683125 0.046250
0.080000 0.742500 0.046250
0.151875 0.742500 0.046250
0.223750 0.742500 0.046250
0.295625 0.742500 0.046250
0.367500 0.742500 0.046250
0.439375 0.742500 0.046250
0.511250 0.742500 0.046250
0.583125 0.742500 0.046250
0.655000 0.742500 0.046250
0.726875 0.742500 0.046250
0.798750 0.742500 0.046250
0.870625 0.742500 0.046250
0.942500 0.742500 0.046250
1.000000 0.742500 0.046250
1.000000 0.742500 0.046250
1.000000 0.742500 0.046250
1.000000 0.742500 0.046250
0.080000 0.801875 0.046250
0.151875 0.801875 0.046250
0.223750 0.801875 0.046250
0.295625 0.801875 0.046250
0.367500 0.801875 0.046250
0.439375 0.801875 0.046250
0.511250 0.801875 0.046250
0.583125 0.801875 0.046250
0.655000 0.801875 0.046250
0.726875 0.801875 0.046250
0.798750 0.801875 0.046250
0.870625 0.801875 0.046250
0.942500 0.801875 0.046250
1.000000 0.801875 0.046250
1.000000 0.801875 0.046250
1.000000 0.801875 0.046250
1.000000 0.801875 0.046250
0.080000 0.861250 0.046250
0.151875 0.861250 0.046250
0.223750 0.861250 0.046250
0.295625 0.861250 0.046250
0.367500 0.861250 0.046250
0.439375 0.861250 0.046250
0.511250 0.861250 0.046250
0.583125 0.861250 0.046250
0.655000 0.861250 0.046250
0.726875 0.861250 0.046250
0.798750 0.861250 0.046250
0.870625 0.861250 0.046250
0.942500 0.861250 0.046250
1.000000 0.861250 0.046250
1.000000 0.861250 0.046250
1.000000 0.861250 0.046250
1.000000 0.861250 0.046250
0.080000 0.920625 0.046250
0.151875 0.920625 0.046250
0.223750 0.920625 0.046250
0.295625 0.920625 0.046250
0.367500 0.920625 0.046250
0.439375 0.920625 0.046250
0.511250 0.920625 0.046250
0.583125 0.920625 0.046250
0.655000 0.920625 0.046250
0.726875 0.920625 0.046250
0.798750 0.920625 0.046250
0.870625 0.920625 0.046250
0.942500 0.920625 0.046250
1.000000 0.920625 0.046250
1.000000 0.920625 0.046250
1.000000 0.920625 0.046250
1.000000 0.920625 0.046250
0.080000 0.980000 0.046250
0.151875 0.980000 0.046250
0.223750 0.980000 0.046250
0.295625 0.980000 0.046250
0.367500 0.980000 0.046250
0.439375 0.980000 0.046250
0.511250 0.980000 0.046250
0.583125 0.980000 0.046250
0.655000 0.980000 0.046250
0.726875 0.980000 0.046250
0.798750 0.980000 0.046250
0.870625 0.980000 0.046250
0.942500 0.980000 0.046250
1.000000 0.980000 0.046250
1.000000 0.980000 0.046250
1.000000 0.980000 0.046250
1.000000 0.980000 0.046250
0.080000 0.030000 0.099375
0.151875 0.030000 0.099375
0.223750 0.030000 0.099375
0.295625 0.030000 0.099375
0.367500 0.030000 0.099375
0.439375 0.030000 0.099375
0.511250 0.030000 0.099375
0.583125 0.030000 0.099375
0.655000 0.030000 0.099375
0.726875 0.030000 0.099375
0.798750 0.030000 0.099375
0.870625 0.030000 0.099375
0.942500 0.030000 0.099375
1.000000 0.030000 0.099375
1.000000 0.030000 0.099375
1.000000 0.030000 0.099375
1.000000 0.030000 0.099375
0.080000 0.089375 0.099375
