app/src/main/assets/luts/porcelain.cube
# ApexStudio filter: porcelain
LUT_3D_SIZE 17
DOMAIN_MIN 0.0 0.0 0.0
DOMAIN_MAX 1.0 1.0 1.0
0.057403 0.040571 0.000000
0.109023 0.040571 0.000000
0.163307 0.040571 0.000000
0.219491 0.040571 0.000000
0.277165 0.040571 0.000000
0.336074 0.040571 0.000000
0.396037 0.040571 0.000000
0.456926 0.040571 0.000000
0.518640 0.040571 0.000000
0.581098 0.040571 0.000000
0.644236 0.040571 0.000000
0.707999 0.040571 0.000000
0.772343 0.040571 0.000000
0.837228 0.040571 0.000000
0.902620 0.040571 0.000000
0.968490 0.040571 0.000000
1.000000 0.040571 0.000000
0.057403 0.095266 0.000000
0.109023 0.095266 0.000000
0.163307 0.095266 0.000000
0.219491 0.095266 0.000000
0.277165 0.095266 0.000000
0.336074 0.095266 0.000000
0.396037 0.095266 0.000000
0.456926 0.095266 0.000000
0.518640 0.095266 0.000000
0.581098 0.095266 0.000000
0.644236 0.095266 0.000000
0.707999 0.095266 0.000000
0.772343 0.095266 0.000000
0.837228 0.095266 0.000000
0.902620 0.095266 0.000000
0.968490 0.095266 0.000000
1.000000 0.095266 0.000000
0.057403 0.151678 0.000000
0.109023 0.151678 0.000000
0.163307 0.151678 0.000000
0.219491 0.151678 0.000000
0.277165 0.151678 0.000000
0.336074 0.151678 0.000000
0.396037 0.151678 0.000000
0.456926 0.151678 0.000000
0.518640 0.151678 0.000000
0.581098 0.151678 0.000000
0.644236 0.151678 0.000000
0.707999 0.151678 0.000000
0.772343 0.151678 0.000000
0.837228 0.151678 0.000000
0.902620 0.151678 0.000000
0.968490 0.151678 0.000000
1.000000 0.151678 0.000000
0.057403 0.209183 0.000000
0.109023 0.209183 0.000000
0.163307 0.209183 0.000000
0.219491 0.209183 0.000000
0.277165 0.209183 0.000000
0.336074 0.209183 0.000000
0.396037 0.209183 0.000000
0.456926 0.209183 0.000000
0.518640 0.209183 0.000000
0.581098 0.209183 0.000000
0.644236 0.209183 0.000000
0.707999 0.209183 0.000000
0.772343 0.209183 0.000000
0.837228 0.209183 0.000000
0.902620 0.209183 0.000000
0.968490 0.209183 0.000000
1.000000 0.209183 0.000000
0.057403 0.267501 0.000000
0.109023 0.267501 0.000000
0.163307 0.267501 0.000000
0.219491 0.267501 0.000000
0.277165 0.267501 0.000000
0.336074 0.267501 0.000000
0.396037 0.267501 0.000000
0.456926 0.267501 0.000000
0.518640 0.267501 0.000000
0.581098 0.267501 0.000000
0.644236 0.267501 0.000000
0.707999 0.267501 0.000000
0.772343 0.267501 0.000000
0.837228 0.267501 0.000000
0.902620 0.267501 0.000000
0.968490 0.267501 0.000000
1.000000 0.267501 0.000000
0.057403 0.326466 0.000000
0.109023 0.326466 0.000000
0.163307 0.326466 0.000000
0.219491 0.326466 0.000000
0.277165 0.326466 0.000000
0.336074 0.326466 0.000000
0.396037 0.326466 0.000000
0.456926 0.326466 0.000000
0.518640 0.326466 0.000000
0.581098 0.326466 0.000000
0.644236 0.326466 0.000000
0.707999 0.326466 0.000000
0.772343 0.326466 0.000000
0.837228 0.326466 0.000000
0.902620 0.326466 0.000000
0.968490 0.326466 0.000000
1.000000 0.326466 0.000000
0.057403 0.385970 0.000000
0.109023 0.385970 0.000000
0.163307 0.385970 0.000000
0.219491 0.385970 0.000000
0.277165 0.385970 0.000000
0.336074 0.385970 0.000000
0.396037 0.385970 0.000000
0.456926 0.385970 0.000000
0.518640 0.385970 0.000000
0.581098 0.385970 0.000000
0.644236 0.385970 0.000000
0.707999 0.385970 0.000000
0.772343 0.385970 0.000000
0.837228 0.385970 0.000000
0.902620 0.385970 0.000000
0.968490 0.385970 0.000000
1.000000 0.385970 0.000000
0.057403 0.445939 0.000000
0.109023 0.445939 0.000000
0.163307 0.445939 0.000000
0.219491 0.445939 0.000000
0.277165 0.445939 0.000000
0.336074 0.445939 0.000000
0.396037 0.445939 0.000000
0.456926 0.445939 0.000000
0.518640 0.445939 0.000000
0.581098 0.445939 0.000000
0.644236 0.445939 0.000000
0.707999 0.445939 0.000000
0.772343 0.445939 0.000000
0.837228 0.445939 0.000000
0.902620 0.445939 0.000000
0.968490 0.445939 0.000000
1.000000 0.445939 0.000000
0.057403 0.506315 0.000000
0.109023 0.506315 0.000000
0.163307 0.506315 0.000000
0.219491 0.506315 0.000000
0.277165 0.506315 0.000000
0.336074 0.506315 0.000000
0.396037 0.506315 0.000000
0.456926 0.506315 0.000000
0.518640 0.506315 0.000000
0.581098 0.506315 0.000000
0.644236 0.506315 0.000000
0.707999 0.506315 0.000000
0.772343 0.506315 0.000000
0.837228 0.506315 0.000000
0.902620 0.506315 0.000000
0.968490 0.506315 0.000000
1.000000 0.506315 0.000000
0.057403 0.567054 0.000000
0.109023 0.567054 0.000000
0.163307 0.567054 0.000000
0.219491 0.567054 0.000000
0.277165 0.567054 0.000000
0.336074 0.567054 0.000000
0.396037 0.567054 0.000000
0.456926 0.567054 0.000000
0.518640 0.567054 0.000000
0.581098 0.567054 0.000000
0.644236 0.567054 0.000000
0.707999 0.567054 0.000000
0.772343 0.567054 0.000000
0.837228 0.567054 0.000000
0.902620 0.567054 0.000000
0.968490 0.567054 0.000000
1.000000 0.567054 0.000000
0.057403 0.628121 0.000000
0.109023 0.628121 0.000000
0.163307 0.628121 0.000000
0.219491 0.628121 0.000000
0.277165 0.628121 0.000000
0.336074 0.628121 0.000000
0.396037 0.628121 0.000000
0.456926 0.628121 0.000000
0.518640 0.628121 0.000000
0.581098 0.628121 0.000000
0.644236 0.628121 0.000000
0.707999 0.628121 0.000000
0.772343 0.628121 0.000000
0.837228 0.628121 0.000000
0.902620 0.628121 0.000000
0.968490 0.628121 0.000000
1.000000 0.628121 0.000000
0.057403 0.689486 0.000000
0.109023 0.689486 0.000000
0.163307 0.689486 0.000000
0.219491 0.689486 0.000000
0.277165 0.689486 0.000000
0.336074 0.689486 0.000000
0.396037 0.689486 0.000000
0.456926 0.689486 0.000000
0.518640 0.689486 0.000000
0.581098 0.689486 0.000000
0.644236 0.689486 0.000000
0.707999 0.689486 0.000000
0.772343 0.689486 0.000000
0.837228 0.689486 0.000000
0.902620 0.689486 0.000000
0.968490 0.689486 0.000000
1.000000 0.689486 0.000000
0.057403 0.751126 0.000000
0.109023 0.751126 0.000000
0.163307 0.751126 0.000000
0.219491 0.751126 0.000000
0.277165 0.751126 0.000000
0.336074 0.751126 0.000000
0.396037 0.751126 0.000000
0.456926 0.751126 0.000000
0.518640 0.751126 0.000000
0.581098 0.751126 0.000000
0.644236 0.751126 0.000000
0.707999 0.751126 0.000000
0.772343 0.751126 0.000000
0.837228 0.751126 0.000000
0.902620 0.751126 0.000000
0.968490 0.751126 0.000000
1.000000 0.751126 0.000000
0.057403 0.813021 0.000000
0.109023 0.813021 0.000000
0.163307 0.813021 0.000000
0.219491 0.813021 0.000000
0.277165 0.813021 0.000000
0.336074 0.813021 0.000000
0.396037 0.813021 0.000000
0.456926 0.813021 0.000000
0.518640 0.813021 0.000000
0.581098 0.813021 0.000000
0.644236 0.813021 0.000000
0.707999 0.813021 0.000000
0.772343 0.813021 0.000000
0.837228 0.813021 0.000000
0.902620 0.813021 0.000000
0.968490 0.813021 0.000000
1.000000 0.813021 0.000000
0.057403 0.875152 0.000000
0.109023 0.875152 0.000000
0.163307 0.875152 0.000000
0.219491 0.875152 0.000000
0.277165 0.875152 0.000000
0.336074 0.875152 0.000000
0.396037 0.875152 0.000000
0.456926 0.875152 0.000000
0.518640 0.875152 0.000000
0.581098 0.875152 0.000000
0.644236 0.875152 0.000000
0.707999 0.875152 0.000000
0.772343 0.875152 0.000000
0.837228 0.875152 0.000000
0.902620 0.875152 0.000000
0.968490 0.875152 0.000000
1.000000 0.875152 0.000000
0.057403 0.937504 0.000000
0.109023 0.937504 0.000000
0.163307 0.937504 0.000000
0.219491 0.937504 0.000000
0.277165 0.937504 0.000000
0.336074 0.937504 0.000000
0.396037 0.937504 0.000000
0.456926 0.937504 0.000000
0.518640 0.937504 0.000000
0.581098 0.937504 0.000000
0.644236 0.937504 0.000000
0.707999 0.937504 0.000000
0.772343 0.937504 0.000000
0.837228 0.937504 0.000000
0.902620 0.937504 0.000000
0.968490 0.937504 0.000000
1.000000 0.937504 0.000000
0.057403 1.000000 0.000000
0.109023 1.000000 0.000000
0.163307 1.000000 0.000000
0.219491 1.000000 0.000000
0.277165 1.000000 0.000000
0.336074 1.000000 0.000000
0.396037 1.000000 0.000000
0.456926 1.000000 0.000000
0.518640 1.000000 0.000000
0.581098 1.000000 0.000000
0.644236 1.000000 0.000000
0.707999 1.000000 0.000000
0.772343 1.000000 0.000000
0.837228 1.000000 0.000000
0.902620 1.000000 0.000000
0.968490 1.000000 0.000000
1.000000 1.000000 0.000000
0.057403 0.040571 0.062500
0.109023 0.040571 0.062500
0.163307 0.040571 0.062500
0.219491 0.040571 0.062500
0.277165 0.040571 0.062500
0.336074 0.040571 0.062500
0.396037 0.040571 0.062500
0.456926 0.040571 0.062500
0.518640 0.040571 0.062500
0.581098 0.040571 0.062500
0.644236 0.040571 0.062500
0.707999 0.040571 0.062500
0.772343 0.040571 0.062500
0.837228 0.040571 0.062500
0.902620 0.040571 0.062500
0.968490 0.040571 0.062500
1.000000 0.040571 0.062500
0.057403 0.095266 0.062500
0.109023 0.095266 0.062500
0.163307 0.095266 0.062500
0.219491 0.095266 0.062500
0.277165 0.095266 0.062500
0.336074 0.095266 0.062500
0.396037 0.095266 0.062500
0.456926 0.095266 0.062500
0.518640 0.095266 0.062500
0.581098 0.095266 0.062500
0.644236 0.095266 0.062500
0.707999 0.095266 0.062500
0.772343 0.095266 0.062500
0.837228 0.095266 0.062500
0.902620 0.095266 0.062500
0.968490 0.095266 0.062500
1.000000 0.095266 0.062500
0.057403 0.151678 0.062500
0.109023 0.151678 0.062500
0.163307 0.151678 0.062500
0.219491 0.151678 0.062500
0.277165 0.151678 0.062500
0.336074 0.151678 0.062500
0.396037 0.151678 0.062500
0.456926 0.151678 0.062500
0.518640 0.151678 0.062500
0.581098 0.151678 0.062500
0.644236 0.151678 0.062500
0.707999 0.151678 0.062500
0.772343 0.151678 0.062500
0.837228 0.151678 0.062500
0.902620 0.151678 0.062500
0.968490 0.151678 0.062500
1.000000 0.151678 0.062500
0.057403 0.209183 0.062500
0.109023 0.209183 0.062500
0.163307 0.209183 0.062500
0.219491 0.209183 0.062500
0.277165 0.209183 0.062500
0.336074 0.209183 0.062500
0.396037 0.209183 0.062500
0.456926 0.209183 0.062500
0.518640 0.209183 0.062500
0.581098 0.209183 0.062500
0.644236 0.209183 0.062500
0.707999 0.209183 0.062500
0.772343 0.209183 0.062500
0.837228 0.209183 0.062500
0.902620 0.209183 0.062500
0.968490 0.209183 0.062500
1.000000 0.209183 0.062500
0.057403 0.267501 0.062500
0.109023 0.267501 0.062500
0.163307 0.267501 0.062500
0.219491 0.267501 0.062500
0.277165 0.267501 0.062500
0.336074 0.267501 0.062500
0.396037 0.267501 0.062500
0.456926 0.267501 0.062500
0.518640 0.267501 0.062500
0.581098 0.267501 0.062500
0.644236 0.267501 0.062500
0.707999 0.267501 0.062500
0.772343 0.267501 0.062500
0.837228 0.267501 0.062500
0.902620 0.267501 0.062500
0.968490 0.267501 0.062500
1.000000 0.267501 0.062500
0.057403 0.326466 0.062500
0.109023 0.326466 0.062500
0.163307 0.326466 0.062500
0.219491 0.326466 0.062500
0.277165 0.326466 0.062500
0.336074 0.326466 0.062500
0.396037 0.326466 0.062500
0.456926 0.326466 0.062500
0.518640 0.326466 0.062500
0.581098 0.326466 0.062500
0.644236 0.326466 0.062500
0.707999 0.326466 0.062500
0.772343 0.326466 0.062500
0.837228 0.326466 0.062500
0.902620 0.326466 0.062500
0.968490 0.326466 0.062500
1.000000 0.326466 0.062500
0.057403 0.385970 0.062500
0.109023 0.385970 0.062500
0.163307 0.385970 0.062500
0.219491 0.385970 0.062500
0.277165 0.385970 0.062500
0.336074 0.385970 0.062500
0.396037 0.385970 0.062500
0.456926 0.385970 0.062500
0.518640 0.385970 0.062500
0.581098 0.385970 0.062500
0.644236 0.385970 0.062500
0.707999 0.385970 0.062500
0.772343 0.385970 0.062500
0.837228 0.385970 0.062500
0.902620 0.385970 0.062500
0.968490 0.385970 0.062500
1.000000 0.385970 0.062500
0.057403 0.445939 0.062500
0.109023 0.445939 0.062500
0.163307 0.445939 0.062500
0.219491 0.445939 0.062500
0.277165 0.445939 0.062500
0.336074 0.445939 0.062500
0.396037 0.445939 0.062500
0.456926 0.445939 0.062500
0.518640 0.445939 0.062500
0.581098 0.445939 0.062500
0.644236 0.445939 0.062500
0.707999 0.445939 0.062500
0.772343 0.445939 0.062500
0.837228 0.445939 0.062500
0.902620 0.445939 0.062500
0.968490 0.445939 0.062500
1.000000 0.445939 0.062500
0.057403 0.506315 0.062500
0.109023 0.506315 0.062500
0.163307 0.506315 0.062500
0.219491 0.506315 0.062500
0.277165 0.506315 0.062500
0.336074 0.506315 0.062500
0.396037 0.506315 0.062500
0.456926 0.506315 0.062500
0.518640 0.506315 0.062500
0.581098 0.506315 0.062500
0.644236 0.506315 0.062500
0.707999 0.506315 0.062500
0.772343 0.506315 0.062500
0.837228 0.506315 0.062500
0.902620 0.506315 0.062500
0.968490 0.506315 0.062500
1.000000 0.506315 0.062500
0.057403 0.567054 0.062500
0.109023 0.567054 0.062500
0.163307 0.567054 0.062500
0.219491 0.567054 0.062500
0.277165 0.567054 0.062500
0.336074 0.567054 0.062500
0.396037 0.567054 0.062500
0.456926 0.567054 0.062500
0.518640 0.567054 0.062500
0.581098 0.567054 0.062500
0.644236 0.567054 0.062500
0.707999 0.567054 0.062500
0.772343 0.567054 0.062500
0.837228 0.567054 0.062500
0.902620 0.567054 0.062500
0.968490 0.567054 0.062500
1.000000 0.567054 0.062500
0.057403 0.628121 0.062500
0.109023 0.628121 0.062500
0.163307 0.628121 0.062500
0.219491 0.628121 0.062500
0.277165 0.628121 0.062500
0.336074 0.628121 0.062500
0.396037 0.628121 0.062500
0.456926 0.628121 0.062500
0.518640 0.628121 0.062500
0.581098 0.628121 0.062500
0.644236 0.628121 0.062500
0.707999 0.628121 0.062500
0.772343 0.628121 0.062500
0.837228 0.628121 0.062500
0.902620 0.628121 0.062500
0.968490 0.628121 0.062500
1.000000 0.628121 0.062500
0.057403 0.689486 0.062500
0.109023 0.689486 0.062500
0.163307 0.689486 0.062500
0.219491 0.689486 0.062500
0.277165 0.689486 0.062500
0.336074 0.689486 0.062500
0.396037 0.689486 0.062500
0.456926 0.689486 0.062500
0.518640 0.689486 0.062500
0.581098 0.689486 0.062500
0.644236 0.689486 0.062500
0.707999 0.689486 0.062500
0.772343 0.689486 0.062500
0.837228 0.689486 0.062500
0.902620 0.689486 0.062500
0.968490 0.689486 0.062500
1.000000 0.689486 0.062500
0.057403 0.751126 0.062500
0.109023 0.751126 0.062500
0.163307 0.751126 0.062500
0.219491 0.751126 0.062500
0.277165 0.751126 0.062500
0.336074 0.751126 0.062500
0.396037 0.751126 0.062500
0.456926 0.751126 0.062500
0.518640 0.751126 0.062500
0.581098 0.751126 0.062500
0.644236 0.751126 0.062500
0.707999 0.751126 0.062500
0.772343 0.751126 0.062500
0.837228 0.751126 0.062500
0.902620 0.751126 0.062500
0.968490 0.751126 0.062500
1.000000 0.751126 0.062500
0.057403 0.813021 0.062500
0.109023 0.813021 0.062500
0.163307 0.813021 0.062500
0.219491 0.813021 0.062500
0.277165 0.813021 0.062500
0.336074 0.813021 0.062500
0.396037 0.813021 0.062500
0.456926 0.813021 0.062500
0.518640 0.813021 0.062500
0.581098 0.813021 0.062500
0.644236 0.813021 0.062500
0.707999 0.813021 0.062500
0.772343 0.813021 0.062500
0.837228 0.813021 0.062500
0.902620 0.813021 0.062500
0.968490 0.813021 0.062500
1.000000 0.813021 0.062500
0.057403 0.875152 0.062500
0.109023 0.875152 0.062500
0.163307 0.875152 0.062500
0.219491 0.875152 0.062500
0.277165 0.875152 0.062500
0.336074 0.875152 0.062500
0.396037 0.875152 0.062500
0.456926 0.875152 0.062500
0.518640 0.875152 0.062500
0.581098 0.875152 0.062500
0.644236 0.875152 0.062500
0.707999 0.875152 0.062500
0.772343 0.875152 0.062500
0.837228 0.875152 0.062500
0.902620 0.875152 0.062500
0.968490 0.875152 0.062500
1.000000 0.875152 0.062500
0.057403 0.937504 0.062500
0.109023 0.937504 0.062500
0.163307 0.937504 0.062500
0.219491 0.937504 0.062500
0.277165 0.937504 0.062500
0.336074 0.937504 0.062500
0.396037 0.937504 0.062500
0.456926 0.937504 0.062500
0.518640 0.937504 0.062500
0.581098 0.937504 0.062500
0.644236 0.937504 0.062500
0.707999 0.937504 0.062500
0.772343 0.937504 0.062500
0.837228 0.937504 0.062500
0.902620 0.937504 0.062500
0.968490 0.937504 0.062500
1.000000 0.937504 0.062500
0.057403 1.000000 0.062500
0.109023 1.000000 0.062500
0.163307 1.000000 0.062500
0.219491 1.000000 0.062500
0.277165 1.000000 0.062500
0.336074 1.000000 0.062500
0.396037 1.000000 0.062500
0.456926 1.000000 0.062500
0.518640 1.000000 0.062500
0.581098 1.000000 0.062500
0.644236 1.000000 0.062500
0.707999 1.000000 0.062500
0.772343 1.000000 0.062500
0.837228 1.000000 0.062500
0.902620 1.000000 0.062500
0.968490 1.000000 0.062500
1.000000 1.000000 0.062500
0.057403 0.040571 0.125000
0.109023 0.040571 0.125000
0.163307 0.040571 0.125000
0.219491 0.040571 0.125000
0.277165 0.040571 0.125000
0.336074 0.040571 0.125000
0.396037 0.040571 0.125000
0.456926 0.040571 0.125000
0.518640 0.040571 0.125000
0.581098 0.040571 0.125000
0.644236 0.040571 0.125000
0.707999 0.040571 0.125000
0.772343 0.040571 0.125000
0.837228 0.040571 0.125000
0.902620 0.040571 0.125000
0.968490 0.040571 0.125000
1.000000 0.040571 0.125000
0.057403 0.095266 0.125000
0.109023 0.095266 0.125000
0.163307 0.095266 0.125000
0.219491 0.095266 0.125000
0.277165 0.095266 0.125000
0.336074 0.095266 0.125000
0.396037 0.095266 0.125000
0.456926 0.095266 0.125000
0.518640 0.095266 0.125000
0.581098 0.095266 0.125000
0.644236 0.095266 0.125000
0.707999 0.095266 0.125000
0.772343 0.095266 0.125000
0.837228 0.095266 0.125000
0.902620 0.095266 0.125000
0.968490 0.095266 0.125000
1.000000 0.095266 0.125000
0.057403 0.151678 0.125000
0.109023 0.151678 0.125000
0.163307 0.151678 0.125000
0.219491 0.151678 0.125000
0.277165 0.151678 0.125000
0.336074 0.151678 0.125000
0.396037 0.151678 0.125000
0.456926 0.151678 0.125000
0.518640 0.151678 0.125000
0.581098 0.151678 0.125000
0.644236 0.151678 0.125000
0.707999 0.151678 0.125000
0.772343 0.151678 0.125000
0.837228 0.151678 0.125000
0.902620 0.151678 0.125000
0.968490 0.151678 0.125000
1.000000 0.151678 0.125000
0.057403 0.209183 0.125000
0.109023 0.209183 0.125000
0.163307 0.209183 0.125000
0.219491 0.209183 0.125000
0.277165 0.209183 0.125000
0.336074 0.209183 0.125000
0.396037 0.209183 0.125000
0.456926 0.209183 0.125000
0.518640 0.209183 0.125000
0.581098 0.209183 0.125000
0.644236 0.209183 0.125000
0.707999 0.209183 0.125000
0.772343 0.209183 0.125000
0.837228 0.209183 0.125000
0.902620 0.209183 0.125000
0.968490 0.209183 0.125000
1.000000 0.209183 0.125000
0.057403 0.267501 0.125000
0.109023 0.267501 0.125000
0.163307 0.267501 0.125000
0.219491 0.267501 0.125000
0.277165 0.267501 0.125000
0.336074 0.267501 0.125000
0.396037 0.267501 0.125000
0.456926 0.267501 0.125000
0.518640 0.267501 0.125000
0.581098 0.267501 0.125000
0.644236 0.267501 0.125000
0.707999 0.267501 0.125000
0.772343 0.267501 0.125000
0.837228 0.267501 0.125000
0.902620 0.267501 0.125000
0.968490 0.267501 0.125000
1.000000 0.267501 0.125000
0.057403 0.326466 0.125000
0.109023 0.326466 0.125000
0.163307 0.326466 0.125000
0.219491 0.326466 0.125000
0.277165 0.326466 0.125000
0.336074 0.326466 0.125000
0.396037 0.326466 0.125000
0.456926 0.326466 0.125000
0.518640 0.326466 0.125000
0.581098 0.326466 0.125000
0.644236 0.326466 0.125000
0.707999 0.326466 0.125000
0.772343 0.326466 0.125000
0.837228 0.326466 0.125000
0.902620 0.326466 0.125000
0.968490 0.326466 0.125000
1.000000 0.326466 0.125000
0.057403 0.385970 0.125000
0.109023 0.385970 0.125000
0.163307 0.385970 0.125000
0.219491 0.385970 0.125000
0.277165 0.385970 0.125000
0.336074 0.385970 0.125000
0.396037 0.385970 0.125000
0.456926 0.385970 0.125000
0.518640 0.385970 0.125000
0.581098 0.385970 0.125000
0.644236 0.385970 0.125000
0.707999 0.385970 0.125000
0.772343 0.385970 0.125000
0.837228 0.385970 0.125000
0.902620 0.385970 0.125000
0.968490 0.385970 0.125000
1.000000 0.385970 0.125000
0.057403 0.445939 0.125000
0.109023 0.445939 0.125000
0.163307 0.445939 0.125000
0.219491 0.445939 0.125000
0.277165 0.445939 0.125000
0.336074 0.445939 0.125000
0.396037 0.445939 0.125000
0.456926 0.445939 0.125000
0.518640 0.445939 0.125000
0.581098 0.445939 0.125000
0.644236 0.445939 0.125000
0.707999 0.445939 0.125000
0.772343 0.445939 0.125000
0.837228 0.445939 0.125000
0.902620 0.445939 0.125000
0.968490 0.445939 0.125000
1.000000 0.445939 0.125000
0.057403 0.506315 0.125000
0.109023 0.506315 0.125000
0.163307 0.506315 0.125000
0.219491 0.506315 0.125000
0.277165 0.506315 0.125000
0.336074 0.506315 0.125000
0.396037 0.506315 0.125000
0.456926 0.506315 0.125000
0.518640 0.506315 0.125000
0.581098 0.506315 0.125000
0.644236 0.506315 0.125000
0.707999 0.506315 0.125000
0.772343 0.506315 0.125000
0.837228 0.506315 0.125000
0.902620 0.506315 0.125000
0.968490 0.506315 0.125000
1.000000 0.506315 0.125000
0.057403 0.567054 0.125000
0.109023 0.567054 0.125000
0.163307 0.567054 0.125000
0.219491 0.567054 0.125000
0.277165 0.567054 0.125000
0.336074 0.567054 0.125000
0.396037 0.567054 0.125000
0.456926 0.567054 0.125000
0.518640 0.567054 0.125000
0.581098 0.567054 0.125000
0.644236 0.567054 0.125000
0.707999 0.567054 0.125000
0.772343 0.567054 0.125000
0.837228 0.567054 0.125000
0.902620 0.567054 0.125000
0.968490 0.567054 0.125000
1.000000 0.567054 0.125000
0.057403 0.628121 0.125000
0.109023 0.628121 0.125000
0.163307 0.628121 0.125000
0.219491 0.628121 0.125000
0.277165 0.628121 0.125000
0.336074 0.628121 0.125000
0.396037 0.628121 0.125000
0.456926 0.628121 0.125000
0.518640 0.628121 0.125000
0.581098 0.628121 0.125000
0.644236 0.628121 0.125000
0.707999 0.628121 0.125000
0.772343 0.628121 0.125000
0.837228 0.628121 0.125000
0.902620 0.628121 0.125000
0.968490 0.628121 0.125000
1.000000 0.628121 0.125000
0.057403 0.689486 0.125000
0.109023 0.689486 0.125000
0.163307 0.689486 0.125000
0.219491 0.689486 0.125000
0.277165 0.689486 0.125000
0.336074 0.689486 0.125000
0.396037 0.689486 0.125000
0.456926 0.689486 0.125000
0.518640 0.689486 0.125000
0.581098 0.689486 0.125000
0.644236 0.689486 0.125000
0.707999 0.689486 0.125000
0.772343 0.689486 0.125000
0.837228 0.689486 0.125000
0.902620 0.689486 0.125000
0.968490 0.689486 0.125000
1.000000 0.689486 0.125000
0.057403 0.751126 0.125000
0.109023 0.751126 0.125000
0.163307 0.751126 0.125000
0.219491 0.751126 0.125000
0.277165 0.751126 0.125000
0.336074 0.751126 0.125000
0.396037 0.751126 0.125000
0.456926 0.751126 0.125000
0.518640 0.751126 0.125000
0.581098 0.751126 0.125000
0.644236 0.751126 0.125000
0.707999 0.751126 0.125000
0.772343 0.751126 0.125000
0.837228 0.751126 0.125000
0.902620 0.751126 0.125000
0.968490 0.751126 0.125000
1.000000 0.751126 0.125000
0.057403 0.813021 0.125000
0.109023 0.813021 0.125000
0.163307 0.813021 0.125000
0.219491 0.813021 0.125000
0.277165 0.813021 0.125000
0.336074 0.813021 0.125000
0.396037 0.813021 0.125000
0.456926 0.813021 0.125000
0.518640 0.813021 0.125000
0.581098 0.813021 0.125000
0.644236 0.813021 0.125000
0.707999 0.813021 0.125000
0.772343 0.813021 0.125000
0.837228 0.813021 0.125000
0.902620 0.813021 0.125000
0.968490 0.813021 0.125000
1.000000 0.813021 0.125000
0.057403 0.875152 0.125000
0.109023 0.875152 0.125000
0.163307 0.875152 0.125000
0.219491 0.875152 0.125000
0.277165 0.875152 0.125000
0.336074 0.875152 0.125000
0.396037 0.875152 0.125000
0.456926 0.875152 0.125000
0.518640 0.875152 0.125000
0.581098 0.875152 0.125000
0.644236 0.875152 0.125000
0.707999 0.875152 0.125000
0.772343 0.875152 0.125000
0.837228 0.875152 0.125000
0.902620 0.875152 0.125000
0.968490 0.875152 0.125000
1.000000 0.875152 0.125000
0.057403 0.937504 0.125000
0.109023 0.937504 0.125000
0.163307 0.937504 0.125000
0.219491 0.937504 0.125000
0.277165 0.937504 0.125000
0.336074 0.937504 0.125000
0.396037 0.937504 0.125000
0.456926 0.937504 0.125000
0.518640 0.937504 0.125000
0.581098 0.937504 0.125000
0.644236 0.937504 0.125000
0.707999 0.937504 0.125000
0.772343 0.937504 0.125000
0.837228 0.937504 0.125000
0.902620 0.937504 0.125000
0.968490 0.937504 0.125000
1.000000 0.937504 0.125000
0.057403 1.000000 0.125000
0.109023 1.000000 0.125000
0.163307 1.000000 0.125000
0.219491 1.000000 0.125000
0.277165 1.000000 0.125000
0.336074 1.000000 0.125000
0.396037 1.000000 0.125000
0.456926 1.000000 0.125000
0.518640 1.000000 0.125000
0.581098 1.000000 0.125000
0.644236 1.000000 0.125000
0.707999 1.000000 0.125000
0.772343 1.000000 0.125000
0.837228 1.000000 0.125000
0.902620 1.000000 0.125000
0.968490 1.000000 0.125000
1.000000 1.000000 0.125000
0.057403 0.040571 0.187500
0.109023 0.040571 0.187500
0.163307 0.040571 0.187500
0.219491 0.040571 0.187500
0.277165 0.040571 0.187500
0.336074 0.040571 0.187500
0.396037 0.040571 0.187500
0.456926 0.040571 0.187500
0.518640 0.040571 0.187500
0.581098 0.040571 0.187500
0.644236 0.040571 0.187500
0.707999 0.040571 0.187500
0.772343 0.040571 0.187500
0.837228 0.040571 0.187500
0.902620 0.040571 0.187500
0.968490 0.040571 0.187500
1.000000 0.040571 0.187500
0.057403 0.095266 0.187500
