app/src/main/assets/luts/porcelain.cube
# ApexStudio filter: porcelain
LUT_3D_SIZE 5
DOMAIN_MIN 0.0 0.0 0.0
DOMAIN_MAX 1.0 1.0 1.0
0.057403 0.040571 0.000000
0.277165 0.040571 0.000000
0.518640 0.040571 0.000000
0.772343 0.040571 0.000000
1.000000 0.040571 0.000000
0.057403 0.267501 0.000000
0.277165 0.267501 0.000000
0.518640 0.267501 0.000000
0.772343 0.267501 0.000000
1.000000 0.267501 0.000000
0.057403 0.506315 0.000000
0.277165 0.506315 0.000000
0.518640 0.506315 0.000000
0.772343 0.506315 0.000000
1.000000 0.506315 0.000000
0.057403 0.751126 0.000000
0.277165 0.751126 0.000000
0.518640 0.751126 0.000000
0.772343 0.751126 0.000000
1.000000 0.751126 0.000000
0.057403 1.000000 0.000000
0.277165 1.000000 0.000000
0.518640 1.000000 0.000000
0.772343 1.000000 0.000000
1.000000 1.000000 0.000000
0.057403 0.040571 0.250000
0.277165 0.040571 0.250000
0.518640 0.040571 0.250000
0.772343 0.040571 0.250000
1.000000 0.040571 0.250000
0.057403 0.267501 0.250000
0.277165 0.267501 0.250000
0.518640 0.267501 0.250000
0.772343 0.267501 0.250000
1.000000 0.267501 0.250000
0.057403 0.506315 0.250000
0.277165 0.506315 0.250000
0.518640 0.506315 0.250000
0.772343 0.506315 0.250000
1.000000 0.506315 0.250000
0.057403 0.751126 0.250000
0.277165 0.751126 0.250000
0.518640 0.751126 0.250000
0.772343 0.751126 0.250000
1.000000 0.751126 0.250000
0.057403 1.000000 0.250000
0.277165 1.000000 0.250000
0.518640 1.000000 0.250000
0.772343 1.000000 0.250000
1.000000 1.000000 0.250000
0.057403 0.040571 0.500000
0.277165 0.040571 0.500000
0.518640 0.040571 0.500000
0.772343 0.040571 0.500000
1.000000 0.040571 0.500000
0.057403 0.267501 0.500000
0.277165 0.267501 0.500000
0.518640 0.267501 0.500000
0.772343 0.267501 0.500000
1.000000 0.267501 0.500000
0.057403 0.506315 0.500000
0.277165 0.506315 0.500000
0.518640 0.506315 0.500000
0.772343 0.506315 0.500000
1.000000 0.506315 0.500000
0.057403 0.751126 0.500000
0.277165 0.751126 0.500000
0.518640 0.751126 0.500000
0.772343 0.751126 0.500000
1.000000 0.751126 0.500000
0.057403 1.000000 0.500000
0.277165 1.000000 0.500000
0.518640 1.000000 0.500000
0.772343 1.000000 0.500000
1.000000 1.000000 0.500000
0.057403 0.040571 0.750000
0.277165 0.040571 0.750000
0.518640 0.040571 0.750000
0.772343 0.040571 0.750000
1.000000 0.040571 0.750000
0.057403 0.267501 0.750000
0.277165 0.267501 0.750000
0.518640 0.267501 0.750000
0.772343 0.267501 0.750000
1.000000 0.267501 0.750000
0.057403 0.506315 0.750000
0.277165 0.506315 0.750000
0.518640 0.506315 0.750000
0.772343 0.506315 0.750000
1.000000 0.506315 0.750000
0.057403 0.751126 0.750000
0.277165 0.751126 0.750000
0.518640 0.751126 0.750000
0.772343 0.751126 0.750000
1.000000 0.751126 0.750000
0.057403 1.000000 0.750000
0.277165 1.000000 0.750000
0.518640 1.000000 0.750000
0.772343 1.000000 0.750000
1.000000 1.000000 0.750000
0.057403 0.040571 1.000000
0.277165 0.040571 1.000000
0.518640 0.040571 1.000000
0.772343 0.040571 1.000000
1.000000 0.040571 1.000000
0.057403 0.267501 1.000000
0.277165 0.267501 1.000000
0.518640 0.267501 1.000000
0.772343 0.267501 1.000000
1.000000 0.267501 1.000000
0.057403 0.506315 1.000000
0.277165 0.506315 1.000000
0.518640 0.506315 1.000000
0.772343 0.506315 1.000000
1.000000 0.506315 1.000000
0.057403 0.751126 1.000000
0.277165 0.751126 1.000000
0.518640 0.751126 1.000000
0.772343 0.751126 1.000000
1.000000 0.751126 1.000000
0.057403 1.000000 1.000000
0.277165 1.000000 1.000000
0.518640 1.000000 1.000000
0.772343 1.000000 1.000000
1.000000 1.000000 1.000000
