app/src/main/assets/luts/porcelain.cube
# ApexStudio filter: porcelain
LUT_3D_SIZE 9
DOMAIN_MIN 0.0 0.0 0.0
DOMAIN_MAX 1.0 1.0 1.0
0.057403 0.040571 0.000000
0.163307 0.040571 0.000000
0.277165 0.040571 0.000000
0.396037 0.040571 0.000000
0.518640 0.040571 0.000000
0.644236 0.040571 0.000000
0.772343 0.040571 0.000000
0.902620 0.040571 0.000000
1.000000 0.040571 0.000000
0.057403 0.151678 0.000000
0.163307 0.151678 0.000000
0.277165 0.151678 0.000000
0.396037 0.151678 0.000000
0.518640 0.151678 0.000000
0.644236 0.151678 0.000000
0.772343 0.151678 0.000000
0.902620 0.151678 0.000000
1.000000 0.151678 0.000000
0.057403 0.267501 0.000000
0.163307 0.267501 0.000000
0.277165 0.267501 0.000000
0.396037 0.267501 0.000000
0.518640 0.267501 0.000000
0.644236 0.267501 0.000000
0.772343 0.267501 0.000000
0.902620 0.267501 0.000000
1.000000 0.267501 0.000000
0.057403 0.385970 0.000000
0.163307 0.385970 0.000000
0.277165 0.385970 0.000000
0.396037 0.385970 0.000000
0.518640 0.385970 0.000000
0.644236 0.385970 0.000000
0.772343 0.385970 0.000000
0.902620 0.385970 0.000000
1.000000 0.385970 0.000000
0.057403 0.506315 0.000000
0.163307 0.506315 0.000000
0.277165 0.506315 0.000000
0.396037 0.506315 0.000000
0.518640 0.506315 0.000000
0.644236 0.506315 0.000000
0.772343 0.506315 0.000000
0.902620 0.506315 0.000000
1.000000 0.506315 0.000000
0.057403 0.628121 0.000000
0.163307 0.628121 0.000000
0.277165 0.628121 0.000000
0.396037 0.628121 0.000000
0.518640 0.628121 0.000000
0.644236 0.628121 0.000000
0.772343 0.628121 0.000000
0.902620 0.628121 0.000000
1.000000 0.628121 0.000000
0.057403 0.751126 0.000000
0.163307 0.751126 0.000000
0.277165 0.751126 0.000000
0.396037 0.751126 0.000000
0.518640 0.751126 0.000000
0.644236 0.751126 0.000000
0.772343 0.751126 0.000000
0.902620 0.751126 0.000000
1.000000 0.751126 0.000000
0.057403 0.875152 0.000000
0.163307 0.875152 0.000000
0.277165 0.875152 0.000000
0.396037 0.875152 0.000000
0.518640 0.875152 0.000000
0.644236 0.875152 0.000000
0.772343 0.875152 0.000000
0.902620 0.875152 0.000000
1.000000 0.875152 0.000000
0.057403 1.000000 0.000000
0.163307 1.000000 0.000000
0.277165 1.000000 0.000000
0.396037 1.000000 0.000000
0.518640 1.000000 0.000000
0.644236 1.000000 0.000000
0.772343 1.000000 0.000000
0.902620 1.000000 0.000000
1.000000 1.000000 0.000000
0.057403 0.040571 0.125000
0.163307 0.040571 0.125000
0.277165 0.040571 0.125000
0.396037 0.040571 0.125000
0.518640 0.040571 0.125000
0.644236 0.040571 0.125000
0.772343 0.040571 0.125000
0.902620 0.040571 0.125000
1.000000 0.040571 0.125000
0.057403 0.151678 0.125000
0.163307 0.151678 0.125000
0.277165 0.151678 0.125000
0.396037 0.151678 0.125000
0.518640 0.151678 0.125000
0.644236 0.151678 0.125000
0.772343 0.151678 0.125000
0.902620 0.151678 0.125000
1.000000 0.151678 0.125000
0.057403 0.267501 0.125000
0.163307 0.267501 0.125000
0.277165 0.267501 0.125000
0.396037 0.267501 0.125000
0.518640 0.267501 0.125000
0.644236 0.267501 0.125000
0.772343 0.267501 0.125000
0.902620 0.267501 0.125000
1.000000 0.267501 0.125000
0.057403 0.385970 0.125000
0.163307 0.385970 0.125000
0.277165 0.385970 0.125000
0.396037 0.385970 0.125000
0.518640 0.385970 0.125000
0.644236 0.385970 0.125000
0.772343 0.385970 0.125000
0.902620 0.385970 0.125000
1.000000 0.385970 0.125000
0.057403 0.506315 0.125000
0.163307 0.506315 0.125000
0.277165 0.506315 0.125000
0.396037 0.506315 0.125000
0.518640 0.506315 0.125000
0.644236 0.506315 0.125000
0.772343 0.506315 0.125000
0.902620 0.506315 0.125000
1.000000 0.506315 0.125000
0.057403 0.628121 0.125000
0.163307 0.628121 0.125000
0.277165 0.628121 0.125000
0.396037 0.628121 0.125000
0.518640 0.628121 0.125000
0.644236 0.628121 0.125000
0.772343 0.628121 0.125000
0.902620 0.628121 0.125000
1.000000 0.628121 0.125000
0.057403 0.751126 0.125000
0.163307 0.751126 0.125000
0.277165 0.751126 0.125000
0.396037 0.751126 0.125000
0.518640 0.751126 0.125000
0.644236 0.751126 0.125000
0.772343 0.751126 0.125000
0.902620 0.751126 0.125000
1.000000 0.751126 0.125000
0.057403 0.875152 0.125000
0.163307 0.875152 0.125000
0.277165 0.875152 0.125000
0.396037 0.875152 0.125000
0.518640 0.875152 0.125000
0.644236 0.875152 0.125000
0.772343 0.875152 0.125000
0.902620 0.875152 0.125000
1.000000 0.875152 0.125000
0.057403 1.000000 0.125000
0.163307 1.000000 0.125000
0.277165 1.000000 0.125000
0.396037 1.000000 0.125000
0.518640 1.000000 0.125000
0.644236 1.000000 0.125000
0.772343 1.000000 0.125000
0.902620 1.000000 0.125000
1.000000 1.000000 0.125000
0.057403 0.040571 0.250000
0.163307 0.040571 0.250000
0.277165 0.040571 0.250000
0.396037 0.040571 0.250000
0.518640 0.040571 0.250000
0.644236 0.040571 0.250000
0.772343 0.040571 0.250000
0.902620 0.040571 0.250000
1.000000 0.040571 0.250000
0.057403 0.151678 0.250000
0.163307 0.151678 0.250000
0.277165 0.151678 0.250000
0.396037 0.151678 0.250000
0.518640 0.151678 0.250000
0.644236 0.151678 0.250000
0.772343 0.151678 0.250000
0.902620 0.151678 0.250000
1.000000 0.151678 0.250000
0.057403 0.267501 0.250000
0.163307 0.267501 0.250000
0.277165 0.267501 0.250000
0.396037 0.267501 0.250000
0.518640 0.267501 0.250000
0.644236 0.267501 0.250000
0.772343 0.267501 0.250000
0.902620 0.267501 0.250000
1.000000 0.267501 0.250000
0.057403 0.385970 0.250000
0.163307 0.385970 0.250000
0.277165 0.385970 0.250000
0.396037 0.385970 0.250000
0.518640 0.385970 0.250000
0.644236 0.385970 0.250000
0.772343 0.385970 0.250000
0.902620 0.385970 0.250000
1.000000 0.385970 0.250000
0.057403 0.506315 0.250000
0.163307 0.506315 0.250000
0.277165 0.506315 0.250000
0.396037 0.506315 0.250000
0.518640 0.506315 0.250000
0.644236 0.506315 0.250000
0.772343 0.506315 0.250000
0.902620 0.506315 0.250000
1.000000 0.506315 0.250000
0.057403 0.628121 0.250000
0.163307 0.628121 0.250000
0.277165 0.628121 0.250000
0.396037 0.628121 0.250000
0.518640 0.628121 0.250000
0.644236 0.628121 0.250000
0.772343 0.628121 0.250000
0.902620 0.628121 0.250000
1.000000 0.628121 0.250000
0.057403 0.751126 0.250000
0.163307 0.751126 0.250000
0.277165 0.751126 0.250000
0.396037 0.751126 0.250000
0.518640 0.751126 0.250000
0.644236 0.751126 0.250000
0.772343 0.751126 0.250000
0.902620 0.751126 0.250000
1.000000 0.751126 0.250000
0.057403 0.875152 0.250000
0.163307 0.875152 0.250000
0.277165 0.875152 0.250000
0.396037 0.875152 0.250000
0.518640 0.875152 0.250000
0.644236 0.875152 0.250000
0.772343 0.875152 0.250000
0.902620 0.875152 0.250000
1.000000 0.875152 0.250000
0.057403 1.000000 0.250000
0.163307 1.000000 0.250000
0.277165 1.000000 0.250000
0.396037 1.000000 0.250000
0.518640 1.000000 0.250000
0.644236 1.000000 0.250000
0.772343 1.000000 0.250000
0.902620 1.000000 0.250000
1.000000 1.000000 0.250000
0.057403 0.040571 0.375000
0.163307 0.040571 0.375000
0.277165 0.040571 0.375000
0.396037 0.040571 0.375000
0.518640 0.040571 0.375000
0.644236 0.040571 0.375000
0.772343 0.040571 0.375000
0.902620 0.040571 0.375000
1.000000 0.040571 0.375000
0.057403 0.151678 0.375000
0.163307 0.151678 0.375000
0.277165 0.151678 0.375000
0.396037 0.151678 0.375000
0.518640 0.151678 0.375000
0.644236 0.151678 0.375000
0.772343 0.151678 0.375000
0.902620 0.151678 0.375000
1.000000 0.151678 0.375000
0.057403 0.267501 0.375000
0.163307 0.267501 0.375000
0.277165 0.267501 0.375000
0.396037 0.267501 0.375000
0.518640 0.267501 0.375000
0.644236 0.267501 0.375000
0.772343 0.267501 0.375000
0.902620 0.267501 0.375000
1.000000 0.267501 0.375000
0.057403 0.385970 0.375000
0.163307 0.385970 0.375000
0.277165 0.385970 0.375000
0.396037 0.385970 0.375000
0.518640 0.385970 0.375000
0.644236 0.385970 0.375000
0.772343 0.385970 0.375000
0.902620 0.385970 0.375000
1.000000 0.385970 0.375000
0.057403 0.506315 0.375000
0.163307 0.506315 0.375000
0.277165 0.506315 0.375000
0.396037 0.506315 0.375000
0.518640 0.506315 0.375000
0.644236 0.506315 0.375000
0.772343 0.506315 0.375000
0.902620 0.506315 0.375000
1.000000 0.506315 0.375000
0.057403 0.628121 0.375000
0.163307 0.628121 0.375000
0.277165 0.628121 0.375000
0.396037 0.628121 0.375000
0.518640 0.628121 0.375000
0.644236 0.628121 0.375000
0.772343 0.628121 0.375000
0.902620 0.628121 0.375000
1.000000 0.628121 0.375000
0.057403 0.751126 0.375000
0.163307 0.751126 0.375000
0.277165 0.751126 0.375000
0.396037 0.751126 0.375000
0.518640 0.751126 0.375000
0.644236 0.751126 0.375000
0.772343 0.751126 0.375000
0.902620 0.751126 0.375000
1.000000 0.751126 0.375000
0.057403 0.875152 0.375000
0.163307 0.875152 0.375000
0.277165 0.875152 0.375000
0.396037 0.875152 0.375000
0.518640 0.875152 0.375000
0.644236 0.875152 0.375000
0.772343 0.875152 0.375000
0.902620 0.875152 0.375000
1.000000 0.875152 0.375000
0.057403 1.000000 0.375000
0.163307 1.000000 0.375000
0.277165 1.000000 0.375000
0.396037 1.000000 0.375000
0.518640 1.000000 0.375000
0.644236 1.000000 0.375000
0.772343 1.000000 0.375000
0.902620 1.000000 0.375000
1.000000 1.000000 0.375000
0.057403 0.040571 0.500000
0.163307 0.040571 0.500000
0.277165 0.040571 0.500000
0.396037 0.040571 0.500000
0.518640 0.040571 0.500000
0.644236 0.040571 0.500000
0.772343 0.040571 0.500000
0.902620 0.040571 0.500000
1.000000 0.040571 0.500000
0.057403 0.151678 0.500000
0.163307 0.151678 0.500000
0.277165 0.151678 0.500000
0.396037 0.151678 0.500000
0.518640 0.151678 0.500000
0.644236 0.151678 0.500000
0.772343 0.151678 0.500000
0.902620 0.151678 0.500000
1.000000 0.151678 0.500000
0.057403 0.267501 0.500000
0.163307 0.267501 0.500000
0.277165 0.267501 0.500000
0.396037 0.267501 0.500000
0.518640 0.267501 0.500000
0.644236 0.267501 0.500000
0.772343 0.267501 0.500000
0.902620 0.267501 0.500000
1.000000 0.267501 0.500000
0.057403 0.385970 0.500000
0.163307 0.385970 0.500000
0.277165 0.385970 0.500000
0.396037 0.385970 0.500000
0.518640 0.385970 0.500000
0.644236 0.385970 0.500000
0.772343 0.385970 0.500000
0.902620 0.385970 0.500000
1.000000 0.385970 0.500000
0.057403 0.506315 0.500000
0.163307 0.506315 0.500000
0.277165 0.506315 0.500000
0.396037 0.506315 0.500000
0.518640 0.506315 0.500000
0.644236 0.506315 0.500000
0.772343 0.506315 0.500000
0.902620 0.506315 0.500000
1.000000 0.506315 0.500000
0.057403 0.628121 0.500000
0.163307 0.628121 0.500000
0.277165 0.628121 0.500000
0.396037 0.628121 0.500000
0.518640 0.628121 0.500000
0.644236 0.628121 0.500000
0.772343 0.628121 0.500000
0.902620 0.628121 0.500000
1.000000 0.628121 0.500000
0.057403 0.751126 0.500000
0.163307 0.751126 0.500000
0.277165 0.751126 0.500000
0.396037 0.751126 0.500000
0.518640 0.751126 0.500000
0.644236 0.751126 0.500000
0.772343 0.751126 0.500000
0.902620 0.751126 0.500000
1.000000 0.751126 0.500000
0.057403 0.875152 0.500000
0.163307 0.875152 0.500000
0.277165 0.875152 0.500000
0.396037 0.875152 0.500000
0.518640 0.875152 0.500000
0.644236 0.875152 0.500000
0.772343 0.875152 0.500000
0.902620 0.875152 0.500000
1.000000 0.875152 0.500000
0.057403 1.000000 0.500000
0.163307 1.000000 0.500000
0.277165 1.000000 0.500000
0.396037 1.000000 0.500000
0.518640 1.000000 0.500000
0.644236 1.000000 0.500000
0.772343 1.000000 0.500000
0.902620 1.000000 0.500000
1.000000 1.000000 0.500000
0.057403 0.040571 0.625000
0.163307 0.040571 0.625000
0.277165 0.040571 0.625000
0.396037 0.040571 0.625000
0.518640 0.040571 0.625000
0.644236 0.040571 0.625000
0.772343 0.040571 0.625000
0.902620 0.040571 0.625000
1.000000 0.040571 0.625000
0.057403 0.151678 0.625000
0.163307 0.151678 0.625000
0.277165 0.151678 0.625000
0.396037 0.151678 0.625000
0.518640 0.151678 0.625000
0.644236 0.151678 0.625000
0.772343 0.151678 0.625000
0.902620 0.151678 0.625000
1.000000 0.151678 0.625000
0.057403 0.267501 0.625000
0.163307 0.267501 0.625000
0.277165 0.267501 0.625000
0.396037 0.267501 0.625000
0.518640 0.267501 0.625000
0.644236 0.267501 0.625000
0.772343 0.267501 0.625000
0.902620 0.267501 0.625000
1.000000 0.267501 0.625000
0.057403 0.385970 0.625000
0.163307 0.385970 0.625000
0.277165 0.385970 0.625000
0.396037 0.385970 0.625000
0.518640 0.385970 0.625000
0.644236 0.385970 0.625000
0.772343 0.385970 0.625000
0.902620 0.385970 0.625000
1.000000 0.385970 0.625000
0.057403 0.506315 0.625000
0.163307 0.506315 0.625000
0.277165 0.506315 0.625000
0.396037 0.506315 0.625000
0.518640 0.506315 0.625000
0.644236 0.506315 0.625000
0.772343 0.506315 0.625000
0.902620 0.506315 0.625000
1.000000 0.506315 0.625000
0.057403 0.628121 0.625000
0.163307 0.628121 0.625000
0.277165 0.628121 0.625000
0.396037 0.628121 0.625000
0.518640 0.628121 0.625000
0.644236 0.628121 0.625000
0.772343 0.628121 0.625000
0.902620 0.628121 0.625000
1.000000 0.628121 0.625000
0.057403 0.751126 0.625000
0.163307 0.751126 0.625000
0.277165 0.751126 0.625000
0.396037 0.751126 0.625000
0.518640 0.751126 0.625000
0.644236 0.751126 0.625000
0.772343 0.751126 0.625000
0.902620 0.751126 0.625000
1.000000 0.751126 0.625000
0.057403 0.875152 0.625000
0.163307 0.875152 0.625000
0.277165 0.875152 0.625000
0.396037 0.875152 0.625000
0.518640 0.875152 0.625000
0.644236 0.875152 0.625000
0.772343 0.875152 0.625000
0.902620 0.875152 0.625000
1.000000 0.875152 0.625000
0.057403 1.000000 0.625000
0.163307 1.000000 0.625000
0.277165 1.000000 0.625000
0.396037 1.000000 0.625000
0.518640 1.000000 0.625000
0.644236 1.000000 0.625000
0.772343 1.000000 0.625000
0.902620 1.000000 0.625000
1.000000 1.000000 0.625000
0.057403 0.040571 0.750000
0.163307 0.040571 0.750000
0.277165 0.040571 0.750000
0.396037 0.040571 0.750000
0.518640 0.040571 0.750000
0.644236 0.040571 0.750000
0.772343 0.040571 0.750000
0.902620 0.040571 0.750000
1.000000 0.040571 0.750000
0.057403 0.151678 0.750000
0.163307 0.151678 0.750000
0.277165 0.151678 0.750000
0.396037 0.151678 0.750000
0.518640 0.151678 0.750000
0.644236 0.151678 0.750000
0.772343 0.151678 0.750000
0.902620 0.151678 0.750000
1.000000 0.151678 0.750000
0.057403 0.267501 0.750000
0.163307 0.267501 0.750000
0.277165 0.267501 0.750000
0.396037 0.267501 0.750000
0.518640 0.267501 0.750000
0.644236 0.267501 0.750000
0.772343 0.267501 0.750000
0.902620 0.267501 0.750000
1.000000 0.267501 0.750000
0.057403 0.385970 0.750000
0.163307 0.385970 0.750000
0.277165 0.385970 0.750000
0.396037 0.385970 0.750000
0.518640 0.385970 0.750000
0.644236 0.385970 0.750000
0.772343 0.385970 0.750000
0.902620 0.385970 0.750000
1.000000 0.385970 0.750000
0.057403 0.506315 0.750000
0.163307 0.506315 0.750000
0.277165 0.506315 0.750000
0.396037 0.506315 0.750000
0.518640 0.506315 0.750000
0.644236 0.506315 0.750000
0.772343 0.506315 0.750000
0.902620 0.506315 0.750000
1.000000 0.506315 0.750000
0.057403 0.628121 0.750000
0.163307 0.628121 0.750000
0.277165 0.628121 0.750000
0.396037 0.628121 0.750000
0.518640 0.628121 0.750000
0.644236 0.628121 0.750000
0.772343 0.628121 0.750000
0.902620 0.628121 0.750000
1.000000 0.628121 0.750000
0.057403 0.751126 0.750000
0.163307 0.751126 0.750000
0.277165 0.751126 0.750000
0.396037 0.751126 0.750000
0.518640 0.751126 0.750000
0.644236 0.751126 0.750000
0.772343 0.751126 0.750000
0.902620 0.751126 0.750000
1.000000 0.751126 0.750000
0.057403 0.875152 0.750000
0.163307 0.875152 0.750000
0.277165 0.875152 0.750000
0.396037 0.875152 0.750000
0.518640 0.875152 0.750000
0.644236 0.875152 0.750000
0.772343 0.875152 0.750000
0.902620 0.875152 0.750000
1.000000 0.875152 0.750000
0.057403 1.000000 0.750000
0.163307 1.000000 0.750000
0.277165 1.000000 0.750000
0.396037 1.000000 0.750000
0.518640 1.000000 0.750000
0.644236 1.000000 0.750000
0.772343 1.000000 0.750000
0.902620 1.000000 0.750000
1.000000 1.000000 0.750000
0.057403 0.040571 0.875000
0.163307 0.040571 0.875000
0.277165 0.040571 0.875000
0.396037 0.040571 0.875000
0.518640 0.040571 0.875000
0.644236 0.040571 0.875000
0.772343 0.040571 0.875000
0.902620 0.040571 0.875000
1.000000 0.040571 0.875000
0.057403 0.151678 0.875000
0.163307 0.151678 0.875000
0.277165 0.151678 0.875000
0.396037 0.151678 0.875000
0.518640 0.151678 0.875000
0.644236 0.151678 0.875000
0.772343 0.151678 0.875000
0.902620 0.151678 0.875000
1.000000 0.151678 0.875000
0.057403 0.267501 0.875000
0.163307 0.267501 0.875000
0.277165 0.267501 0.875000
0.396037 0.267501 0.875000
0.518640 0.267501 0.875000
0.644236 0.267501 0.875000
0.772343 0.267501 0.875000
0.902620 0.267501 0.875000
1.000000 0.267501 0.875000
0.057403 0.385970 0.875000
0.163307 0.385970 0.875000
0.277165 0.385970 0.875000
0.396037 0.385970 0.875000
0.518640 0.385970 0.875000
0.644236 0.385970 0.875000
0.772343 0.385970 0.875000
0.902620 0.385970 0.875000
1.000000 0.385970 0.875000
0.057403 0.506315 0.875000
0.163307 0.506315 0.875000
0.277165 0.506315 0.875000
0.396037 0.506315 0.875000
0.518640 0.506315 0.875000
0.644236 0.506315 0.875000
0.772343 0.506315 0.875000
0.902620 0.506315 0.875000
1.000000 0.506315 0.875000
0.057403 0.628121 0.875000
0.163307 0.628121 0.875000
0.277165 0.628121 0.875000
0.396037 0.628121 0.875000
0.518640 0.628121 0.875000
0.644236 0.628121 0.875000
0.772343 0.628121 0.875000
0.902620 0.628121 0.875000
1.000000 0.628121 0.875000
0.057403 0.751126 0.875000
0.163307 0.751126 0.875000
0.277165 0.751126 0.875000
0.396037 0.751126 0.875000
0.518640 0.751126 0.875000
0.644236 0.751126 0.875000
0.772343 0.751126 0.875000
0.902620 0.751126 0.875000
1.000000 0.751126 0.875000
0.057403 0.875152 0.875000
0.163307 0.875152 0.875000
0.277165 0.875152 0.875000
0.396037 0.875152 0.875000
0.518640 0.875152 0.875000
0.644236 0.875152 0.875000
0.772343 0.875152 0.875000
0.902620 0.875152 0.875000
1.000000 0.875152 0.875000
0.057403 1.000000 0.875000
0.163307 1.000000 0.875000
0.277165 1.000000 0.875000
0.396037 1.000000 0.875000
0.518640 1.000000 0.875000
0.644236 1.000000 0.875000
0.772343 1.000000 0.875000
0.902620 1.000000 0.875000
1.000000 1.000000 0.875000
0.057403 0.040571 1.000000
0.163307 0.040571 1.000000
0.277165 0.040571 1.000000
0.396037 0.040571 1.000000
0.518640 0.040571 1.000000
0.644236 0.040571 1.000000
0.772343 0.040571 1.000000
0.902620 0.040571 1.000000
1.000000 0.040571 1.000000
0.057403 0.151678 1.000000
0.163307 0.151678 1.000000
0.277165 0.151678 1.000000
0.396037 0.151678 1.000000
0.518640 0.151678 1.000000
0.644236 0.151678 1.000000
0.772343 0.151678 1.000000
0.902620 0.151678 1.000000
1.000000 0.151678 1.000000
0.057403 0.267501 1.000000
0.163307 0.267501 1.000000
0.277165 0.267501 1.000000
0.396037 0.267501 1.000000
0.518640 0.267501 1.000000
0.644236 0.267501 1.000000
0.772343 0.267501 1.000000
0.902620 0.267501 1.000000
1.000000 0.267501 1.000000
0.057403 0.385970 1.000000
0.163307 0.385970 1.000000
0.277165 0.385970 1.000000
0.396037 0.385970 1.000000
0.518640 0.385970 1.000000
0.644236 0.385970 1.000000
0.772343 0.385970 1.000000
0.902620 0.385970 1.000000
1.000000 0.385970 1.000000
0.057403 0.506315 1.000000
0.163307 0.506315 1.000000
0.277165 0.506315 1.000000
0.396037 0.506315 1.000000
0.518640 0.506315 1.000000
0.644236 0.506315 1.000000
0.772343 0.506315 1.000000
0.902620 0.506315 1.000000
1.000000 0.506315 1.000000
0.057403 0.628121 1.000000
0.163307 0.628121 1.000000
0.277165 0.628121 1.000000
0.396037 0.628121 1.000000
0.518640 0.628121 1.000000
0.644236 0.628121 1.000000
0.772343 0.628121 1.000000
0.902620 0.628121 1.000000
1.000000 0.628121 1.000000
0.057403 0.751126 1.000000
0.163307 0.751126 1.000000
0.277165 0.751126 1.000000
0.396037 0.751126 1.000000
0.518640 0.751126 1.000000
0.644236 0.751126 1.000000
0.772343 0.751126 1.000000
0.902620 0.751126 1.000000
1.000000 0.751126 1.000000
0.057403 0.875152 1.000000
0.163307 0.875152 1.000000
0.277165 0.875152 1.000000
0.396037 0.875152 1.000000
0.518640 0.875152 1.000000
0.644236 0.875152 1.000000
0.772343 0.875152 1.000000
0.902620 0.875152 1.000000
1.000000 0.875152 1.000000
0.057403 1.000000 1.000000
0.163307 1.000000 1.000000
0.277165 1.000000 1.000000
0.396037 1.000000 1.000000
0.518640 1.000000 1.000000
0.644236 1.000000 1.000000
0.772343 1.000000 1.000000
0.902620 1.000000 1.000000
1.000000 1.000000 1.000000
