app/src/main/assets/luts/rainy_window.cube
# ApexStudio filter: rainy_window
LUT_3D_SIZE 17
DOMAIN_MIN 0.0 0.0 0.0
DOMAIN_MAX 1.0 1.0 1.0
0.000000 0.000000 0.015000
0.047500 0.000000 0.015000
0.110000 0.000000 0.015000
0.172500 0.000000 0.015000
0.235000 0.000000 0.015000
0.297500 0.000000 0.015000
0.360000 0.000000 0.015000
0.422500 0.000000 0.015000
0.485000 0.000000 0.015000
0.547500 0.000000 0.015000
0.610000 0.000000 0.015000
0.672500 0.000000 0.015000
0.735000 0.000000 0.015000
0.797500 0.000000 0.015000
0.860000 0.000000 0.015000
0.922500 0.000000 0.015000
0.985000 0.000000 0.015000
0.000000 0.057500 0.015000
0.047500 0.057500 0.015000
0.110000 0.057500 0.015000
0.172500 0.057500 0.015000
0.235000 0.057500 0.015000
0.297500 0.057500 0.015000
0.360000 0.057500 0.015000
0.422500 0.057500 0.015000
0.485000 0.057500 0.015000
0.547500 0.057500 0.015000
0.610000 0.057500 0.015000
0.672500 0.057500 0.015000
0.735000 0.057500 0.015000
0.797500 0.057500 0.015000
0.860000 0.057500 0.015000
0.922500 0.057500 0.015000
0.985000 0.057500 0.015000
0.000000 0.120000 0.015000
0.047500 0.120000 0.015000
0.110000 0.120000 0.015000
0.172500 0.120000 0.015000
0.235000 0.120000 0.015000
0.297500 0.120000 0.015000
0.360000 0.120000 0.015000
0.422500 0.120000 0.015000
0.485000 0.120000 0.015000
0.547500 0.120000 0.015000
0.610000 0.120000 0.015000
0.672500 0.120000 0.015000
0.735000 0.120000 0.015000
0.797500 0.120000 0.015000
0.860000 0.120000 0.015000
0.922500 0.120000 0.015000
0.985000 0.120000 0.015000
0.000000 0.182500 0.015000
0.047500 0.182500 0.015000
0.110000 0.182500 0.015000
0.172500 0.182500 0.015000
0.235000 0.182500 0.015000
0.297500 0.182500 0.015000
0.360000 0.182500 0.015000
0.422500 0.182500 0.015000
0.485000 0.182500 0.015000
0.547500 0.182500 0.015000
0.610000 0.182500 0.015000
0.672500 0.182500 0.015000
0.735000 0.182500 0.015000
0.797500 0.182500 0.015000
0.860000 0.182500 0.015000
0.922500 0.182500 0.015000
0.985000 0.182500 0.015000
0.000000 0.245000 0.015000
0.047500 0.245000 0.015000
0.110000 0.245000 0.015000
0.172500 0.245000 0.015000
0.235000 0.245000 0.015000
0.297500 0.245000 0.015000
0.360000 0.245000 0.015000
0.422500 0.245000 0.015000
0.485000 0.245000 0.015000
0.547500 0.245000 0.015000
0.610000 0.245000 0.015000
0.672500 0.245000 0.015000
0.735000 0.245000 0.015000
0.797500 0.245000 0.015000
0.860000 0.245000 0.015000
0.922500 0.245000 0.015000
0.985000 0.245000 0.015000
0.000000 0.307500 0.015000
0.047500 0.307500 0.015000
0.110000 0.307500 0.015000
0.172500 0.307500 0.015000
0.235000 0.307500 0.015000
0.297500 0.307500 0.015000
0.360000 0.307500 0.015000
0.422500 0.307500 0.015000
0.485000 0.307500 0.015000
0.547500 0.307500 0.015000
0.610000 0.307500 0.015000
0.672500 0.307500 0.015000
0.735000 0.307500 0.015000
0.797500 0.307500 0.015000
0.860000 0.307500 0.015000
0.922500 0.307500 0.015000
0.985000 0.307500 0.015000
0.000000 0.370000 0.015000
0.047500 0.370000 0.015000
0.110000 0.370000 0.015000
0.172500 0.370000 0.015000
0.235000 0.370000 0.015000
0.297500 0.370000 0.015000
0.360000 0.370000 0.015000
0.422500 0.370000 0.015000
0.485000 0.370000 0.015000
0.547500 0.370000 0.015000
0.610000 0.370000 0.015000
0.672500 0.370000 0.015000
0.735000 0.370000 0.015000
0.797500 0.370000 0.015000
0.860000 0.370000 0.015000
0.922500 0.370000 0.015000
0.985000 0.370000 0.015000
0.000000 0.432500 0.015000
0.047500 0.432500 0.015000
0.110000 0.432500 0.015000
0.172500 0.432500 0.015000
0.235000 0.432500 0.015000
0.297500 0.432500 0.015000
0.360000 0.432500 0.015000
0.422500 0.432500 0.015000
0.485000 0.432500 0.015000
0.547500 0.432500 0.015000
0.610000 0.432500 0.015000
0.672500 0.432500 0.015000
0.735000 0.432500 0.015000
0.797500 0.432500 0.015000
0.860000 0.432500 0.015000
0.922500 0.432500 0.015000
0.985000 0.432500 0.015000
0.000000 0.495000 0.015000
0.047500 0.495000 0.015000
0.110000 0.495000 0.015000
0.172500 0.495000 0.015000
0.235000 0.495000 0.015000
0.297500 0.495000 0.015000
0.360000 0.495000 0.015000
0.422500 0.495000 0.015000
0.485000 0.495000 0.015000
0.547500 0.495000 0.015000
0.610000 0.495000 0.015000
0.672500 0.495000 0.015000
0.735000 0.495000 0.015000
0.797500 0.495000 0.015000
0.860000 0.495000 0.015000
0.922500 0.495000 0.015000
0.985000 0.495000 0.015000
0.000000 0.557500 0.015000
0.047500 0.557500 0.015000
0.110000 0.557500 0.015000
0.172500 0.557500 0.015000
0.235000 0.557500 0.015000
0.297500 0.557500 0.015000
0.360000 0.557500 0.015000
0.422500 0.557500 0.015000
0.485000 0.557500 0.015000
0.547500 0.557500 0.015000
0.610000 0.557500 0.015000
0.672500 0.557500 0.015000
0.735000 0.557500 0.015000
0.797500 0.557500 0.015000
0.860000 0.557500 0.015000
0.922500 0.557500 0.015000
0.985000 0.557500 0.015000
0.000000 0.620000 0.015000
0.047500 0.620000 0.015000
0.110000 0.620000 0.015000
0.172500 0.620000 0.015000
0.235000 0.620000 0.015000
0.297500 0.620000 0.015000
0.360000 0.620000 0.015000
0.422500 0.620000 0.015000
0.485000 0.620000 0.015000
0.547500 0.620000 0.015000
0.610000 0.620000 0.015000
0.672500 0.620000 0.015000
0.735000 0.620000 0.015000
0.797500 0.620000 0.015000
0.860000 0.620000 0.015000
0.922500 0.620000 0.015000
0.985000 0.620000 0.015000
0.000000 0.682500 0.015000
0.047500 0.682500 0.015000
0.110000 0.682500 0.015000
0.172500 0.682500 0.015000
0.235000 0.682500 0.015000
0.297500 0.682500 0.015000
0.360000 0.682500 0.015000
0.422500 0.682500 0.015000
0.485000 0.682500 0.015000
0.547500 0.682500 0.015000
0.610000 0.682500 0.015000
0.672500 0.682500 0.015000
0.735000 0.682500 0.015000
0.797500 0.682500 0.015000
0.860000 0.682500 0.015000
0.922500 0.682500 0.015000
0.985000 0.682500 0.015000
0.000000 0.745000 0.015000
0.047500 0.745000 0.015000
0.110000 0.745000 0.015000
0.172500 0.745000 0.015000
0.235000 0.745000 0.015000
0.297500 0.745000 0.015000
0.360000 0.745000 0.015000
0.422500 0.745000 0.015000
0.485000 0.745000 0.015000
0.547500 0.745000 0.015000
0.610000 0.745000 0.015000
0.672500 0.745000 0.015000
0.735000 0.745000 0.015000
0.797500 0.745000 0.015000
0.860000 0.745000 0.015000
0.922500 0.745000 0.015000
0.985000 0.745000 0.015000
0.000000 0.807500 0.015000
0.047500 0.807500 0.015000
0.110000 0.807500 0.015000
0.172500 0.807500 0.015000
0.235000 0.807500 0.015000
0.297500 0.807500 0.015000
0.360000 0.807500 0.015000
0.422500 0.807500 0.015000
0.485000 0.807500 0.015000
0.547500 0.807500 0.015000
0.610000 0.807500 0.015000
0.672500 0.807500 0.015000
0.735000 0.807500 0.015000
0.797500 0.807500 0.015000
0.860000 0.807500 0.015000
0.922500 0.807500 0.015000
0.985000 0.807500 0.015000
0.000000 0.870000 0.015000
0.047500 0.870000 0.015000
0.110000 0.870000 0.015000
0.172500 0.870000 0.015000
0.235000 0.870000 0.015000
0.297500 0.870000 0.015000
0.360000 0.870000 0.015000
0.422500 0.870000 0.015000
0.485000 0.870000 0.015000
0.547500 0.870000 0.015000
0.610000 0.870000 0.015000
0.672500 0.870000 0.015000
0.735000 0.870000 0.015000
0.797500 0.870000 0.015000
0.860000 0.870000 0.015000
0.922500 0.870000 0.015000
0.985000 0.870000 0.015000
0.000000 0.932500 0.015000
0.047500 0.932500 0.015000
0.110000 0.932500 0.015000
0.172500 0.932500 0.015000
0.235000 0.932500 0.015000
0.297500 0.932500 0.015000
0.360000 0.932500 0.015000
0.422500 0.932500 0.015000
0.485000 0.932500 0.015000
0.547500 0.932500 0.015000
0.610000 0.932500 0.015000
0.672500 0.932500 0.015000
0.735000 0.932500 0.015000
0.797500 0.932500 0.015000
0.860000 0.932500 0.015000
0.922500 0.932500 0.015000
0.985000 0.932500 0.015000
0.000000 0.995000 0.015000
0.047500 0.995000 0.015000
0.110000 0.995000 0.015000
0.172500 0.995000 0.015000
0.235000 0.995000 0.015000
0.297500 0.995000 0.015000
0.360000 0.995000 0.015000
0.422500 0.995000 0.015000
0.485000 0.995000 0.015000
0.547500 0.995000 0.015000
0.610000 0.995000 0.015000
0.672500 0.995000 0.015000
0.735000 0.995000 0.015000
0.797500 0.995000 0.015000
0.860000 0.995000 0.015000
0.922500 0.995000 0.015000
0.985000 0.995000 0.015000
0.000000 0.000000 0.077500
0.047500 0.000000 0.077500
0.110000 0.000000 0.077500
0.172500 0.000000 0.077500
0.235000 0.000000 0.077500
0.297500 0.000000 0.077500
0.360000 0.000000 0.077500
0.422500 0.000000 0.077500
0.485000 0.000000 0.077500
0.547500 0.000000 0.077500
0.610000 0.000000 0.077500
0.672500 0.000000 0.077500
0.735000 0.000000 0.077500
0.797500 0.000000 0.077500
0.860000 0.000000 0.077500
0.922500 0.000000 0.077500
0.985000 0.000000 0.077500
0.000000 0.057500 0.077500
0.047500 0.057500 0.077500
0.110000 0.057500 0.077500
0.172500 0.057500 0.077500
0.235000 0.057500 0.077500
0.297500 0.057500 0.077500
0.360000 0.057500 0.077500
0.422500 0.057500 0.077500
0.485000 0.057500 0.077500
0.547500 0.057500 0.077500
0.610000 0.057500 0.077500
0.672500 0.057500 0.077500
0.735000 0.057500 0.077500
0.797500 0.057500 0.077500
0.860000 0.057500 0.077500
0.922500 0.057500 0.077500
0.985000 0.057500 0.077500
0.000000 0.120000 0.077500
0.047500 0.120000 0.077500
0.110000 0.120000 0.077500
0.172500 0.120000 0.077500
0.235000 0.120000 0.077500
0.297500 0.120000 0.077500
0.360000 0.120000 0.077500
0.422500 0.120000 0.077500
0.485000 0.120000 0.077500
0.547500 0.120000 0.077500
0.610000 0.120000 0.077500
0.672500 0.120000 0.077500
0.735000 0.120000 0.077500
0.797500 0.120000 0.077500
0.860000 0.120000 0.077500
0.922500 0.120000 0.077500
0.985000 0.120000 0.077500
0.000000 0.182500 0.077500
0.047500 0.182500 0.077500
0.110000 0.182500 0.077500
0.172500 0.182500 0.077500
0.235000 0.182500 0.077500
0.297500 0.182500 0.077500
0.360000 0.182500 0.077500
0.422500 0.182500 0.077500
0.485000 0.182500 0.077500
0.547500 0.182500 0.077500
0.610000 0.182500 0.077500
0.672500 0.182500 0.077500
0.735000 0.182500 0.077500
0.797500 0.182500 0.077500
0.860000 0.182500 0.077500
0.922500 0.182500 0.077500
0.985000 0.182500 0.077500
0.000000 0.245000 0.077500
0.047500 0.245000 0.077500
0.110000 0.245000 0.077500
0.172500 0.245000 0.077500
0.235000 0.245000 0.077500
0.297500 0.245000 0.077500
0.360000 0.245000 0.077500
0.422500 0.245000 0.077500
0.485000 0.245000 0.077500
0.547500 0.245000 0.077500
0.610000 0.245000 0.077500
0.672500 0.245000 0.077500
0.735000 0.245000 0.077500
0.797500 0.245000 0.077500
0.860000 0.245000 0.077500
0.922500 0.245000 0.077500
0.985000 0.245000 0.077500
0.000000 0.307500 0.077500
0.047500 0.307500 0.077500
0.110000 0.307500 0.077500
0.172500 0.307500 0.077500
0.235000 0.307500 0.077500
0.297500 0.307500 0.077500
0.360000 0.307500 0.077500
0.422500 0.307500 0.077500
0.485000 0.307500 0.077500
0.547500 0.307500 0.077500
0.610000 0.307500 0.077500
0.672500 0.307500 0.077500
0.735000 0.307500 0.077500
0.797500 0.307500 0.077500
0.860000 0.307500 0.077500
0.922500 0.307500 0.077500
0.985000 0.307500 0.077500
0.000000 0.370000 0.077500
0.047500 0.370000 0.077500
0.110000 0.370000 0.077500
0.172500 0.370000 0.077500
0.235000 0.370000 0.077500
0.297500 0.370000 0.077500
0.360000 0.370000 0.077500
0.422500 0.370000 0.077500
0.485000 0.370000 0.077500
0.547500 0.370000 0.077500
0.610000 0.370000 0.077500
0.672500 0.370000 0.077500
0.735000 0.370000 0.077500
0.797500 0.370000 0.077500
0.860000 0.370000 0.077500
0.922500 0.370000 0.077500
0.985000 0.370000 0.077500
0.000000 0.432500 0.077500
0.047500 0.432500 0.077500
0.110000 0.432500 0.077500
0.172500 0.432500 0.077500
0.235000 0.432500 0.077500
0.297500 0.432500 0.077500
0.360000 0.432500 0.077500
0.422500 0.432500 0.077500
0.485000 0.432500 0.077500
0.547500 0.432500 0.077500
0.610000 0.432500 0.077500
0.672500 0.432500 0.077500
0.735000 0.432500 0.077500
0.797500 0.432500 0.077500
0.860000 0.432500 0.077500
0.922500 0.432500 0.077500
0.985000 0.432500 0.077500
0.000000 0.495000 0.077500
0.047500 0.495000 0.077500
0.110000 0.495000 0.077500
0.172500 0.495000 0.077500
0.235000 0.495000 0.077500
0.297500 0.495000 0.077500
0.360000 0.495000 0.077500
0.422500 0.495000 0.077500
0.485000 0.495000 0.077500
0.547500 0.495000 0.077500
0.610000 0.495000 0.077500
0.672500 0.495000 0.077500
0.735000 0.495000 0.077500
0.797500 0.495000 0.077500
0.860000 0.495000 0.077500
0.922500 0.495000 0.077500
0.985000 0.495000 0.077500
0.000000 0.557500 0.077500
0.047500 0.557500 0.077500
0.110000 0.557500 0.077500
0.172500 0.557500 0.077500
0.235000 0.557500 0.077500
0.297500 0.557500 0.077500
0.360000 0.557500 0.077500
0.422500 0.557500 0.077500
0.485000 0.557500 0.077500
0.547500 0.557500 0.077500
0.610000 0.557500 0.077500
0.672500 0.557500 0.077500
0.735000 0.557500 0.077500
0.797500 0.557500 0.077500
0.860000 0.557500 0.077500
0.922500 0.557500 0.077500
0.985000 0.557500 0.077500
0.000000 0.620000 0.077500
0.047500 0.620000 0.077500
0.110000 0.620000 0.077500
0.172500 0.620000 0.077500
0.235000 0.620000 0.077500
0.297500 0.620000 0.077500
0.360000 0.620000 0.077500
0.422500 0.620000 0.077500
0.485000 0.620000 0.077500
0.547500 0.620000 0.077500
0.610000 0.620000 0.077500
0.672500 0.620000 0.077500
0.735000 0.620000 0.077500
0.797500 0.620000 0.077500
0.860000 0.620000 0.077500
0.922500 0.620000 0.077500
0.985000 0.620000 0.077500
0.000000 0.682500 0.077500
0.047500 0.682500 0.077500
0.110000 0.682500 0.077500
0.172500 0.682500 0.077500
0.235000 0.682500 0.077500
0.297500 0.682500 0.077500
0.360000 0.682500 0.077500
0.422500 0.682500 0.077500
0.485000 0.682500 0.077500
0.547500 0.682500 0.077500
0.610000 0.682500 0.077500
0.672500 0.682500 0.077500
0.735000 0.682500 0.077500
0.797500 0.682500 0.077500
0.860000 0.682500 0.077500
0.922500 0.682500 0.077500
0.985000 0.682500 0.077500
0.000000 0.745000 0.077500
0.047500 0.745000 0.077500
0.110000 0.745000 0.077500
0.172500 0.745000 0.077500
0.235000 0.745000 0.077500
0.297500 0.745000 0.077500
0.360000 0.745000 0.077500
0.422500 0.745000 0.077500
0.485000 0.745000 0.077500
0.547500 0.745000 0.077500
0.610000 0.745000 0.077500
0.672500 0.745000 0.077500
0.735000 0.745000 0.077500
0.797500 0.745000 0.077500
0.860000 0.745000 0.077500
0.922500 0.745000 0.077500
0.985000 0.745000 0.077500
0.000000 0.807500 0.077500
0.047500 0.807500 0.077500
0.110000 0.807500 0.077500
0.172500 0.807500 0.077500
0.235000 0.807500 0.077500
0.297500 0.807500 0.077500
0.360000 0.807500 0.077500
0.422500 0.807500 0.077500
0.485000 0.807500 0.077500
0.547500 0.807500 0.077500
0.610000 0.807500 0.077500
0.672500 0.807500 0.077500
0.735000 0.807500 0.077500
0.797500 0.807500 0.077500
0.860000 0.807500 0.077500
0.922500 0.807500 0.077500
0.985000 0.807500 0.077500
0.000000 0.870000 0.077500
0.047500 0.870000 0.077500
0.110000 0.870000 0.077500
0.172500 0.870000 0.077500
0.235000 0.870000 0.077500
0.297500 0.870000 0.077500
0.360000 0.870000 0.077500
0.422500 0.870000 0.077500
0.485000 0.870000 0.077500
0.547500 0.870000 0.077500
0.610000 0.870000 0.077500
0.672500 0.870000 0.077500
0.735000 0.870000 0.077500
0.797500 0.870000 0.077500
0.860000 0.870000 0.077500
0.922500 0.870000 0.077500
0.985000 0.870000 0.077500
0.000000 0.932500 0.077500
0.047500 0.932500 0.077500
0.110000 0.932500 0.077500
0.172500 0.932500 0.077500
0.235000 0.932500 0.077500
0.297500 0.932500 0.077500
0.360000 0.932500 0.077500
0.422500 0.932500 0.077500
0.485000 0.932500 0.077500
0.547500 0.932500 0.077500
0.610000 0.932500 0.077500
0.672500 0.932500 0.077500
0.735000 0.932500 0.077500
0.797500 0.932500 0.077500
0.860000 0.932500 0.077500
0.922500 0.932500 0.077500
0.985000 0.932500 0.077500
0.000000 0.995000 0.077500
0.047500 0.995000 0.077500
0.110000 0.995000 0.077500
0.172500 0.995000 0.077500
0.235000 0.995000 0.077500
0.297500 0.995000 0.077500
0.360000 0.995000 0.077500
0.422500 0.995000 0.077500
0.485000 0.995000 0.077500
0.547500 0.995000 0.077500
0.610000 0.995000 0.077500
0.672500 0.995000 0.077500
0.735000 0.995000 0.077500
0.797500 0.995000 0.077500
0.860000 0.995000 0.077500
0.922500 0.995000 0.077500
0.985000 0.995000 0.077500
0.000000 0.000000 0.140000
0.047500 0.000000 0.140000
0.110000 0.000000 0.140000
0.172500 0.000000 0.140000
0.235000 0.000000 0.140000
0.297500 0.000000 0.140000
0.360000 0.000000 0.140000
0.422500 0.000000 0.140000
0.485000 0.000000 0.140000
0.547500 0.000000 0.140000
0.610000 0.000000 0.140000
0.672500 0.000000 0.140000
0.735000 0.000000 0.140000
0.797500 0.000000 0.140000
0.860000 0.000000 0.140000
0.922500 0.000000 0.140000
0.985000 0.000000 0.140000
0.000000 0.057500 0.140000
0.047500 0.057500 0.140000
0.110000 0.057500 0.140000
0.172500 0.057500 0.140000
0.235000 0.057500 0.140000
0.297500 0.057500 0.140000
0.360000 0.057500 0.140000
0.422500 0.057500 0.140000
0.485000 0.057500 0.140000
0.547500 0.057500 0.140000
0.610000 0.057500 0.140000
0.672500 0.057500 0.140000
0.735000 0.057500 0.140000
0.797500 0.057500 0.140000
0.860000 0.057500 0.140000
0.922500 0.057500 0.140000
0.985000 0.057500 0.140000
0.000000 0.120000 0.140000
0.047500 0.120000 0.140000
0.110000 0.120000 0.140000
0.172500 0.120000 0.140000
0.235000 0.120000 0.140000
0.297500 0.120000 0.140000
0.360000 0.120000 0.140000
0.422500 0.120000 0.140000
0.485000 0.120000 0.140000
0.547500 0.120000 0.140000
0.610000 0.120000 0.140000
0.672500 0.120000 0.140000
0.735000 0.120000 0.140000
0.797500 0.120000 0.140000
0.860000 0.120000 0.140000
0.922500 0.120000 0.140000
0.985000 0.120000 0.140000
0.000000 0.182500 0.140000
0.047500 0.182500 0.140000
0.110000 0.182500 0.140000
0.172500 0.182500 0.140000
0.235000 0.182500 0.140000
0.297500 0.182500 0.140000
0.360000 0.182500 0.140000
0.422500 0.182500 0.140000
0.485000 0.182500 0.140000
0.547500 0.182500 0.140000
0.610000 0.182500 0.140000
0.672500 0.182500 0.140000
0.735000 0.182500 0.140000
0.797500 0.182500 0.140000
0.860000 0.182500 0.140000
0.922500 0.182500 0.140000
0.985000 0.182500 0.140000
0.000000 0.245000 0.140000
0.047500 0.245000 0.140000
0.110000 0.245000 0.140000
0.172500 0.245000 0.140000
0.235000 0.245000 0.140000
0.297500 0.245000 0.140000
0.360000 0.245000 0.140000
0.422500 0.245000 0.140000
0.485000 0.245000 0.140000
0.547500 0.245000 0.140000
0.610000 0.245000 0.140000
0.672500 0.245000 0.140000
0.735000 0.245000 0.140000
0.797500 0.245000 0.140000
0.860000 0.245000 0.140000
0.922500 0.245000 0.140000
0.985000 0.245000 0.140000
0.000000 0.307500 0.140000
0.047500 0.307500 0.140000
0.110000 0.307500 0.140000
0.172500 0.307500 0.140000
0.235000 0.307500 0.140000
0.297500 0.307500 0.140000
0.360000 0.307500 0.140000
0.422500 0.307500 0.140000
0.485000 0.307500 0.140000
0.547500 0.307500 0.140000
0.610000 0.307500 0.140000
0.672500 0.307500 0.140000
0.735000 0.307500 0.140000
0.797500 0.307500 0.140000
0.860000 0.307500 0.140000
0.922500 0.307500 0.140000
0.985000 0.307500 0.140000
0.000000 0.370000 0.140000
0.047500 0.370000 0.140000
0.110000 0.370000 0.140000
0.172500 0.370000 0.140000
0.235000 0.370000 0.140000
0.297500 0.370000 0.140000
0.360000 0.370000 0.140000
0.422500 0.370000 0.140000
0.485000 0.370000 0.140000
0.547500 0.370000 0.140000
0.610000 0.370000 0.140000
0.672500 0.370000 0.140000
0.735000 0.370000 0.140000
0.797500 0.370000 0.140000
0.860000 0.370000 0.140000
0.922500 0.370000 0.140000
0.985000 0.370000 0.140000
0.000000 0.432500 0.140000
0.047500 0.432500 0.140000
0.110000 0.432500 0.140000
0.172500 0.432500 0.140000
0.235000 0.432500 0.140000
0.297500 0.432500 0.140000
0.360000 0.432500 0.140000
0.422500 0.432500 0.140000
0.485000 0.432500 0.140000
0.547500 0.432500 0.140000
0.610000 0.432500 0.140000
0.672500 0.432500 0.140000
0.735000 0.432500 0.140000
0.797500 0.432500 0.140000
0.860000 0.432500 0.140000
0.922500 0.432500 0.140000
0.985000 0.432500 0.140000
0.000000 0.495000 0.140000
0.047500 0.495000 0.140000
0.110000 0.495000 0.140000
0.172500 0.495000 0.140000
0.235000 0.495000 0.140000
0.297500 0.495000 0.140000
0.360000 0.495000 0.140000
0.422500 0.495000 0.140000
0.485000 0.495000 0.140000
0.547500 0.495000 0.140000
0.610000 0.495000 0.140000
0.672500 0.495000 0.140000
0.735000 0.495000 0.140000
0.797500 0.495000 0.140000
0.860000 0.495000 0.140000
0.922500 0.495000 0.140000
0.985000 0.495000 0.140000
0.000000 0.557500 0.140000
0.047500 0.557500 0.140000
0.110000 0.557500 0.140000
0.172500 0.557500 0.140000
0.235000 0.557500 0.140000
0.297500 0.557500 0.140000
0.360000 0.557500 0.140000
0.422500 0.557500 0.140000
0.485000 0.557500 0.140000
0.547500 0.557500 0.140000
0.610000 0.557500 0.140000
0.672500 0.557500 0.140000
0.735000 0.557500 0.140000
0.797500 0.557500 0.140000
0.860000 0.557500 0.140000
0.922500 0.557500 0.140000
0.985000 0.557500 0.140000
0.000000 0.620000 0.140000
0.047500 0.620000 0.140000
0.110000 0.620000 0.140000
0.172500 0.620000 0.140000
0.235000 0.620000 0.140000
0.297500 0.620000 0.140000
0.360000 0.620000 0.140000
0.422500 0.620000 0.140000
0.485000 0.620000 0.140000
0.547500 0.620000 0.140000
0.610000 0.620000 0.140000
0.672500 0.620000 0.140000
0.735000 0.620000 0.140000
0.797500 0.620000 0.140000
0.860000 0.620000 0.140000
0.922500 0.620000 0.140000
0.985000 0.620000 0.140000
0.000000 0.682500 0.140000
0.047500 0.682500 0.140000
0.110000 0.682500 0.140000
0.172500 0.682500 0.140000
0.235000 0.682500 0.140000
0.297500 0.682500 0.140000
0.360000 0.682500 0.140000
0.422500 0.682500 0.140000
0.485000 0.682500 0.140000
0.547500 0.682500 0.140000
0.610000 0.682500 0.140000
0.672500 0.682500 0.140000
0.735000 0.682500 0.140000
0.797500 0.682500 0.140000
0.860000 0.682500 0.140000
0.922500 0.682500 0.140000
0.985000 0.682500 0.140000
0.000000 0.745000 0.140000
0.047500 0.745000 0.140000
0.110000 0.745000 0.140000
0.172500 0.745000 0.140000
0.235000 0.745000 0.140000
0.297500 0.745000 0.140000
0.360000 0.745000 0.140000
0.422500 0.745000 0.140000
0.485000 0.745000 0.140000
0.547500 0.745000 0.140000
0.610000 0.745000 0.140000
0.672500 0.745000 0.140000
0.735000 0.745000 0.140000
0.797500 0.745000 0.140000
0.860000 0.745000 0.140000
0.922500 0.745000 0.140000
0.985000 0.745000 0.140000
0.000000 0.807500 0.140000
0.047500 0.807500 0.140000
0.110000 0.807500 0.140000
0.172500 0.807500 0.140000
0.235000 0.807500 0.140000
0.297500 0.807500 0.140000
0.360000 0.807500 0.140000
0.422500 0.807500 0.140000
0.485000 0.807500 0.140000
0.547500 0.807500 0.140000
0.610000 0.807500 0.140000
0.672500 0.807500 0.140000
0.735000 0.807500 0.140000
0.797500 0.807500 0.140000
0.860000 0.807500 0.140000
0.922500 0.807500 0.140000
0.985000 0.807500 0.140000
0.000000 0.870000 0.140000
0.047500 0.870000 0.140000
0.110000 0.870000 0.140000
0.172500 0.870000 0.140000
0.235000 0.870000 0.140000
0.297500 0.870000 0.140000
0.360000 0.870000 0.140000
0.422500 0.870000 0.140000
0.485000 0.870000 0.140000
0.547500 0.870000 0.140000
0.610000 0.870000 0.140000
0.672500 0.870000 0.140000
0.735000 0.870000 0.140000
0.797500 0.870000 0.140000
0.860000 0.870000 0.140000
0.922500 0.870000 0.140000
0.985000 0.870000 0.140000
0.000000 0.932500 0.140000
0.047500 0.932500 0.140000
0.110000 0.932500 0.140000
0.172500 0.932500 0.140000
0.235000 0.932500 0.140000
0.297500 0.932500 0.140000
0.360000 0.932500 0.140000
0.422500 0.932500 0.140000
0.485000 0.932500 0.140000
0.547500 0.932500 0.140000
0.610000 0.932500 0.140000
0.672500 0.932500 0.140000
0.735000 0.932500 0.140000
0.797500 0.932500 0.140000
0.860000 0.932500 0.140000
0.922500 0.932500 0.140000
0.985000 0.932500 0.140000
0.000000 0.995000 0.140000
0.047500 0.995000 0.140000
0.110000 0.995000 0.140000
0.172500 0.995000 0.140000
0.235000 0.995000 0.140000
0.297500 0.995000 0.140000
0.360000 0.995000 0.140000
0.422500 0.995000 0.140000
0.485000 0.995000 0.140000
0.547500 0.995000 0.140000
0.610000 0.995000 0.140000
0.672500 0.995000 0.140000
0.735000 0.995000 0.140000
0.797500 0.995000 0.140000
0.860000 0.995000 0.140000
0.922500 0.995000 0.140000
0.985000 0.995000 0.140000
0.000000 0.000000 0.202500
0.047500 0.000000 0.202500
0.110000 0.000000 0.202500
0.172500 0.000000 0.202500
0.235000 0.000000 0.202500
0.297500 0.000000 0.202500
0.360000 0.000000 0.202500
0.422500 0.000000 0.202500
0.485000 0.000000 0.202500
0.547500 0.000000 0.202500
0.610000 0.000000 0.202500
0.672500 0.000000 0.202500
0.735000 0.000000 0.202500
0.797500 0.000000 0.202500
0.860000 0.000000 0.202500
0.922500 0.000000 0.202500
0.985000 0.000000 0.202500
0.000000 0.057500 0.202500
