app/src/main/assets/luts/rainy_window.cube
# ApexStudio filter: rainy_window
LUT_3D_SIZE 5
DOMAIN_MIN 0.0 0.0 0.0
DOMAIN_MAX 1.0 1.0 1.0
0.000000 0.000000 0.015000
0.235000 0.000000 0.015000
0.485000 0.000000 0.015000
0.735000 0.000000 0.015000
0.985000 0.000000 0.015000
0.000000 0.245000 0.015000
0.235000 0.245000 0.015000
0.485000 0.245000 0.015000
0.735000 0.245000 0.015000
0.985000 0.245000 0.015000
0.000000 0.495000 0.015000
0.235000 0.495000 0.015000
0.485000 0.495000 0.015000
0.735000 0.495000 0.015000
0.985000 0.495000 0.015000
0.000000 0.745000 0.015000
0.235000 0.745000 0.015000
0.485000 0.745000 0.015000
0.735000 0.745000 0.015000
0.985000 0.745000 0.015000
0.000000 0.995000 0.015000
0.235000 0.995000 0.015000
0.485000 0.995000 0.015000
0.735000 0.995000 0.015000
0.985000 0.995000 0.015000
0.000000 0.000000 0.265000
0.235000 0.000000 0.265000
0.485000 0.000000 0.265000
0.735000 0.000000 0.265000
0.985000 0.000000 0.265000
0.000000 0.245000 0.265000
0.235000 0.245000 0.265000
0.485000 0.245000 0.265000
0.735000 0.245000 0.265000
0.985000 0.245000 0.265000
0.000000 0.495000 0.265000
0.235000 0.495000 0.265000
0.485000 0.495000 0.265000
0.735000 0.495000 0.265000
0.985000 0.495000 0.265000
0.000000 0.745000 0.265000
0.235000 0.745000 0.265000
0.485000 0.745000 0.265000
0.735000 0.745000 0.265000
0.985000 0.745000 0.265000
0.000000 0.995000 0.265000
0.235000 0.995000 0.265000
0.485000 0.995000 0.265000
0.735000 0.995000 0.265000
0.985000 0.995000 0.265000
0.000000 0.000000 0.515000
0.235000 0.000000 0.515000
0.485000 0.000000 0.515000
0.735000 0.000000 0.515000
0.985000 0.000000 0.515000
0.000000 0.245000 0.515000
0.235000 0.245000 0.515000
0.485000 0.245000 0.515000
0.735000 0.245000 0.515000
0.985000 0.245000 0.515000
0.000000 0.495000 0.515000
0.235000 0.495000 0.515000
0.485000 0.495000 0.515000
0.735000 0.495000 0.515000
0.985000 0.495000 0.515000
0.000000 0.745000 0.515000
0.235000 0.745000 0.515000
0.485000 0.745000 0.515000
0.735000 0.745000 0.515000
0.985000 0.745000 0.515000
0.000000 0.995000 0.515000
0.235000 0.995000 0.515000
0.485000 0.995000 0.515000
0.735000 0.995000 0.515000
0.985000 0.995000 0.515000
0.000000 0.000000 0.765000
0.235000 0.000000 0.765000
0.485000 0.000000 0.765000
0.735000 0.000000 0.765000
0.985000 0.000000 0.765000
0.000000 0.245000 0.765000
0.235000 0.245000 0.765000
0.485000 0.245000 0.765000
0.735000 0.245000 0.765000
0.985000 0.245000 0.765000
0.000000 0.495000 0.765000
0.235000 0.495000 0.765000
0.485000 0.495000 0.765000
0.735000 0.495000 0.765000
0.985000 0.495000 0.765000
0.000000 0.745000 0.765000
0.235000 0.745000 0.765000
0.485000 0.745000 0.765000
0.735000 0.745000 0.765000
0.985000 0.745000 0.765000
0.000000 0.995000 0.765000
0.235000 0.995000 0.765000
0.485000 0.995000 0.765000
0.735000 0.995000 0.765000
0.985000 0.995000 0.765000
0.000000 0.000000 1.000000
0.235000 0.000000 1.000000
0.485000 0.000000 1.000000
0.735000 0.000000 1.000000
0.985000 0.000000 1.000000
0.000000 0.245000 1.000000
0.235000 0.245000 1.000000
0.485000 0.245000 1.000000
0.735000 0.245000 1.000000
0.985000 0.245000 1.000000
0.000000 0.495000 1.000000
0.235000 0.495000 1.000000
0.485000 0.495000 1.000000
0.735000 0.495000 1.000000
0.985000 0.495000 1.000000
0.000000 0.745000 1.000000
0.235000 0.745000 1.000000
0.485000 0.745000 1.000000
0.735000 0.745000 1.000000
0.985000 0.745000 1.000000
0.000000 0.995000 1.000000
0.235000 0.995000 1.000000
0.485000 0.995000 1.000000
0.735000 0.995000 1.000000
0.985000 0.995000 1.000000
