app/src/main/assets/luts/rainy_window.cube
# ApexStudio filter: rainy_window
LUT_3D_SIZE 9
DOMAIN_MIN 0.0 0.0 0.0
DOMAIN_MAX 1.0 1.0 1.0
0.000000 0.000000 0.015000
0.110000 0.000000 0.015000
0.235000 0.000000 0.015000
0.360000 0.000000 0.015000
0.485000 0.000000 0.015000
0.610000 0.000000 0.015000
0.735000 0.000000 0.015000
0.860000 0.000000 0.015000
0.985000 0.000000 0.015000
0.000000 0.120000 0.015000
0.110000 0.120000 0.015000
0.235000 0.120000 0.015000
0.360000 0.120000 0.015000
0.485000 0.120000 0.015000
0.610000 0.120000 0.015000
0.735000 0.120000 0.015000
0.860000 0.120000 0.015000
0.985000 0.120000 0.015000
0.000000 0.245000 0.015000
0.110000 0.245000 0.015000
0.235000 0.245000 0.015000
0.360000 0.245000 0.015000
0.485000 0.245000 0.015000
0.610000 0.245000 0.015000
0.735000 0.245000 0.015000
0.860000 0.245000 0.015000
0.985000 0.245000 0.015000
0.000000 0.370000 0.015000
0.110000 0.370000 0.015000
0.235000 0.370000 0.015000
0.360000 0.370000 0.015000
0.485000 0.370000 0.015000
0.610000 0.370000 0.015000
0.735000 0.370000 0.015000
0.860000 0.370000 0.015000
0.985000 0.370000 0.015000
0.000000 0.495000 0.015000
0.110000 0.495000 0.015000
0.235000 0.495000 0.015000
0.360000 0.495000 0.015000
0.485000 0.495000 0.015000
0.610000 0.495000 0.015000
0.735000 0.495000 0.015000
0.860000 0.495000 0.015000
0.985000 0.495000 0.015000
0.000000 0.620000 0.015000
0.110000 0.620000 0.015000
0.235000 0.620000 0.015000
0.360000 0.620000 0.015000
0.485000 0.620000 0.015000
0.610000 0.620000 0.015000
0.735000 0.620000 0.015000
0.860000 0.620000 0.015000
0.985000 0.620000 0.015000
0.000000 0.745000 0.015000
0.110000 0.745000 0.015000
0.235000 0.745000 0.015000
0.360000 0.745000 0.015000
0.485000 0.745000 0.015000
0.610000 0.745000 0.015000
0.735000 0.745000 0.015000
0.860000 0.745000 0.015000
0.985000 0.745000 0.015000
0.000000 0.870000 0.015000
0.110000 0.870000 0.015000
0.235000 0.870000 0.015000
0.360000 0.870000 0.015000
0.485000 0.870000 0.015000
0.610000 0.870000 0.015000
0.735000 0.870000 0.015000
0.860000 0.870000 0.015000
0.985000 0.870000 0.015000
0.000000 0.995000 0.015000
0.110000 0.995000 0.015000
0.235000 0.995000 0.015000
0.360000 0.995000 0.015000
0.485000 0.995000 0.015000
0.610000 0.995000 0.015000
0.735000 0.995000 0.015000
0.860000 0.995000 0.015000
0.985000 0.995000 0.015000
0.000000 0.000000 0.140000
0.110000 0.000000 0.140000
0.235000 0.000000 0.140000
0.360000 0.000000 0.140000
0.485000 0.000000 0.140000
0.610000 0.000000 0.140000
0.735000 0.000000 0.140000
0.860000 0.000000 0.140000
0.985000 0.000000 0.140000
0.000000 0.120000 0.140000
0.110000 0.120000 0.140000
0.235000 0.120000 0.140000
0.360000 0.120000 0.140000
0.485000 0.120000 0.140000
0.610000 0.120000 0.140000
0.735000 0.120000 0.140000
0.860000 0.120000 0.140000
0.985000 0.120000 0.140000
0.000000 0.245000 0.140000
0.110000 0.245000 0.140000
0.235000 0.245000 0.140000
0.360000 0.245000 0.140000
0.485000 0.245000 0.140000
0.610000 0.245000 0.140000
0.735000 0.245000 0.140000
0.860000 0.245000 0.140000
0.985000 0.245000 0.140000
0.000000 0.370000 0.140000
0.110000 0.370000 0.140000
0.235000 0.370000 0.140000
0.360000 0.370000 0.140000
0.485000 0.370000 0.140000
0.610000 0.370000 0.140000
0.735000 0.370000 0.140000
0.860000 0.370000 0.140000
0.985000 0.370000 0.140000
0.000000 0.495000 0.140000
0.110000 0.495000 0.140000
0.235000 0.495000 0.140000
0.360000 0.495000 0.140000
0.485000 0.495000 0.140000
0.610000 0.495000 0.140000
0.735000 0.495000 0.140000
0.860000 0.495000 0.140000
0.985000 0.495000 0.140000
0.000000 0.620000 0.140000
0.110000 0.620000 0.140000
0.235000 0.620000 0.140000
0.360000 0.620000 0.140000
0.485000 0.620000 0.140000
0.610000 0.620000 0.140000
0.735000 0.620000 0.140000
0.860000 0.620000 0.140000
0.985000 0.620000 0.140000
0.000000 0.745000 0.140000
0.110000 0.745000 0.140000
0.235000 0.745000 0.140000
0.360000 0.745000 0.140000
0.485000 0.745000 0.140000
0.610000 0.745000 0.140000
0.735000 0.745000 0.140000
0.860000 0.745000 0.140000
0.985000 0.745000 0.140000
0.000000 0.870000 0.140000
0.110000 0.870000 0.140000
0.235000 0.870000 0.140000
0.360000 0.870000 0.140000
0.485000 0.870000 0.140000
0.610000 0.870000 0.140000
0.735000 0.870000 0.140000
0.860000 0.870000 0.140000
0.985000 0.870000 0.140000
0.000000 0.995000 0.140000
0.110000 0.995000 0.140000
0.235000 0.995000 0.140000
0.360000 0.995000 0.140000
0.485000 0.995000 0.140000
0.610000 0.995000 0.140000
0.735000 0.995000 0.140000
0.860000 0.995000 0.140000
0.985000 0.995000 0.140000
0.000000 0.000000 0.265000
0.110000 0.000000 0.265000
0.235000 0.000000 0.265000
0.360000 0.000000 0.265000
0.485000 0.000000 0.265000
0.610000 0.000000 0.265000
0.735000 0.000000 0.265000
0.860000 0.000000 0.265000
0.985000 0.000000 0.265000
0.000000 0.120000 0.265000
0.110000 0.120000 0.265000
0.235000 0.120000 0.265000
0.360000 0.120000 0.265000
0.485000 0.120000 0.265000
0.610000 0.120000 0.265000
0.735000 0.120000 0.265000
0.860000 0.120000 0.265000
0.985000 0.120000 0.265000
0.000000 0.245000 0.265000
0.110000 0.245000 0.265000
0.235000 0.245000 0.265000
0.360000 0.245000 0.265000
0.485000 0.245000 0.265000
0.610000 0.245000 0.265000
0.735000 0.245000 0.265000
0.860000 0.245000 0.265000
0.985000 0.245000 0.265000
0.000000 0.370000 0.265000
0.110000 0.370000 0.265000
0.235000 0.370000 0.265000
0.360000 0.370000 0.265000
0.485000 0.370000 0.265000
0.610000 0.370000 0.265000
0.735000 0.370000 0.265000
0.860000 0.370000 0.265000
0.985000 0.370000 0.265000
0.000000 0.495000 0.265000
0.110000 0.495000 0.265000
0.235000 0.495000 0.265000
0.360000 0.495000 0.265000
0.485000 0.495000 0.265000
0.610000 0.495000 0.265000
0.735000 0.495000 0.265000
0.860000 0.495000 0.265000
0.985000 0.495000 0.265000
0.000000 0.620000 0.265000
0.110000 0.620000 0.265000
0.235000 0.620000 0.265000
0.360000 0.620000 0.265000
0.485000 0.620000 0.265000
0.610000 0.620000 0.265000
0.735000 0.620000 0.265000
0.860000 0.620000 0.265000
0.985000 0.620000 0.265000
0.000000 0.745000 0.265000
0.110000 0.745000 0.265000
0.235000 0.745000 0.265000
0.360000 0.745000 0.265000
0.485000 0.745000 0.265000
0.610000 0.745000 0.265000
0.735000 0.745000 0.265000
0.860000 0.745000 0.265000
0.985000 0.745000 0.265000
0.000000 0.870000 0.265000
0.110000 0.870000 0.265000
0.235000 0.870000 0.265000
0.360000 0.870000 0.265000
0.485000 0.870000 0.265000
0.610000 0.870000 0.265000
0.735000 0.870000 0.265000
0.860000 0.870000 0.265000
0.985000 0.870000 0.265000
0.000000 0.995000 0.265000
0.110000 0.995000 0.265000
0.235000 0.995000 0.265000
0.360000 0.995000 0.265000
0.485000 0.995000 0.265000
0.610000 0.995000 0.265000
0.735000 0.995000 0.265000
0.860000 0.995000 0.265000
0.985000 0.995000 0.265000
0.000000 0.000000 0.390000
0.110000 0.000000 0.390000
0.235000 0.000000 0.390000
0.360000 0.000000 0.390000
0.485000 0.000000 0.390000
0.610000 0.000000 0.390000
0.735000 0.000000 0.390000
0.860000 0.000000 0.390000
0.985000 0.000000 0.390000
0.000000 0.120000 0.390000
0.110000 0.120000 0.390000
0.235000 0.120000 0.390000
0.360000 0.120000 0.390000
0.485000 0.120000 0.390000
0.610000 0.120000 0.390000
0.735000 0.120000 0.390000
0.860000 0.120000 0.390000
0.985000 0.120000 0.390000
0.000000 0.245000 0.390000
0.110000 0.245000 0.390000
0.235000 0.245000 0.390000
0.360000 0.245000 0.390000
0.485000 0.245000 0.390000
0.610000 0.245000 0.390000
0.735000 0.245000 0.390000
0.860000 0.245000 0.390000
0.985000 0.245000 0.390000
0.000000 0.370000 0.390000
0.110000 0.370000 0.390000
0.235000 0.370000 0.390000
0.360000 0.370000 0.390000
0.485000 0.370000 0.390000
0.610000 0.370000 0.390000
0.735000 0.370000 0.390000
0.860000 0.370000 0.390000
0.985000 0.370000 0.390000
0.000000 0.495000 0.390000
0.110000 0.495000 0.390000
0.235000 0.495000 0.390000
0.360000 0.495000 0.390000
0.485000 0.495000 0.390000
0.610000 0.495000 0.390000
0.735000 0.495000 0.390000
0.860000 0.495000 0.390000
0.985000 0.495000 0.390000
0.000000 0.620000 0.390000
0.110000 0.620000 0.390000
0.235000 0.620000 0.390000
0.360000 0.620000 0.390000
0.485000 0.620000 0.390000
0.610000 0.620000 0.390000
0.735000 0.620000 0.390000
0.860000 0.620000 0.390000
0.985000 0.620000 0.390000
0.000000 0.745000 0.390000
0.110000 0.745000 0.390000
0.235000 0.745000 0.390000
0.360000 0.745000 0.390000
0.485000 0.745000 0.390000
0.610000 0.745000 0.390000
0.735000 0.745000 0.390000
0.860000 0.745000 0.390000
0.985000 0.745000 0.390000
0.000000 0.870000 0.390000
0.110000 0.870000 0.390000
0.235000 0.870000 0.390000
0.360000 0.870000 0.390000
0.485000 0.870000 0.390000
0.610000 0.870000 0.390000
0.735000 0.870000 0.390000
0.860000 0.870000 0.390000
0.985000 0.870000 0.390000
0.000000 0.995000 0.390000
0.110000 0.995000 0.390000
0.235000 0.995000 0.390000
0.360000 0.995000 0.390000
0.485000 0.995000 0.390000
0.610000 0.995000 0.390000
0.735000 0.995000 0.390000
0.860000 0.995000 0.390000
0.985000 0.995000 0.390000
0.000000 0.000000 0.515000
0.110000 0.000000 0.515000
0.235000 0.000000 0.515000
0.360000 0.000000 0.515000
0.485000 0.000000 0.515000
0.610000 0.000000 0.515000
0.735000 0.000000 0.515000
0.860000 0.000000 0.515000
0.985000 0.000000 0.515000
0.000000 0.120000 0.515000
0.110000 0.120000 0.515000
0.235000 0.120000 0.515000
0.360000 0.120000 0.515000
0.485000 0.120000 0.515000
0.610000 0.120000 0.515000
0.735000 0.120000 0.515000
0.860000 0.120000 0.515000
0.985000 0.120000 0.515000
0.000000 0.245000 0.515000
0.110000 0.245000 0.515000
0.235000 0.245000 0.515000
0.360000 0.245000 0.515000
0.485000 0.245000 0.515000
0.610000 0.245000 0.515000
0.735000 0.245000 0.515000
0.860000 0.245000 0.515000
0.985000 0.245000 0.515000
0.000000 0.370000 0.515000
0.110000 0.370000 0.515000
0.235000 0.370000 0.515000
0.360000 0.370000 0.515000
0.485000 0.370000 0.515000
0.610000 0.370000 0.515000
0.735000 0.370000 0.515000
0.860000 0.370000 0.515000
0.985000 0.370000 0.515000
0.000000 0.495000 0.515000
0.110000 0.495000 0.515000
0.235000 0.495000 0.515000
0.360000 0.495000 0.515000
0.485000 0.495000 0.515000
0.610000 0.495000 0.515000
0.735000 0.495000 0.515000
0.860000 0.495000 0.515000
0.985000 0.495000 0.515000
0.000000 0.620000 0.515000
0.110000 0.620000 0.515000
0.235000 0.620000 0.515000
0.360000 0.620000 0.515000
0.485000 0.620000 0.515000
0.610000 0.620000 0.515000
0.735000 0.620000 0.515000
0.860000 0.620000 0.515000
0.985000 0.620000 0.515000
0.000000 0.745000 0.515000
0.110000 0.745000 0.515000
0.235000 0.745000 0.515000
0.360000 0.745000 0.515000
0.485000 0.745000 0.515000
0.610000 0.745000 0.515000
0.735000 0.745000 0.515000
0.860000 0.745000 0.515000
0.985000 0.745000 0.515000
0.000000 0.870000 0.515000
0.110000 0.870000 0.515000
0.235000 0.870000 0.515000
0.360000 0.870000 0.515000
0.485000 0.870000 0.515000
0.610000 0.870000 0.515000
0.735000 0.870000 0.515000
0.860000 0.870000 0.515000
0.985000 0.870000 0.515000
0.000000 0.995000 0.515000
0.110000 0.995000 0.515000
0.235000 0.995000 0.515000
0.360000 0.995000 0.515000
0.485000 0.995000 0.515000
0.610000 0.995000 0.515000
0.735000 0.995000 0.515000
0.860000 0.995000 0.515000
0.985000 0.995000 0.515000
0.000000 0.000000 0.640000
0.110000 0.000000 0.640000
0.235000 0.000000 0.640000
0.360000 0.000000 0.640000
0.485000 0.000000 0.640000
0.610000 0.000000 0.640000
0.735000 0.000000 0.640000
0.860000 0.000000 0.640000
0.985000 0.000000 0.640000
0.000000 0.120000 0.640000
0.110000 0.120000 0.640000
0.235000 0.120000 0.640000
0.360000 0.120000 0.640000
0.485000 0.120000 0.640000
0.610000 0.120000 0.640000
0.735000 0.120000 0.640000
0.860000 0.120000 0.640000
0.985000 0.120000 0.640000
0.000000 0.245000 0.640000
0.110000 0.245000 0.640000
0.235000 0.245000 0.640000
0.360000 0.245000 0.640000
0.485000 0.245000 0.640000
0.610000 0.245000 0.640000
0.735000 0.245000 0.640000
0.860000 0.245000 0.640000
0.985000 0.245000 0.640000
0.000000 0.370000 0.640000
0.110000 0.370000 0.640000
0.235000 0.370000 0.640000
0.360000 0.370000 0.640000
0.485000 0.370000 0.640000
0.610000 0.370000 0.640000
0.735000 0.370000 0.640000
0.860000 0.370000 0.640000
0.985000 0.370000 0.640000
0.000000 0.495000 0.640000
0.110000 0.495000 0.640000
0.235000 0.495000 0.640000
0.360000 0.495000 0.640000
0.485000 0.495000 0.640000
0.610000 0.495000 0.640000
0.735000 0.495000 0.640000
0.860000 0.495000 0.640000
0.985000 0.495000 0.640000
0.000000 0.620000 0.640000
0.110000 0.620000 0.640000
0.235000 0.620000 0.640000
0.360000 0.620000 0.640000
0.485000 0.620000 0.640000
0.610000 0.620000 0.640000
0.735000 0.620000 0.640000
0.860000 0.620000 0.640000
0.985000 0.620000 0.640000
0.000000 0.745000 0.640000
0.110000 0.745000 0.640000
0.235000 0.745000 0.640000
0.360000 0.745000 0.640000
0.485000 0.745000 0.640000
0.610000 0.745000 0.640000
0.735000 0.745000 0.640000
0.860000 0.745000 0.640000
0.985000 0.745000 0.640000
0.000000 0.870000 0.640000
0.110000 0.870000 0.640000
0.235000 0.870000 0.640000
0.360000 0.870000 0.640000
0.485000 0.870000 0.640000
0.610000 0.870000 0.640000
0.735000 0.870000 0.640000
0.860000 0.870000 0.640000
0.985000 0.870000 0.640000
0.000000 0.995000 0.640000
0.110000 0.995000 0.640000
0.235000 0.995000 0.640000
0.360000 0.995000 0.640000
0.485000 0.995000 0.640000
0.610000 0.995000 0.640000
0.735000 0.995000 0.640000
0.860000 0.995000 0.640000
0.985000 0.995000 0.640000
0.000000 0.000000 0.765000
0.110000 0.000000 0.765000
0.235000 0.000000 0.765000
0.360000 0.000000 0.765000
0.485000 0.000000 0.765000
0.610000 0.000000 0.765000
0.735000 0.000000 0.765000
0.860000 0.000000 0.765000
0.985000 0.000000 0.765000
0.000000 0.120000 0.765000
0.110000 0.120000 0.765000
0.235000 0.120000 0.765000
0.360000 0.120000 0.765000
0.485000 0.120000 0.765000
0.610000 0.120000 0.765000
0.735000 0.120000 0.765000
0.860000 0.120000 0.765000
0.985000 0.120000 0.765000
0.000000 0.245000 0.765000
0.110000 0.245000 0.765000
0.235000 0.245000 0.765000
0.360000 0.245000 0.765000
0.485000 0.245000 0.765000
0.610000 0.245000 0.765000
0.735000 0.245000 0.765000
0.860000 0.245000 0.765000
0.985000 0.245000 0.765000
0.000000 0.370000 0.765000
0.110000 0.370000 0.765000
0.235000 0.370000 0.765000
0.360000 0.370000 0.765000
0.485000 0.370000 0.765000
0.610000 0.370000 0.765000
0.735000 0.370000 0.765000
0.860000 0.370000 0.765000
0.985000 0.370000 0.765000
0.000000 0.495000 0.765000
0.110000 0.495000 0.765000
0.235000 0.495000 0.765000
0.360000 0.495000 0.765000
0.485000 0.495000 0.765000
0.610000 0.495000 0.765000
0.735000 0.495000 0.765000
0.860000 0.495000 0.765000
0.985000 0.495000 0.765000
0.000000 0.620000 0.765000
0.110000 0.620000 0.765000
0.235000 0.620000 0.765000
0.360000 0.620000 0.765000
0.485000 0.620000 0.765000
0.610000 0.620000 0.765000
0.735000 0.620000 0.765000
0.860000 0.620000 0.765000
0.985000 0.620000 0.765000
0.000000 0.745000 0.765000
0.110000 0.745000 0.765000
0.235000 0.745000 0.765000
0.360000 0.745000 0.765000
0.485000 0.745000 0.765000
0.610000 0.745000 0.765000
0.735000 0.745000 0.765000
0.860000 0.745000 0.765000
0.985000 0.745000 0.765000
0.000000 0.870000 0.765000
0.110000 0.870000 0.765000
0.235000 0.870000 0.765000
0.360000 0.870000 0.765000
0.485000 0.870000 0.765000
0.610000 0.870000 0.765000
0.735000 0.870000 0.765000
0.860000 0.870000 0.765000
0.985000 0.870000 0.765000
0.000000 0.995000 0.765000
0.110000 0.995000 0.765000
0.235000 0.995000 0.765000
0.360000 0.995000 0.765000
0.485000 0.995000 0.765000
0.610000 0.995000 0.765000
0.735000 0.995000 0.765000
0.860000 0.995000 0.765000
0.985000 0.995000 0.765000
0.000000 0.000000 0.890000
0.110000 0.000000 0.890000
0.235000 0.000000 0.890000
0.360000 0.000000 0.890000
0.485000 0.000000 0.890000
0.610000 0.000000 0.890000
0.735000 0.000000 0.890000
0.860000 0.000000 0.890000
0.985000 0.000000 0.890000
0.000000 0.120000 0.890000
0.110000 0.120000 0.890000
0.235000 0.120000 0.890000
0.360000 0.120000 0.890000
0.485000 0.120000 0.890000
0.610000 0.120000 0.890000
0.735000 0.120000 0.890000
0.860000 0.120000 0.890000
0.985000 0.120000 0.890000
0.000000 0.245000 0.890000
0.110000 0.245000 0.890000
0.235000 0.245000 0.890000
0.360000 0.245000 0.890000
0.485000 0.245000 0.890000
0.610000 0.245000 0.890000
0.735000 0.245000 0.890000
0.860000 0.245000 0.890000
0.985000 0.245000 0.890000
0.000000 0.370000 0.890000
0.110000 0.370000 0.890000
0.235000 0.370000 0.890000
0.360000 0.370000 0.890000
0.485000 0.370000 0.890000
0.610000 0.370000 0.890000
0.735000 0.370000 0.890000
0.860000 0.370000 0.890000
0.985000 0.370000 0.890000
0.000000 0.495000 0.890000
0.110000 0.495000 0.890000
0.235000 0.495000 0.890000
0.360000 0.495000 0.890000
0.485000 0.495000 0.890000
0.610000 0.495000 0.890000
0.735000 0.495000 0.890000
0.860000 0.495000 0.890000
0.985000 0.495000 0.890000
0.000000 0.620000 0.890000
0.110000 0.620000 0.890000
0.235000 0.620000 0.890000
0.360000 0.620000 0.890000
0.485000 0.620000 0.890000
0.610000 0.620000 0.890000
0.735000 0.620000 0.890000
0.860000 0.620000 0.890000
0.985000 0.620000 0.890000
0.000000 0.745000 0.890000
0.110000 0.745000 0.890000
0.235000 0.745000 0.890000
0.360000 0.745000 0.890000
0.485000 0.745000 0.890000
0.610000 0.745000 0.890000
0.735000 0.745000 0.890000
0.860000 0.745000 0.890000
0.985000 0.745000 0.890000
0.000000 0.870000 0.890000
0.110000 0.870000 0.890000
0.235000 0.870000 0.890000
0.360000 0.870000 0.890000
0.485000 0.870000 0.890000
0.610000 0.870000 0.890000
0.735000 0.870000 0.890000
0.860000 0.870000 0.890000
0.985000 0.870000 0.890000
0.000000 0.995000 0.890000
0.110000 0.995000 0.890000
0.235000 0.995000 0.890000
0.360000 0.995000 0.890000
0.485000 0.995000 0.890000
0.610000 0.995000 0.890000
0.735000 0.995000 0.890000
0.860000 0.995000 0.890000
0.985000 0.995000 0.890000
0.000000 0.000000 1.000000
0.110000 0.000000 1.000000
0.235000 0.000000 1.000000
0.360000 0.000000 1.000000
0.485000 0.000000 1.000000
0.610000 0.000000 1.000000
0.735000 0.000000 1.000000
0.860000 0.000000 1.000000
0.985000 0.000000 1.000000
0.000000 0.120000 1.000000
0.110000 0.120000 1.000000
0.235000 0.120000 1.000000
0.360000 0.120000 1.000000
0.485000 0.120000 1.000000
0.610000 0.120000 1.000000
0.735000 0.120000 1.000000
0.860000 0.120000 1.000000
0.985000 0.120000 1.000000
0.000000 0.245000 1.000000
0.110000 0.245000 1.000000
0.235000 0.245000 1.000000
0.360000 0.245000 1.000000
0.485000 0.245000 1.000000
0.610000 0.245000 1.000000
0.735000 0.245000 1.000000
0.860000 0.245000 1.000000
0.985000 0.245000 1.000000
0.000000 0.370000 1.000000
0.110000 0.370000 1.000000
0.235000 0.370000 1.000000
0.360000 0.370000 1.000000
0.485000 0.370000 1.000000
0.610000 0.370000 1.000000
0.735000 0.370000 1.000000
0.860000 0.370000 1.000000
0.985000 0.370000 1.000000
0.000000 0.495000 1.000000
0.110000 0.495000 1.000000
0.235000 0.495000 1.000000
0.360000 0.495000 1.000000
0.485000 0.495000 1.000000
0.610000 0.495000 1.000000
0.735000 0.495000 1.000000
0.860000 0.495000 1.000000
0.985000 0.495000 1.000000
0.000000 0.620000 1.000000
0.110000 0.620000 1.000000
0.235000 0.620000 1.000000
0.360000 0.620000 1.000000
0.485000 0.620000 1.000000
0.610000 0.620000 1.000000
0.735000 0.620000 1.000000
0.860000 0.620000 1.000000
0.985000 0.620000 1.000000
0.000000 0.745000 1.000000
0.110000 0.745000 1.000000
0.235000 0.745000 1.000000
0.360000 0.745000 1.000000
0.485000 0.745000 1.000000
0.610000 0.745000 1.000000
0.735000 0.745000 1.000000
0.860000 0.745000 1.000000
0.985000 0.745000 1.000000
0.000000 0.870000 1.000000
0.110000 0.870000 1.000000
0.235000 0.870000 1.000000
0.360000 0.870000 1.000000
0.485000 0.870000 1.000000
0.610000 0.870000 1.000000
0.735000 0.870000 1.000000
0.860000 0.870000 1.000000
0.985000 0.870000 1.000000
0.000000 0.995000 1.000000
0.110000 0.995000 1.000000
0.235000 0.995000 1.000000
0.360000 0.995000 1.000000
0.485000 0.995000 1.000000
0.610000 0.995000 1.000000
0.735000 0.995000 1.000000
0.860000 0.995000 1.000000
0.985000 0.995000 1.000000
