app/src/main/assets/luts/rich_black.cube
# ApexStudio filter: rich_black
LUT_3D_SIZE 5
DOMAIN_MIN 0.0 0.0 0.0
DOMAIN_MAX 1.0 1.0 1.0
0.000000 0.000000 0.000000
0.000000 0.000000 0.000000
0.000000 0.000000 0.000000
0.021599 0.021599 0.021599
0.151164 0.151164 0.151164
0.000000 0.000000 0.000000
0.016104 0.016104 0.016104
0.146696 0.146696 0.146696
0.264432 0.264432 0.264432
0.376956 0.376956 0.376956
0.142215 0.142215 0.142215
0.260210 0.260210 0.260210
0.372883 0.372883 0.372883
0.482194 0.482194 0.482194
0.589058 0.589058 0.589058
0.368805 0.368805 0.368805
0.478220 0.478220 0.478220
0.585163 0.585163 0.585163
0.690176 0.690176 0.690176
0.793607 0.793607 0.793607
0.581266 0.581266 0.581266
0.686342 0.686342 0.686342
0.789827 0.789827 0.789827
0.891969 0.891969 0.891969
0.954095 0.954095 0.954095
0.000000 0.000000 0.000000
0.000000 0.000000 0.000000
0.000000 0.000000 0.000000
0.073743 0.073743 0.073743
0.196763 0.196763 0.196763
0.000000 0.000000 0.000000
0.068934 0.068934 0.068934
0.192413 0.192413 0.192413
0.307810 0.307810 0.307810
0.418925 0.418925 0.418925
0.188054 0.188054 0.188054
0.303652 0.303652 0.303652
0.414894 0.414894 0.414894
0.523192 0.523192 0.523192
0.629277 0.629277 0.629277
0.410860 0.410860 0.410860
0.519251 0.519251 0.519251
0.625407 0.625407 0.625407
0.729782 0.729782 0.729782
0.832680 0.832680 0.832680
0.621536 0.621536 0.621536
0.725970 0.725970 0.725970
0.828918 0.828918 0.828918
0.930599 0.930599 0.930599
0.954095 0.954095 0.954095
0.000000 0.000000 0.000000
0.000000 0.000000 0.000000
0.000000 0.000000 0.000000
0.122072 0.122072 0.122072
0.241319 0.241319 0.241319
0.000000 0.000000 0.000000
0.117506 0.117506 0.117506
0.237058 0.237058 0.237058
0.350583 0.350583 0.350583
0.460477 0.460477 0.460477
0.232789 0.232789 0.232789
0.346479 0.346479 0.346479
0.456484 0.456484 0.456484
0.563872 0.563872 0.563872
0.669239 0.669239 0.669239
0.452488 0.452488 0.452488
0.559960 0.559960 0.559960
0.665394 0.665394 0.665394
0.769175 0.769175 0.769175
0.871570 0.871570 0.871570
0.661546 0.661546 0.661546
0.765383 0.765383 0.765383
0.867825 0.867825 0.867825
0.954095 0.954095 0.954095
0.954095 0.954095 0.954095
0.000000 0.000000 0.000000
0.000000 0.000000 0.000000
0.042012 0.042012 0.042012
0.168506 0.168506 0.168506
0.285061 0.285061 0.285061
0.036909 0.036909 0.036909
0.164087 0.164087 0.164087
0.280872 0.280872 0.280872
0.392839 0.392839 0.392839
0.501656 0.501656 0.501656
0.276675 0.276675 0.276675
0.388782 0.388782 0.388782
0.497698 0.497698 0.497698
0.604260 0.604260 0.604260
0.708964 0.708964 0.708964
0.493736 0.493736 0.493736
0.600375 0.600375 0.600375
0.705141 0.705141 0.705141
0.808367 0.808367 0.808367
0.910288 0.910288 0.910288
0.701316 0.701316 0.701316
0.804594 0.804594 0.804594
0.906559 0.906559 0.906559
0.954095 0.954095 0.954095
0.954095 0.954095 0.954095
0.000000 0.000000 0.000000
0.000000 0.000000 0.000000
0.092262 0.092262 0.092262
0.213677 0.213677 0.213677
0.328140 0.328140 0.328140
0.087564 0.087564 0.087564
0.209363 0.209363 0.209363
0.324009 0.324009 0.324009
0.434644 0.434644 0.434644
0.542500 0.542500 0.542500
0.319873 0.319873 0.319873
0.430629 0.430629 0.430629
0.538572 0.538572 0.538572
0.644379 0.644379 0.644379
0.748468 0.748468 0.748468
0.534642 0.534642 0.534642
0.640519 0.640519 0.640519
0.744665 0.744665 0.744665
0.847370 0.847370 0.847370
0.948841 0.948841 0.948841
0.740861 0.740861 0.740861
0.843614 0.843614 0.843614
0.945128 0.945128 0.945128
0.954095 0.954095 0.954095
0.954095 0.954095 0.954095
