app/src/main/assets/luts/rich_black.cube
# ApexStudio filter: rich_black
LUT_3D_SIZE 17
DOMAIN_MIN 0.0 0.0 0.0
DOMAIN_MAX 1.0 1.0 1.0
0.000000 0.000000 0.000000
0.000000 0.000000 0.000000
0.000000 0.000000 0.000000
0.000000 0.000000 0.000000
0.000000 0.000000 0.000000
0.000000 0.000000 0.000000
0.000000 0.000000 0.000000
0.000000 0.000000 0.000000
0.000000 0.000000 0.000000
0.000000 0.000000 0.000000
0.000000 0.000000 0.000000
0.000000 0.000000 0.000000
0.021599 0.021599 0.021599
0.056421 0.056421 0.056421
0.089061 0.089061 0.089061
0.120518 0.120518 0.120518
0.151164 0.151164 0.151164
0.000000 0.000000 0.000000
0.000000 0.000000 0.000000
0.000000 0.000000 0.000000
0.000000 0.000000 0.000000
0.000000 0.000000 0.000000
0.000000 0.000000 0.000000
0.000000 0.000000 0.000000
0.000000 0.000000 0.000000
0.000000 0.000000 0.000000
0.000000 0.000000 0.000000
0.020240 0.020240 0.020240
0.055189 0.055189 0.055189
0.087885 0.087885 0.087885
0.119376 0.119376 0.119376
0.150048 0.150048 0.150048
0.180101 0.180101 0.180101
0.209657 0.209657 0.209657
0.000000 0.000000 0.000000
0.000000 0.000000 0.000000
0.000000 0.000000 0.000000
0.000000 0.000000 0.000000
0.000000 0.000000 0.000000
0.000000 0.000000 0.000000
0.000000 0.000000 0.000000
0.000000 0.000000 0.000000
0.018872 0.018872 0.018872
0.053954 0.053954 0.053954
0.086706 0.086706 0.086706
0.118234 0.118234 0.118234
0.148932 0.148932 0.148932
0.179005 0.179005 0.179005
0.208578 0.208578 0.208578
0.237736 0.237736 0.237736
0.266540 0.266540 0.266540
0.000000 0.000000 0.000000
0.000000 0.000000 0.000000
0.000000 0.000000 0.000000
0.000000 0.000000 0.000000
0.000000 0.000000 0.000000
0.000000 0.000000 0.000000
0.017493 0.017493 0.017493
0.052717 0.052717 0.052717
0.085527 0.085527 0.085527
0.117090 0.117090 0.117090
0.147814 0.147814 0.147814
0.177908 0.177908 0.177908
0.207498 0.207498 0.207498
0.236670 0.236670 0.236670
0.265486 0.265486 0.265486
0.293992 0.293992 0.293992
0.322224 0.322224 0.322224
0.000000 0.000000 0.000000
0.000000 0.000000 0.000000
0.000000 0.000000 0.000000
0.000000 0.000000 0.000000
0.016104 0.016104 0.016104
0.051476 0.051476 0.051476
0.084345 0.084345 0.084345
0.115946 0.115946 0.115946
0.146696 0.146696 0.146696
0.176810 0.176810 0.176810
0.206417 0.206417 0.206417
0.235603 0.235603 0.235603
0.264432 0.264432 0.264432
0.292948 0.292948 0.292948
0.321190 0.321190 0.321190
0.349185 0.349185 0.349185
0.376956 0.376956 0.376956
0.000000 0.000000 0.000000
0.000000 0.000000 0.000000
0.014703 0.014703 0.014703
0.050232 0.050232 0.050232
0.083162 0.083162 0.083162
0.114800 0.114800 0.114800
0.145577 0.145577 0.145577
0.175712 0.175712 0.175712
0.205336 0.205336 0.205336
0.234536 0.234536 0.234536
0.263377 0.263377 0.263377
0.291904 0.291904 0.291904
0.320155 0.320155 0.320155
0.348159 0.348159 0.348159
0.375938 0.375938 0.375938
0.403514 0.403514 0.403514
0.430903 0.430903 0.430903
0.013288 0.013288 0.013288
0.048986 0.048986 0.048986
0.081977 0.081977 0.081977
0.113653 0.113653 0.113653
0.144457 0.144457 0.144457
0.174613 0.174613 0.174613
0.204254 0.204254 0.204254
0.233469 0.233469 0.233469
0.262322 0.262322 0.262322
0.290860 0.290860 0.290860
0.319121 0.319121 0.319121
0.347133 0.347133 0.347133
0.374920 0.374920 0.374920
0.402503 0.402503 0.402503
0.429898 0.429898 0.429898
0.457120 0.457120 0.457120
0.484180 0.484180 0.484180
0.080791 0.080791 0.080791
0.112505 0.112505 0.112505
0.143337 0.143337 0.143337
0.173513 0.173513 0.173513
0.203171 0.203171 0.203171
0.232401 0.232401 0.232401
0.261266 0.261266 0.261266
0.289815 0.289815 0.289815
0.318085 0.318085 0.318085
0.346106 0.346106 0.346106
0.373902 0.373902 0.373902
0.401492 0.401492 0.401492
0.428893 0.428893 0.428893
0.456121 0.456121 0.456121
0.483187 0.483187 0.483187
0.510102 0.510102 0.510102
0.536876 0.536876 0.536876
0.142215 0.142215 0.142215
0.172413 0.172413 0.172413
0.202088 0.202088 0.202088
0.231332 0.231332 0.231332
0.260210 0.260210 0.260210
0.288770 0.288770 0.288770
0.317050 0.317050 0.317050
0.345079 0.345079 0.345079
0.372883 0.372883 0.372883
0.400480 0.400480 0.400480
0.427888 0.427888 0.427888
0.455122 0.455122 0.455122
0.482194 0.482194 0.482194
0.509114 0.509114 0.509114
0.535893 0.535893 0.535893
0.562539 0.562539 0.562539
0.589058 0.589058 0.589058
0.201005 0.201005 0.201005
0.230263 0.230263 0.230263
0.259153 0.259153 0.259153
0.287724 0.287724 0.287724
0.316014 0.316014 0.316014
0.344052 0.344052 0.344052
0.371864 0.371864 0.371864
0.399468 0.399468 0.399468
0.426883 0.426883 0.426883
0.454123 0.454123 0.454123
0.481201 0.481201 0.481201
0.508126 0.508126 0.508126
0.534910 0.534910 0.534910
0.561561 0.561561 0.561561
0.588085 0.588085 0.588085
0.614490 0.614490 0.614490
0.640782 0.640782 0.640782
0.258096 0.258096 0.258096
0.286679 0.286679 0.286679
0.314978 0.314978 0.314978
0.343025 0.343025 0.343025
0.370844 0.370844 0.370844
0.398456 0.398456 0.398456
0.425878 0.425878 0.425878
0.453124 0.453124 0.453124
0.480207 0.480207 0.480207
0.507138 0.507138 0.507138
0.533927 0.533927 0.533927
0.560582 0.560582 0.560582
0.587111 0.587111 0.587111
0.613521 0.613521 0.613521
0.639817 0.639817 0.639817
0.666006 0.666006 0.666006
0.692092 0.692092 0.692092
0.313942 0.313942 0.313942
0.341997 0.341997 0.341997
0.369825 0.369825 0.369825
0.397444 0.397444 0.397444
0.424872 0.424872 0.424872
0.452125 0.452125 0.452125
0.479214 0.479214 0.479214
0.506150 0.506150 0.506150
0.532944 0.532944 0.532944
0.559604 0.559604 0.559604
0.586137 0.586137 0.586137
0.612551 0.612551 0.612551
0.638851 0.638851 0.638851
0.665044 0.665044 0.665044
0.691134 0.691134 0.691134
0.717125 0.717125 0.717125
0.743023 0.743023 0.743023
0.368805 0.368805 0.368805
0.396431 0.396431 0.396431
0.423866 0.423866 0.423866
0.451125 0.451125 0.451125
0.478220 0.478220 0.478220
0.505162 0.505162 0.505162
0.531961 0.531961 0.531961
0.558626 0.558626 0.558626
0.585163 0.585163 0.585163
0.611581 0.611581 0.611581
0.637886 0.637886 0.637886
0.664082 0.664082 0.664082
0.690176 0.690176 0.690176
0.716171 0.716171 0.716171
0.742072 0.742072 0.742072
0.767883 0.767883 0.767883
0.793607 0.793607 0.793607
0.422860 0.422860 0.422860
0.450125 0.450125 0.450125
0.477226 0.477226 0.477226
0.504173 0.504173 0.504173
0.530977 0.530977 0.530977
0.557647 0.557647 0.557647
0.584189 0.584189 0.584189
0.610612 0.610612 0.610612
0.636920 0.636920 0.636920
0.663120 0.663120 0.663120
0.689217 0.689217 0.689217
0.715216 0.715216 0.715216
0.741120 0.741120 0.741120
0.766935 0.766935 0.766935
0.792662 0.792662 0.792662
0.818306 0.818306 0.818306
0.843871 0.843871 0.843871
0.476232 0.476232 0.476232
0.503184 0.503184 0.503184
0.529994 0.529994 0.529994
0.556668 0.556668 0.556668
0.583215 0.583215 0.583215
0.609642 0.609642 0.609642
0.635954 0.635954 0.635954
0.662158 0.662158 0.662158
0.688259 0.688259 0.688259
0.714261 0.714261 0.714261
0.740169 0.740169 0.740169
0.765986 0.765986 0.765986
0.791717 0.791717 0.791717
0.817364 0.817364 0.817364
0.842931 0.842931 0.842931
0.868421 0.868421 0.868421
0.893836 0.893836 0.893836
0.529010 0.529010 0.529010
0.555689 0.555689 0.555689
0.582241 0.582241 0.582241
0.608671 0.608671 0.608671
0.634988 0.634988 0.634988
0.661196 0.661196 0.661196
0.687301 0.687301 0.687301
0.713306 0.713306 0.713306
0.739217 0.739217 0.739217
0.765038 0.765038 0.765038
0.790772 0.790772 0.790772
0.816422 0.816422 0.816422
0.841992 0.841992 0.841992
0.867485 0.867485 0.867485
0.892903 0.892903 0.892903
0.918248 0.918248 0.918248
0.943524 0.943524 0.943524
0.581266 0.581266 0.581266
0.607701 0.607701 0.607701
0.634022 0.634022 0.634022
0.660234 0.660234 0.660234
0.686342 0.686342 0.686342
0.712351 0.712351 0.712351
0.738266 0.738266 0.738266
0.764090 0.764090 0.764090
0.789827 0.789827 0.789827
0.815480 0.815480 0.815480
0.841053 0.841053 0.841053
0.866548 0.866548 0.866548
0.891969 0.891969 0.891969
0.917317 0.917317 0.917317
0.942595 0.942595 0.942595
0.954095 0.954095 0.954095
0.954095 0.954095 0.954095
0.000000 0.000000 0.000000
0.000000 0.000000 0.000000
0.000000 0.000000 0.000000
0.000000 0.000000 0.000000
0.000000 0.000000 0.000000
0.000000 0.000000 0.000000
0.000000 0.000000 0.000000
0.000000 0.000000 0.000000
0.000000 0.000000 0.000000
0.000000 0.000000 0.000000
0.000000 0.000000 0.000000
0.000000 0.000000 0.000000
0.035271 0.035271 0.035271
0.069044 0.069044 0.069044
0.101168 0.101168 0.101168
0.132285 0.132285 0.132285
0.162679 0.162679 0.162679
0.000000 0.000000 0.000000
0.000000 0.000000 0.000000
0.000000 0.000000 0.000000
0.000000 0.000000 0.000000
0.000000 0.000000 0.000000
0.000000 0.000000 0.000000
0.000000 0.000000 0.000000
0.000000 0.000000 0.000000
0.000000 0.000000 0.000000
0.000000 0.000000 0.000000
0.033979 0.033979 0.033979
0.067837 0.067837 0.067837
0.100007 0.100007 0.100007
0.131154 0.131154 0.131154
0.161572 0.161572 0.161572
0.191423 0.191423 0.191423
0.220814 0.220814 0.220814
0.000000 0.000000 0.000000
0.000000 0.000000 0.000000
0.000000 0.000000 0.000000
0.000000 0.000000 0.000000
0.000000 0.000000 0.000000
0.000000 0.000000 0.000000
0.000000 0.000000 0.000000
0.000000 0.000000 0.000000
0.032681 0.032681 0.032681
0.066627 0.066627 0.066627
0.098844 0.098844 0.098844
0.130022 0.130022 0.130022
0.160463 0.160463 0.160463
0.190334 0.190334 0.190334
0.219740 0.219740 0.219740
0.248757 0.248757 0.248757
0.277439 0.277439 0.277439
0.000000 0.000000 0.000000
0.000000 0.000000 0.000000
0.000000 0.000000 0.000000
0.000000 0.000000 0.000000
0.000000 0.000000 0.000000
0.000000 0.000000 0.000000
0.031379 0.031379 0.031379
0.065416 0.065416 0.065416
0.097679 0.097679 0.097679
0.128890 0.128890 0.128890
0.159354 0.159354 0.159354
0.189243 0.189243 0.189243
0.218666 0.218666 0.218666
0.247696 0.247696 0.247696
0.276389 0.276389 0.276389
0.304787 0.304787 0.304787
0.332922 0.332922 0.332922
0.000000 0.000000 0.000000
0.000000 0.000000 0.000000
0.000000 0.000000 0.000000
0.000000 0.000000 0.000000
0.030071 0.030071 0.030071
0.064202 0.064202 0.064202
0.096513 0.096513 0.096513
0.127756 0.127756 0.127756
0.158245 0.158245 0.158245
0.188153 0.188153 0.188153
0.217591 0.217591 0.217591
0.246634 0.246634 0.246634
0.275339 0.275339 0.275339
0.303747 0.303747 0.303747
0.331891 0.331891 0.331891
0.359798 0.359798 0.359798
0.387491 0.387491 0.387491
0.000000 0.000000 0.000000
0.000000 0.000000 0.000000
0.028757 0.028757 0.028757
0.062986 0.062986 0.062986
0.095346 0.095346 0.095346
0.126621 0.126621 0.126621
0.157134 0.157134 0.157134
0.187061 0.187061 0.187061
0.216515 0.216515 0.216515
0.245572 0.245572 0.245572
0.274288 0.274288 0.274288
0.302707 0.302707 0.302707
0.330860 0.330860 0.330860
0.358776 0.358776 0.358776
0.386475 0.386475 0.386475
0.413978 0.413978 0.413978
0.441299 0.441299 0.441299
0.027438 0.027438 0.027438
0.061767 0.061767 0.061767
0.094178 0.094178 0.094178
0.125486 0.125486 0.125486
0.156023 0.156023 0.156023
0.185969 0.185969 0.185969
0.215439 0.215439 0.215439
0.244509 0.244509 0.244509
0.273237 0.273237 0.273237
0.301666 0.301666 0.301666
0.329829 0.329829 0.329829
0.357752 0.357752 0.357752
0.385460 0.385460 0.385460
0.412969 0.412969 0.412969
0.440297 0.440297 0.440297
0.467455 0.467455 0.467455
0.494457 0.494457 0.494457
0.093008 0.093008 0.093008
0.124349 0.124349 0.124349
0.154911 0.154911 0.154911
0.184877 0.184877 0.184877
0.214362 0.214362 0.214362
0.243446 0.243446 0.243446
0.272186 0.272186 0.272186
0.300625 0.300625 0.300625
0.328797 0.328797 0.328797
0.356729 0.356729 0.356729
0.384444 0.384444 0.384444
0.411961 0.411961 0.411961
0.439294 0.439294 0.439294
0.466459 0.466459 0.466459
0.493466 0.493466 0.493466
0.520326 0.520326 0.520326
0.547048 0.547048 0.547048
0.153798 0.153798 0.153798
0.183783 0.183783 0.183783
0.213285 0.213285 0.213285
0.242383 0.242383 0.242383
0.271134 0.271134 0.271134
0.299584 0.299584 0.299584
0.327765 0.327765 0.327765
0.355706 0.355706 0.355706
0.383428 0.383428 0.383428
0.410952 0.410952 0.410952
0.438292 0.438292 0.438292
0.465462 0.465462 0.465462
0.492475 0.492475 0.492475
0.519340 0.519340 0.519340
0.546067 0.546067 0.546067
0.572664 0.572664 0.572664
0.599138 0.599138 0.599138
0.212207 0.212207 0.212207
0.241319 0.241319 0.241319
0.270082 0.270082 0.270082
0.298542 0.298542 0.298542
0.326733 0.326733 0.326733
0.354682 0.354682 0.354682
0.382412 0.382412 0.382412
0.409942 0.409942 0.409942
0.437289 0.437289 0.437289
0.464466 0.464466 0.464466
0.491484 0.491484 0.491484
0.518355 0.518355 0.518355
0.545087 0.545087 0.545087
0.571688 0.571688 0.571688
0.598166 0.598166 0.598166
0.624528 0.624528 0.624528
0.650778 0.650778 0.650778
0.269030 0.269030 0.269030
0.297500 0.297500 0.297500
0.325700 0.325700 0.325700
0.353657 0.353657 0.353657
0.381395 0.381395 0.381395
0.408933 0.408933 0.408933
0.436286 0.436286 0.436286
0.463469 0.463469 0.463469
0.490493 0.490493 0.490493
0.517369 0.517369 0.517369
0.544105 0.544105 0.544105
0.570712 0.570712 0.570712
0.597194 0.597194 0.597194
0.623560 0.623560 0.623560
0.649814 0.649814 0.649814
0.675963 0.675963 0.675963
0.702011 0.702011 0.702011
0.324667 0.324667 0.324667
0.352633 0.352633 0.352633
0.380379 0.380379 0.380379
0.407923 0.407923 0.407923
0.435283 0.435283 0.435283
0.462472 0.462472 0.462472
0.489501 0.489501 0.489501
0.516382 0.516382 0.516382
0.543124 0.543124 0.543124
0.569735 0.569735 0.569735
0.596222 0.596222 0.596222
0.622592 0.622592 0.622592
0.648850 0.648850 0.648850
0.675003 0.675003 0.675003
0.701055 0.701055 0.701055
0.727010 0.727010 0.727010
0.752873 0.752873 0.752873
0.379361 0.379361 0.379361
0.406913 0.406913 0.406913
0.434279 0.434279 0.434279
0.461474 0.461474 0.461474
0.488509 0.488509 0.488509
0.515396 0.515396 0.515396
0.542143 0.542143 0.542143
0.568758 0.568758 0.568758
0.595250 0.595250 0.595250
0.621624 0.621624 0.621624
0.647886 0.647886 0.647886
0.674043 0.674043 0.674043
0.700098 0.700098 0.700098
0.726057 0.726057 0.726057
0.751923 0.751923 0.751923
0.777701 0.777701 0.777701
0.803393 0.803393 0.803393
0.433276 0.433276 0.433276
0.460477 0.460477 0.460477
0.487518 0.487518 0.487518
0.514409 0.514409 0.514409
0.541161 0.541161 0.541161
0.567781 0.567781 0.567781
0.594277 0.594277 0.594277
0.620655 0.620655 0.620655
0.646922 0.646922 0.646922
0.673082 0.673082 0.673082
0.699141 0.699141 0.699141
0.725103 0.725103 0.725103
0.750973 0.750973 0.750973
0.776754 0.776754 0.776754
0.802449 0.802449 0.802449
0.828063 0.828063 0.828063
0.853597 0.853597 0.853597
0.486525 0.486525 0.486525
0.513423 0.513423 0.513423
0.540179 0.540179 0.540179
0.566804 0.566804 0.566804
0.593305 0.593305 0.593305
0.619687 0.619687 0.619687
0.645958 0.645958 0.645958
0.672122 0.672122 0.672122
0.698184 0.698184 0.698184
0.724150 0.724150 0.724150
0.750023 0.750023 0.750023
0.775807 0.775807 0.775807
0.801505 0.801505 0.801505
0.827122 0.827122 0.827122
0.852659 0.852659 0.852659
0.878120 0.878120 0.878120
0.903507 0.903507 0.903507
0.539197 0.539197 0.539197
0.565827 0.565827 0.565827
0.592332 0.592332 0.592332
0.618718 0.618718 0.618718
0.644993 0.644993 0.644993
0.671161 0.671161 0.671161
0.697227 0.697227 0.697227
0.723196 0.723196 0.723196
0.749073 0.749073 0.749073
0.774860 0.774860 0.774860
0.800561 0.800561 0.800561
0.826181 0.826181 0.826181
0.851721 0.851721 0.851721
0.877185 0.877185 0.877185
0.902575 0.902575 0.902575
0.927893 0.927893 0.927893
0.953143 0.953143 0.953143
0.591359 0.591359 0.591359
0.617750 0.617750 0.617750
0.644028 0.644028 0.644028
0.670200 0.670200 0.670200
0.696270 0.696270 0.696270
0.722243 0.722243 0.722243
0.748122 0.748122 0.748122
0.773913 0.773913 0.773913
0.799617 0.799617 0.799617
0.825240 0.825240 0.825240
0.850783 0.850783 0.850783
0.876249 0.876249 0.876249
0.901642 0.901642 0.901642
0.926963 0.926963 0.926963
0.952215 0.952215 0.952215
0.954095 0.954095 0.954095
0.954095 0.954095 0.954095
0.000000 0.000000 0.000000
0.000000 0.000000 0.000000
0.000000 0.000000 0.000000
0.000000 0.000000 0.000000
0.000000 0.000000 0.000000
0.000000 0.000000 0.000000
0.000000 0.000000 0.000000
0.000000 0.000000 0.000000
0.000000 0.000000 0.000000
0.000000 0.000000 0.000000
0.000000 0.000000 0.000000
0.012640 0.012640 0.012640
0.048418 0.048418 0.048418
0.081438 0.081438 0.081438
0.113131 0.113131 0.113131
0.143948 0.143948 0.143948
0.174113 0.174113 0.174113
0.000000 0.000000 0.000000
0.000000 0.000000 0.000000
0.000000 0.000000 0.000000
0.000000 0.000000 0.000000
0.000000 0.000000 0.000000
0.000000 0.000000 0.000000
0.000000 0.000000 0.000000
0.000000 0.000000 0.000000
0.000000 0.000000 0.000000
0.011202 0.011202 0.011202
0.047167 0.047167 0.047167
0.080251 0.080251 0.080251
0.111983 0.111983 0.111983
0.142827 0.142827 0.142827
0.173013 0.173013 0.173013
0.202679 0.202679 0.202679
0.231915 0.231915 0.231915
0.000000 0.000000 0.000000
0.000000 0.000000 0.000000
0.000000 0.000000 0.000000
0.000000 0.000000 0.000000
0.000000 0.000000 0.000000
0.000000 0.000000 0.000000
0.000000 0.000000 0.000000
0.009745 0.009745 0.009745
0.045912 0.045912 0.045912
0.079062 0.079062 0.079062
0.110833 0.110833 0.110833
0.141705 0.141705 0.141705
0.171913 0.171913 0.171913
0.201596 0.201596 0.201596
0.230846 0.230846 0.230846
0.259730 0.259730 0.259730
0.288295 0.288295 0.288295
0.000000 0.000000 0.000000
0.000000 0.000000 0.000000
0.000000 0.000000 0.000000
0.000000 0.000000 0.000000
0.000000 0.000000 0.000000
0.008266 0.008266 0.008266
0.044654 0.044654 0.044654
0.077871 0.077871 0.077871
0.109682 0.109682 0.109682
0.140582 0.140582 0.140582
0.170811 0.170811 0.170811
0.200512 0.200512 0.200512
0.229777 0.229777 0.229777
0.258673 0.258673 0.258673
0.287249 0.287249 0.287249
0.315543 0.315543 0.315543
0.343585 0.343585 0.343585
0.000000 0.000000 0.000000
0.000000 0.000000 0.000000
0.000000 0.000000 0.000000
0.006761 0.006761 0.006761
0.043392 0.043392 0.043392
0.076679 0.076679 0.076679
0.108530 0.108530 0.108530
0.139458 0.139458 0.139458
0.169709 0.169709 0.169709
0.199427 0.199427 0.199427
0.228707 0.228707 0.228707
0.257616 0.257616 0.257616
0.286203 0.286203 0.286203
0.314507 0.314507 0.314507
0.342558 0.342558 0.342558
0.370381 0.370381 0.370381
0.397996 0.397996 0.397996
0.000000 0.000000 0.000000
0.005220 0.005220 0.005220
0.042127 0.042127 0.042127
0.075484 0.075484 0.075484
0.107376 0.107376 0.107376
0.138333 0.138333 0.138333
0.168606 0.168606 0.168606
0.198342 0.198342 0.198342
0.227637 0.227637 0.227637
0.256558 0.256558 0.256558
0.285157 0.285157 0.285157
0.313470 0.313470 0.313470
0.341530 0.341530 0.341530
0.369361 0.369361 0.369361
0.396984 0.396984 0.396984
0.424415 0.424415 0.424415
0.451670 0.451670 0.451670
0.040858 0.040858 0.040858
0.074288 0.074288 0.074288
0.106222 0.106222 0.106222
0.137208 0.137208 0.137208
0.167503 0.167503 0.167503
0.197257 0.197257 0.197257
0.226566 0.226566 0.226566
0.255500 0.255500 0.255500
0.284110 0.284110 0.284110
0.312433 0.312433 0.312433
0.340502 0.340502 0.340502
0.368341 0.368341 0.368341
0.395971 0.395971 0.395971
0.423409 0.423409 0.423409
0.450671 0.450671 0.450671
0.477768 0.477768 0.477768
0.504713 0.504713 0.504713
0.105066 0.105066 0.105066
0.136081 0.136081 0.136081
0.166399 0.166399 0.166399
0.196170 0.196170 0.196170
0.225495 0.225495 0.225495
0.254442 0.254442 0.254442
0.283062 0.283062 0.283062
0.311396 0.311396 0.311396
0.339474 0.339474 0.339474
0.367321 0.367321 0.367321
0.394958 0.394958 0.394958
0.422403 0.422403 0.422403
0.449671 0.449671 0.449671
0.476774 0.476774 0.476774
0.503724 0.503724 0.503724
0.530530 0.530530 0.530530
0.557202 0.557202 0.557202
0.165294 0.165294 0.165294
0.195083 0.195083 0.195083
0.224423 0.224423 0.224423
0.253383 0.253383 0.253383
0.282015 0.282015 0.282015
0.310358 0.310358 0.310358
0.338445 0.338445 0.338445
0.366300 0.366300 0.366300
0.393945 0.393945 0.393945
0.421396 0.421396 0.421396
0.448670 0.448670 0.448670
0.475780 0.475780 0.475780
0.502735 0.502735 0.502735
0.529547 0.529547 0.529547
0.556223 0.556223 0.556223
0.582772 0.582772 0.582772
0.609201 0.609201 0.609201
0.223351 0.223351 0.223351
0.252324 0.252324 0.252324
0.280967 0.280967 0.280967
0.309320 0.309320 0.309320
0.337416 0.337416 0.337416
0.365279 0.365279 0.365279
0.392931 0.392931 0.392931
0.420390 0.420390 0.420390
0.447670 0.447670 0.447670
0.474785 0.474785 0.474785
0.501746 0.501746 0.501746
0.528563 0.528563 0.528563
0.555244 0.555244 0.555244
0.581798 0.581798 0.581798
0.608230 0.608230 0.608230
0.634549 0.634549 0.634549
0.660759 0.660759 0.660759
0.279918 0.279918 0.279918
0.308282 0.308282 0.308282
0.336386 0.336386 0.336386
0.364258 0.364258 0.364258
0.391917 0.391917 0.391917
0.419383 0.419383 0.419383
0.446669 0.446669 0.446669
0.473790 0.473790 0.473790
0.500757 0.500757 0.500757
0.527578 0.527578 0.527578
0.554265 0.554265 0.554265
0.580823 0.580823 0.580823
0.607260 0.607260 0.607260
0.633583 0.633583 0.633583
0.659796 0.659796 0.659796
0.685906 0.685906 0.685906
0.711917 0.711917 0.711917
0.335357 0.335357 0.335357
0.363236 0.363236 0.363236
0.390903 0.390903 0.390903
0.418376 0.418376 0.418376
0.445669 0.445669 0.445669
0.472795 0.472795 0.472795
0.499767 0.499767 0.499767
0.526594 0.526594 0.526594
0.553285 0.553285 0.553285
0.579848 0.579848 0.579848
0.606290 0.606290 0.606290
0.632616 0.632616 0.632616
0.658834 0.658834 0.658834
0.684947 0.684947 0.684947
0.710962 0.710962 0.710962
0.736881 0.736881 0.736881
0.762710 0.762710 0.762710
0.389889 0.389889 0.389889
0.417368 0.417368 0.417368
0.444668 0.444668 0.444668
0.471800 0.471800 0.471800
0.498778 0.498778 0.498778
0.525610 0.525610 0.525610
0.552306 0.552306 0.552306
0.578873 0.578873 0.578873
0.605319 0.605319 0.605319
0.631650 0.631650 0.631650
0.657871 0.657871 0.657871
0.683989 0.683989 0.683989
0.710007 0.710007 0.710007
0.735930 0.735930 0.735930
0.761761 0.761761 0.761761
0.787506 0.787506 0.787506
0.813167 0.813167 0.813167
0.443666 0.443666 0.443666
0.470805 0.470805 0.470805
0.497788 0.497788 0.497788
0.524625 0.524625 0.524625
0.551326 0.551326 0.551326
0.577898 0.577898 0.577898
0.604348 0.604348 0.604348
0.630683 0.630683 0.630683
0.656908 0.656908 0.656908
0.683029 0.683029 0.683029
0.709051 0.709051 0.709051
0.734977 0.734977 0.734977
0.760813 0.760813 0.760813
0.786561 0.786561 0.786561
0.812224 0.812224 0.812224
0.837807 0.837807 0.837807
0.863312 0.863312 0.863312
0.496798 0.496798 0.496798
0.523640 0.523640 0.523640
0.550346 0.550346 0.550346
0.576922 0.576922 0.576922
0.603377 0.603377 0.603377
0.629716 0.629716 0.629716
0.655945 0.655945 0.655945
0.682070 0.682070 0.682070
0.708095 0.708095 0.708095
0.734025 0.734025 0.734025
0.759864 0.759864 0.759864
0.785615 0.785615 0.785615
0.811282 0.811282 0.811282
0.836867 0.836867 0.836867
0.862375 0.862375 0.862375
0.887808 0.887808 0.887808
0.913168 0.913168 0.913168
0.549366 0.549366 0.549366
0.575947 0.575947 0.575947
0.602406 0.602406 0.602406
0.628749 0.628749 0.628749
0.654982 0.654982 0.654982
0.681111 0.681111 0.681111
0.707140 0.707140 0.707140
0.733073 0.733073 0.733073
0.758915 0.758915 0.758915
0.784669 0.784669 0.784669
0.810339 0.810339 0.810339
0.835928 0.835928 0.835928
0.861438 0.861438 0.861438
0.886874 0.886874 0.886874
0.912236 0.912236 0.912236
0.937528 0.937528 0.937528
0.954095 0.954095 0.954095
0.601434 0.601434 0.601434
0.627782 0.627782 0.627782
0.654019 0.654019 0.654019
0.680152 0.680152 0.680152
0.706184 0.706184 0.706184
0.732121 0.732121 0.732121
0.757966 0.757966 0.757966
0.783723 0.783723 0.783723
0.809396 0.809396 0.809396
0.834988 0.834988 0.834988
0.860501 0.860501 0.860501
0.885939 0.885939 0.885939
0.911304 0.911304 0.911304
0.936599 0.936599 0.936599
0.954095 0.954095 0.954095
0.954095 0.954095 0.954095
0.954095 0.954095 0.954095
0.000000 0.000000 0.000000
0.000000 0.000000 0.000000
0.000000 0.000000 0.000000
0.000000 0.000000 0.000000
0.000000 0.000000 0.000000
0.000000 0.000000 0.000000
0.000000 0.000000 0.000000
0.000000 0.000000 0.000000
0.000000 0.000000 0.000000
0.000000 0.000000 0.000000
0.000000 0.000000 0.000000
0.026836 0.026836 0.026836
0.061213 0.061213 0.061213
0.093646 0.093646 0.093646
0.124969 0.124969 0.124969
0.155517 0.155517 0.155517
0.185473 0.185473 0.185473
0.000000 0.000000 0.000000
