app/src/main/assets/luts/rich_black.cube
# ApexStudio filter: rich_black
LUT_3D_SIZE 9
DOMAIN_MIN 0.0 0.0 0.0
DOMAIN_MAX 1.0 1.0 1.0
0.000000 0.000000 0.000000
0.000000 0.000000 0.000000
0.000000 0.000000 0.000000
0.000000 0.000000 0.000000
0.000000 0.000000 0.000000
0.000000 0.000000 0.000000
0.021599 0.021599 0.021599
0.089061 0.089061 0.089061
0.151164 0.151164 0.151164
0.000000 0.000000 0.000000
0.000000 0.000000 0.000000
0.000000 0.000000 0.000000
0.000000 0.000000 0.000000
0.018872 0.018872 0.018872
0.086706 0.086706 0.086706
0.148932 0.148932 0.148932
0.208578 0.208578 0.208578
0.266540 0.266540 0.266540
0.000000 0.000000 0.000000
0.000000 0.000000 0.000000
0.016104 0.016104 0.016104
0.084345 0.084345 0.084345
0.146696 0.146696 0.146696
0.206417 0.206417 0.206417
0.264432 0.264432 0.264432
0.321190 0.321190 0.321190
0.376956 0.376956 0.376956
0.013288 0.013288 0.013288
0.081977 0.081977 0.081977
0.144457 0.144457 0.144457
0.204254 0.204254 0.204254
0.262322 0.262322 0.262322
0.319121 0.319121 0.319121
0.374920 0.374920 0.374920
0.429898 0.429898 0.429898
0.484180 0.484180 0.484180
0.142215 0.142215 0.142215
0.202088 0.202088 0.202088
0.260210 0.260210 0.260210
0.317050 0.317050 0.317050
0.372883 0.372883 0.372883
0.427888 0.427888 0.427888
0.482194 0.482194 0.482194
0.535893 0.535893 0.535893
0.589058 0.589058 0.589058
0.258096 0.258096 0.258096
0.314978 0.314978 0.314978
0.370844 0.370844 0.370844
0.425878 0.425878 0.425878
0.480207 0.480207 0.480207
0.533927 0.533927 0.533927
0.587111 0.587111 0.587111
0.639817 0.639817 0.639817
0.692092 0.692092 0.692092
0.368805 0.368805 0.368805
0.423866 0.423866 0.423866
0.478220 0.478220 0.478220
0.531961 0.531961 0.531961
0.585163 0.585163 0.585163
0.637886 0.637886 0.637886
0.690176 0.690176 0.690176
0.742072 0.742072 0.742072
0.793607 0.793607 0.793607
0.476232 0.476232 0.476232
0.529994 0.529994 0.529994
0.583215 0.583215 0.583215
0.635954 0.635954 0.635954
0.688259 0.688259 0.688259
0.740169 0.740169 0.740169
0.791717 0.791717 0.791717
0.842931 0.842931 0.842931
0.893836 0.893836 0.893836
0.581266 0.581266 0.581266
0.634022 0.634022 0.634022
0.686342 0.686342 0.686342
0.738266 0.738266 0.738266
0.789827 0.789827 0.789827
0.841053 0.841053 0.841053
0.891969 0.891969 0.891969
0.942595 0.942595 0.942595
0.954095 0.954095 0.954095
0.000000 0.000000 0.000000
0.000000 0.000000 0.000000
0.000000 0.000000 0.000000
0.000000 0.000000 0.000000
0.000000 0.000000 0.000000
0.000000 0.000000 0.000000
0.048418 0.048418 0.048418
0.113131 0.113131 0.113131
0.174113 0.174113 0.174113
0.000000 0.000000 0.000000
0.000000 0.000000 0.000000
0.000000 0.000000 0.000000
0.000000 0.000000 0.000000
0.045912 0.045912 0.045912
0.110833 0.110833 0.110833
0.171913 0.171913 0.171913
0.230846 0.230846 0.230846
0.288295 0.288295 0.288295
0.000000 0.000000 0.000000
0.000000 0.000000 0.000000
0.043392 0.043392 0.043392
0.108530 0.108530 0.108530
0.169709 0.169709 0.169709
0.228707 0.228707 0.228707
0.286203 0.286203 0.286203
0.342558 0.342558 0.342558
0.397996 0.397996 0.397996
0.040858 0.040858 0.040858
0.106222 0.106222 0.106222
0.167503 0.167503 0.167503
0.226566 0.226566 0.226566
0.284110 0.284110 0.284110
0.340502 0.340502 0.340502
0.395971 0.395971 0.395971
0.450671 0.450671 0.450671
0.504713 0.504713 0.504713
0.165294 0.165294 0.165294
0.224423 0.224423 0.224423
0.282015 0.282015 0.282015
0.338445 0.338445 0.338445
0.393945 0.393945 0.393945
0.448670 0.448670 0.448670
0.502735 0.502735 0.502735
0.556223 0.556223 0.556223
0.609201 0.609201 0.609201
0.279918 0.279918 0.279918
0.336386 0.336386 0.336386
0.391917 0.391917 0.391917
0.446669 0.446669 0.446669
0.500757 0.500757 0.500757
0.554265 0.554265 0.554265
0.607260 0.607260 0.607260
0.659796 0.659796 0.659796
0.711917 0.711917 0.711917
0.389889 0.389889 0.389889
0.444668 0.444668 0.444668
0.498778 0.498778 0.498778
0.552306 0.552306 0.552306
0.605319 0.605319 0.605319
0.657871 0.657871 0.657871
0.710007 0.710007 0.710007
0.761761 0.761761 0.761761
0.813167 0.813167 0.813167
0.496798 0.496798 0.496798
0.550346 0.550346 0.550346
0.603377 0.603377 0.603377
0.655945 0.655945 0.655945
0.708095 0.708095 0.708095
0.759864 0.759864 0.759864
0.811282 0.811282 0.811282
0.862375 0.862375 0.862375
0.913168 0.913168 0.913168
0.601434 0.601434 0.601434
0.654019 0.654019 0.654019
0.706184 0.706184 0.706184
0.757966 0.757966 0.757966
0.809396 0.809396 0.809396
0.860501 0.860501 0.860501
0.911304 0.911304 0.911304
0.954095 0.954095 0.954095
0.954095 0.954095 0.954095
0.000000 0.000000 0.000000
0.000000 0.000000 0.000000
0.000000 0.000000 0.000000
0.000000 0.000000 0.000000
0.000000 0.000000 0.000000
0.002888 0.002888 0.002888
0.073743 0.073743 0.073743
0.136696 0.136696 0.136696
0.196763 0.196763 0.196763
0.000000 0.000000 0.000000
0.000000 0.000000 0.000000
0.000000 0.000000 0.000000
0.000000 0.000000 0.000000
0.071343 0.071343 0.071343
0.134441 0.134441 0.134441
0.194589 0.194589 0.194589
0.252902 0.252902 0.252902
0.309887 0.309887 0.309887
0.000000 0.000000 0.000000
0.000000 0.000000 0.000000
0.068934 0.068934 0.068934
0.132182 0.132182 0.132182
0.192413 0.192413 0.192413
0.250782 0.250782 0.250782
0.307810 0.307810 0.307810
0.363794 0.363794 0.363794
0.418925 0.418925 0.418925
0.066517 0.066517 0.066517
0.129920 0.129920 0.129920
0.190235 0.190235 0.190235
0.248661 0.248661 0.248661
0.305732 0.305732 0.305732
0.361750 0.361750 0.361750
0.416910 0.416910 0.416910
0.471348 0.471348 0.471348
0.525162 0.525162 0.525162
0.188054 0.188054 0.188054
0.246538 0.246538 0.246538
0.303652 0.303652 0.303652
0.359705 0.359705 0.359705
0.414894 0.414894 0.414894
0.469357 0.469357 0.469357
0.523192 0.523192 0.523192
0.576479 0.576479 0.576479
0.629277 0.629277 0.629277
0.301571 0.301571 0.301571
0.357659 0.357659 0.357659
0.412878 0.412878 0.412878
0.467365 0.467365 0.467365
0.521222 0.521222 0.521222
0.574528 0.574528 0.574528
0.627342 0.627342 0.627342
0.679715 0.679715 0.679715
0.731688 0.731688 0.731688
0.410860 0.410860 0.410860
0.465372 0.465372 0.465372
0.519251 0.519251 0.519251
0.572575 0.572575 0.572575
0.625407 0.625407 0.625407
0.677796 0.677796 0.677796
0.729782 0.729782 0.729782
0.781401 0.781401 0.781401
0.832680 0.832680 0.832680
0.517279 0.517279 0.517279
0.570623 0.570623 0.570623
0.623472 0.623472 0.623472
0.675876 0.675876 0.675876
0.727876 0.727876 0.727876
0.779508 0.779508 0.779508
0.830799 0.830799 0.830799
0.881775 0.881775 0.881775
0.932459 0.932459 0.932459
0.621536 0.621536 0.621536
0.673955 0.673955 0.673955
0.725970 0.725970 0.725970
0.777614 0.777614 0.777614
0.828918 0.828918 0.828918
0.879905 0.879905 0.879905
0.930599 0.930599 0.930599
0.954095 0.954095 0.954095
0.954095 0.954095 0.954095
0.000000 0.000000 0.000000
0.000000 0.000000 0.000000
0.000000 0.000000 0.000000
0.000000 0.000000 0.000000
0.000000 0.000000 0.000000
0.031972 0.031972 0.031972
0.098209 0.098209 0.098209
0.159859 0.159859 0.159859
0.219154 0.219154 0.219154
0.000000 0.000000 0.000000
0.000000 0.000000 0.000000
0.000000 0.000000 0.000000
0.029355 0.029355 0.029355
0.095877 0.095877 0.095877
0.157639 0.157639 0.157639
0.217004 0.217004 0.217004
0.274766 0.274766 0.274766
0.331329 0.331329 0.331329
0.000000 0.000000 0.000000
0.026715 0.026715 0.026715
0.093540 0.093540 0.093540
0.155416 0.155416 0.155416
0.214852 0.214852 0.214852
0.272664 0.272664 0.272664
0.329266 0.329266 0.329266
0.384906 0.384906 0.384906
0.439750 0.439750 0.439750
0.091197 0.091197 0.091197
0.153190 0.153190 0.153190
0.212697 0.212697 0.212697
0.270560 0.270560 0.270560
0.327202 0.327202 0.327202
0.382874 0.382874 0.382874
0.437745 0.437745 0.437745
0.491935 0.491935 0.491935
0.545532 0.545532 0.545532
0.210540 0.210540 0.210540
0.268455 0.268455 0.268455
0.325136 0.325136 0.325136
0.380841 0.380841 0.380841
0.435739 0.435739 0.435739
0.489952 0.489952 0.489952
0.543570 0.543570 0.543570
0.596664 0.596664 0.596664
0.649289 0.649289 0.649289
0.323070 0.323070 0.323070
0.378807 0.378807 0.378807
0.433732 0.433732 0.433732
0.487968 0.487968 0.487968
0.541607 0.541607 0.541607
0.594719 0.594719 0.594719
0.647360 0.647360 0.647360
0.699576 0.699576 0.699576
0.751405 0.751405 0.751405
0.431724 0.431724 0.431724
0.485984 0.485984 0.485984
0.539644 0.539644 0.539644
0.592774 0.592774 0.592774
0.645431 0.645431 0.645431
0.697662 0.697662 0.697662
0.749505 0.749505 0.749505
0.800990 0.800990 0.800990
0.852147 0.852147 0.852147
0.537679 0.537679 0.537679
0.590828 0.590828 0.590828
0.643502 0.643502 0.643502
0.695748 0.695748 0.695748
0.747604 0.747604 0.747604
0.799102 0.799102 0.799102
0.850271 0.850271 0.850271
0.901133 0.901133 0.901133
0.951709 0.951709 0.951709
0.641572 0.641572 0.641572
0.693833 0.693833 0.693833
0.745703 0.745703 0.745703
0.797214 0.797214 0.797214
0.848394 0.848394 0.848394
0.899267 0.899267 0.899267
0.949854 0.949854 0.949854
0.954095 0.954095 0.954095
0.954095 0.954095 0.954095
0.000000 0.000000 0.000000
0.000000 0.000000 0.000000
0.000000 0.000000 0.000000
0.000000 0.000000 0.000000
0.000000 0.000000 0.000000
0.058097 0.058097 0.058097
0.122072 0.122072 0.122072
0.182689 0.182689 0.182689
0.241319 0.241319 0.241319
0.000000 0.000000 0.000000
0.000000 0.000000 0.000000
0.000000 0.000000 0.000000
0.055638 0.055638 0.055638
0.119792 0.119792 0.119792
0.180499 0.180499 0.180499
0.239189 0.239189 0.239189
0.296457 0.296457 0.296457
0.352633 0.352633 0.352633
0.000000 0.000000 0.000000
0.053167 0.053167 0.053167
0.117506 0.117506 0.117506
0.178307 0.178307 0.178307
0.237058 0.237058 0.237058
0.294372 0.294372 0.294372
0.350583 0.350583 0.350583
0.405903 0.405903 0.405903
0.460477 0.460477 0.460477
0.115217 0.115217 0.115217
0.176111 0.176111 0.176111
0.234924 0.234924 0.234924
0.292284 0.292284 0.292284
0.348532 0.348532 0.348532
0.403882 0.403882 0.403882
0.458481 0.458481 0.458481
0.512436 0.512436 0.512436
0.565827 0.565827 0.565827
0.232789 0.232789 0.232789
0.290195 0.290195 0.290195
0.346479 0.346479 0.346479
0.401860 0.401860 0.401860
0.456484 0.456484 0.456484
0.510461 0.510461 0.510461
0.563872 0.563872 0.563872
0.616781 0.616781 0.616781
0.669239 0.669239 0.669239
0.344426 0.344426 0.344426
0.399836 0.399836 0.399836
0.454487 0.454487 0.454487
0.508486 0.508486 0.508486
0.561916 0.561916 0.561916
0.614843 0.614843 0.614843
0.667317 0.667317 0.667317
0.719381 0.719381 0.719381
0.771070 0.771070 0.771070
0.452488 0.452488 0.452488
0.506510 0.506510 0.506510
0.559960 0.559960 0.559960
0.612904 0.612904 0.612904
0.665394 0.665394 0.665394
0.717472 0.717472 0.717472
0.769175 0.769175 0.769175
0.820532 0.820532 0.820532
0.871570 0.871570 0.871570
0.558003 0.558003 0.558003
0.610964 0.610964 0.610964
0.663470 0.663470 0.663470
0.715563 0.715563 0.715563
0.767279 0.767279 0.767279
0.818649 0.818649 0.818649
0.869698 0.869698 0.869698
0.920449 0.920449 0.920449
0.954095 0.954095 0.954095
0.661546 0.661546 0.661546
0.713654 0.713654 0.713654
0.765383 0.765383 0.765383
0.816765 0.816765 0.816765
0.867825 0.867825 0.867825
0.918587 0.918587 0.918587
0.954095 0.954095 0.954095
0.954095 0.954095 0.954095
0.954095 0.954095 0.954095
0.000000 0.000000 0.000000
0.000000 0.000000 0.000000
0.000000 0.000000 0.000000
0.000000 0.000000 0.000000
0.014575 0.014575 0.014575
0.083055 0.083055 0.083055
0.145475 0.145475 0.145475
0.205237 0.205237 0.205237
0.263281 0.263281 0.263281
0.000000 0.000000 0.000000
0.000000 0.000000 0.000000
0.011727 0.011727 0.011727
0.080683 0.080683 0.080683
0.143235 0.143235 0.143235
0.203073 0.203073 0.203073
0.261170 0.261170 0.261170
0.317991 0.317991 0.317991
0.373809 0.373809 0.373809
0.008807 0.008807 0.008807
0.078304 0.078304 0.078304
0.140990 0.140990 0.140990
0.200906 0.200906 0.200906
0.259057 0.259057 0.259057
0.315920 0.315920 0.315920
0.371771 0.371771 0.371771
0.426792 0.426792 0.426792
0.481110 0.481110 0.481110
0.138742 0.138742 0.138742
0.198737 0.198737 0.198737
0.256943 0.256943 0.256943
0.313847 0.313847 0.313847
0.369732 0.369732 0.369732
0.424781 0.424781 0.424781
0.479123 0.479123 0.479123
0.532855 0.532855 0.532855
0.586049 0.586049 0.586049
0.254827 0.254827 0.254827
0.311773 0.311773 0.311773
0.367692 0.367692 0.367692
0.422769 0.422769 0.422769
0.477135 0.477135 0.477135
0.530888 0.530888 0.530888
0.584101 0.584101 0.584101
0.636832 0.636832 0.636832
0.689130 0.689130 0.689130
0.365650 0.365650 0.365650
0.420756 0.420756 0.420756
0.475147 0.475147 0.475147
0.528920 0.528920 0.528920
0.582152 0.582152 0.582152
0.634900 0.634900 0.634900
0.687213 0.687213 0.687213
0.739131 0.739131 0.739131
0.790686 0.790686 0.790686
0.473157 0.473157 0.473157
0.526952 0.526952 0.526952
0.580202 0.580202 0.580202
0.632968 0.632968 0.632968
0.685296 0.685296 0.685296
0.737228 0.737228 0.737228
0.788795 0.788795 0.788795
0.840028 0.840028 0.840028
0.890950 0.890950 0.890950
0.578252 0.578252 0.578252
0.631034 0.631034 0.631034
0.683378 0.683378 0.683378
0.735324 0.735324 0.735324
0.786904 0.786904 0.786904
0.838149 0.838149 0.838149
0.889082 0.889082 0.889082
0.939724 0.939724 0.939724
0.954095 0.954095 0.954095
0.681460 0.681460 0.681460
0.733419 0.733419 0.733419
0.785013 0.785013 0.785013
0.836269 0.836269 0.836269
0.887213 0.887213 0.887213
0.937866 0.937866 0.937866
0.954095 0.954095 0.954095
0.954095 0.954095 0.954095
0.954095 0.954095 0.954095
0.000000 0.000000 0.000000
0.000000 0.000000 0.000000
0.000000 0.000000 0.000000
0.000000 0.000000 0.000000
0.042012 0.042012 0.042012
0.107271 0.107271 0.107271
0.168506 0.168506 0.168506
0.227540 0.227540 0.227540
0.285061 0.285061 0.285061
0.000000 0.000000 0.000000
0.000000 0.000000 0.000000
0.039469 0.039469 0.039469
0.104961 0.104961 0.104961
0.166298 0.166298 0.166298
0.225398 0.225398 0.225398
0.282967 0.282967 0.282967
0.339380 0.339380 0.339380
0.394866 0.394866 0.394866
0.036909 0.036909 0.036909
0.102645 0.102645 0.102645
0.164087 0.164087 0.164087
0.223253 0.223253 0.223253
0.280872 0.280872 0.280872
0.337322 0.337322 0.337322
0.392839 0.392839 0.392839
0.447579 0.447579 0.447579
0.501656 0.501656 0.501656
0.161874 0.161874 0.161874
0.221107 0.221107 0.221107
0.278774 0.278774 0.278774
0.335263 0.335263 0.335263
0.390811 0.390811 0.390811
0.445578 0.445578 0.445578
0.499677 0.499677 0.499677
0.553196 0.553196 0.553196
0.606201 0.606201 0.606201
0.276675 0.276675 0.276675
0.333203 0.333203 0.333203
0.388782 0.388782 0.388782
0.443575 0.443575 0.443575
0.497698 0.497698 0.497698
0.551237 0.551237 0.551237
0.604260 0.604260 0.604260
0.656821 0.656821 0.656821
0.708964 0.708964 0.708964
0.386752 0.386752 0.386752
0.441572 0.441572 0.441572
0.495717 0.495717 0.495717
0.549277 0.549277 0.549277
0.602317 0.602317 0.602317
0.654895 0.654895 0.654895
0.707053 0.707053 0.707053
0.758829 0.758829 0.758829
0.810253 0.810253 0.810253
0.493736 0.493736 0.493736
0.547316 0.547316 0.547316
0.600375 0.600375 0.600375
0.652968 0.652968 0.652968
0.705141 0.705141 0.705141
0.756930 0.756930 0.756930
0.808367 0.808367 0.808367
0.859479 0.859479 0.859479
0.910288 0.910288 0.910288
0.598431 0.598431 0.598431
0.651041 0.651041 0.651041
0.703229 0.703229 0.703229
0.755031 0.755031 0.755031
0.806481 0.806481 0.806481
0.857604 0.857604 0.857604
0.908424 0.908424 0.908424
0.954095 0.954095 0.954095
0.954095 0.954095 0.954095
0.701316 0.701316 0.701316
0.753132 0.753132 0.753132
0.804594 0.804594 0.804594
0.855728 0.855728 0.855728
0.906559 0.906559 0.906559
0.954095 0.954095 0.954095
0.954095 0.954095 0.954095
0.954095 0.954095 0.954095
0.954095 0.954095 0.954095
0.000000 0.000000 0.000000
0.000000 0.000000 0.000000
0.000000 0.000000 0.000000
0.000000 0.000000 0.000000
0.067617 0.067617 0.067617
0.130948 0.130948 0.130948
0.191225 0.191225 0.191225
0.249625 0.249625 0.249625
0.306677 0.306677 0.306677
0.000000 0.000000 0.000000
0.000000 0.000000 0.000000
0.065195 0.065195 0.065195
0.128684 0.128684 0.128684
0.189045 0.189045 0.189045
0.247503 0.247503 0.247503
0.304598 0.304598 0.304598
0.360635 0.360635 0.360635
0.415811 0.415811 0.415811
0.062764 0.062764 0.062764
0.126415 0.126415 0.126415
0.186863 0.186863 0.186863
0.245379 0.245379 0.245379
0.302517 0.302517 0.302517
0.358590 0.358590 0.358590
0.413794 0.413794 0.413794
0.468270 0.468270 0.468270
0.522118 0.522118 0.522118
0.184678 0.184678 0.184678
0.243253 0.243253 0.243253
0.300436 0.300436 0.300436
0.356543 0.356543 0.356543
0.411777 0.411777 0.411777
0.466278 0.466278 0.466278
0.520147 0.520147 0.520147
0.573463 0.573463 0.573463
0.626287 0.626287 0.626287
0.298352 0.298352 0.298352
0.354495 0.354495 0.354495
0.409759 0.409759 0.409759
0.464284 0.464284 0.464284
0.518175 0.518175 0.518175
0.571510 0.571510 0.571510
0.624352 0.624352 0.624352
0.676749 0.676749 0.676749
0.728743 0.728743 0.728743
0.407740 0.407740 0.407740
0.462290 0.462290 0.462290
0.516203 0.516203 0.516203
0.569557 0.569557 0.569557
0.622416 0.622416 0.622416
0.674828 0.674828 0.674828
0.726837 0.726837 0.726837
0.778475 0.778475 0.778475
0.829773 0.829773 0.829773
0.514230 0.514230 0.514230
0.567604 0.567604 0.567604
0.620479 0.620479 0.620479
0.672908 0.672908 0.672908
0.724930 0.724930 0.724930
0.776582 0.776582 0.776582
0.827891 0.827891 0.827891
0.878885 0.878885 0.878885
0.929584 0.929584 0.929584
0.618542 0.618542 0.618542
0.670986 0.670986 0.670986
0.723023 0.723023 0.723023
0.774688 0.774688 0.774688
0.826010 0.826010 0.826010
0.877014 0.877014 0.877014
0.927724 0.927724 0.927724
0.954095 0.954095 0.954095
0.954095 0.954095 0.954095
0.721115 0.721115 0.721115
0.772793 0.772793 0.772793
0.824127 0.824127 0.824127
0.875143 0.875143 0.875143
0.925864 0.925864 0.925864
0.954095 0.954095 0.954095
0.954095 0.954095 0.954095
0.954095 0.954095 0.954095
0.954095 0.954095 0.954095
0.000000 0.000000 0.000000
0.000000 0.000000 0.000000
0.000000 0.000000 0.000000
0.025264 0.025264 0.025264
0.092262 0.092262 0.092262
0.154202 0.154202 0.154202
0.213677 0.213677 0.213677
0.271517 0.271517 0.271517
0.328140 0.328140 0.328140
0.000000 0.000000 0.000000
0.022582 0.022582 0.022582
0.089916 0.089916 0.089916
0.151975 0.151975 0.151975
0.211521 0.211521 0.211521
0.269412 0.269412 0.269412
0.326075 0.326075 0.326075
0.381765 0.381765 0.381765
0.436651 0.436651 0.436651
0.087564 0.087564 0.087564
0.149744 0.149744 0.149744
0.209363 0.209363 0.209363
0.267306 0.267306 0.267306
0.324009 0.324009 0.324009
0.379731 0.379731 0.379731
0.434644 0.434644 0.434644
0.488870 0.488870 0.488870
0.542500 0.542500 0.542500
0.207203 0.207203 0.207203
0.265199 0.265199 0.265199
0.321942 0.321942 0.321942
0.377697 0.377697 0.377697
0.432637 0.432637 0.432637
0.486886 0.486886 0.486886
0.540536 0.540536 0.540536
0.593658 0.593658 0.593658
0.646308 0.646308 0.646308
0.319873 0.319873 0.319873
0.375661 0.375661 0.375661
0.430629 0.430629 0.430629
0.484902 0.484902 0.484902
0.538572 0.538572 0.538572
0.591713 0.591713 0.591713
0.644379 0.644379 0.644379
0.696618 0.696618 0.696618
0.748468 0.748468 0.748468
0.428619 0.428619 0.428619
0.482916 0.482916 0.482916
0.536608 0.536608 0.536608
0.589766 0.589766 0.589766
0.642449 0.642449 0.642449
0.694703 0.694703 0.694703
0.746567 0.746567 0.746567
0.798072 0.798072 0.798072
0.849247 0.849247 0.849247
0.534642 0.534642 0.534642
0.587819 0.587819 0.587819
0.640519 0.640519 0.640519
0.692788 0.692788 0.692788
0.744665 0.744665 0.744665
0.796183 0.796183 0.796183
0.847370 0.847370 0.847370
0.898249 0.898249 0.898249
0.948841 0.948841 0.948841
0.638588 0.638588 0.638588
0.690872 0.690872 0.690872
0.742763 0.742763 0.742763
0.794294 0.794294 0.794294
0.845492 0.845492 0.845492
0.896382 0.896382 0.896382
0.946985 0.946985 0.946985
0.954095 0.954095 0.954095
0.954095 0.954095 0.954095
0.740861 0.740861 0.740861
0.792404 0.792404 0.792404
0.843614 0.843614 0.843614
0.894515 0.894515 0.894515
0.945128 0.945128 0.945128
0.954095 0.954095 0.954095
0.954095 0.954095 0.954095
0.954095 0.954095 0.954095
0.954095 0.954095 0.954095
