app/src/main/assets/luts/rooftop_dusk.cube
# ApexStudio filter: rooftop_dusk
LUT_3D_SIZE 9
DOMAIN_MIN 0.0 0.0 0.0
DOMAIN_MAX 1.0 1.0 1.0
0.000000 0.000000 0.062369
0.082500 0.000000 0.062369
0.220000 0.000000 0.062369
0.357500 0.000000 0.062369
0.495000 0.000000 0.062369
0.632500 0.000000 0.062369
0.770000 0.000000 0.062369
0.907500 0.000000 0.062369
1.000000 0.000000 0.062369
0.000000 0.071250 0.062369
0.082500 0.071250 0.062369
0.220000 0.071250 0.062369
0.357500 0.071250 0.062369
0.495000 0.071250 0.062369
0.632500 0.071250 0.062369
0.770000 0.071250 0.062369
0.907500 0.071250 0.062369
1.000000 0.071250 0.062369
0.000000 0.190000 0.062369
0.082500 0.190000 0.062369
0.220000 0.190000 0.062369
0.357500 0.190000 0.062369
0.495000 0.190000 0.062369
0.632500 0.190000 0.062369
0.770000 0.190000 0.062369
0.907500 0.190000 0.062369
1.000000 0.190000 0.062369
0.000000 0.308750 0.062369
0.082500 0.308750 0.062369
0.220000 0.308750 0.062369
0.357500 0.308750 0.062369
0.495000 0.308750 0.062369
0.632500 0.308750 0.062369
0.770000 0.308750 0.062369
0.907500 0.308750 0.062369
1.000000 0.308750 0.062369
0.000000 0.427500 0.062369
0.082500 0.427500 0.062369
0.220000 0.427500 0.062369
0.357500 0.427500 0.062369
0.495000 0.427500 0.062369
0.632500 0.427500 0.062369
0.770000 0.427500 0.062369
0.907500 0.427500 0.062369
1.000000 0.427500 0.062369
0.000000 0.546250 0.062369
0.082500 0.546250 0.062369
0.220000 0.546250 0.062369
0.357500 0.546250 0.062369
0.495000 0.546250 0.062369
0.632500 0.546250 0.062369
0.770000 0.546250 0.062369
0.907500 0.546250 0.062369
1.000000 0.546250 0.062369
0.000000 0.665000 0.062369
0.082500 0.665000 0.062369
0.220000 0.665000 0.062369
0.357500 0.665000 0.062369
0.495000 0.665000 0.062369
0.632500 0.665000 0.062369
0.770000 0.665000 0.062369
0.907500 0.665000 0.062369
1.000000 0.665000 0.062369
0.000000 0.783750 0.062369
0.082500 0.783750 0.062369
0.220000 0.783750 0.062369
0.357500 0.783750 0.062369
0.495000 0.783750 0.062369
0.632500 0.783750 0.062369
0.770000 0.783750 0.062369
0.907500 0.783750 0.062369
1.000000 0.783750 0.062369
0.000000 0.902500 0.062369
0.082500 0.902500 0.062369
0.220000 0.902500 0.062369
0.357500 0.902500 0.062369
0.495000 0.902500 0.062369
0.632500 0.902500 0.062369
0.770000 0.902500 0.062369
0.907500 0.902500 0.062369
1.000000 0.902500 0.062369
0.000000 0.000000 0.194794
0.082500 0.000000 0.194794
0.220000 0.000000 0.194794
0.357500 0.000000 0.194794
0.495000 0.000000 0.194794
0.632500 0.000000 0.194794
0.770000 0.000000 0.194794
0.907500 0.000000 0.194794
1.000000 0.000000 0.194794
0.000000 0.071250 0.194794
0.082500 0.071250 0.194794
0.220000 0.071250 0.194794
0.357500 0.071250 0.194794
0.495000 0.071250 0.194794
0.632500 0.071250 0.194794
0.770000 0.071250 0.194794
0.907500 0.071250 0.194794
1.000000 0.071250 0.194794
0.000000 0.190000 0.194794
0.082500 0.190000 0.194794
0.220000 0.190000 0.194794
0.357500 0.190000 0.194794
0.495000 0.190000 0.194794
0.632500 0.190000 0.194794
0.770000 0.190000 0.194794
0.907500 0.190000 0.194794
1.000000 0.190000 0.194794
0.000000 0.308750 0.194794
0.082500 0.308750 0.194794
0.220000 0.308750 0.194794
0.357500 0.308750 0.194794
0.495000 0.308750 0.194794
0.632500 0.308750 0.194794
0.770000 0.308750 0.194794
0.907500 0.308750 0.194794
1.000000 0.308750 0.194794
0.000000 0.427500 0.194794
0.082500 0.427500 0.194794
0.220000 0.427500 0.194794
0.357500 0.427500 0.194794
0.495000 0.427500 0.194794
0.632500 0.427500 0.194794
0.770000 0.427500 0.194794
0.907500 0.427500 0.194794
1.000000 0.427500 0.194794
0.000000 0.546250 0.194794
0.082500 0.546250 0.194794
0.220000 0.546250 0.194794
0.357500 0.546250 0.194794
0.495000 0.546250 0.194794
0.632500 0.546250 0.194794
0.770000 0.546250 0.194794
0.907500 0.546250 0.194794
1.000000 0.546250 0.194794
0.000000 0.665000 0.194794
0.082500 0.665000 0.194794
0.220000 0.665000 0.194794
0.357500 0.665000 0.194794
0.495000 0.665000 0.194794
0.632500 0.665000 0.194794
0.770000 0.665000 0.194794
0.907500 0.665000 0.194794
1.000000 0.665000 0.194794
0.000000 0.783750 0.194794
0.082500 0.783750 0.194794
0.220000 0.783750 0.194794
0.357500 0.783750 0.194794
0.495000 0.783750 0.194794
0.632500 0.783750 0.194794
0.770000 0.783750 0.194794
0.907500 0.783750 0.194794
1.000000 0.783750 0.194794
0.000000 0.902500 0.194794
0.082500 0.902500 0.194794
0.220000 0.902500 0.194794
0.357500 0.902500 0.194794
0.495000 0.902500 0.194794
0.632500 0.902500 0.194794
0.770000 0.902500 0.194794
0.907500 0.902500 0.194794
1.000000 0.902500 0.194794
0.000000 0.000000 0.317965
0.082500 0.000000 0.317965
0.220000 0.000000 0.317965
0.357500 0.000000 0.317965
0.495000 0.000000 0.317965
0.632500 0.000000 0.317965
0.770000 0.000000 0.317965
0.907500 0.000000 0.317965
1.000000 0.000000 0.317965
0.000000 0.071250 0.317965
0.082500 0.071250 0.317965
0.220000 0.071250 0.317965
0.357500 0.071250 0.317965
0.495000 0.071250 0.317965
0.632500 0.071250 0.317965
0.770000 0.071250 0.317965
0.907500 0.071250 0.317965
1.000000 0.071250 0.317965
0.000000 0.190000 0.317965
0.082500 0.190000 0.317965
0.220000 0.190000 0.317965
0.357500 0.190000 0.317965
0.495000 0.190000 0.317965
0.632500 0.190000 0.317965
0.770000 0.190000 0.317965
0.907500 0.190000 0.317965
1.000000 0.190000 0.317965
0.000000 0.308750 0.317965
0.082500 0.308750 0.317965
0.220000 0.308750 0.317965
0.357500 0.308750 0.317965
0.495000 0.308750 0.317965
0.632500 0.308750 0.317965
0.770000 0.308750 0.317965
0.907500 0.308750 0.317965
1.000000 0.308750 0.317965
0.000000 0.427500 0.317965
0.082500 0.427500 0.317965
0.220000 0.427500 0.317965
0.357500 0.427500 0.317965
0.495000 0.427500 0.317965
0.632500 0.427500 0.317965
0.770000 0.427500 0.317965
0.907500 0.427500 0.317965
1.000000 0.427500 0.317965
0.000000 0.546250 0.317965
0.082500 0.546250 0.317965
0.220000 0.546250 0.317965
0.357500 0.546250 0.317965
0.495000 0.546250 0.317965
0.632500 0.546250 0.317965
0.770000 0.546250 0.317965
0.907500 0.546250 0.317965
1.000000 0.546250 0.317965
0.000000 0.665000 0.317965
0.082500 0.665000 0.317965
0.220000 0.665000 0.317965
0.357500 0.665000 0.317965
0.495000 0.665000 0.317965
0.632500 0.665000 0.317965
0.770000 0.665000 0.317965
0.907500 0.665000 0.317965
1.000000 0.665000 0.317965
0.000000 0.783750 0.317965
0.082500 0.783750 0.317965
0.220000 0.783750 0.317965
0.357500 0.783750 0.317965
0.495000 0.783750 0.317965
0.632500 0.783750 0.317965
0.770000 0.783750 0.317965
0.907500 0.783750 0.317965
1.000000 0.783750 0.317965
0.000000 0.902500 0.317965
0.082500 0.902500 0.317965
0.220000 0.902500 0.317965
0.357500 0.902500 0.317965
0.495000 0.902500 0.317965
0.632500 0.902500 0.317965
0.770000 0.902500 0.317965
0.907500 0.902500 0.317965
1.000000 0.902500 0.317965
0.000000 0.000000 0.436411
0.082500 0.000000 0.436411
0.220000 0.000000 0.436411
0.357500 0.000000 0.436411
0.495000 0.000000 0.436411
0.632500 0.000000 0.436411
0.770000 0.000000 0.436411
0.907500 0.000000 0.436411
1.000000 0.000000 0.436411
0.000000 0.071250 0.436411
0.082500 0.071250 0.436411
0.220000 0.071250 0.436411
0.357500 0.071250 0.436411
0.495000 0.071250 0.436411
0.632500 0.071250 0.436411
0.770000 0.071250 0.436411
0.907500 0.071250 0.436411
1.000000 0.071250 0.436411
0.000000 0.190000 0.436411
0.082500 0.190000 0.436411
0.220000 0.190000 0.436411
0.357500 0.190000 0.436411
0.495000 0.190000 0.436411
0.632500 0.190000 0.436411
0.770000 0.190000 0.436411
0.907500 0.190000 0.436411
1.000000 0.190000 0.436411
0.000000 0.308750 0.436411
0.082500 0.308750 0.436411
0.220000 0.308750 0.436411
0.357500 0.308750 0.436411
0.495000 0.308750 0.436411
0.632500 0.308750 0.436411
0.770000 0.308750 0.436411
0.907500 0.308750 0.436411
1.000000 0.308750 0.436411
0.000000 0.427500 0.436411
0.082500 0.427500 0.436411
0.220000 0.427500 0.436411
0.357500 0.427500 0.436411
0.495000 0.427500 0.436411
0.632500 0.427500 0.436411
0.770000 0.427500 0.436411
0.907500 0.427500 0.436411
1.000000 0.427500 0.436411
0.000000 0.546250 0.436411
0.082500 0.546250 0.436411
0.220000 0.546250 0.436411
0.357500 0.546250 0.436411
0.495000 0.546250 0.436411
0.632500 0.546250 0.436411
0.770000 0.546250 0.436411
0.907500 0.546250 0.436411
1.000000 0.546250 0.436411
0.000000 0.665000 0.436411
0.082500 0.665000 0.436411
0.220000 0.665000 0.436411
0.357500 0.665000 0.436411
0.495000 0.665000 0.436411
0.632500 0.665000 0.436411
0.770000 0.665000 0.436411
0.907500 0.665000 0.436411
1.000000 0.665000 0.436411
0.000000 0.783750 0.436411
0.082500 0.783750 0.436411
0.220000 0.783750 0.436411
0.357500 0.783750 0.436411
0.495000 0.783750 0.436411
0.632500 0.783750 0.436411
0.770000 0.783750 0.436411
0.907500 0.783750 0.436411
1.000000 0.783750 0.436411
0.000000 0.902500 0.436411
0.082500 0.902500 0.436411
0.220000 0.902500 0.436411
0.357500 0.902500 0.436411
0.495000 0.902500 0.436411
0.632500 0.902500 0.436411
0.770000 0.902500 0.436411
0.907500 0.902500 0.436411
1.000000 0.902500 0.436411
0.000000 0.000000 0.551683
0.082500 0.000000 0.551683
0.220000 0.000000 0.551683
0.357500 0.000000 0.551683
0.495000 0.000000 0.551683
0.632500 0.000000 0.551683
0.770000 0.000000 0.551683
0.907500 0.000000 0.551683
1.000000 0.000000 0.551683
0.000000 0.071250 0.551683
0.082500 0.071250 0.551683
0.220000 0.071250 0.551683
0.357500 0.071250 0.551683
0.495000 0.071250 0.551683
0.632500 0.071250 0.551683
0.770000 0.071250 0.551683
0.907500 0.071250 0.551683
1.000000 0.071250 0.551683
0.000000 0.190000 0.551683
0.082500 0.190000 0.551683
0.220000 0.190000 0.551683
0.357500 0.190000 0.551683
0.495000 0.190000 0.551683
0.632500 0.190000 0.551683
0.770000 0.190000 0.551683
0.907500 0.190000 0.551683
1.000000 0.190000 0.551683
0.000000 0.308750 0.551683
0.082500 0.308750 0.551683
0.220000 0.308750 0.551683
0.357500 0.308750 0.551683
0.495000 0.308750 0.551683
0.632500 0.308750 0.551683
0.770000 0.308750 0.551683
0.907500 0.308750 0.551683
1.000000 0.308750 0.551683
0.000000 0.427500 0.551683
0.082500 0.427500 0.551683
0.220000 0.427500 0.551683
0.357500 0.427500 0.551683
0.495000 0.427500 0.551683
0.632500 0.427500 0.551683
0.770000 0.427500 0.551683
0.907500 0.427500 0.551683
1.000000 0.427500 0.551683
0.000000 0.546250 0.551683
0.082500 0.546250 0.551683
0.220000 0.546250 0.551683
0.357500 0.546250 0.551683
0.495000 0.546250 0.551683
0.632500 0.546250 0.551683
0.770000 0.546250 0.551683
0.907500 0.546250 0.551683
1.000000 0.546250 0.551683
0.000000 0.665000 0.551683
0.082500 0.665000 0.551683
0.220000 0.665000 0.551683
0.357500 0.665000 0.551683
0.495000 0.665000 0.551683
0.632500 0.665000 0.551683
0.770000 0.665000 0.551683
0.907500 0.665000 0.551683
1.000000 0.665000 0.551683
0.000000 0.783750 0.551683
0.082500 0.783750 0.551683
0.220000 0.783750 0.551683
0.357500 0.783750 0.551683
0.495000 0.783750 0.551683
0.632500 0.783750 0.551683
0.770000 0.783750 0.551683
0.907500 0.783750 0.551683
1.000000 0.783750 0.551683
0.000000 0.902500 0.551683
0.082500 0.902500 0.551683
0.220000 0.902500 0.551683
0.357500 0.902500 0.551683
0.495000 0.902500 0.551683
0.632500 0.902500 0.551683
0.770000 0.902500 0.551683
0.907500 0.902500 0.551683
1.000000 0.902500 0.551683
0.000000 0.000000 0.664577
0.082500 0.000000 0.664577
0.220000 0.000000 0.664577
0.357500 0.000000 0.664577
0.495000 0.000000 0.664577
0.632500 0.000000 0.664577
0.770000 0.000000 0.664577
0.907500 0.000000 0.664577
1.000000 0.000000 0.664577
0.000000 0.071250 0.664577
0.082500 0.071250 0.664577
0.220000 0.071250 0.664577
0.357500 0.071250 0.664577
0.495000 0.071250 0.664577
0.632500 0.071250 0.664577
0.770000 0.071250 0.664577
0.907500 0.071250 0.664577
1.000000 0.071250 0.664577
0.000000 0.190000 0.664577
0.082500 0.190000 0.664577
0.220000 0.190000 0.664577
0.357500 0.190000 0.664577
0.495000 0.190000 0.664577
0.632500 0.190000 0.664577
0.770000 0.190000 0.664577
0.907500 0.190000 0.664577
1.000000 0.190000 0.664577
0.000000 0.308750 0.664577
0.082500 0.308750 0.664577
0.220000 0.308750 0.664577
0.357500 0.308750 0.664577
0.495000 0.308750 0.664577
0.632500 0.308750 0.664577
0.770000 0.308750 0.664577
0.907500 0.308750 0.664577
1.000000 0.308750 0.664577
0.000000 0.427500 0.664577
0.082500 0.427500 0.664577
0.220000 0.427500 0.664577
0.357500 0.427500 0.664577
0.495000 0.427500 0.664577
0.632500 0.427500 0.664577
0.770000 0.427500 0.664577
0.907500 0.427500 0.664577
1.000000 0.427500 0.664577
0.000000 0.546250 0.664577
0.082500 0.546250 0.664577
0.220000 0.546250 0.664577
0.357500 0.546250 0.664577
0.495000 0.546250 0.664577
0.632500 0.546250 0.664577
0.770000 0.546250 0.664577
0.907500 0.546250 0.664577
1.000000 0.546250 0.664577
0.000000 0.665000 0.664577
0.082500 0.665000 0.664577
0.220000 0.665000 0.664577
0.357500 0.665000 0.664577
0.495000 0.665000 0.664577
0.632500 0.665000 0.664577
0.770000 0.665000 0.664577
0.907500 0.665000 0.664577
1.000000 0.665000 0.664577
0.000000 0.783750 0.664577
0.082500 0.783750 0.664577
0.220000 0.783750 0.664577
0.357500 0.783750 0.664577
0.495000 0.783750 0.664577
0.632500 0.783750 0.664577
0.770000 0.783750 0.664577
0.907500 0.783750 0.664577
1.000000 0.783750 0.664577
0.000000 0.902500 0.664577
0.082500 0.902500 0.664577
0.220000 0.902500 0.664577
0.357500 0.902500 0.664577
0.495000 0.902500 0.664577
0.632500 0.902500 0.664577
0.770000 0.902500 0.664577
0.907500 0.902500 0.664577
1.000000 0.902500 0.664577
0.000000 0.000000 0.775575
0.082500 0.000000 0.775575
0.220000 0.000000 0.775575
0.357500 0.000000 0.775575
0.495000 0.000000 0.775575
0.632500 0.000000 0.775575
0.770000 0.000000 0.775575
0.907500 0.000000 0.775575
1.000000 0.000000 0.775575
0.000000 0.071250 0.775575
0.082500 0.071250 0.775575
0.220000 0.071250 0.775575
0.357500 0.071250 0.775575
0.495000 0.071250 0.775575
0.632500 0.071250 0.775575
0.770000 0.071250 0.775575
0.907500 0.071250 0.775575
1.000000 0.071250 0.775575
0.000000 0.190000 0.775575
0.082500 0.190000 0.775575
0.220000 0.190000 0.775575
0.357500 0.190000 0.775575
0.495000 0.190000 0.775575
0.632500 0.190000 0.775575
0.770000 0.190000 0.775575
0.907500 0.190000 0.775575
1.000000 0.190000 0.775575
0.000000 0.308750 0.775575
0.082500 0.308750 0.775575
0.220000 0.308750 0.775575
0.357500 0.308750 0.775575
0.495000 0.308750 0.775575
0.632500 0.308750 0.775575
0.770000 0.308750 0.775575
0.907500 0.308750 0.775575
1.000000 0.308750 0.775575
0.000000 0.427500 0.775575
0.082500 0.427500 0.775575
0.220000 0.427500 0.775575
0.357500 0.427500 0.775575
0.495000 0.427500 0.775575
0.632500 0.427500 0.775575
0.770000 0.427500 0.775575
0.907500 0.427500 0.775575
1.000000 0.427500 0.775575
0.000000 0.546250 0.775575
0.082500 0.546250 0.775575
0.220000 0.546250 0.775575
0.357500 0.546250 0.775575
0.495000 0.546250 0.775575
0.632500 0.546250 0.775575
0.770000 0.546250 0.775575
0.907500 0.546250 0.775575
1.000000 0.546250 0.775575
0.000000 0.665000 0.775575
0.082500 0.665000 0.775575
0.220000 0.665000 0.775575
0.357500 0.665000 0.775575
0.495000 0.665000 0.775575
0.632500 0.665000 0.775575
0.770000 0.665000 0.775575
0.907500 0.665000 0.775575
1.000000 0.665000 0.775575
0.000000 0.783750 0.775575
0.082500 0.783750 0.775575
0.220000 0.783750 0.775575
0.357500 0.783750 0.775575
0.495000 0.783750 0.775575
0.632500 0.783750 0.775575
0.770000 0.783750 0.775575
0.907500 0.783750 0.775575
1.000000 0.783750 0.775575
0.000000 0.902500 0.775575
0.082500 0.902500 0.775575
0.220000 0.902500 0.775575
0.357500 0.902500 0.775575
0.495000 0.902500 0.775575
0.632500 0.902500 0.775575
0.770000 0.902500 0.775575
0.907500 0.902500 0.775575
1.000000 0.902500 0.775575
0.000000 0.000000 0.885000
0.082500 0.000000 0.885000
0.220000 0.000000 0.885000
0.357500 0.000000 0.885000
0.495000 0.000000 0.885000
0.632500 0.000000 0.885000
0.770000 0.000000 0.885000
0.907500 0.000000 0.885000
1.000000 0.000000 0.885000
0.000000 0.071250 0.885000
0.082500 0.071250 0.885000
0.220000 0.071250 0.885000
0.357500 0.071250 0.885000
0.495000 0.071250 0.885000
0.632500 0.071250 0.885000
0.770000 0.071250 0.885000
0.907500 0.071250 0.885000
1.000000 0.071250 0.885000
0.000000 0.190000 0.885000
0.082500 0.190000 0.885000
0.220000 0.190000 0.885000
0.357500 0.190000 0.885000
0.495000 0.190000 0.885000
0.632500 0.190000 0.885000
0.770000 0.190000 0.885000
0.907500 0.190000 0.885000
1.000000 0.190000 0.885000
0.000000 0.308750 0.885000
0.082500 0.308750 0.885000
0.220000 0.308750 0.885000
0.357500 0.308750 0.885000
0.495000 0.308750 0.885000
0.632500 0.308750 0.885000
0.770000 0.308750 0.885000
0.907500 0.308750 0.885000
1.000000 0.308750 0.885000
0.000000 0.427500 0.885000
0.082500 0.427500 0.885000
0.220000 0.427500 0.885000
0.357500 0.427500 0.885000
0.495000 0.427500 0.885000
0.632500 0.427500 0.885000
0.770000 0.427500 0.885000
0.907500 0.427500 0.885000
1.000000 0.427500 0.885000
0.000000 0.546250 0.885000
0.082500 0.546250 0.885000
0.220000 0.546250 0.885000
0.357500 0.546250 0.885000
0.495000 0.546250 0.885000
0.632500 0.546250 0.885000
0.770000 0.546250 0.885000
0.907500 0.546250 0.885000
1.000000 0.546250 0.885000
0.000000 0.665000 0.885000
0.082500 0.665000 0.885000
0.220000 0.665000 0.885000
0.357500 0.665000 0.885000
0.495000 0.665000 0.885000
0.632500 0.665000 0.885000
0.770000 0.665000 0.885000
0.907500 0.665000 0.885000
1.000000 0.665000 0.885000
0.000000 0.783750 0.885000
0.082500 0.783750 0.885000
0.220000 0.783750 0.885000
0.357500 0.783750 0.885000
0.495000 0.783750 0.885000
0.632500 0.783750 0.885000
0.770000 0.783750 0.885000
0.907500 0.783750 0.885000
1.000000 0.783750 0.885000
0.000000 0.902500 0.885000
0.082500 0.902500 0.885000
0.220000 0.902500 0.885000
0.357500 0.902500 0.885000
0.495000 0.902500 0.885000
0.632500 0.902500 0.885000
0.770000 0.902500 0.885000
0.907500 0.902500 0.885000
1.000000 0.902500 0.885000
0.000000 0.000000 0.993085
0.082500 0.000000 0.993085
0.220000 0.000000 0.993085
0.357500 0.000000 0.993085
0.495000 0.000000 0.993085
0.632500 0.000000 0.993085
0.770000 0.000000 0.993085
0.907500 0.000000 0.993085
1.000000 0.000000 0.993085
0.000000 0.071250 0.993085
0.082500 0.071250 0.993085
0.220000 0.071250 0.993085
0.357500 0.071250 0.993085
0.495000 0.071250 0.993085
0.632500 0.071250 0.993085
0.770000 0.071250 0.993085
0.907500 0.071250 0.993085
1.000000 0.071250 0.993085
0.000000 0.190000 0.993085
0.082500 0.190000 0.993085
0.220000 0.190000 0.993085
0.357500 0.190000 0.993085
0.495000 0.190000 0.993085
0.632500 0.190000 0.993085
0.770000 0.190000 0.993085
0.907500 0.190000 0.993085
1.000000 0.190000 0.993085
0.000000 0.308750 0.993085
0.082500 0.308750 0.993085
0.220000 0.308750 0.993085
0.357500 0.308750 0.993085
0.495000 0.308750 0.993085
0.632500 0.308750 0.993085
0.770000 0.308750 0.993085
0.907500 0.308750 0.993085
1.000000 0.308750 0.993085
0.000000 0.427500 0.993085
0.082500 0.427500 0.993085
0.220000 0.427500 0.993085
0.357500 0.427500 0.993085
0.495000 0.427500 0.993085
0.632500 0.427500 0.993085
0.770000 0.427500 0.993085
0.907500 0.427500 0.993085
1.000000 0.427500 0.993085
0.000000 0.546250 0.993085
0.082500 0.546250 0.993085
0.220000 0.546250 0.993085
0.357500 0.546250 0.993085
0.495000 0.546250 0.993085
0.632500 0.546250 0.993085
0.770000 0.546250 0.993085
0.907500 0.546250 0.993085
1.000000 0.546250 0.993085
0.000000 0.665000 0.993085
0.082500 0.665000 0.993085
0.220000 0.665000 0.993085
0.357500 0.665000 0.993085
0.495000 0.665000 0.993085
0.632500 0.665000 0.993085
0.770000 0.665000 0.993085
0.907500 0.665000 0.993085
1.000000 0.665000 0.993085
0.000000 0.783750 0.993085
0.082500 0.783750 0.993085
0.220000 0.783750 0.993085
0.357500 0.783750 0.993085
0.495000 0.783750 0.993085
0.632500 0.783750 0.993085
0.770000 0.783750 0.993085
0.907500 0.783750 0.993085
1.000000 0.783750 0.993085
0.000000 0.902500 0.993085
0.082500 0.902500 0.993085
0.220000 0.902500 0.993085
0.357500 0.902500 0.993085
0.495000 0.902500 0.993085
0.632500 0.902500 0.993085
0.770000 0.902500 0.993085
0.907500 0.902500 0.993085
1.000000 0.902500 0.993085
