app/src/main/assets/luts/rooftop_dusk.cube
# ApexStudio filter: rooftop_dusk
LUT_3D_SIZE 17
DOMAIN_MIN 0.0 0.0 0.0
DOMAIN_MAX 1.0 1.0 1.0
0.000000 0.000000 0.062369
0.013750 0.000000 0.062369
0.082500 0.000000 0.062369
0.151250 0.000000 0.062369
0.220000 0.000000 0.062369
0.288750 0.000000 0.062369
0.357500 0.000000 0.062369
0.426250 0.000000 0.062369
0.495000 0.000000 0.062369
0.563750 0.000000 0.062369
0.632500 0.000000 0.062369
0.701250 0.000000 0.062369
0.770000 0.000000 0.062369
0.838750 0.000000 0.062369
0.907500 0.000000 0.062369
0.976250 0.000000 0.062369
1.000000 0.000000 0.062369
0.000000 0.011875 0.062369
0.013750 0.011875 0.062369
0.082500 0.011875 0.062369
0.151250 0.011875 0.062369
0.220000 0.011875 0.062369
0.288750 0.011875 0.062369
0.357500 0.011875 0.062369
0.426250 0.011875 0.062369
0.495000 0.011875 0.062369
0.563750 0.011875 0.062369
0.632500 0.011875 0.062369
0.701250 0.011875 0.062369
0.770000 0.011875 0.062369
0.838750 0.011875 0.062369
0.907500 0.011875 0.062369
0.976250 0.011875 0.062369
1.000000 0.011875 0.062369
0.000000 0.071250 0.062369
0.013750 0.071250 0.062369
0.082500 0.071250 0.062369
0.151250 0.071250 0.062369
0.220000 0.071250 0.062369
0.288750 0.071250 0.062369
0.357500 0.071250 0.062369
0.426250 0.071250 0.062369
0.495000 0.071250 0.062369
0.563750 0.071250 0.062369
0.632500 0.071250 0.062369
0.701250 0.071250 0.062369
0.770000 0.071250 0.062369
0.838750 0.071250 0.062369
0.907500 0.071250 0.062369
0.976250 0.071250 0.062369
1.000000 0.071250 0.062369
0.000000 0.130625 0.062369
0.013750 0.130625 0.062369
0.082500 0.130625 0.062369
0.151250 0.130625 0.062369
0.220000 0.130625 0.062369
0.288750 0.130625 0.062369
0.357500 0.130625 0.062369
0.426250 0.130625 0.062369
0.495000 0.130625 0.062369
0.563750 0.130625 0.062369
0.632500 0.130625 0.062369
0.701250 0.130625 0.062369
0.770000 0.130625 0.062369
0.838750 0.130625 0.062369
0.907500 0.130625 0.062369
0.976250 0.130625 0.062369
1.000000 0.130625 0.062369
0.000000 0.190000 0.062369
0.013750 0.190000 0.062369
0.082500 0.190000 0.062369
0.151250 0.190000 0.062369
0.220000 0.190000 0.062369
0.288750 0.190000 0.062369
0.357500 0.190000 0.062369
0.426250 0.190000 0.062369
0.495000 0.190000 0.062369
0.563750 0.190000 0.062369
0.632500 0.190000 0.062369
0.701250 0.190000 0.062369
0.770000 0.190000 0.062369
0.838750 0.190000 0.062369
0.907500 0.190000 0.062369
0.976250 0.190000 0.062369
1.000000 0.190000 0.062369
0.000000 0.249375 0.062369
0.013750 0.249375 0.062369
0.082500 0.249375 0.062369
0.151250 0.249375 0.062369
0.220000 0.249375 0.062369
0.288750 0.249375 0.062369
0.357500 0.249375 0.062369
0.426250 0.249375 0.062369
0.495000 0.249375 0.062369
0.563750 0.249375 0.062369
0.632500 0.249375 0.062369
0.701250 0.249375 0.062369
0.770000 0.249375 0.062369
0.838750 0.249375 0.062369
0.907500 0.249375 0.062369
0.976250 0.249375 0.062369
1.000000 0.249375 0.062369
0.000000 0.308750 0.062369
0.013750 0.308750 0.062369
0.082500 0.308750 0.062369
0.151250 0.308750 0.062369
0.220000 0.308750 0.062369
0.288750 0.308750 0.062369
0.357500 0.308750 0.062369
0.426250 0.308750 0.062369
0.495000 0.308750 0.062369
0.563750 0.308750 0.062369
0.632500 0.308750 0.062369
0.701250 0.308750 0.062369
0.770000 0.308750 0.062369
0.838750 0.308750 0.062369
0.907500 0.308750 0.062369
0.976250 0.308750 0.062369
1.000000 0.308750 0.062369
0.000000 0.368125 0.062369
0.013750 0.368125 0.062369
0.082500 0.368125 0.062369
0.151250 0.368125 0.062369
0.220000 0.368125 0.062369
0.288750 0.368125 0.062369
0.357500 0.368125 0.062369
0.426250 0.368125 0.062369
0.495000 0.368125 0.062369
0.563750 0.368125 0.062369
0.632500 0.368125 0.062369
0.701250 0.368125 0.062369
0.770000 0.368125 0.062369
0.838750 0.368125 0.062369
0.907500 0.368125 0.062369
0.976250 0.368125 0.062369
1.000000 0.368125 0.062369
0.000000 0.427500 0.062369
0.013750 0.427500 0.062369
0.082500 0.427500 0.062369
0.151250 0.427500 0.062369
0.220000 0.427500 0.062369
0.288750 0.427500 0.062369
0.357500 0.427500 0.062369
0.426250 0.427500 0.062369
0.495000 0.427500 0.062369
0.563750 0.427500 0.062369
0.632500 0.427500 0.062369
0.701250 0.427500 0.062369
0.770000 0.427500 0.062369
0.838750 0.427500 0.062369
0.907500 0.427500 0.062369
0.976250 0.427500 0.062369
1.000000 0.427500 0.062369
0.000000 0.486875 0.062369
0.013750 0.486875 0.062369
0.082500 0.486875 0.062369
0.151250 0.486875 0.062369
0.220000 0.486875 0.062369
0.288750 0.486875 0.062369
0.357500 0.486875 0.062369
0.426250 0.486875 0.062369
0.495000 0.486875 0.062369
0.563750 0.486875 0.062369
0.632500 0.486875 0.062369
0.701250 0.486875 0.062369
0.770000 0.486875 0.062369
0.838750 0.486875 0.062369
0.907500 0.486875 0.062369
0.976250 0.486875 0.062369
1.000000 0.486875 0.062369
0.000000 0.546250 0.062369
0.013750 0.546250 0.062369
0.082500 0.546250 0.062369
0.151250 0.546250 0.062369
0.220000 0.546250 0.062369
0.288750 0.546250 0.062369
0.357500 0.546250 0.062369
0.426250 0.546250 0.062369
0.495000 0.546250 0.062369
0.563750 0.546250 0.062369
0.632500 0.546250 0.062369
0.701250 0.546250 0.062369
0.770000 0.546250 0.062369
0.838750 0.546250 0.062369
0.907500 0.546250 0.062369
0.976250 0.546250 0.062369
1.000000 0.546250 0.062369
0.000000 0.605625 0.062369
0.013750 0.605625 0.062369
0.082500 0.605625 0.062369
0.151250 0.605625 0.062369
0.220000 0.605625 0.062369
0.288750 0.605625 0.062369
0.357500 0.605625 0.062369
0.426250 0.605625 0.062369
0.495000 0.605625 0.062369
0.563750 0.605625 0.062369
0.632500 0.605625 0.062369
0.701250 0.605625 0.062369
0.770000 0.605625 0.062369
0.838750 0.605625 0.062369
0.907500 0.605625 0.062369
0.976250 0.605625 0.062369
1.000000 0.605625 0.062369
0.000000 0.665000 0.062369
0.013750 0.665000 0.062369
0.082500 0.665000 0.062369
0.151250 0.665000 0.062369
0.220000 0.665000 0.062369
0.288750 0.665000 0.062369
0.357500 0.665000 0.062369
0.426250 0.665000 0.062369
0.495000 0.665000 0.062369
0.563750 0.665000 0.062369
0.632500 0.665000 0.062369
0.701250 0.665000 0.062369
0.770000 0.665000 0.062369
0.838750 0.665000 0.062369
0.907500 0.665000 0.062369
0.976250 0.665000 0.062369
1.000000 0.665000 0.062369
0.000000 0.724375 0.062369
0.013750 0.724375 0.062369
0.082500 0.724375 0.062369
0.151250 0.724375 0.062369
0.220000 0.724375 0.062369
0.288750 0.724375 0.062369
0.357500 0.724375 0.062369
0.426250 0.724375 0.062369
0.495000 0.724375 0.062369
0.563750 0.724375 0.062369
0.632500 0.724375 0.062369
0.701250 0.724375 0.062369
0.770000 0.724375 0.062369
0.838750 0.724375 0.062369
0.907500 0.724375 0.062369
0.976250 0.724375 0.062369
1.000000 0.724375 0.062369
0.000000 0.783750 0.062369
0.013750 0.783750 0.062369
0.082500 0.783750 0.062369
0.151250 0.783750 0.062369
0.220000 0.783750 0.062369
0.288750 0.783750 0.062369
0.357500 0.783750 0.062369
0.426250 0.783750 0.062369
0.495000 0.783750 0.062369
0.563750 0.783750 0.062369
0.632500 0.783750 0.062369
0.701250 0.783750 0.062369
0.770000 0.783750 0.062369
0.838750 0.783750 0.062369
0.907500 0.783750 0.062369
0.976250 0.783750 0.062369
1.000000 0.783750 0.062369
0.000000 0.843125 0.062369
0.013750 0.843125 0.062369
0.082500 0.843125 0.062369
0.151250 0.843125 0.062369
0.220000 0.843125 0.062369
0.288750 0.843125 0.062369
0.357500 0.843125 0.062369
0.426250 0.843125 0.062369
0.495000 0.843125 0.062369
0.563750 0.843125 0.062369
0.632500 0.843125 0.062369
0.701250 0.843125 0.062369
0.770000 0.843125 0.062369
0.838750 0.843125 0.062369
0.907500 0.843125 0.062369
0.976250 0.843125 0.062369
1.000000 0.843125 0.062369
0.000000 0.902500 0.062369
0.013750 0.902500 0.062369
0.082500 0.902500 0.062369
0.151250 0.902500 0.062369
0.220000 0.902500 0.062369
0.288750 0.902500 0.062369
0.357500 0.902500 0.062369
0.426250 0.902500 0.062369
0.495000 0.902500 0.062369
0.563750 0.902500 0.062369
0.632500 0.902500 0.062369
0.701250 0.902500 0.062369
0.770000 0.902500 0.062369
0.838750 0.902500 0.062369
0.907500 0.902500 0.062369
0.976250 0.902500 0.062369
1.000000 0.902500 0.062369
0.000000 0.000000 0.130357
0.013750 0.000000 0.130357
0.082500 0.000000 0.130357
0.151250 0.000000 0.130357
0.220000 0.000000 0.130357
0.288750 0.000000 0.130357
0.357500 0.000000 0.130357
0.426250 0.000000 0.130357
0.495000 0.000000 0.130357
0.563750 0.000000 0.130357
0.632500 0.000000 0.130357
0.701250 0.000000 0.130357
0.770000 0.000000 0.130357
0.838750 0.000000 0.130357
0.907500 0.000000 0.130357
0.976250 0.000000 0.130357
1.000000 0.000000 0.130357
0.000000 0.011875 0.130357
0.013750 0.011875 0.130357
0.082500 0.011875 0.130357
0.151250 0.011875 0.130357
0.220000 0.011875 0.130357
0.288750 0.011875 0.130357
0.357500 0.011875 0.130357
0.426250 0.011875 0.130357
0.495000 0.011875 0.130357
0.563750 0.011875 0.130357
0.632500 0.011875 0.130357
0.701250 0.011875 0.130357
0.770000 0.011875 0.130357
0.838750 0.011875 0.130357
0.907500 0.011875 0.130357
0.976250 0.011875 0.130357
1.000000 0.011875 0.130357
0.000000 0.071250 0.130357
0.013750 0.071250 0.130357
0.082500 0.071250 0.130357
0.151250 0.071250 0.130357
0.220000 0.071250 0.130357
0.288750 0.071250 0.130357
0.357500 0.071250 0.130357
0.426250 0.071250 0.130357
0.495000 0.071250 0.130357
0.563750 0.071250 0.130357
0.632500 0.071250 0.130357
0.701250 0.071250 0.130357
0.770000 0.071250 0.130357
0.838750 0.071250 0.130357
0.907500 0.071250 0.130357
0.976250 0.071250 0.130357
1.000000 0.071250 0.130357
0.000000 0.130625 0.130357
0.013750 0.130625 0.130357
0.082500 0.130625 0.130357
0.151250 0.130625 0.130357
0.220000 0.130625 0.130357
0.288750 0.130625 0.130357
0.357500 0.130625 0.130357
0.426250 0.130625 0.130357
0.495000 0.130625 0.130357
0.563750 0.130625 0.130357
0.632500 0.130625 0.130357
0.701250 0.130625 0.130357
0.770000 0.130625 0.130357
0.838750 0.130625 0.130357
0.907500 0.130625 0.130357
0.976250 0.130625 0.130357
1.000000 0.130625 0.130357
0.000000 0.190000 0.130357
0.013750 0.190000 0.130357
0.082500 0.190000 0.130357
0.151250 0.190000 0.130357
0.220000 0.190000 0.130357
0.288750 0.190000 0.130357
0.357500 0.190000 0.130357
0.426250 0.190000 0.130357
0.495000 0.190000 0.130357
0.563750 0.190000 0.130357
0.632500 0.190000 0.130357
0.701250 0.190000 0.130357
0.770000 0.190000 0.130357
0.838750 0.190000 0.130357
0.907500 0.190000 0.130357
0.976250 0.190000 0.130357
1.000000 0.190000 0.130357
0.000000 0.249375 0.130357
0.013750 0.249375 0.130357
0.082500 0.249375 0.130357
0.151250 0.249375 0.130357
0.220000 0.249375 0.130357
0.288750 0.249375 0.130357
0.357500 0.249375 0.130357
0.426250 0.249375 0.130357
0.495000 0.249375 0.130357
0.563750 0.249375 0.130357
0.632500 0.249375 0.130357
0.701250 0.249375 0.130357
0.770000 0.249375 0.130357
0.838750 0.249375 0.130357
0.907500 0.249375 0.130357
0.976250 0.249375 0.130357
1.000000 0.249375 0.130357
0.000000 0.308750 0.130357
0.013750 0.308750 0.130357
0.082500 0.308750 0.130357
0.151250 0.308750 0.130357
0.220000 0.308750 0.130357
0.288750 0.308750 0.130357
0.357500 0.308750 0.130357
0.426250 0.308750 0.130357
0.495000 0.308750 0.130357
0.563750 0.308750 0.130357
0.632500 0.308750 0.130357
0.701250 0.308750 0.130357
0.770000 0.308750 0.130357
0.838750 0.308750 0.130357
0.907500 0.308750 0.130357
0.976250 0.308750 0.130357
1.000000 0.308750 0.130357
0.000000 0.368125 0.130357
0.013750 0.368125 0.130357
0.082500 0.368125 0.130357
0.151250 0.368125 0.130357
0.220000 0.368125 0.130357
0.288750 0.368125 0.130357
0.357500 0.368125 0.130357
0.426250 0.368125 0.130357
0.495000 0.368125 0.130357
0.563750 0.368125 0.130357
0.632500 0.368125 0.130357
0.701250 0.368125 0.130357
0.770000 0.368125 0.130357
0.838750 0.368125 0.130357
0.907500 0.368125 0.130357
0.976250 0.368125 0.130357
1.000000 0.368125 0.130357
0.000000 0.427500 0.130357
0.013750 0.427500 0.130357
0.082500 0.427500 0.130357
0.151250 0.427500 0.130357
0.220000 0.427500 0.130357
0.288750 0.427500 0.130357
0.357500 0.427500 0.130357
0.426250 0.427500 0.130357
0.495000 0.427500 0.130357
0.563750 0.427500 0.130357
0.632500 0.427500 0.130357
0.701250 0.427500 0.130357
0.770000 0.427500 0.130357
0.838750 0.427500 0.130357
0.907500 0.427500 0.130357
0.976250 0.427500 0.130357
1.000000 0.427500 0.130357
0.000000 0.486875 0.130357
0.013750 0.486875 0.130357
0.082500 0.486875 0.130357
0.151250 0.486875 0.130357
0.220000 0.486875 0.130357
0.288750 0.486875 0.130357
0.357500 0.486875 0.130357
0.426250 0.486875 0.130357
0.495000 0.486875 0.130357
0.563750 0.486875 0.130357
0.632500 0.486875 0.130357
0.701250 0.486875 0.130357
0.770000 0.486875 0.130357
0.838750 0.486875 0.130357
0.907500 0.486875 0.130357
0.976250 0.486875 0.130357
1.000000 0.486875 0.130357
0.000000 0.546250 0.130357
0.013750 0.546250 0.130357
0.082500 0.546250 0.130357
0.151250 0.546250 0.130357
0.220000 0.546250 0.130357
0.288750 0.546250 0.130357
0.357500 0.546250 0.130357
0.426250 0.546250 0.130357
0.495000 0.546250 0.130357
0.563750 0.546250 0.130357
0.632500 0.546250 0.130357
0.701250 0.546250 0.130357
0.770000 0.546250 0.130357
0.838750 0.546250 0.130357
0.907500 0.546250 0.130357
0.976250 0.546250 0.130357
1.000000 0.546250 0.130357
0.000000 0.605625 0.130357
0.013750 0.605625 0.130357
0.082500 0.605625 0.130357
0.151250 0.605625 0.130357
0.220000 0.605625 0.130357
0.288750 0.605625 0.130357
0.357500 0.605625 0.130357
0.426250 0.605625 0.130357
0.495000 0.605625 0.130357
0.563750 0.605625 0.130357
0.632500 0.605625 0.130357
0.701250 0.605625 0.130357
0.770000 0.605625 0.130357
0.838750 0.605625 0.130357
0.907500 0.605625 0.130357
0.976250 0.605625 0.130357
1.000000 0.605625 0.130357
0.000000 0.665000 0.130357
0.013750 0.665000 0.130357
0.082500 0.665000 0.130357
0.151250 0.665000 0.130357
0.220000 0.665000 0.130357
0.288750 0.665000 0.130357
0.357500 0.665000 0.130357
0.426250 0.665000 0.130357
0.495000 0.665000 0.130357
0.563750 0.665000 0.130357
0.632500 0.665000 0.130357
0.701250 0.665000 0.130357
0.770000 0.665000 0.130357
0.838750 0.665000 0.130357
0.907500 0.665000 0.130357
0.976250 0.665000 0.130357
1.000000 0.665000 0.130357
0.000000 0.724375 0.130357
0.013750 0.724375 0.130357
0.082500 0.724375 0.130357
0.151250 0.724375 0.130357
0.220000 0.724375 0.130357
0.288750 0.724375 0.130357
0.357500 0.724375 0.130357
0.426250 0.724375 0.130357
0.495000 0.724375 0.130357
0.563750 0.724375 0.130357
0.632500 0.724375 0.130357
0.701250 0.724375 0.130357
0.770000 0.724375 0.130357
0.838750 0.724375 0.130357
0.907500 0.724375 0.130357
0.976250 0.724375 0.130357
1.000000 0.724375 0.130357
0.000000 0.783750 0.130357
0.013750 0.783750 0.130357
0.082500 0.783750 0.130357
0.151250 0.783750 0.130357
0.220000 0.783750 0.130357
0.288750 0.783750 0.130357
0.357500 0.783750 0.130357
0.426250 0.783750 0.130357
0.495000 0.783750 0.130357
0.563750 0.783750 0.130357
0.632500 0.783750 0.130357
0.701250 0.783750 0.130357
0.770000 0.783750 0.130357
0.838750 0.783750 0.130357
0.907500 0.783750 0.130357
0.976250 0.783750 0.130357
1.000000 0.783750 0.130357
0.000000 0.843125 0.130357
0.013750 0.843125 0.130357
0.082500 0.843125 0.130357
0.151250 0.843125 0.130357
0.220000 0.843125 0.130357
0.288750 0.843125 0.130357
0.357500 0.843125 0.130357
0.426250 0.843125 0.130357
0.495000 0.843125 0.130357
0.563750 0.843125 0.130357
0.632500 0.843125 0.130357
0.701250 0.843125 0.130357
0.770000 0.843125 0.130357
0.838750 0.843125 0.130357
0.907500 0.843125 0.130357
0.976250 0.843125 0.130357
1.000000 0.843125 0.130357
0.000000 0.902500 0.130357
0.013750 0.902500 0.130357
0.082500 0.902500 0.130357
0.151250 0.902500 0.130357
0.220000 0.902500 0.130357
0.288750 0.902500 0.130357
0.357500 0.902500 0.130357
0.426250 0.902500 0.130357
0.495000 0.902500 0.130357
0.563750 0.902500 0.130357
0.632500 0.902500 0.130357
0.701250 0.902500 0.130357
0.770000 0.902500 0.130357
0.838750 0.902500 0.130357
0.907500 0.902500 0.130357
0.976250 0.902500 0.130357
1.000000 0.902500 0.130357
0.000000 0.000000 0.194794
0.013750 0.000000 0.194794
0.082500 0.000000 0.194794
0.151250 0.000000 0.194794
0.220000 0.000000 0.194794
0.288750 0.000000 0.194794
0.357500 0.000000 0.194794
0.426250 0.000000 0.194794
0.495000 0.000000 0.194794
0.563750 0.000000 0.194794
0.632500 0.000000 0.194794
0.701250 0.000000 0.194794
0.770000 0.000000 0.194794
0.838750 0.000000 0.194794
0.907500 0.000000 0.194794
0.976250 0.000000 0.194794
1.000000 0.000000 0.194794
0.000000 0.011875 0.194794
0.013750 0.011875 0.194794
0.082500 0.011875 0.194794
0.151250 0.011875 0.194794
0.220000 0.011875 0.194794
0.288750 0.011875 0.194794
0.357500 0.011875 0.194794
0.426250 0.011875 0.194794
0.495000 0.011875 0.194794
0.563750 0.011875 0.194794
0.632500 0.011875 0.194794
0.701250 0.011875 0.194794
0.770000 0.011875 0.194794
0.838750 0.011875 0.194794
0.907500 0.011875 0.194794
0.976250 0.011875 0.194794
1.000000 0.011875 0.194794
0.000000 0.071250 0.194794
0.013750 0.071250 0.194794
0.082500 0.071250 0.194794
0.151250 0.071250 0.194794
0.220000 0.071250 0.194794
0.288750 0.071250 0.194794
0.357500 0.071250 0.194794
0.426250 0.071250 0.194794
0.495000 0.071250 0.194794
0.563750 0.071250 0.194794
0.632500 0.071250 0.194794
0.701250 0.071250 0.194794
0.770000 0.071250 0.194794
0.838750 0.071250 0.194794
0.907500 0.071250 0.194794
0.976250 0.071250 0.194794
1.000000 0.071250 0.194794
0.000000 0.130625 0.194794
0.013750 0.130625 0.194794
0.082500 0.130625 0.194794
0.151250 0.130625 0.194794
0.220000 0.130625 0.194794
0.288750 0.130625 0.194794
0.357500 0.130625 0.194794
0.426250 0.130625 0.194794
0.495000 0.130625 0.194794
0.563750 0.130625 0.194794
0.632500 0.130625 0.194794
0.701250 0.130625 0.194794
0.770000 0.130625 0.194794
0.838750 0.130625 0.194794
0.907500 0.130625 0.194794
0.976250 0.130625 0.194794
1.000000 0.130625 0.194794
0.000000 0.190000 0.194794
0.013750 0.190000 0.194794
0.082500 0.190000 0.194794
0.151250 0.190000 0.194794
0.220000 0.190000 0.194794
0.288750 0.190000 0.194794
0.357500 0.190000 0.194794
0.426250 0.190000 0.194794
0.495000 0.190000 0.194794
0.563750 0.190000 0.194794
0.632500 0.190000 0.194794
0.701250 0.190000 0.194794
0.770000 0.190000 0.194794
0.838750 0.190000 0.194794
0.907500 0.190000 0.194794
0.976250 0.190000 0.194794
1.000000 0.190000 0.194794
0.000000 0.249375 0.194794
0.013750 0.249375 0.194794
0.082500 0.249375 0.194794
0.151250 0.249375 0.194794
0.220000 0.249375 0.194794
0.288750 0.249375 0.194794
0.357500 0.249375 0.194794
0.426250 0.249375 0.194794
0.495000 0.249375 0.194794
0.563750 0.249375 0.194794
0.632500 0.249375 0.194794
0.701250 0.249375 0.194794
0.770000 0.249375 0.194794
0.838750 0.249375 0.194794
0.907500 0.249375 0.194794
0.976250 0.249375 0.194794
1.000000 0.249375 0.194794
0.000000 0.308750 0.194794
0.013750 0.308750 0.194794
0.082500 0.308750 0.194794
0.151250 0.308750 0.194794
0.220000 0.308750 0.194794
0.288750 0.308750 0.194794
0.357500 0.308750 0.194794
0.426250 0.308750 0.194794
0.495000 0.308750 0.194794
0.563750 0.308750 0.194794
0.632500 0.308750 0.194794
0.701250 0.308750 0.194794
0.770000 0.308750 0.194794
0.838750 0.308750 0.194794
0.907500 0.308750 0.194794
0.976250 0.308750 0.194794
1.000000 0.308750 0.194794
0.000000 0.368125 0.194794
0.013750 0.368125 0.194794
0.082500 0.368125 0.194794
0.151250 0.368125 0.194794
0.220000 0.368125 0.194794
0.288750 0.368125 0.194794
0.357500 0.368125 0.194794
0.426250 0.368125 0.194794
0.495000 0.368125 0.194794
0.563750 0.368125 0.194794
0.632500 0.368125 0.194794
0.701250 0.368125 0.194794
0.770000 0.368125 0.194794
0.838750 0.368125 0.194794
0.907500 0.368125 0.194794
0.976250 0.368125 0.194794
1.000000 0.368125 0.194794
0.000000 0.427500 0.194794
0.013750 0.427500 0.194794
0.082500 0.427500 0.194794
0.151250 0.427500 0.194794
0.220000 0.427500 0.194794
0.288750 0.427500 0.194794
0.357500 0.427500 0.194794
0.426250 0.427500 0.194794
0.495000 0.427500 0.194794
0.563750 0.427500 0.194794
0.632500 0.427500 0.194794
0.701250 0.427500 0.194794
0.770000 0.427500 0.194794
0.838750 0.427500 0.194794
0.907500 0.427500 0.194794
0.976250 0.427500 0.194794
1.000000 0.427500 0.194794
0.000000 0.486875 0.194794
0.013750 0.486875 0.194794
0.082500 0.486875 0.194794
0.151250 0.486875 0.194794
0.220000 0.486875 0.194794
0.288750 0.486875 0.194794
0.357500 0.486875 0.194794
0.426250 0.486875 0.194794
0.495000 0.486875 0.194794
0.563750 0.486875 0.194794
0.632500 0.486875 0.194794
0.701250 0.486875 0.194794
0.770000 0.486875 0.194794
0.838750 0.486875 0.194794
0.907500 0.486875 0.194794
0.976250 0.486875 0.194794
1.000000 0.486875 0.194794
0.000000 0.546250 0.194794
0.013750 0.546250 0.194794
0.082500 0.546250 0.194794
0.151250 0.546250 0.194794
0.220000 0.546250 0.194794
0.288750 0.546250 0.194794
0.357500 0.546250 0.194794
0.426250 0.546250 0.194794
0.495000 0.546250 0.194794
0.563750 0.546250 0.194794
0.632500 0.546250 0.194794
0.701250 0.546250 0.194794
0.770000 0.546250 0.194794
0.838750 0.546250 0.194794
0.907500 0.546250 0.194794
0.976250 0.546250 0.194794
1.000000 0.546250 0.194794
0.000000 0.605625 0.194794
0.013750 0.605625 0.194794
0.082500 0.605625 0.194794
0.151250 0.605625 0.194794
0.220000 0.605625 0.194794
0.288750 0.605625 0.194794
0.357500 0.605625 0.194794
0.426250 0.605625 0.194794
0.495000 0.605625 0.194794
0.563750 0.605625 0.194794
0.632500 0.605625 0.194794
0.701250 0.605625 0.194794
0.770000 0.605625 0.194794
0.838750 0.605625 0.194794
0.907500 0.605625 0.194794
0.976250 0.605625 0.194794
1.000000 0.605625 0.194794
0.000000 0.665000 0.194794
0.013750 0.665000 0.194794
0.082500 0.665000 0.194794
0.151250 0.665000 0.194794
0.220000 0.665000 0.194794
0.288750 0.665000 0.194794
0.357500 0.665000 0.194794
0.426250 0.665000 0.194794
0.495000 0.665000 0.194794
0.563750 0.665000 0.194794
0.632500 0.665000 0.194794
0.701250 0.665000 0.194794
0.770000 0.665000 0.194794
0.838750 0.665000 0.194794
0.907500 0.665000 0.194794
0.976250 0.665000 0.194794
1.000000 0.665000 0.194794
0.000000 0.724375 0.194794
0.013750 0.724375 0.194794
0.082500 0.724375 0.194794
0.151250 0.724375 0.194794
0.220000 0.724375 0.194794
0.288750 0.724375 0.194794
0.357500 0.724375 0.194794
0.426250 0.724375 0.194794
0.495000 0.724375 0.194794
0.563750 0.724375 0.194794
0.632500 0.724375 0.194794
0.701250 0.724375 0.194794
0.770000 0.724375 0.194794
0.838750 0.724375 0.194794
0.907500 0.724375 0.194794
0.976250 0.724375 0.194794
1.000000 0.724375 0.194794
0.000000 0.783750 0.194794
0.013750 0.783750 0.194794
0.082500 0.783750 0.194794
0.151250 0.783750 0.194794
0.220000 0.783750 0.194794
0.288750 0.783750 0.194794
0.357500 0.783750 0.194794
0.426250 0.783750 0.194794
0.495000 0.783750 0.194794
0.563750 0.783750 0.194794
0.632500 0.783750 0.194794
0.701250 0.783750 0.194794
0.770000 0.783750 0.194794
0.838750 0.783750 0.194794
0.907500 0.783750 0.194794
0.976250 0.783750 0.194794
1.000000 0.783750 0.194794
0.000000 0.843125 0.194794
0.013750 0.843125 0.194794
0.082500 0.843125 0.194794
0.151250 0.843125 0.194794
0.220000 0.843125 0.194794
0.288750 0.843125 0.194794
0.357500 0.843125 0.194794
0.426250 0.843125 0.194794
0.495000 0.843125 0.194794
0.563750 0.843125 0.194794
0.632500 0.843125 0.194794
0.701250 0.843125 0.194794
0.770000 0.843125 0.194794
0.838750 0.843125 0.194794
0.907500 0.843125 0.194794
0.976250 0.843125 0.194794
1.000000 0.843125 0.194794
0.000000 0.902500 0.194794
0.013750 0.902500 0.194794
0.082500 0.902500 0.194794
0.151250 0.902500 0.194794
0.220000 0.902500 0.194794
0.288750 0.902500 0.194794
0.357500 0.902500 0.194794
0.426250 0.902500 0.194794
0.495000 0.902500 0.194794
0.563750 0.902500 0.194794
0.632500 0.902500 0.194794
0.701250 0.902500 0.194794
0.770000 0.902500 0.194794
0.838750 0.902500 0.194794
0.907500 0.902500 0.194794
0.976250 0.902500 0.194794
1.000000 0.902500 0.194794
0.000000 0.000000 0.257125
0.013750 0.000000 0.257125
0.082500 0.000000 0.257125
0.151250 0.000000 0.257125
0.220000 0.000000 0.257125
0.288750 0.000000 0.257125
0.357500 0.000000 0.257125
0.426250 0.000000 0.257125
0.495000 0.000000 0.257125
0.563750 0.000000 0.257125
0.632500 0.000000 0.257125
0.701250 0.000000 0.257125
0.770000 0.000000 0.257125
0.838750 0.000000 0.257125
0.907500 0.000000 0.257125
0.976250 0.000000 0.257125
1.000000 0.000000 0.257125
0.000000 0.011875 0.257125
