app/src/main/assets/luts/rooftop_dusk.cube
# ApexStudio filter: rooftop_dusk
LUT_3D_SIZE 5
DOMAIN_MIN 0.0 0.0 0.0
DOMAIN_MAX 1.0 1.0 1.0
0.000000 0.000000 0.062369
0.220000 0.000000 0.062369
0.495000 0.000000 0.062369
0.770000 0.000000 0.062369
1.000000 0.000000 0.062369
0.000000 0.190000 0.062369
0.220000 0.190000 0.062369
0.495000 0.190000 0.062369
0.770000 0.190000 0.062369
1.000000 0.190000 0.062369
0.000000 0.427500 0.062369
0.220000 0.427500 0.062369
0.495000 0.427500 0.062369
0.770000 0.427500 0.062369
1.000000 0.427500 0.062369
0.000000 0.665000 0.062369
0.220000 0.665000 0.062369
0.495000 0.665000 0.062369
0.770000 0.665000 0.062369
1.000000 0.665000 0.062369
0.000000 0.902500 0.062369
0.220000 0.902500 0.062369
0.495000 0.902500 0.062369
0.770000 0.902500 0.062369
1.000000 0.902500 0.062369
0.000000 0.000000 0.317965
0.220000 0.000000 0.317965
0.495000 0.000000 0.317965
0.770000 0.000000 0.317965
1.000000 0.000000 0.317965
0.000000 0.190000 0.317965
0.220000 0.190000 0.317965
0.495000 0.190000 0.317965
0.770000 0.190000 0.317965
1.000000 0.190000 0.317965
0.000000 0.427500 0.317965
0.220000 0.427500 0.317965
0.495000 0.427500 0.317965
0.770000 0.427500 0.317965
1.000000 0.427500 0.317965
0.000000 0.665000 0.317965
0.220000 0.665000 0.317965
0.495000 0.665000 0.317965
0.770000 0.665000 0.317965
1.000000 0.665000 0.317965
0.000000 0.902500 0.317965
0.220000 0.902500 0.317965
0.495000 0.902500 0.317965
0.770000 0.902500 0.317965
1.000000 0.902500 0.317965
0.000000 0.000000 0.551683
0.220000 0.000000 0.551683
0.495000 0.000000 0.551683
0.770000 0.000000 0.551683
1.000000 0.000000 0.551683
0.000000 0.190000 0.551683
0.220000 0.190000 0.551683
0.495000 0.190000 0.551683
0.770000 0.190000 0.551683
1.000000 0.190000 0.551683
0.000000 0.427500 0.551683
0.220000 0.427500 0.551683
0.495000 0.427500 0.551683
0.770000 0.427500 0.551683
1.000000 0.427500 0.551683
0.000000 0.665000 0.551683
0.220000 0.665000 0.551683
0.495000 0.665000 0.551683
0.770000 0.665000 0.551683
1.000000 0.665000 0.551683
0.000000 0.902500 0.551683
0.220000 0.902500 0.551683
0.495000 0.902500 0.551683
0.770000 0.902500 0.551683
1.000000 0.902500 0.551683
0.000000 0.000000 0.775575
0.220000 0.000000 0.775575
0.495000 0.000000 0.775575
0.770000 0.000000 0.775575
1.000000 0.000000 0.775575
0.000000 0.190000 0.775575
0.220000 0.190000 0.775575
0.495000 0.190000 0.775575
0.770000 0.190000 0.775575
1.000000 0.190000 0.775575
0.000000 0.427500 0.775575
0.220000 0.427500 0.775575
0.495000 0.427500 0.775575
0.770000 0.427500 0.775575
1.000000 0.427500 0.775575
0.000000 0.665000 0.775575
0.220000 0.665000 0.775575
0.495000 0.665000 0.775575
0.770000 0.665000 0.775575
1.000000 0.665000 0.775575
0.000000 0.902500 0.775575
0.220000 0.902500 0.775575
0.495000 0.902500 0.775575
0.770000 0.902500 0.775575
1.000000 0.902500 0.775575
0.000000 0.000000 0.993085
0.220000 0.000000 0.993085
0.495000 0.000000 0.993085
0.770000 0.000000 0.993085
1.000000 0.000000 0.993085
0.000000 0.190000 0.993085
0.220000 0.190000 0.993085
0.495000 0.190000 0.993085
0.770000 0.190000 0.993085
1.000000 0.190000 0.993085
0.000000 0.427500 0.993085
0.220000 0.427500 0.993085
0.495000 0.427500 0.993085
0.770000 0.427500 0.993085
1.000000 0.427500 0.993085
0.000000 0.665000 0.993085
0.220000 0.665000 0.993085
0.495000 0.665000 0.993085
0.770000 0.665000 0.993085
1.000000 0.665000 0.993085
0.000000 0.902500 0.993085
0.220000 0.902500 0.993085
0.495000 0.902500 0.993085
0.770000 0.902500 0.993085
1.000000 0.902500 0.993085
