app/src/main/assets/luts/rose_gold.cube
# ApexStudio filter: rose_gold
LUT_3D_SIZE 9
DOMAIN_MIN 0.0 0.0 0.0
DOMAIN_MAX 1.0 1.0 1.0
0.037500 0.000000 0.000000
0.162500 0.000000 0.000000
0.287500 0.000000 0.000000
0.412500 0.000000 0.000000
0.537500 0.000000 0.000000
0.662500 0.000000 0.000000
0.787500 0.000000 0.000000
0.912500 0.000000 0.000000
1.000000 0.000000 0.000000
0.037500 0.112500 0.000000
0.162500 0.112500 0.000000
0.287500 0.112500 0.000000
0.412500 0.112500 0.000000
0.537500 0.112500 0.000000
0.662500 0.112500 0.000000
0.787500 0.112500 0.000000
0.912500 0.112500 0.000000
1.000000 0.112500 0.000000
0.037500 0.237500 0.000000
0.162500 0.237500 0.000000
0.287500 0.237500 0.000000
0.412500 0.237500 0.000000
0.537500 0.237500 0.000000
0.662500 0.237500 0.000000
0.787500 0.237500 0.000000
0.912500 0.237500 0.000000
1.000000 0.237500 0.000000
0.037500 0.362500 0.000000
0.162500 0.362500 0.000000
0.287500 0.362500 0.000000
0.412500 0.362500 0.000000
0.537500 0.362500 0.000000
0.662500 0.362500 0.000000
0.787500 0.362500 0.000000
0.912500 0.362500 0.000000
1.000000 0.362500 0.000000
0.037500 0.487500 0.000000
0.162500 0.487500 0.000000
0.287500 0.487500 0.000000
0.412500 0.487500 0.000000
0.537500 0.487500 0.000000
0.662500 0.487500 0.000000
0.787500 0.487500 0.000000
0.912500 0.487500 0.000000
1.000000 0.487500 0.000000
0.037500 0.612500 0.000000
0.162500 0.612500 0.000000
0.287500 0.612500 0.000000
0.412500 0.612500 0.000000
0.537500 0.612500 0.000000
0.662500 0.612500 0.000000
0.787500 0.612500 0.000000
0.912500 0.612500 0.000000
1.000000 0.612500 0.000000
0.037500 0.737500 0.000000
0.162500 0.737500 0.000000
0.287500 0.737500 0.000000
0.412500 0.737500 0.000000
0.537500 0.737500 0.000000
0.662500 0.737500 0.000000
0.787500 0.737500 0.000000
0.912500 0.737500 0.000000
1.000000 0.737500 0.000000
0.037500 0.862500 0.000000
0.162500 0.862500 0.000000
0.287500 0.862500 0.000000
0.412500 0.862500 0.000000
0.537500 0.862500 0.000000
0.662500 0.862500 0.000000
0.787500 0.862500 0.000000
0.912500 0.862500 0.000000
1.000000 0.862500 0.000000
0.037500 0.987500 0.000000
0.162500 0.987500 0.000000
0.287500 0.987500 0.000000
0.412500 0.987500 0.000000
0.537500 0.987500 0.000000
0.662500 0.987500 0.000000
0.787500 0.987500 0.000000
0.912500 0.987500 0.000000
1.000000 0.987500 0.000000
0.037500 0.000000 0.087500
0.162500 0.000000 0.087500
0.287500 0.000000 0.087500
0.412500 0.000000 0.087500
0.537500 0.000000 0.087500
0.662500 0.000000 0.087500
0.787500 0.000000 0.087500
0.912500 0.000000 0.087500
1.000000 0.000000 0.087500
0.037500 0.112500 0.087500
0.162500 0.112500 0.087500
0.287500 0.112500 0.087500
0.412500 0.112500 0.087500
0.537500 0.112500 0.087500
0.662500 0.112500 0.087500
0.787500 0.112500 0.087500
0.912500 0.112500 0.087500
1.000000 0.112500 0.087500
0.037500 0.237500 0.087500
0.162500 0.237500 0.087500
0.287500 0.237500 0.087500
0.412500 0.237500 0.087500
0.537500 0.237500 0.087500
0.662500 0.237500 0.087500
0.787500 0.237500 0.087500
0.912500 0.237500 0.087500
1.000000 0.237500 0.087500
0.037500 0.362500 0.087500
0.162500 0.362500 0.087500
0.287500 0.362500 0.087500
0.412500 0.362500 0.087500
0.537500 0.362500 0.087500
0.662500 0.362500 0.087500
0.787500 0.362500 0.087500
0.912500 0.362500 0.087500
1.000000 0.362500 0.087500
0.037500 0.487500 0.087500
0.162500 0.487500 0.087500
0.287500 0.487500 0.087500
0.412500 0.487500 0.087500
0.537500 0.487500 0.087500
0.662500 0.487500 0.087500
0.787500 0.487500 0.087500
0.912500 0.487500 0.087500
1.000000 0.487500 0.087500
0.037500 0.612500 0.087500
0.162500 0.612500 0.087500
0.287500 0.612500 0.087500
0.412500 0.612500 0.087500
0.537500 0.612500 0.087500
0.662500 0.612500 0.087500
0.787500 0.612500 0.087500
0.912500 0.612500 0.087500
1.000000 0.612500 0.087500
0.037500 0.737500 0.087500
0.162500 0.737500 0.087500
0.287500 0.737500 0.087500
0.412500 0.737500 0.087500
0.537500 0.737500 0.087500
0.662500 0.737500 0.087500
0.787500 0.737500 0.087500
0.912500 0.737500 0.087500
1.000000 0.737500 0.087500
0.037500 0.862500 0.087500
0.162500 0.862500 0.087500
0.287500 0.862500 0.087500
0.412500 0.862500 0.087500
0.537500 0.862500 0.087500
0.662500 0.862500 0.087500
0.787500 0.862500 0.087500
0.912500 0.862500 0.087500
1.000000 0.862500 0.087500
0.037500 0.987500 0.087500
0.162500 0.987500 0.087500
0.287500 0.987500 0.087500
0.412500 0.987500 0.087500
0.537500 0.987500 0.087500
0.662500 0.987500 0.087500
0.787500 0.987500 0.087500
0.912500 0.987500 0.087500
1.000000 0.987500 0.087500
0.037500 0.000000 0.212500
0.162500 0.000000 0.212500
0.287500 0.000000 0.212500
0.412500 0.000000 0.212500
0.537500 0.000000 0.212500
0.662500 0.000000 0.212500
0.787500 0.000000 0.212500
0.912500 0.000000 0.212500
1.000000 0.000000 0.212500
0.037500 0.112500 0.212500
0.162500 0.112500 0.212500
0.287500 0.112500 0.212500
0.412500 0.112500 0.212500
0.537500 0.112500 0.212500
0.662500 0.112500 0.212500
0.787500 0.112500 0.212500
0.912500 0.112500 0.212500
1.000000 0.112500 0.212500
0.037500 0.237500 0.212500
0.162500 0.237500 0.212500
0.287500 0.237500 0.212500
0.412500 0.237500 0.212500
0.537500 0.237500 0.212500
0.662500 0.237500 0.212500
0.787500 0.237500 0.212500
0.912500 0.237500 0.212500
1.000000 0.237500 0.212500
0.037500 0.362500 0.212500
0.162500 0.362500 0.212500
0.287500 0.362500 0.212500
0.412500 0.362500 0.212500
0.537500 0.362500 0.212500
0.662500 0.362500 0.212500
0.787500 0.362500 0.212500
0.912500 0.362500 0.212500
1.000000 0.362500 0.212500
0.037500 0.487500 0.212500
0.162500 0.487500 0.212500
0.287500 0.487500 0.212500
0.412500 0.487500 0.212500
0.537500 0.487500 0.212500
0.662500 0.487500 0.212500
0.787500 0.487500 0.212500
0.912500 0.487500 0.212500
1.000000 0.487500 0.212500
0.037500 0.612500 0.212500
0.162500 0.612500 0.212500
0.287500 0.612500 0.212500
0.412500 0.612500 0.212500
0.537500 0.612500 0.212500
0.662500 0.612500 0.212500
0.787500 0.612500 0.212500
0.912500 0.612500 0.212500
1.000000 0.612500 0.212500
0.037500 0.737500 0.212500
0.162500 0.737500 0.212500
0.287500 0.737500 0.212500
0.412500 0.737500 0.212500
0.537500 0.737500 0.212500
0.662500 0.737500 0.212500
0.787500 0.737500 0.212500
0.912500 0.737500 0.212500
1.000000 0.737500 0.212500
0.037500 0.862500 0.212500
0.162500 0.862500 0.212500
0.287500 0.862500 0.212500
0.412500 0.862500 0.212500
0.537500 0.862500 0.212500
0.662500 0.862500 0.212500
0.787500 0.862500 0.212500
0.912500 0.862500 0.212500
1.000000 0.862500 0.212500
0.037500 0.987500 0.212500
0.162500 0.987500 0.212500
0.287500 0.987500 0.212500
0.412500 0.987500 0.212500
0.537500 0.987500 0.212500
0.662500 0.987500 0.212500
0.787500 0.987500 0.212500
0.912500 0.987500 0.212500
1.000000 0.987500 0.212500
0.037500 0.000000 0.337500
0.162500 0.000000 0.337500
0.287500 0.000000 0.337500
0.412500 0.000000 0.337500
0.537500 0.000000 0.337500
0.662500 0.000000 0.337500
0.787500 0.000000 0.337500
0.912500 0.000000 0.337500
1.000000 0.000000 0.337500
0.037500 0.112500 0.337500
0.162500 0.112500 0.337500
0.287500 0.112500 0.337500
0.412500 0.112500 0.337500
0.537500 0.112500 0.337500
0.662500 0.112500 0.337500
0.787500 0.112500 0.337500
0.912500 0.112500 0.337500
1.000000 0.112500 0.337500
0.037500 0.237500 0.337500
0.162500 0.237500 0.337500
0.287500 0.237500 0.337500
0.412500 0.237500 0.337500
0.537500 0.237500 0.337500
0.662500 0.237500 0.337500
0.787500 0.237500 0.337500
0.912500 0.237500 0.337500
1.000000 0.237500 0.337500
0.037500 0.362500 0.337500
0.162500 0.362500 0.337500
0.287500 0.362500 0.337500
0.412500 0.362500 0.337500
0.537500 0.362500 0.337500
0.662500 0.362500 0.337500
0.787500 0.362500 0.337500
0.912500 0.362500 0.337500
1.000000 0.362500 0.337500
0.037500 0.487500 0.337500
0.162500 0.487500 0.337500
0.287500 0.487500 0.337500
0.412500 0.487500 0.337500
0.537500 0.487500 0.337500
0.662500 0.487500 0.337500
0.787500 0.487500 0.337500
0.912500 0.487500 0.337500
1.000000 0.487500 0.337500
0.037500 0.612500 0.337500
0.162500 0.612500 0.337500
0.287500 0.612500 0.337500
0.412500 0.612500 0.337500
0.537500 0.612500 0.337500
0.662500 0.612500 0.337500
0.787500 0.612500 0.337500
0.912500 0.612500 0.337500
1.000000 0.612500 0.337500
0.037500 0.737500 0.337500
0.162500 0.737500 0.337500
0.287500 0.737500 0.337500
0.412500 0.737500 0.337500
0.537500 0.737500 0.337500
0.662500 0.737500 0.337500
0.787500 0.737500 0.337500
0.912500 0.737500 0.337500
1.000000 0.737500 0.337500
0.037500 0.862500 0.337500
0.162500 0.862500 0.337500
0.287500 0.862500 0.337500
0.412500 0.862500 0.337500
0.537500 0.862500 0.337500
0.662500 0.862500 0.337500
0.787500 0.862500 0.337500
0.912500 0.862500 0.337500
1.000000 0.862500 0.337500
0.037500 0.987500 0.337500
0.162500 0.987500 0.337500
0.287500 0.987500 0.337500
0.412500 0.987500 0.337500
0.537500 0.987500 0.337500
0.662500 0.987500 0.337500
0.787500 0.987500 0.337500
0.912500 0.987500 0.337500
1.000000 0.987500 0.337500
0.037500 0.000000 0.462500
0.162500 0.000000 0.462500
0.287500 0.000000 0.462500
0.412500 0.000000 0.462500
0.537500 0.000000 0.462500
0.662500 0.000000 0.462500
0.787500 0.000000 0.462500
0.912500 0.000000 0.462500
1.000000 0.000000 0.462500
0.037500 0.112500 0.462500
0.162500 0.112500 0.462500
0.287500 0.112500 0.462500
0.412500 0.112500 0.462500
0.537500 0.112500 0.462500
0.662500 0.112500 0.462500
0.787500 0.112500 0.462500
0.912500 0.112500 0.462500
1.000000 0.112500 0.462500
0.037500 0.237500 0.462500
0.162500 0.237500 0.462500
0.287500 0.237500 0.462500
0.412500 0.237500 0.462500
0.537500 0.237500 0.462500
0.662500 0.237500 0.462500
0.787500 0.237500 0.462500
0.912500 0.237500 0.462500
1.000000 0.237500 0.462500
0.037500 0.362500 0.462500
0.162500 0.362500 0.462500
0.287500 0.362500 0.462500
0.412500 0.362500 0.462500
0.537500 0.362500 0.462500
0.662500 0.362500 0.462500
0.787500 0.362500 0.462500
0.912500 0.362500 0.462500
1.000000 0.362500 0.462500
0.037500 0.487500 0.462500
0.162500 0.487500 0.462500
0.287500 0.487500 0.462500
0.412500 0.487500 0.462500
0.537500 0.487500 0.462500
0.662500 0.487500 0.462500
0.787500 0.487500 0.462500
0.912500 0.487500 0.462500
1.000000 0.487500 0.462500
0.037500 0.612500 0.462500
0.162500 0.612500 0.462500
0.287500 0.612500 0.462500
0.412500 0.612500 0.462500
0.537500 0.612500 0.462500
0.662500 0.612500 0.462500
0.787500 0.612500 0.462500
0.912500 0.612500 0.462500
1.000000 0.612500 0.462500
0.037500 0.737500 0.462500
0.162500 0.737500 0.462500
0.287500 0.737500 0.462500
0.412500 0.737500 0.462500
0.537500 0.737500 0.462500
0.662500 0.737500 0.462500
0.787500 0.737500 0.462500
0.912500 0.737500 0.462500
1.000000 0.737500 0.462500
0.037500 0.862500 0.462500
0.162500 0.862500 0.462500
0.287500 0.862500 0.462500
0.412500 0.862500 0.462500
0.537500 0.862500 0.462500
0.662500 0.862500 0.462500
0.787500 0.862500 0.462500
0.912500 0.862500 0.462500
1.000000 0.862500 0.462500
0.037500 0.987500 0.462500
0.162500 0.987500 0.462500
0.287500 0.987500 0.462500
0.412500 0.987500 0.462500
0.537500 0.987500 0.462500
0.662500 0.987500 0.462500
0.787500 0.987500 0.462500
0.912500 0.987500 0.462500
1.000000 0.987500 0.462500
0.037500 0.000000 0.587500
0.162500 0.000000 0.587500
0.287500 0.000000 0.587500
0.412500 0.000000 0.587500
0.537500 0.000000 0.587500
0.662500 0.000000 0.587500
0.787500 0.000000 0.587500
0.912500 0.000000 0.587500
1.000000 0.000000 0.587500
0.037500 0.112500 0.587500
0.162500 0.112500 0.587500
0.287500 0.112500 0.587500
0.412500 0.112500 0.587500
0.537500 0.112500 0.587500
0.662500 0.112500 0.587500
0.787500 0.112500 0.587500
0.912500 0.112500 0.587500
1.000000 0.112500 0.587500
0.037500 0.237500 0.587500
0.162500 0.237500 0.587500
0.287500 0.237500 0.587500
0.412500 0.237500 0.587500
0.537500 0.237500 0.587500
0.662500 0.237500 0.587500
0.787500 0.237500 0.587500
0.912500 0.237500 0.587500
1.000000 0.237500 0.587500
0.037500 0.362500 0.587500
0.162500 0.362500 0.587500
0.287500 0.362500 0.587500
0.412500 0.362500 0.587500
0.537500 0.362500 0.587500
0.662500 0.362500 0.587500
0.787500 0.362500 0.587500
0.912500 0.362500 0.587500
1.000000 0.362500 0.587500
0.037500 0.487500 0.587500
0.162500 0.487500 0.587500
0.287500 0.487500 0.587500
0.412500 0.487500 0.587500
0.537500 0.487500 0.587500
0.662500 0.487500 0.587500
0.787500 0.487500 0.587500
0.912500 0.487500 0.587500
1.000000 0.487500 0.587500
0.037500 0.612500 0.587500
0.162500 0.612500 0.587500
0.287500 0.612500 0.587500
0.412500 0.612500 0.587500
0.537500 0.612500 0.587500
0.662500 0.612500 0.587500
0.787500 0.612500 0.587500
0.912500 0.612500 0.587500
1.000000 0.612500 0.587500
0.037500 0.737500 0.587500
0.162500 0.737500 0.587500
0.287500 0.737500 0.587500
0.412500 0.737500 0.587500
0.537500 0.737500 0.587500
0.662500 0.737500 0.587500
0.787500 0.737500 0.587500
0.912500 0.737500 0.587500
1.000000 0.737500 0.587500
0.037500 0.862500 0.587500
0.162500 0.862500 0.587500
0.287500 0.862500 0.587500
0.412500 0.862500 0.587500
0.537500 0.862500 0.587500
0.662500 0.862500 0.587500
0.787500 0.862500 0.587500
0.912500 0.862500 0.587500
1.000000 0.862500 0.587500
0.037500 0.987500 0.587500
0.162500 0.987500 0.587500
0.287500 0.987500 0.587500
0.412500 0.987500 0.587500
0.537500 0.987500 0.587500
0.662500 0.987500 0.587500
0.787500 0.987500 0.587500
0.912500 0.987500 0.587500
1.000000 0.987500 0.587500
0.037500 0.000000 0.712500
0.162500 0.000000 0.712500
0.287500 0.000000 0.712500
0.412500 0.000000 0.712500
0.537500 0.000000 0.712500
0.662500 0.000000 0.712500
0.787500 0.000000 0.712500
0.912500 0.000000 0.712500
1.000000 0.000000 0.712500
0.037500 0.112500 0.712500
0.162500 0.112500 0.712500
0.287500 0.112500 0.712500
0.412500 0.112500 0.712500
0.537500 0.112500 0.712500
0.662500 0.112500 0.712500
0.787500 0.112500 0.712500
0.912500 0.112500 0.712500
1.000000 0.112500 0.712500
0.037500 0.237500 0.712500
0.162500 0.237500 0.712500
0.287500 0.237500 0.712500
0.412500 0.237500 0.712500
0.537500 0.237500 0.712500
0.662500 0.237500 0.712500
0.787500 0.237500 0.712500
0.912500 0.237500 0.712500
1.000000 0.237500 0.712500
0.037500 0.362500 0.712500
0.162500 0.362500 0.712500
0.287500 0.362500 0.712500
0.412500 0.362500 0.712500
0.537500 0.362500 0.712500
0.662500 0.362500 0.712500
0.787500 0.362500 0.712500
0.912500 0.362500 0.712500
1.000000 0.362500 0.712500
0.037500 0.487500 0.712500
0.162500 0.487500 0.712500
0.287500 0.487500 0.712500
0.412500 0.487500 0.712500
0.537500 0.487500 0.712500
0.662500 0.487500 0.712500
0.787500 0.487500 0.712500
0.912500 0.487500 0.712500
1.000000 0.487500 0.712500
0.037500 0.612500 0.712500
0.162500 0.612500 0.712500
0.287500 0.612500 0.712500
0.412500 0.612500 0.712500
0.537500 0.612500 0.712500
0.662500 0.612500 0.712500
0.787500 0.612500 0.712500
0.912500 0.612500 0.712500
1.000000 0.612500 0.712500
0.037500 0.737500 0.712500
0.162500 0.737500 0.712500
0.287500 0.737500 0.712500
0.412500 0.737500 0.712500
0.537500 0.737500 0.712500
0.662500 0.737500 0.712500
0.787500 0.737500 0.712500
0.912500 0.737500 0.712500
1.000000 0.737500 0.712500
0.037500 0.862500 0.712500
0.162500 0.862500 0.712500
0.287500 0.862500 0.712500
0.412500 0.862500 0.712500
0.537500 0.862500 0.712500
0.662500 0.862500 0.712500
0.787500 0.862500 0.712500
0.912500 0.862500 0.712500
1.000000 0.862500 0.712500
0.037500 0.987500 0.712500
0.162500 0.987500 0.712500
0.287500 0.987500 0.712500
0.412500 0.987500 0.712500
0.537500 0.987500 0.712500
0.662500 0.987500 0.712500
0.787500 0.987500 0.712500
0.912500 0.987500 0.712500
1.000000 0.987500 0.712500
0.037500 0.000000 0.837500
0.162500 0.000000 0.837500
0.287500 0.000000 0.837500
0.412500 0.000000 0.837500
0.537500 0.000000 0.837500
0.662500 0.000000 0.837500
0.787500 0.000000 0.837500
0.912500 0.000000 0.837500
1.000000 0.000000 0.837500
0.037500 0.112500 0.837500
0.162500 0.112500 0.837500
0.287500 0.112500 0.837500
0.412500 0.112500 0.837500
0.537500 0.112500 0.837500
0.662500 0.112500 0.837500
0.787500 0.112500 0.837500
0.912500 0.112500 0.837500
1.000000 0.112500 0.837500
0.037500 0.237500 0.837500
0.162500 0.237500 0.837500
0.287500 0.237500 0.837500
0.412500 0.237500 0.837500
0.537500 0.237500 0.837500
0.662500 0.237500 0.837500
0.787500 0.237500 0.837500
0.912500 0.237500 0.837500
1.000000 0.237500 0.837500
0.037500 0.362500 0.837500
0.162500 0.362500 0.837500
0.287500 0.362500 0.837500
0.412500 0.362500 0.837500
0.537500 0.362500 0.837500
0.662500 0.362500 0.837500
0.787500 0.362500 0.837500
0.912500 0.362500 0.837500
1.000000 0.362500 0.837500
0.037500 0.487500 0.837500
0.162500 0.487500 0.837500
0.287500 0.487500 0.837500
0.412500 0.487500 0.837500
0.537500 0.487500 0.837500
0.662500 0.487500 0.837500
0.787500 0.487500 0.837500
0.912500 0.487500 0.837500
1.000000 0.487500 0.837500
0.037500 0.612500 0.837500
0.162500 0.612500 0.837500
0.287500 0.612500 0.837500
0.412500 0.612500 0.837500
0.537500 0.612500 0.837500
0.662500 0.612500 0.837500
0.787500 0.612500 0.837500
0.912500 0.612500 0.837500
1.000000 0.612500 0.837500
0.037500 0.737500 0.837500
0.162500 0.737500 0.837500
0.287500 0.737500 0.837500
0.412500 0.737500 0.837500
0.537500 0.737500 0.837500
0.662500 0.737500 0.837500
0.787500 0.737500 0.837500
0.912500 0.737500 0.837500
1.000000 0.737500 0.837500
0.037500 0.862500 0.837500
0.162500 0.862500 0.837500
0.287500 0.862500 0.837500
0.412500 0.862500 0.837500
0.537500 0.862500 0.837500
0.662500 0.862500 0.837500
0.787500 0.862500 0.837500
0.912500 0.862500 0.837500
1.000000 0.862500 0.837500
0.037500 0.987500 0.837500
0.162500 0.987500 0.837500
0.287500 0.987500 0.837500
0.412500 0.987500 0.837500
0.537500 0.987500 0.837500
0.662500 0.987500 0.837500
0.787500 0.987500 0.837500
0.912500 0.987500 0.837500
1.000000 0.987500 0.837500
0.037500 0.000000 0.962500
0.162500 0.000000 0.962500
0.287500 0.000000 0.962500
0.412500 0.000000 0.962500
0.537500 0.000000 0.962500
0.662500 0.000000 0.962500
0.787500 0.000000 0.962500
0.912500 0.000000 0.962500
1.000000 0.000000 0.962500
0.037500 0.112500 0.962500
0.162500 0.112500 0.962500
0.287500 0.112500 0.962500
0.412500 0.112500 0.962500
0.537500 0.112500 0.962500
0.662500 0.112500 0.962500
0.787500 0.112500 0.962500
0.912500 0.112500 0.962500
1.000000 0.112500 0.962500
0.037500 0.237500 0.962500
0.162500 0.237500 0.962500
0.287500 0.237500 0.962500
0.412500 0.237500 0.962500
0.537500 0.237500 0.962500
0.662500 0.237500 0.962500
0.787500 0.237500 0.962500
0.912500 0.237500 0.962500
1.000000 0.237500 0.962500
0.037500 0.362500 0.962500
0.162500 0.362500 0.962500
0.287500 0.362500 0.962500
0.412500 0.362500 0.962500
0.537500 0.362500 0.962500
0.662500 0.362500 0.962500
0.787500 0.362500 0.962500
0.912500 0.362500 0.962500
1.000000 0.362500 0.962500
0.037500 0.487500 0.962500
0.162500 0.487500 0.962500
0.287500 0.487500 0.962500
0.412500 0.487500 0.962500
0.537500 0.487500 0.962500
0.662500 0.487500 0.962500
0.787500 0.487500 0.962500
0.912500 0.487500 0.962500
1.000000 0.487500 0.962500
0.037500 0.612500 0.962500
0.162500 0.612500 0.962500
0.287500 0.612500 0.962500
0.412500 0.612500 0.962500
0.537500 0.612500 0.962500
0.662500 0.612500 0.962500
0.787500 0.612500 0.962500
0.912500 0.612500 0.962500
1.000000 0.612500 0.962500
0.037500 0.737500 0.962500
0.162500 0.737500 0.962500
0.287500 0.737500 0.962500
0.412500 0.737500 0.962500
0.537500 0.737500 0.962500
0.662500 0.737500 0.962500
0.787500 0.737500 0.962500
0.912500 0.737500 0.962500
1.000000 0.737500 0.962500
0.037500 0.862500 0.962500
0.162500 0.862500 0.962500
0.287500 0.862500 0.962500
0.412500 0.862500 0.962500
0.537500 0.862500 0.962500
0.662500 0.862500 0.962500
0.787500 0.862500 0.962500
0.912500 0.862500 0.962500
1.000000 0.862500 0.962500
0.037500 0.987500 0.962500
0.162500 0.987500 0.962500
0.287500 0.987500 0.962500
0.412500 0.987500 0.962500
0.537500 0.987500 0.962500
0.662500 0.987500 0.962500
0.787500 0.987500 0.962500
0.912500 0.987500 0.962500
1.000000 0.987500 0.962500
