app/src/main/assets/luts/rose_gold.cube
# ApexStudio filter: rose_gold
LUT_3D_SIZE 5
DOMAIN_MIN 0.0 0.0 0.0
DOMAIN_MAX 1.0 1.0 1.0
0.037500 0.000000 0.000000
0.287500 0.000000 0.000000
0.537500 0.000000 0.000000
0.787500 0.000000 0.000000
1.000000 0.000000 0.000000
0.037500 0.237500 0.000000
0.287500 0.237500 0.000000
0.537500 0.237500 0.000000
0.787500 0.237500 0.000000
1.000000 0.237500 0.000000
0.037500 0.487500 0.000000
0.287500 0.487500 0.000000
0.537500 0.487500 0.000000
0.787500 0.487500 0.000000
1.000000 0.487500 0.000000
0.037500 0.737500 0.000000
0.287500 0.737500 0.000000
0.537500 0.737500 0.000000
0.787500 0.737500 0.000000
1.000000 0.737500 0.000000
0.037500 0.987500 0.000000
0.287500 0.987500 0.000000
0.537500 0.987500 0.000000
0.787500 0.987500 0.000000
1.000000 0.987500 0.000000
0.037500 0.000000 0.212500
0.287500 0.000000 0.212500
0.537500 0.000000 0.212500
0.787500 0.000000 0.212500
1.000000 0.000000 0.212500
0.037500 0.237500 0.212500
0.287500 0.237500 0.212500
0.537500 0.237500 0.212500
0.787500 0.237500 0.212500
1.000000 0.237500 0.212500
0.037500 0.487500 0.212500
0.287500 0.487500 0.212500
0.537500 0.487500 0.212500
0.787500 0.487500 0.212500
1.000000 0.487500 0.212500
0.037500 0.737500 0.212500
0.287500 0.737500 0.212500
0.537500 0.737500 0.212500
0.787500 0.737500 0.212500
1.000000 0.737500 0.212500
0.037500 0.987500 0.212500
0.287500 0.987500 0.212500
0.537500 0.987500 0.212500
0.787500 0.987500 0.212500
1.000000 0.987500 0.212500
0.037500 0.000000 0.462500
0.287500 0.000000 0.462500
0.537500 0.000000 0.462500
0.787500 0.000000 0.462500
1.000000 0.000000 0.462500
0.037500 0.237500 0.462500
0.287500 0.237500 0.462500
0.537500 0.237500 0.462500
0.787500 0.237500 0.462500
1.000000 0.237500 0.462500
0.037500 0.487500 0.462500
0.287500 0.487500 0.462500
0.537500 0.487500 0.462500
0.787500 0.487500 0.462500
1.000000 0.487500 0.462500
0.037500 0.737500 0.462500
0.287500 0.737500 0.462500
0.537500 0.737500 0.462500
0.787500 0.737500 0.462500
1.000000 0.737500 0.462500
0.037500 0.987500 0.462500
0.287500 0.987500 0.462500
0.537500 0.987500 0.462500
0.787500 0.987500 0.462500
1.000000 0.987500 0.462500
0.037500 0.000000 0.712500
0.287500 0.000000 0.712500
0.537500 0.000000 0.712500
0.787500 0.000000 0.712500
1.000000 0.000000 0.712500
0.037500 0.237500 0.712500
0.287500 0.237500 0.712500
0.537500 0.237500 0.712500
0.787500 0.237500 0.712500
1.000000 0.237500 0.712500
0.037500 0.487500 0.712500
0.287500 0.487500 0.712500
0.537500 0.487500 0.712500
0.787500 0.487500 0.712500
1.000000 0.487500 0.712500
0.037500 0.737500 0.712500
0.287500 0.737500 0.712500
0.537500 0.737500 0.712500
0.787500 0.737500 0.712500
1.000000 0.737500 0.712500
0.037500 0.987500 0.712500
0.287500 0.987500 0.712500
0.537500 0.987500 0.712500
0.787500 0.987500 0.712500
1.000000 0.987500 0.712500
0.037500 0.000000 0.962500
0.287500 0.000000 0.962500
0.537500 0.000000 0.962500
0.787500 0.000000 0.962500
1.000000 0.000000 0.962500
0.037500 0.237500 0.962500
0.287500 0.237500 0.962500
0.537500 0.237500 0.962500
0.787500 0.237500 0.962500
1.000000 0.237500 0.962500
0.037500 0.487500 0.962500
0.287500 0.487500 0.962500
0.537500 0.487500 0.962500
0.787500 0.487500 0.962500
1.000000 0.487500 0.962500
0.037500 0.737500 0.962500
0.287500 0.737500 0.962500
0.537500 0.737500 0.962500
0.787500 0.737500 0.962500
1.000000 0.737500 0.962500
0.037500 0.987500 0.962500
0.287500 0.987500 0.962500
0.537500 0.987500 0.962500
0.787500 0.987500 0.962500
1.000000 0.987500 0.962500
