app/src/main/assets/luts/rose_gold.cube
# ApexStudio filter: rose_gold
LUT_3D_SIZE 17
DOMAIN_MIN 0.0 0.0 0.0
DOMAIN_MAX 1.0 1.0 1.0
0.037500 0.000000 0.000000
0.100000 0.000000 0.000000
0.162500 0.000000 0.000000
0.225000 0.000000 0.000000
0.287500 0.000000 0.000000
0.350000 0.000000 0.000000
0.412500 0.000000 0.000000
0.475000 0.000000 0.000000
0.537500 0.000000 0.000000
0.600000 0.000000 0.000000
0.662500 0.000000 0.000000
0.725000 0.000000 0.000000
0.787500 0.000000 0.000000
0.850000 0.000000 0.000000
0.912500 0.000000 0.000000
0.975000 0.000000 0.000000
1.000000 0.000000 0.000000
0.037500 0.050000 0.000000
0.100000 0.050000 0.000000
0.162500 0.050000 0.000000
0.225000 0.050000 0.000000
0.287500 0.050000 0.000000
0.350000 0.050000 0.000000
0.412500 0.050000 0.000000
0.475000 0.050000 0.000000
0.537500 0.050000 0.000000
0.600000 0.050000 0.000000
0.662500 0.050000 0.000000
0.725000 0.050000 0.000000
0.787500 0.050000 0.000000
0.850000 0.050000 0.000000
0.912500 0.050000 0.000000
0.975000 0.050000 0.000000
1.000000 0.050000 0.000000
0.037500 0.112500 0.000000
0.100000 0.112500 0.000000
0.162500 0.112500 0.000000
0.225000 0.112500 0.000000
0.287500 0.112500 0.000000
0.350000 0.112500 0.000000
0.412500 0.112500 0.000000
0.475000 0.112500 0.000000
0.537500 0.112500 0.000000
0.600000 0.112500 0.000000
0.662500 0.112500 0.000000
0.725000 0.112500 0.000000
0.787500 0.112500 0.000000
0.850000 0.112500 0.000000
0.912500 0.112500 0.000000
0.975000 0.112500 0.000000
1.000000 0.112500 0.000000
0.037500 0.175000 0.000000
0.100000 0.175000 0.000000
0.162500 0.175000 0.000000
0.225000 0.175000 0.000000
0.287500 0.175000 0.000000
0.350000 0.175000 0.000000
0.412500 0.175000 0.000000
0.475000 0.175000 0.000000
0.537500 0.175000 0.000000
0.600000 0.175000 0.000000
0.662500 0.175000 0.000000
0.725000 0.175000 0.000000
0.787500 0.175000 0.000000
0.850000 0.175000 0.000000
0.912500 0.175000 0.000000
0.975000 0.175000 0.000000
1.000000 0.175000 0.000000
0.037500 0.237500 0.000000
0.100000 0.237500 0.000000
0.162500 0.237500 0.000000
0.225000 0.237500 0.000000
0.287500 0.237500 0.000000
0.350000 0.237500 0.000000
0.412500 0.237500 0.000000
0.475000 0.237500 0.000000
0.537500 0.237500 0.000000
0.600000 0.237500 0.000000
0.662500 0.237500 0.000000
0.725000 0.237500 0.000000
0.787500 0.237500 0.000000
0.850000 0.237500 0.000000
0.912500 0.237500 0.000000
0.975000 0.237500 0.000000
1.000000 0.237500 0.000000
0.037500 0.300000 0.000000
0.100000 0.300000 0.000000
0.162500 0.300000 0.000000
0.225000 0.300000 0.000000
0.287500 0.300000 0.000000
0.350000 0.300000 0.000000
0.412500 0.300000 0.000000
0.475000 0.300000 0.000000
0.537500 0.300000 0.000000
0.600000 0.300000 0.000000
0.662500 0.300000 0.000000
0.725000 0.300000 0.000000
0.787500 0.300000 0.000000
0.850000 0.300000 0.000000
0.912500 0.300000 0.000000
0.975000 0.300000 0.000000
1.000000 0.300000 0.000000
0.037500 0.362500 0.000000
0.100000 0.362500 0.000000
0.162500 0.362500 0.000000
0.225000 0.362500 0.000000
0.287500 0.362500 0.000000
0.350000 0.362500 0.000000
0.412500 0.362500 0.000000
0.475000 0.362500 0.000000
0.537500 0.362500 0.000000
0.600000 0.362500 0.000000
0.662500 0.362500 0.000000
0.725000 0.362500 0.000000
0.787500 0.362500 0.000000
0.850000 0.362500 0.000000
0.912500 0.362500 0.000000
0.975000 0.362500 0.000000
1.000000 0.362500 0.000000
0.037500 0.425000 0.000000
0.100000 0.425000 0.000000
0.162500 0.425000 0.000000
0.225000 0.425000 0.000000
0.287500 0.425000 0.000000
0.350000 0.425000 0.000000
0.412500 0.425000 0.000000
0.475000 0.425000 0.000000
0.537500 0.425000 0.000000
0.600000 0.425000 0.000000
0.662500 0.425000 0.000000
0.725000 0.425000 0.000000
0.787500 0.425000 0.000000
0.850000 0.425000 0.000000
0.912500 0.425000 0.000000
0.975000 0.425000 0.000000
1.000000 0.425000 0.000000
0.037500 0.487500 0.000000
0.100000 0.487500 0.000000
0.162500 0.487500 0.000000
0.225000 0.487500 0.000000
0.287500 0.487500 0.000000
0.350000 0.487500 0.000000
0.412500 0.487500 0.000000
0.475000 0.487500 0.000000
0.537500 0.487500 0.000000
0.600000 0.487500 0.000000
0.662500 0.487500 0.000000
0.725000 0.487500 0.000000
0.787500 0.487500 0.000000
0.850000 0.487500 0.000000
0.912500 0.487500 0.000000
0.975000 0.487500 0.000000
1.000000 0.487500 0.000000
0.037500 0.550000 0.000000
0.100000 0.550000 0.000000
0.162500 0.550000 0.000000
0.225000 0.550000 0.000000
0.287500 0.550000 0.000000
0.350000 0.550000 0.000000
0.412500 0.550000 0.000000
0.475000 0.550000 0.000000
0.537500 0.550000 0.000000
0.600000 0.550000 0.000000
0.662500 0.550000 0.000000
0.725000 0.550000 0.000000
0.787500 0.550000 0.000000
0.850000 0.550000 0.000000
0.912500 0.550000 0.000000
0.975000 0.550000 0.000000
1.000000 0.550000 0.000000
0.037500 0.612500 0.000000
0.100000 0.612500 0.000000
0.162500 0.612500 0.000000
0.225000 0.612500 0.000000
0.287500 0.612500 0.000000
0.350000 0.612500 0.000000
0.412500 0.612500 0.000000
0.475000 0.612500 0.000000
0.537500 0.612500 0.000000
0.600000 0.612500 0.000000
0.662500 0.612500 0.000000
0.725000 0.612500 0.000000
0.787500 0.612500 0.000000
0.850000 0.612500 0.000000
0.912500 0.612500 0.000000
0.975000 0.612500 0.000000
1.000000 0.612500 0.000000
0.037500 0.675000 0.000000
0.100000 0.675000 0.000000
0.162500 0.675000 0.000000
0.225000 0.675000 0.000000
0.287500 0.675000 0.000000
0.350000 0.675000 0.000000
0.412500 0.675000 0.000000
0.475000 0.675000 0.000000
0.537500 0.675000 0.000000
0.600000 0.675000 0.000000
0.662500 0.675000 0.000000
0.725000 0.675000 0.000000
0.787500 0.675000 0.000000
0.850000 0.675000 0.000000
0.912500 0.675000 0.000000
0.975000 0.675000 0.000000
1.000000 0.675000 0.000000
0.037500 0.737500 0.000000
0.100000 0.737500 0.000000
0.162500 0.737500 0.000000
0.225000 0.737500 0.000000
0.287500 0.737500 0.000000
0.350000 0.737500 0.000000
0.412500 0.737500 0.000000
0.475000 0.737500 0.000000
0.537500 0.737500 0.000000
0.600000 0.737500 0.000000
0.662500 0.737500 0.000000
0.725000 0.737500 0.000000
0.787500 0.737500 0.000000
0.850000 0.737500 0.000000
0.912500 0.737500 0.000000
0.975000 0.737500 0.000000
1.000000 0.737500 0.000000
0.037500 0.800000 0.000000
0.100000 0.800000 0.000000
0.162500 0.800000 0.000000
0.225000 0.800000 0.000000
0.287500 0.800000 0.000000
0.350000 0.800000 0.000000
0.412500 0.800000 0.000000
0.475000 0.800000 0.000000
0.537500 0.800000 0.000000
0.600000 0.800000 0.000000
0.662500 0.800000 0.000000
0.725000 0.800000 0.000000
0.787500 0.800000 0.000000
0.850000 0.800000 0.000000
0.912500 0.800000 0.000000
0.975000 0.800000 0.000000
1.000000 0.800000 0.000000
0.037500 0.862500 0.000000
0.100000 0.862500 0.000000
0.162500 0.862500 0.000000
0.225000 0.862500 0.000000
0.287500 0.862500 0.000000
0.350000 0.862500 0.000000
0.412500 0.862500 0.000000
0.475000 0.862500 0.000000
0.537500 0.862500 0.000000
0.600000 0.862500 0.000000
0.662500 0.862500 0.000000
0.725000 0.862500 0.000000
0.787500 0.862500 0.000000
0.850000 0.862500 0.000000
0.912500 0.862500 0.000000
0.975000 0.862500 0.000000
1.000000 0.862500 0.000000
0.037500 0.925000 0.000000
0.100000 0.925000 0.000000
0.162500 0.925000 0.000000
0.225000 0.925000 0.000000
0.287500 0.925000 0.000000
0.350000 0.925000 0.000000
0.412500 0.925000 0.000000
0.475000 0.925000 0.000000
0.537500 0.925000 0.000000
0.600000 0.925000 0.000000
0.662500 0.925000 0.000000
0.725000 0.925000 0.000000
0.787500 0.925000 0.000000
0.850000 0.925000 0.000000
0.912500 0.925000 0.000000
0.975000 0.925000 0.000000
1.000000 0.925000 0.000000
0.037500 0.987500 0.000000
0.100000 0.987500 0.000000
0.162500 0.987500 0.000000
0.225000 0.987500 0.000000
0.287500 0.987500 0.000000
0.350000 0.987500 0.000000
0.412500 0.987500 0.000000
0.475000 0.987500 0.000000
0.537500 0.987500 0.000000
0.600000 0.987500 0.000000
0.662500 0.987500 0.000000
0.725000 0.987500 0.000000
0.787500 0.987500 0.000000
0.850000 0.987500 0.000000
0.912500 0.987500 0.000000
0.975000 0.987500 0.000000
1.000000 0.987500 0.000000
0.037500 0.000000 0.025000
0.100000 0.000000 0.025000
0.162500 0.000000 0.025000
0.225000 0.000000 0.025000
0.287500 0.000000 0.025000
0.350000 0.000000 0.025000
0.412500 0.000000 0.025000
0.475000 0.000000 0.025000
0.537500 0.000000 0.025000
0.600000 0.000000 0.025000
0.662500 0.000000 0.025000
0.725000 0.000000 0.025000
0.787500 0.000000 0.025000
0.850000 0.000000 0.025000
0.912500 0.000000 0.025000
0.975000 0.000000 0.025000
1.000000 0.000000 0.025000
0.037500 0.050000 0.025000
0.100000 0.050000 0.025000
0.162500 0.050000 0.025000
0.225000 0.050000 0.025000
0.287500 0.050000 0.025000
0.350000 0.050000 0.025000
0.412500 0.050000 0.025000
0.475000 0.050000 0.025000
0.537500 0.050000 0.025000
0.600000 0.050000 0.025000
0.662500 0.050000 0.025000
0.725000 0.050000 0.025000
0.787500 0.050000 0.025000
0.850000 0.050000 0.025000
0.912500 0.050000 0.025000
0.975000 0.050000 0.025000
1.000000 0.050000 0.025000
0.037500 0.112500 0.025000
0.100000 0.112500 0.025000
0.162500 0.112500 0.025000
0.225000 0.112500 0.025000
0.287500 0.112500 0.025000
0.350000 0.112500 0.025000
0.412500 0.112500 0.025000
0.475000 0.112500 0.025000
0.537500 0.112500 0.025000
0.600000 0.112500 0.025000
0.662500 0.112500 0.025000
0.725000 0.112500 0.025000
0.787500 0.112500 0.025000
0.850000 0.112500 0.025000
0.912500 0.112500 0.025000
0.975000 0.112500 0.025000
1.000000 0.112500 0.025000
0.037500 0.175000 0.025000
0.100000 0.175000 0.025000
0.162500 0.175000 0.025000
0.225000 0.175000 0.025000
0.287500 0.175000 0.025000
0.350000 0.175000 0.025000
0.412500 0.175000 0.025000
0.475000 0.175000 0.025000
0.537500 0.175000 0.025000
0.600000 0.175000 0.025000
0.662500 0.175000 0.025000
0.725000 0.175000 0.025000
0.787500 0.175000 0.025000
0.850000 0.175000 0.025000
0.912500 0.175000 0.025000
0.975000 0.175000 0.025000
1.000000 0.175000 0.025000
0.037500 0.237500 0.025000
0.100000 0.237500 0.025000
0.162500 0.237500 0.025000
0.225000 0.237500 0.025000
0.287500 0.237500 0.025000
0.350000 0.237500 0.025000
0.412500 0.237500 0.025000
0.475000 0.237500 0.025000
0.537500 0.237500 0.025000
0.600000 0.237500 0.025000
0.662500 0.237500 0.025000
0.725000 0.237500 0.025000
0.787500 0.237500 0.025000
0.850000 0.237500 0.025000
0.912500 0.237500 0.025000
0.975000 0.237500 0.025000
1.000000 0.237500 0.025000
0.037500 0.300000 0.025000
0.100000 0.300000 0.025000
0.162500 0.300000 0.025000
0.225000 0.300000 0.025000
0.287500 0.300000 0.025000
0.350000 0.300000 0.025000
0.412500 0.300000 0.025000
0.475000 0.300000 0.025000
0.537500 0.300000 0.025000
0.600000 0.300000 0.025000
0.662500 0.300000 0.025000
0.725000 0.300000 0.025000
0.787500 0.300000 0.025000
0.850000 0.300000 0.025000
0.912500 0.300000 0.025000
0.975000 0.300000 0.025000
1.000000 0.300000 0.025000
0.037500 0.362500 0.025000
0.100000 0.362500 0.025000
0.162500 0.362500 0.025000
0.225000 0.362500 0.025000
0.287500 0.362500 0.025000
0.350000 0.362500 0.025000
0.412500 0.362500 0.025000
0.475000 0.362500 0.025000
0.537500 0.362500 0.025000
0.600000 0.362500 0.025000
0.662500 0.362500 0.025000
0.725000 0.362500 0.025000
0.787500 0.362500 0.025000
0.850000 0.362500 0.025000
0.912500 0.362500 0.025000
0.975000 0.362500 0.025000
1.000000 0.362500 0.025000
0.037500 0.425000 0.025000
0.100000 0.425000 0.025000
0.162500 0.425000 0.025000
0.225000 0.425000 0.025000
0.287500 0.425000 0.025000
0.350000 0.425000 0.025000
0.412500 0.425000 0.025000
0.475000 0.425000 0.025000
0.537500 0.425000 0.025000
0.600000 0.425000 0.025000
0.662500 0.425000 0.025000
0.725000 0.425000 0.025000
0.787500 0.425000 0.025000
0.850000 0.425000 0.025000
0.912500 0.425000 0.025000
0.975000 0.425000 0.025000
1.000000 0.425000 0.025000
0.037500 0.487500 0.025000
0.100000 0.487500 0.025000
0.162500 0.487500 0.025000
0.225000 0.487500 0.025000
0.287500 0.487500 0.025000
0.350000 0.487500 0.025000
0.412500 0.487500 0.025000
0.475000 0.487500 0.025000
0.537500 0.487500 0.025000
0.600000 0.487500 0.025000
0.662500 0.487500 0.025000
0.725000 0.487500 0.025000
0.787500 0.487500 0.025000
0.850000 0.487500 0.025000
0.912500 0.487500 0.025000
0.975000 0.487500 0.025000
1.000000 0.487500 0.025000
0.037500 0.550000 0.025000
0.100000 0.550000 0.025000
0.162500 0.550000 0.025000
0.225000 0.550000 0.025000
0.287500 0.550000 0.025000
0.350000 0.550000 0.025000
0.412500 0.550000 0.025000
0.475000 0.550000 0.025000
0.537500 0.550000 0.025000
0.600000 0.550000 0.025000
0.662500 0.550000 0.025000
0.725000 0.550000 0.025000
0.787500 0.550000 0.025000
0.850000 0.550000 0.025000
0.912500 0.550000 0.025000
0.975000 0.550000 0.025000
1.000000 0.550000 0.025000
0.037500 0.612500 0.025000
0.100000 0.612500 0.025000
0.162500 0.612500 0.025000
0.225000 0.612500 0.025000
0.287500 0.612500 0.025000
0.350000 0.612500 0.025000
0.412500 0.612500 0.025000
0.475000 0.612500 0.025000
0.537500 0.612500 0.025000
0.600000 0.612500 0.025000
0.662500 0.612500 0.025000
0.725000 0.612500 0.025000
0.787500 0.612500 0.025000
0.850000 0.612500 0.025000
0.912500 0.612500 0.025000
0.975000 0.612500 0.025000
1.000000 0.612500 0.025000
0.037500 0.675000 0.025000
0.100000 0.675000 0.025000
0.162500 0.675000 0.025000
0.225000 0.675000 0.025000
0.287500 0.675000 0.025000
0.350000 0.675000 0.025000
0.412500 0.675000 0.025000
0.475000 0.675000 0.025000
0.537500 0.675000 0.025000
0.600000 0.675000 0.025000
0.662500 0.675000 0.025000
0.725000 0.675000 0.025000
0.787500 0.675000 0.025000
0.850000 0.675000 0.025000
0.912500 0.675000 0.025000
0.975000 0.675000 0.025000
1.000000 0.675000 0.025000
0.037500 0.737500 0.025000
0.100000 0.737500 0.025000
0.162500 0.737500 0.025000
0.225000 0.737500 0.025000
0.287500 0.737500 0.025000
0.350000 0.737500 0.025000
0.412500 0.737500 0.025000
0.475000 0.737500 0.025000
0.537500 0.737500 0.025000
0.600000 0.737500 0.025000
0.662500 0.737500 0.025000
0.725000 0.737500 0.025000
0.787500 0.737500 0.025000
0.850000 0.737500 0.025000
0.912500 0.737500 0.025000
0.975000 0.737500 0.025000
1.000000 0.737500 0.025000
0.037500 0.800000 0.025000
0.100000 0.800000 0.025000
0.162500 0.800000 0.025000
0.225000 0.800000 0.025000
0.287500 0.800000 0.025000
0.350000 0.800000 0.025000
0.412500 0.800000 0.025000
0.475000 0.800000 0.025000
0.537500 0.800000 0.025000
0.600000 0.800000 0.025000
0.662500 0.800000 0.025000
0.725000 0.800000 0.025000
0.787500 0.800000 0.025000
0.850000 0.800000 0.025000
0.912500 0.800000 0.025000
0.975000 0.800000 0.025000
1.000000 0.800000 0.025000
0.037500 0.862500 0.025000
0.100000 0.862500 0.025000
0.162500 0.862500 0.025000
0.225000 0.862500 0.025000
0.287500 0.862500 0.025000
0.350000 0.862500 0.025000
0.412500 0.862500 0.025000
0.475000 0.862500 0.025000
0.537500 0.862500 0.025000
0.600000 0.862500 0.025000
0.662500 0.862500 0.025000
0.725000 0.862500 0.025000
0.787500 0.862500 0.025000
0.850000 0.862500 0.025000
0.912500 0.862500 0.025000
0.975000 0.862500 0.025000
1.000000 0.862500 0.025000
0.037500 0.925000 0.025000
0.100000 0.925000 0.025000
0.162500 0.925000 0.025000
0.225000 0.925000 0.025000
0.287500 0.925000 0.025000
0.350000 0.925000 0.025000
0.412500 0.925000 0.025000
0.475000 0.925000 0.025000
0.537500 0.925000 0.025000
0.600000 0.925000 0.025000
0.662500 0.925000 0.025000
0.725000 0.925000 0.025000
0.787500 0.925000 0.025000
0.850000 0.925000 0.025000
0.912500 0.925000 0.025000
0.975000 0.925000 0.025000
1.000000 0.925000 0.025000
0.037500 0.987500 0.025000
0.100000 0.987500 0.025000
0.162500 0.987500 0.025000
0.225000 0.987500 0.025000
0.287500 0.987500 0.025000
0.350000 0.987500 0.025000
0.412500 0.987500 0.025000
0.475000 0.987500 0.025000
0.537500 0.987500 0.025000
0.600000 0.987500 0.025000
0.662500 0.987500 0.025000
0.725000 0.987500 0.025000
0.787500 0.987500 0.025000
0.850000 0.987500 0.025000
0.912500 0.987500 0.025000
0.975000 0.987500 0.025000
1.000000 0.987500 0.025000
0.037500 0.000000 0.087500
0.100000 0.000000 0.087500
0.162500 0.000000 0.087500
0.225000 0.000000 0.087500
0.287500 0.000000 0.087500
0.350000 0.000000 0.087500
0.412500 0.000000 0.087500
0.475000 0.000000 0.087500
0.537500 0.000000 0.087500
0.600000 0.000000 0.087500
0.662500 0.000000 0.087500
0.725000 0.000000 0.087500
0.787500 0.000000 0.087500
0.850000 0.000000 0.087500
0.912500 0.000000 0.087500
0.975000 0.000000 0.087500
1.000000 0.000000 0.087500
0.037500 0.050000 0.087500
0.100000 0.050000 0.087500
0.162500 0.050000 0.087500
0.225000 0.050000 0.087500
0.287500 0.050000 0.087500
0.350000 0.050000 0.087500
0.412500 0.050000 0.087500
0.475000 0.050000 0.087500
0.537500 0.050000 0.087500
0.600000 0.050000 0.087500
0.662500 0.050000 0.087500
0.725000 0.050000 0.087500
0.787500 0.050000 0.087500
0.850000 0.050000 0.087500
0.912500 0.050000 0.087500
0.975000 0.050000 0.087500
1.000000 0.050000 0.087500
0.037500 0.112500 0.087500
0.100000 0.112500 0.087500
0.162500 0.112500 0.087500
0.225000 0.112500 0.087500
0.287500 0.112500 0.087500
0.350000 0.112500 0.087500
0.412500 0.112500 0.087500
0.475000 0.112500 0.087500
0.537500 0.112500 0.087500
0.600000 0.112500 0.087500
0.662500 0.112500 0.087500
0.725000 0.112500 0.087500
0.787500 0.112500 0.087500
0.850000 0.112500 0.087500
0.912500 0.112500 0.087500
0.975000 0.112500 0.087500
1.000000 0.112500 0.087500
0.037500 0.175000 0.087500
0.100000 0.175000 0.087500
0.162500 0.175000 0.087500
0.225000 0.175000 0.087500
0.287500 0.175000 0.087500
0.350000 0.175000 0.087500
0.412500 0.175000 0.087500
0.475000 0.175000 0.087500
0.537500 0.175000 0.087500
0.600000 0.175000 0.087500
0.662500 0.175000 0.087500
0.725000 0.175000 0.087500
0.787500 0.175000 0.087500
0.850000 0.175000 0.087500
0.912500 0.175000 0.087500
0.975000 0.175000 0.087500
1.000000 0.175000 0.087500
0.037500 0.237500 0.087500
0.100000 0.237500 0.087500
0.162500 0.237500 0.087500
0.225000 0.237500 0.087500
0.287500 0.237500 0.087500
0.350000 0.237500 0.087500
0.412500 0.237500 0.087500
0.475000 0.237500 0.087500
0.537500 0.237500 0.087500
0.600000 0.237500 0.087500
0.662500 0.237500 0.087500
0.725000 0.237500 0.087500
0.787500 0.237500 0.087500
0.850000 0.237500 0.087500
0.912500 0.237500 0.087500
0.975000 0.237500 0.087500
1.000000 0.237500 0.087500
0.037500 0.300000 0.087500
0.100000 0.300000 0.087500
0.162500 0.300000 0.087500
0.225000 0.300000 0.087500
0.287500 0.300000 0.087500
0.350000 0.300000 0.087500
0.412500 0.300000 0.087500
0.475000 0.300000 0.087500
0.537500 0.300000 0.087500
0.600000 0.300000 0.087500
0.662500 0.300000 0.087500
0.725000 0.300000 0.087500
0.787500 0.300000 0.087500
0.850000 0.300000 0.087500
0.912500 0.300000 0.087500
0.975000 0.300000 0.087500
1.000000 0.300000 0.087500
0.037500 0.362500 0.087500
0.100000 0.362500 0.087500
0.162500 0.362500 0.087500
0.225000 0.362500 0.087500
0.287500 0.362500 0.087500
0.350000 0.362500 0.087500
0.412500 0.362500 0.087500
0.475000 0.362500 0.087500
0.537500 0.362500 0.087500
0.600000 0.362500 0.087500
0.662500 0.362500 0.087500
0.725000 0.362500 0.087500
0.787500 0.362500 0.087500
0.850000 0.362500 0.087500
0.912500 0.362500 0.087500
0.975000 0.362500 0.087500
1.000000 0.362500 0.087500
0.037500 0.425000 0.087500
0.100000 0.425000 0.087500
0.162500 0.425000 0.087500
0.225000 0.425000 0.087500
0.287500 0.425000 0.087500
0.350000 0.425000 0.087500
0.412500 0.425000 0.087500
0.475000 0.425000 0.087500
0.537500 0.425000 0.087500
0.600000 0.425000 0.087500
0.662500 0.425000 0.087500
0.725000 0.425000 0.087500
0.787500 0.425000 0.087500
0.850000 0.425000 0.087500
0.912500 0.425000 0.087500
0.975000 0.425000 0.087500
1.000000 0.425000 0.087500
0.037500 0.487500 0.087500
0.100000 0.487500 0.087500
0.162500 0.487500 0.087500
0.225000 0.487500 0.087500
0.287500 0.487500 0.087500
0.350000 0.487500 0.087500
0.412500 0.487500 0.087500
0.475000 0.487500 0.087500
0.537500 0.487500 0.087500
0.600000 0.487500 0.087500
0.662500 0.487500 0.087500
0.725000 0.487500 0.087500
0.787500 0.487500 0.087500
0.850000 0.487500 0.087500
0.912500 0.487500 0.087500
0.975000 0.487500 0.087500
1.000000 0.487500 0.087500
0.037500 0.550000 0.087500
0.100000 0.550000 0.087500
0.162500 0.550000 0.087500
0.225000 0.550000 0.087500
0.287500 0.550000 0.087500
0.350000 0.550000 0.087500
0.412500 0.550000 0.087500
0.475000 0.550000 0.087500
0.537500 0.550000 0.087500
0.600000 0.550000 0.087500
0.662500 0.550000 0.087500
0.725000 0.550000 0.087500
0.787500 0.550000 0.087500
0.850000 0.550000 0.087500
0.912500 0.550000 0.087500
0.975000 0.550000 0.087500
1.000000 0.550000 0.087500
0.037500 0.612500 0.087500
0.100000 0.612500 0.087500
0.162500 0.612500 0.087500
0.225000 0.612500 0.087500
0.287500 0.612500 0.087500
0.350000 0.612500 0.087500
0.412500 0.612500 0.087500
0.475000 0.612500 0.087500
0.537500 0.612500 0.087500
0.600000 0.612500 0.087500
0.662500 0.612500 0.087500
0.725000 0.612500 0.087500
0.787500 0.612500 0.087500
0.850000 0.612500 0.087500
0.912500 0.612500 0.087500
0.975000 0.612500 0.087500
1.000000 0.612500 0.087500
0.037500 0.675000 0.087500
0.100000 0.675000 0.087500
0.162500 0.675000 0.087500
0.225000 0.675000 0.087500
0.287500 0.675000 0.087500
0.350000 0.675000 0.087500
0.412500 0.675000 0.087500
0.475000 0.675000 0.087500
0.537500 0.675000 0.087500
0.600000 0.675000 0.087500
0.662500 0.675000 0.087500
0.725000 0.675000 0.087500
0.787500 0.675000 0.087500
0.850000 0.675000 0.087500
0.912500 0.675000 0.087500
0.975000 0.675000 0.087500
1.000000 0.675000 0.087500
0.037500 0.737500 0.087500
0.100000 0.737500 0.087500
0.162500 0.737500 0.087500
0.225000 0.737500 0.087500
0.287500 0.737500 0.087500
0.350000 0.737500 0.087500
0.412500 0.737500 0.087500
0.475000 0.737500 0.087500
0.537500 0.737500 0.087500
0.600000 0.737500 0.087500
0.662500 0.737500 0.087500
0.725000 0.737500 0.087500
0.787500 0.737500 0.087500
0.850000 0.737500 0.087500
0.912500 0.737500 0.087500
0.975000 0.737500 0.087500
1.000000 0.737500 0.087500
0.037500 0.800000 0.087500
0.100000 0.800000 0.087500
0.162500 0.800000 0.087500
0.225000 0.800000 0.087500
0.287500 0.800000 0.087500
0.350000 0.800000 0.087500
0.412500 0.800000 0.087500
0.475000 0.800000 0.087500
0.537500 0.800000 0.087500
0.600000 0.800000 0.087500
0.662500 0.800000 0.087500
0.725000 0.800000 0.087500
0.787500 0.800000 0.087500
0.850000 0.800000 0.087500
0.912500 0.800000 0.087500
0.975000 0.800000 0.087500
1.000000 0.800000 0.087500
0.037500 0.862500 0.087500
0.100000 0.862500 0.087500
0.162500 0.862500 0.087500
0.225000 0.862500 0.087500
0.287500 0.862500 0.087500
0.350000 0.862500 0.087500
0.412500 0.862500 0.087500
0.475000 0.862500 0.087500
0.537500 0.862500 0.087500
0.600000 0.862500 0.087500
0.662500 0.862500 0.087500
0.725000 0.862500 0.087500
0.787500 0.862500 0.087500
0.850000 0.862500 0.087500
0.912500 0.862500 0.087500
0.975000 0.862500 0.087500
1.000000 0.862500 0.087500
0.037500 0.925000 0.087500
0.100000 0.925000 0.087500
0.162500 0.925000 0.087500
0.225000 0.925000 0.087500
0.287500 0.925000 0.087500
0.350000 0.925000 0.087500
0.412500 0.925000 0.087500
0.475000 0.925000 0.087500
0.537500 0.925000 0.087500
0.600000 0.925000 0.087500
0.662500 0.925000 0.087500
0.725000 0.925000 0.087500
0.787500 0.925000 0.087500
0.850000 0.925000 0.087500
0.912500 0.925000 0.087500
0.975000 0.925000 0.087500
1.000000 0.925000 0.087500
0.037500 0.987500 0.087500
0.100000 0.987500 0.087500
0.162500 0.987500 0.087500
0.225000 0.987500 0.087500
0.287500 0.987500 0.087500
0.350000 0.987500 0.087500
0.412500 0.987500 0.087500
0.475000 0.987500 0.087500
0.537500 0.987500 0.087500
0.600000 0.987500 0.087500
0.662500 0.987500 0.087500
0.725000 0.987500 0.087500
0.787500 0.987500 0.087500
0.850000 0.987500 0.087500
0.912500 0.987500 0.087500
0.975000 0.987500 0.087500
1.000000 0.987500 0.087500
0.037500 0.000000 0.150000
0.100000 0.000000 0.150000
0.162500 0.000000 0.150000
0.225000 0.000000 0.150000
0.287500 0.000000 0.150000
0.350000 0.000000 0.150000
0.412500 0.000000 0.150000
0.475000 0.000000 0.150000
0.537500 0.000000 0.150000
0.600000 0.000000 0.150000
0.662500 0.000000 0.150000
0.725000 0.000000 0.150000
0.787500 0.000000 0.150000
0.850000 0.000000 0.150000
0.912500 0.000000 0.150000
0.975000 0.000000 0.150000
1.000000 0.000000 0.150000
0.037500 0.050000 0.150000
