app/src/main/assets/luts/sakura_bloom.cube
# ApexStudio filter: sakura_bloom
LUT_3D_SIZE 5
DOMAIN_MIN 0.0 0.0 0.0
DOMAIN_MAX 1.0 1.0 1.0
0.050000 0.000000 0.080000
0.350000 0.000000 0.080000
0.650000 0.000000 0.080000
0.950000 0.000000 0.080000
1.000000 0.000000 0.080000
0.050000 0.262500 0.080000
0.350000 0.262500 0.080000
0.650000 0.262500 0.080000
0.950000 0.262500 0.080000
1.000000 0.262500 0.080000
0.050000 0.525000 0.080000
0.350000 0.525000 0.080000
0.650000 0.525000 0.080000
0.950000 0.525000 0.080000
1.000000 0.525000 0.080000
0.050000 0.787500 0.080000
0.350000 0.787500 0.080000
0.650000 0.787500 0.080000
0.950000 0.787500 0.080000
1.000000 0.787500 0.080000
0.050000 1.000000 0.080000
0.350000 1.000000 0.080000
0.650000 1.000000 0.080000
0.950000 1.000000 0.080000
1.000000 1.000000 0.080000
0.050000 0.000000 0.367500
0.350000 0.000000 0.367500
0.650000 0.000000 0.367500
0.950000 0.000000 0.367500
1.000000 0.000000 0.367500
0.050000 0.262500 0.367500
0.350000 0.262500 0.367500
0.650000 0.262500 0.367500
0.950000 0.262500 0.367500
1.000000 0.262500 0.367500
0.050000 0.525000 0.367500
0.350000 0.525000 0.367500
0.650000 0.525000 0.367500
0.950000 0.525000 0.367500
1.000000 0.525000 0.367500
0.050000 0.787500 0.367500
0.350000 0.787500 0.367500
0.650000 0.787500 0.367500
0.950000 0.787500 0.367500
1.000000 0.787500 0.367500
0.050000 1.000000 0.367500
0.350000 1.000000 0.367500
0.650000 1.000000 0.367500
0.950000 1.000000 0.367500
1.000000 1.000000 0.367500
0.050000 0.000000 0.655000
0.350000 0.000000 0.655000
0.650000 0.000000 0.655000
0.950000 0.000000 0.655000
1.000000 0.000000 0.655000
0.050000 0.262500 0.655000
0.350000 0.262500 0.655000
0.650000 0.262500 0.655000
0.950000 0.262500 0.655000
1.000000 0.262500 0.655000
0.050000 0.525000 0.655000
0.350000 0.525000 0.655000
0.650000 0.525000 0.655000
0.950000 0.525000 0.655000
1.000000 0.525000 0.655000
0.050000 0.787500 0.655000
0.350000 0.787500 0.655000
0.650000 0.787500 0.655000
0.950000 0.787500 0.655000
1.000000 0.787500 0.655000
0.050000 1.000000 0.655000
0.350000 1.000000 0.655000
0.650000 1.000000 0.655000
0.950000 1.000000 0.655000
1.000000 1.000000 0.655000
0.050000 0.000000 0.942500
0.350000 0.000000 0.942500
0.650000 0.000000 0.942500
0.950000 0.000000 0.942500
1.000000 0.000000 0.942500
0.050000 0.262500 0.942500
0.350000 0.262500 0.942500
0.650000 0.262500 0.942500
0.950000 0.262500 0.942500
1.000000 0.262500 0.942500
0.050000 0.525000 0.942500
0.350000 0.525000 0.942500
0.650000 0.525000 0.942500
0.950000 0.525000 0.942500
1.000000 0.525000 0.942500
0.050000 0.787500 0.942500
0.350000 0.787500 0.942500
0.650000 0.787500 0.942500
0.950000 0.787500 0.942500
1.000000 0.787500 0.942500
0.050000 1.000000 0.942500
0.350000 1.000000 0.942500
0.650000 1.000000 0.942500
0.950000 1.000000 0.942500
1.000000 1.000000 0.942500
0.050000 0.000000 1.000000
0.350000 0.000000 1.000000
0.650000 0.000000 1.000000
0.950000 0.000000 1.000000
1.000000 0.000000 1.000000
0.050000 0.262500 1.000000
0.350000 0.262500 1.000000
0.650000 0.262500 1.000000
0.950000 0.262500 1.000000
1.000000 0.262500 1.000000
0.050000 0.525000 1.000000
0.350000 0.525000 1.000000
0.650000 0.525000 1.000000
0.950000 0.525000 1.000000
1.000000 0.525000 1.000000
0.050000 0.787500 1.000000
0.350000 0.787500 1.000000
0.650000 0.787500 1.000000
0.950000 0.787500 1.000000
1.000000 0.787500 1.000000
0.050000 1.000000 1.000000
0.350000 1.000000 1.000000
0.650000 1.000000 1.000000
0.950000 1.000000 1.000000
1.000000 1.000000 1.000000
