app/src/main/assets/luts/sakura_bloom.cube
# ApexStudio filter: sakura_bloom
LUT_3D_SIZE 17
DOMAIN_MIN 0.0 0.0 0.0
DOMAIN_MAX 1.0 1.0 1.0
0.050000 0.000000 0.080000
0.125000 0.000000 0.080000
0.200000 0.000000 0.080000
0.275000 0.000000 0.080000
0.350000 0.000000 0.080000
0.425000 0.000000 0.080000
0.500000 0.000000 0.080000
0.575000 0.000000 0.080000
0.650000 0.000000 0.080000
0.725000 0.000000 0.080000
0.800000 0.000000 0.080000
0.875000 0.000000 0.080000
0.950000 0.000000 0.080000
1.000000 0.000000 0.080000
1.000000 0.000000 0.080000
1.000000 0.000000 0.080000
1.000000 0.000000 0.080000
0.050000 0.065625 0.080000
0.125000 0.065625 0.080000
0.200000 0.065625 0.080000
0.275000 0.065625 0.080000
0.350000 0.065625 0.080000
0.425000 0.065625 0.080000
0.500000 0.065625 0.080000
0.575000 0.065625 0.080000
0.650000 0.065625 0.080000
0.725000 0.065625 0.080000
0.800000 0.065625 0.080000
0.875000 0.065625 0.080000
0.950000 0.065625 0.080000
1.000000 0.065625 0.080000
1.000000 0.065625 0.080000
1.000000 0.065625 0.080000
1.000000 0.065625 0.080000
0.050000 0.131250 0.080000
0.125000 0.131250 0.080000
0.200000 0.131250 0.080000
0.275000 0.131250 0.080000
0.350000 0.131250 0.080000
0.425000 0.131250 0.080000
0.500000 0.131250 0.080000
0.575000 0.131250 0.080000
0.650000 0.131250 0.080000
0.725000 0.131250 0.080000
0.800000 0.131250 0.080000
0.875000 0.131250 0.080000
0.950000 0.131250 0.080000
1.000000 0.131250 0.080000
1.000000 0.131250 0.080000
1.000000 0.131250 0.080000
1.000000 0.131250 0.080000
0.050000 0.196875 0.080000
0.125000 0.196875 0.080000
0.200000 0.196875 0.080000
0.275000 0.196875 0.080000
0.350000 0.196875 0.080000
0.425000 0.196875 0.080000
0.500000 0.196875 0.080000
0.575000 0.196875 0.080000
0.650000 0.196875 0.080000
0.725000 0.196875 0.080000
0.800000 0.196875 0.080000
0.875000 0.196875 0.080000
0.950000 0.196875 0.080000
1.000000 0.196875 0.080000
1.000000 0.196875 0.080000
1.000000 0.196875 0.080000
1.000000 0.196875 0.080000
0.050000 0.262500 0.080000
0.125000 0.262500 0.080000
0.200000 0.262500 0.080000
0.275000 0.262500 0.080000
0.350000 0.262500 0.080000
0.425000 0.262500 0.080000
0.500000 0.262500 0.080000
0.575000 0.262500 0.080000
0.650000 0.262500 0.080000
0.725000 0.262500 0.080000
0.800000 0.262500 0.080000
0.875000 0.262500 0.080000
0.950000 0.262500 0.080000
1.000000 0.262500 0.080000
1.000000 0.262500 0.080000
1.000000 0.262500 0.080000
1.000000 0.262500 0.080000
0.050000 0.328125 0.080000
0.125000 0.328125 0.080000
0.200000 0.328125 0.080000
0.275000 0.328125 0.080000
0.350000 0.328125 0.080000
0.425000 0.328125 0.080000
0.500000 0.328125 0.080000
0.575000 0.328125 0.080000
0.650000 0.328125 0.080000
0.725000 0.328125 0.080000
0.800000 0.328125 0.080000
0.875000 0.328125 0.080000
0.950000 0.328125 0.080000
1.000000 0.328125 0.080000
1.000000 0.328125 0.080000
1.000000 0.328125 0.080000
1.000000 0.328125 0.080000
0.050000 0.393750 0.080000
0.125000 0.393750 0.080000
0.200000 0.393750 0.080000
0.275000 0.393750 0.080000
0.350000 0.393750 0.080000
0.425000 0.393750 0.080000
0.500000 0.393750 0.080000
0.575000 0.393750 0.080000
0.650000 0.393750 0.080000
0.725000 0.393750 0.080000
0.800000 0.393750 0.080000
0.875000 0.393750 0.080000
0.950000 0.393750 0.080000
1.000000 0.393750 0.080000
1.000000 0.393750 0.080000
1.000000 0.393750 0.080000
1.000000 0.393750 0.080000
0.050000 0.459375 0.080000
0.125000 0.459375 0.080000
0.200000 0.459375 0.080000
0.275000 0.459375 0.080000
0.350000 0.459375 0.080000
0.425000 0.459375 0.080000
0.500000 0.459375 0.080000
0.575000 0.459375 0.080000
0.650000 0.459375 0.080000
0.725000 0.459375 0.080000
0.800000 0.459375 0.080000
0.875000 0.459375 0.080000
0.950000 0.459375 0.080000
1.000000 0.459375 0.080000
1.000000 0.459375 0.080000
1.000000 0.459375 0.080000
1.000000 0.459375 0.080000
0.050000 0.525000 0.080000
0.125000 0.525000 0.080000
0.200000 0.525000 0.080000
0.275000 0.525000 0.080000
0.350000 0.525000 0.080000
0.425000 0.525000 0.080000
0.500000 0.525000 0.080000
0.575000 0.525000 0.080000
0.650000 0.525000 0.080000
0.725000 0.525000 0.080000
0.800000 0.525000 0.080000
0.875000 0.525000 0.080000
0.950000 0.525000 0.080000
1.000000 0.525000 0.080000
1.000000 0.525000 0.080000
1.000000 0.525000 0.080000
1.000000 0.525000 0.080000
0.050000 0.590625 0.080000
0.125000 0.590625 0.080000
0.200000 0.590625 0.080000
0.275000 0.590625 0.080000
0.350000 0.590625 0.080000
0.425000 0.590625 0.080000
0.500000 0.590625 0.080000
0.575000 0.590625 0.080000
0.650000 0.590625 0.080000
0.725000 0.590625 0.080000
0.800000 0.590625 0.080000
0.875000 0.590625 0.080000
0.950000 0.590625 0.080000
1.000000 0.590625 0.080000
1.000000 0.590625 0.080000
1.000000 0.590625 0.080000
1.000000 0.590625 0.080000
0.050000 0.656250 0.080000
0.125000 0.656250 0.080000
0.200000 0.656250 0.080000
0.275000 0.656250 0.080000
0.350000 0.656250 0.080000
0.425000 0.656250 0.080000
0.500000 0.656250 0.080000
0.575000 0.656250 0.080000
0.650000 0.656250 0.080000
0.725000 0.656250 0.080000
0.800000 0.656250 0.080000
0.875000 0.656250 0.080000
0.950000 0.656250 0.080000
1.000000 0.656250 0.080000
1.000000 0.656250 0.080000
1.000000 0.656250 0.080000
1.000000 0.656250 0.080000
0.050000 0.721875 0.080000
0.125000 0.721875 0.080000
0.200000 0.721875 0.080000
0.275000 0.721875 0.080000
0.350000 0.721875 0.080000
0.425000 0.721875 0.080000
0.500000 0.721875 0.080000
0.575000 0.721875 0.080000
0.650000 0.721875 0.080000
0.725000 0.721875 0.080000
0.800000 0.721875 0.080000
0.875000 0.721875 0.080000
0.950000 0.721875 0.080000
1.000000 0.721875 0.080000
1.000000 0.721875 0.080000
1.000000 0.721875 0.080000
1.000000 0.721875 0.080000
0.050000 0.787500 0.080000
0.125000 0.787500 0.080000
0.200000 0.787500 0.080000
0.275000 0.787500 0.080000
0.350000 0.787500 0.080000
0.425000 0.787500 0.080000
0.500000 0.787500 0.080000
0.575000 0.787500 0.080000
0.650000 0.787500 0.080000
0.725000 0.787500 0.080000
0.800000 0.787500 0.080000
0.875000 0.787500 0.080000
0.950000 0.787500 0.080000
1.000000 0.787500 0.080000
1.000000 0.787500 0.080000
1.000000 0.787500 0.080000
1.000000 0.787500 0.080000
0.050000 0.853125 0.080000
0.125000 0.853125 0.080000
0.200000 0.853125 0.080000
0.275000 0.853125 0.080000
0.350000 0.853125 0.080000
0.425000 0.853125 0.080000
0.500000 0.853125 0.080000
0.575000 0.853125 0.080000
0.650000 0.853125 0.080000
0.725000 0.853125 0.080000
0.800000 0.853125 0.080000
0.875000 0.853125 0.080000
0.950000 0.853125 0.080000
1.000000 0.853125 0.080000
1.000000 0.853125 0.080000
1.000000 0.853125 0.080000
1.000000 0.853125 0.080000
0.050000 0.918750 0.080000
0.125000 0.918750 0.080000
0.200000 0.918750 0.080000
0.275000 0.918750 0.080000
0.350000 0.918750 0.080000
0.425000 0.918750 0.080000
0.500000 0.918750 0.080000
0.575000 0.918750 0.080000
0.650000 0.918750 0.080000
0.725000 0.918750 0.080000
0.800000 0.918750 0.080000
0.875000 0.918750 0.080000
0.950000 0.918750 0.080000
1.000000 0.918750 0.080000
1.000000 0.918750 0.080000
1.000000 0.918750 0.080000
1.000000 0.918750 0.080000
0.050000 0.984375 0.080000
0.125000 0.984375 0.080000
0.200000 0.984375 0.080000
0.275000 0.984375 0.080000
0.350000 0.984375 0.080000
0.425000 0.984375 0.080000
0.500000 0.984375 0.080000
0.575000 0.984375 0.080000
0.650000 0.984375 0.080000
0.725000 0.984375 0.080000
0.800000 0.984375 0.080000
0.875000 0.984375 0.080000
0.950000 0.984375 0.080000
1.000000 0.984375 0.080000
1.000000 0.984375 0.080000
1.000000 0.984375 0.080000
1.000000 0.984375 0.080000
0.050000 1.000000 0.080000
0.125000 1.000000 0.080000
0.200000 1.000000 0.080000
0.275000 1.000000 0.080000
0.350000 1.000000 0.080000
0.425000 1.000000 0.080000
0.500000 1.000000 0.080000
0.575000 1.000000 0.080000
0.650000 1.000000 0.080000
0.725000 1.000000 0.080000
0.800000 1.000000 0.080000
0.875000 1.000000 0.080000
0.950000 1.000000 0.080000
1.000000 1.000000 0.080000
1.000000 1.000000 0.080000
1.000000 1.000000 0.080000
1.000000 1.000000 0.080000
0.050000 0.000000 0.151875
0.125000 0.000000 0.151875
0.200000 0.000000 0.151875
0.275000 0.000000 0.151875
0.350000 0.000000 0.151875
0.425000 0.000000 0.151875
0.500000 0.000000 0.151875
0.575000 0.000000 0.151875
0.650000 0.000000 0.151875
0.725000 0.000000 0.151875
0.800000 0.000000 0.151875
0.875000 0.000000 0.151875
0.950000 0.000000 0.151875
1.000000 0.000000 0.151875
1.000000 0.000000 0.151875
1.000000 0.000000 0.151875
1.000000 0.000000 0.151875
0.050000 0.065625 0.151875
0.125000 0.065625 0.151875
0.200000 0.065625 0.151875
0.275000 0.065625 0.151875
0.350000 0.065625 0.151875
0.425000 0.065625 0.151875
0.500000 0.065625 0.151875
0.575000 0.065625 0.151875
0.650000 0.065625 0.151875
0.725000 0.065625 0.151875
0.800000 0.065625 0.151875
0.875000 0.065625 0.151875
0.950000 0.065625 0.151875
1.000000 0.065625 0.151875
1.000000 0.065625 0.151875
1.000000 0.065625 0.151875
1.000000 0.065625 0.151875
0.050000 0.131250 0.151875
0.125000 0.131250 0.151875
0.200000 0.131250 0.151875
0.275000 0.131250 0.151875
0.350000 0.131250 0.151875
0.425000 0.131250 0.151875
0.500000 0.131250 0.151875
0.575000 0.131250 0.151875
0.650000 0.131250 0.151875
0.725000 0.131250 0.151875
0.800000 0.131250 0.151875
0.875000 0.131250 0.151875
0.950000 0.131250 0.151875
1.000000 0.131250 0.151875
1.000000 0.131250 0.151875
1.000000 0.131250 0.151875
1.000000 0.131250 0.151875
0.050000 0.196875 0.151875
0.125000 0.196875 0.151875
0.200000 0.196875 0.151875
0.275000 0.196875 0.151875
0.350000 0.196875 0.151875
0.425000 0.196875 0.151875
0.500000 0.196875 0.151875
0.575000 0.196875 0.151875
0.650000 0.196875 0.151875
0.725000 0.196875 0.151875
0.800000 0.196875 0.151875
0.875000 0.196875 0.151875
0.950000 0.196875 0.151875
1.000000 0.196875 0.151875
1.000000 0.196875 0.151875
1.000000 0.196875 0.151875
1.000000 0.196875 0.151875
0.050000 0.262500 0.151875
0.125000 0.262500 0.151875
0.200000 0.262500 0.151875
0.275000 0.262500 0.151875
0.350000 0.262500 0.151875
0.425000 0.262500 0.151875
0.500000 0.262500 0.151875
0.575000 0.262500 0.151875
0.650000 0.262500 0.151875
0.725000 0.262500 0.151875
0.800000 0.262500 0.151875
0.875000 0.262500 0.151875
0.950000 0.262500 0.151875
1.000000 0.262500 0.151875
1.000000 0.262500 0.151875
1.000000 0.262500 0.151875
1.000000 0.262500 0.151875
0.050000 0.328125 0.151875
0.125000 0.328125 0.151875
0.200000 0.328125 0.151875
0.275000 0.328125 0.151875
0.350000 0.328125 0.151875
0.425000 0.328125 0.151875
0.500000 0.328125 0.151875
0.575000 0.328125 0.151875
0.650000 0.328125 0.151875
0.725000 0.328125 0.151875
0.800000 0.328125 0.151875
0.875000 0.328125 0.151875
0.950000 0.328125 0.151875
1.000000 0.328125 0.151875
1.000000 0.328125 0.151875
1.000000 0.328125 0.151875
1.000000 0.328125 0.151875
0.050000 0.393750 0.151875
0.125000 0.393750 0.151875
0.200000 0.393750 0.151875
0.275000 0.393750 0.151875
0.350000 0.393750 0.151875
0.425000 0.393750 0.151875
0.500000 0.393750 0.151875
0.575000 0.393750 0.151875
0.650000 0.393750 0.151875
0.725000 0.393750 0.151875
0.800000 0.393750 0.151875
0.875000 0.393750 0.151875
0.950000 0.393750 0.151875
1.000000 0.393750 0.151875
1.000000 0.393750 0.151875
1.000000 0.393750 0.151875
1.000000 0.393750 0.151875
0.050000 0.459375 0.151875
0.125000 0.459375 0.151875
0.200000 0.459375 0.151875
0.275000 0.459375 0.151875
0.350000 0.459375 0.151875
0.425000 0.459375 0.151875
0.500000 0.459375 0.151875
0.575000 0.459375 0.151875
0.650000 0.459375 0.151875
0.725000 0.459375 0.151875
0.800000 0.459375 0.151875
0.875000 0.459375 0.151875
0.950000 0.459375 0.151875
1.000000 0.459375 0.151875
1.000000 0.459375 0.151875
1.000000 0.459375 0.151875
1.000000 0.459375 0.151875
0.050000 0.525000 0.151875
0.125000 0.525000 0.151875
0.200000 0.525000 0.151875
0.275000 0.525000 0.151875
0.350000 0.525000 0.151875
0.425000 0.525000 0.151875
0.500000 0.525000 0.151875
0.575000 0.525000 0.151875
0.650000 0.525000 0.151875
0.725000 0.525000 0.151875
0.800000 0.525000 0.151875
0.875000 0.525000 0.151875
0.950000 0.525000 0.151875
1.000000 0.525000 0.151875
1.000000 0.525000 0.151875
1.000000 0.525000 0.151875
1.000000 0.525000 0.151875
0.050000 0.590625 0.151875
0.125000 0.590625 0.151875
0.200000 0.590625 0.151875
0.275000 0.590625 0.151875
0.350000 0.590625 0.151875
0.425000 0.590625 0.151875
0.500000 0.590625 0.151875
0.575000 0.590625 0.151875
0.650000 0.590625 0.151875
0.725000 0.590625 0.151875
0.800000 0.590625 0.151875
0.875000 0.590625 0.151875
0.950000 0.590625 0.151875
1.000000 0.590625 0.151875
1.000000 0.590625 0.151875
1.000000 0.590625 0.151875
1.000000 0.590625 0.151875
0.050000 0.656250 0.151875
0.125000 0.656250 0.151875
0.200000 0.656250 0.151875
0.275000 0.656250 0.151875
0.350000 0.656250 0.151875
0.425000 0.656250 0.151875
0.500000 0.656250 0.151875
0.575000 0.656250 0.151875
0.650000 0.656250 0.151875
0.725000 0.656250 0.151875
0.800000 0.656250 0.151875
0.875000 0.656250 0.151875
0.950000 0.656250 0.151875
1.000000 0.656250 0.151875
1.000000 0.656250 0.151875
1.000000 0.656250 0.151875
1.000000 0.656250 0.151875
0.050000 0.721875 0.151875
0.125000 0.721875 0.151875
0.200000 0.721875 0.151875
0.275000 0.721875 0.151875
0.350000 0.721875 0.151875
0.425000 0.721875 0.151875
0.500000 0.721875 0.151875
0.575000 0.721875 0.151875
0.650000 0.721875 0.151875
0.725000 0.721875 0.151875
0.800000 0.721875 0.151875
0.875000 0.721875 0.151875
0.950000 0.721875 0.151875
1.000000 0.721875 0.151875
1.000000 0.721875 0.151875
1.000000 0.721875 0.151875
1.000000 0.721875 0.151875
0.050000 0.787500 0.151875
0.125000 0.787500 0.151875
0.200000 0.787500 0.151875
0.275000 0.787500 0.151875
0.350000 0.787500 0.151875
0.425000 0.787500 0.151875
0.500000 0.787500 0.151875
0.575000 0.787500 0.151875
0.650000 0.787500 0.151875
0.725000 0.787500 0.151875
0.800000 0.787500 0.151875
0.875000 0.787500 0.151875
0.950000 0.787500 0.151875
1.000000 0.787500 0.151875
1.000000 0.787500 0.151875
1.000000 0.787500 0.151875
1.000000 0.787500 0.151875
0.050000 0.853125 0.151875
0.125000 0.853125 0.151875
0.200000 0.853125 0.151875
0.275000 0.853125 0.151875
0.350000 0.853125 0.151875
0.425000 0.853125 0.151875
0.500000 0.853125 0.151875
0.575000 0.853125 0.151875
0.650000 0.853125 0.151875
0.725000 0.853125 0.151875
0.800000 0.853125 0.151875
0.875000 0.853125 0.151875
0.950000 0.853125 0.151875
1.000000 0.853125 0.151875
1.000000 0.853125 0.151875
1.000000 0.853125 0.151875
1.000000 0.853125 0.151875
0.050000 0.918750 0.151875
0.125000 0.918750 0.151875
0.200000 0.918750 0.151875
0.275000 0.918750 0.151875
0.350000 0.918750 0.151875
0.425000 0.918750 0.151875
0.500000 0.918750 0.151875
0.575000 0.918750 0.151875
0.650000 0.918750 0.151875
0.725000 0.918750 0.151875
0.800000 0.918750 0.151875
0.875000 0.918750 0.151875
0.950000 0.918750 0.151875
1.000000 0.918750 0.151875
1.000000 0.918750 0.151875
1.000000 0.918750 0.151875
1.000000 0.918750 0.151875
0.050000 0.984375 0.151875
0.125000 0.984375 0.151875
0.200000 0.984375 0.151875
0.275000 0.984375 0.151875
0.350000 0.984375 0.151875
0.425000 0.984375 0.151875
0.500000 0.984375 0.151875
0.575000 0.984375 0.151875
0.650000 0.984375 0.151875
0.725000 0.984375 0.151875
0.800000 0.984375 0.151875
0.875000 0.984375 0.151875
0.950000 0.984375 0.151875
1.000000 0.984375 0.151875
1.000000 0.984375 0.151875
1.000000 0.984375 0.151875
1.000000 0.984375 0.151875
0.050000 1.000000 0.151875
0.125000 1.000000 0.151875
0.200000 1.000000 0.151875
0.275000 1.000000 0.151875
0.350000 1.000000 0.151875
0.425000 1.000000 0.151875
0.500000 1.000000 0.151875
0.575000 1.000000 0.151875
0.650000 1.000000 0.151875
0.725000 1.000000 0.151875
0.800000 1.000000 0.151875
0.875000 1.000000 0.151875
0.950000 1.000000 0.151875
1.000000 1.000000 0.151875
1.000000 1.000000 0.151875
1.000000 1.000000 0.151875
1.000000 1.000000 0.151875
0.050000 0.000000 0.223750
0.125000 0.000000 0.223750
0.200000 0.000000 0.223750
0.275000 0.000000 0.223750
0.350000 0.000000 0.223750
0.425000 0.000000 0.223750
0.500000 0.000000 0.223750
0.575000 0.000000 0.223750
0.650000 0.000000 0.223750
0.725000 0.000000 0.223750
0.800000 0.000000 0.223750
0.875000 0.000000 0.223750
0.950000 0.000000 0.223750
1.000000 0.000000 0.223750
1.000000 0.000000 0.223750
1.000000 0.000000 0.223750
1.000000 0.000000 0.223750
0.050000 0.065625 0.223750
0.125000 0.065625 0.223750
0.200000 0.065625 0.223750
0.275000 0.065625 0.223750
0.350000 0.065625 0.223750
0.425000 0.065625 0.223750
0.500000 0.065625 0.223750
0.575000 0.065625 0.223750
0.650000 0.065625 0.223750
0.725000 0.065625 0.223750
0.800000 0.065625 0.223750
0.875000 0.065625 0.223750
0.950000 0.065625 0.223750
1.000000 0.065625 0.223750
1.000000 0.065625 0.223750
1.000000 0.065625 0.223750
1.000000 0.065625 0.223750
0.050000 0.131250 0.223750
0.125000 0.131250 0.223750
0.200000 0.131250 0.223750
0.275000 0.131250 0.223750
0.350000 0.131250 0.223750
0.425000 0.131250 0.223750
0.500000 0.131250 0.223750
0.575000 0.131250 0.223750
0.650000 0.131250 0.223750
0.725000 0.131250 0.223750
0.800000 0.131250 0.223750
0.875000 0.131250 0.223750
0.950000 0.131250 0.223750
1.000000 0.131250 0.223750
1.000000 0.131250 0.223750
1.000000 0.131250 0.223750
1.000000 0.131250 0.223750
0.050000 0.196875 0.223750
0.125000 0.196875 0.223750
0.200000 0.196875 0.223750
0.275000 0.196875 0.223750
0.350000 0.196875 0.223750
0.425000 0.196875 0.223750
0.500000 0.196875 0.223750
0.575000 0.196875 0.223750
0.650000 0.196875 0.223750
0.725000 0.196875 0.223750
0.800000 0.196875 0.223750
0.875000 0.196875 0.223750
0.950000 0.196875 0.223750
1.000000 0.196875 0.223750
1.000000 0.196875 0.223750
1.000000 0.196875 0.223750
1.000000 0.196875 0.223750
0.050000 0.262500 0.223750
0.125000 0.262500 0.223750
0.200000 0.262500 0.223750
0.275000 0.262500 0.223750
0.350000 0.262500 0.223750
0.425000 0.262500 0.223750
0.500000 0.262500 0.223750
0.575000 0.262500 0.223750
0.650000 0.262500 0.223750
0.725000 0.262500 0.223750
0.800000 0.262500 0.223750
0.875000 0.262500 0.223750
0.950000 0.262500 0.223750
1.000000 0.262500 0.223750
1.000000 0.262500 0.223750
1.000000 0.262500 0.223750
1.000000 0.262500 0.223750
0.050000 0.328125 0.223750
0.125000 0.328125 0.223750
0.200000 0.328125 0.223750
0.275000 0.328125 0.223750
0.350000 0.328125 0.223750
0.425000 0.328125 0.223750
0.500000 0.328125 0.223750
0.575000 0.328125 0.223750
0.650000 0.328125 0.223750
0.725000 0.328125 0.223750
0.800000 0.328125 0.223750
0.875000 0.328125 0.223750
0.950000 0.328125 0.223750
1.000000 0.328125 0.223750
1.000000 0.328125 0.223750
1.000000 0.328125 0.223750
1.000000 0.328125 0.223750
0.050000 0.393750 0.223750
0.125000 0.393750 0.223750
0.200000 0.393750 0.223750
0.275000 0.393750 0.223750
0.350000 0.393750 0.223750
0.425000 0.393750 0.223750
0.500000 0.393750 0.223750
0.575000 0.393750 0.223750
0.650000 0.393750 0.223750
0.725000 0.393750 0.223750
0.800000 0.393750 0.223750
0.875000 0.393750 0.223750
0.950000 0.393750 0.223750
1.000000 0.393750 0.223750
1.000000 0.393750 0.223750
1.000000 0.393750 0.223750
1.000000 0.393750 0.223750
0.050000 0.459375 0.223750
0.125000 0.459375 0.223750
0.200000 0.459375 0.223750
0.275000 0.459375 0.223750
0.350000 0.459375 0.223750
0.425000 0.459375 0.223750
0.500000 0.459375 0.223750
0.575000 0.459375 0.223750
0.650000 0.459375 0.223750
0.725000 0.459375 0.223750
0.800000 0.459375 0.223750
0.875000 0.459375 0.223750
0.950000 0.459375 0.223750
1.000000 0.459375 0.223750
1.000000 0.459375 0.223750
1.000000 0.459375 0.223750
1.000000 0.459375 0.223750
0.050000 0.525000 0.223750
0.125000 0.525000 0.223750
0.200000 0.525000 0.223750
0.275000 0.525000 0.223750
0.350000 0.525000 0.223750
0.425000 0.525000 0.223750
0.500000 0.525000 0.223750
0.575000 0.525000 0.223750
0.650000 0.525000 0.223750
0.725000 0.525000 0.223750
0.800000 0.525000 0.223750
0.875000 0.525000 0.223750
0.950000 0.525000 0.223750
1.000000 0.525000 0.223750
1.000000 0.525000 0.223750
1.000000 0.525000 0.223750
1.000000 0.525000 0.223750
0.050000 0.590625 0.223750
0.125000 0.590625 0.223750
0.200000 0.590625 0.223750
0.275000 0.590625 0.223750
0.350000 0.590625 0.223750
0.425000 0.590625 0.223750
0.500000 0.590625 0.223750
0.575000 0.590625 0.223750
0.650000 0.590625 0.223750
0.725000 0.590625 0.223750
0.800000 0.590625 0.223750
0.875000 0.590625 0.223750
0.950000 0.590625 0.223750
1.000000 0.590625 0.223750
1.000000 0.590625 0.223750
1.000000 0.590625 0.223750
1.000000 0.590625 0.223750
0.050000 0.656250 0.223750
0.125000 0.656250 0.223750
0.200000 0.656250 0.223750
0.275000 0.656250 0.223750
0.350000 0.656250 0.223750
0.425000 0.656250 0.223750
0.500000 0.656250 0.223750
0.575000 0.656250 0.223750
0.650000 0.656250 0.223750
0.725000 0.656250 0.223750
0.800000 0.656250 0.223750
0.875000 0.656250 0.223750
0.950000 0.656250 0.223750
1.000000 0.656250 0.223750
1.000000 0.656250 0.223750
1.000000 0.656250 0.223750
1.000000 0.656250 0.223750
0.050000 0.721875 0.223750
0.125000 0.721875 0.223750
0.200000 0.721875 0.223750
0.275000 0.721875 0.223750
0.350000 0.721875 0.223750
0.425000 0.721875 0.223750
0.500000 0.721875 0.223750
0.575000 0.721875 0.223750
0.650000 0.721875 0.223750
0.725000 0.721875 0.223750
0.800000 0.721875 0.223750
0.875000 0.721875 0.223750
0.950000 0.721875 0.223750
1.000000 0.721875 0.223750
1.000000 0.721875 0.223750
1.000000 0.721875 0.223750
1.000000 0.721875 0.223750
0.050000 0.787500 0.223750
0.125000 0.787500 0.223750
0.200000 0.787500 0.223750
0.275000 0.787500 0.223750
0.350000 0.787500 0.223750
0.425000 0.787500 0.223750
0.500000 0.787500 0.223750
0.575000 0.787500 0.223750
0.650000 0.787500 0.223750
0.725000 0.787500 0.223750
0.800000 0.787500 0.223750
0.875000 0.787500 0.223750
0.950000 0.787500 0.223750
1.000000 0.787500 0.223750
1.000000 0.787500 0.223750
1.000000 0.787500 0.223750
1.000000 0.787500 0.223750
0.050000 0.853125 0.223750
0.125000 0.853125 0.223750
0.200000 0.853125 0.223750
0.275000 0.853125 0.223750
0.350000 0.853125 0.223750
0.425000 0.853125 0.223750
0.500000 0.853125 0.223750
0.575000 0.853125 0.223750
0.650000 0.853125 0.223750
0.725000 0.853125 0.223750
0.800000 0.853125 0.223750
0.875000 0.853125 0.223750
0.950000 0.853125 0.223750
1.000000 0.853125 0.223750
1.000000 0.853125 0.223750
1.000000 0.853125 0.223750
1.000000 0.853125 0.223750
0.050000 0.918750 0.223750
0.125000 0.918750 0.223750
0.200000 0.918750 0.223750
0.275000 0.918750 0.223750
0.350000 0.918750 0.223750
0.425000 0.918750 0.223750
0.500000 0.918750 0.223750
0.575000 0.918750 0.223750
0.650000 0.918750 0.223750
0.725000 0.918750 0.223750
0.800000 0.918750 0.223750
0.875000 0.918750 0.223750
0.950000 0.918750 0.223750
1.000000 0.918750 0.223750
1.000000 0.918750 0.223750
1.000000 0.918750 0.223750
1.000000 0.918750 0.223750
0.050000 0.984375 0.223750
0.125000 0.984375 0.223750
0.200000 0.984375 0.223750
0.275000 0.984375 0.223750
0.350000 0.984375 0.223750
0.425000 0.984375 0.223750
0.500000 0.984375 0.223750
0.575000 0.984375 0.223750
0.650000 0.984375 0.223750
0.725000 0.984375 0.223750
0.800000 0.984375 0.223750
0.875000 0.984375 0.223750
0.950000 0.984375 0.223750
1.000000 0.984375 0.223750
1.000000 0.984375 0.223750
1.000000 0.984375 0.223750
1.000000 0.984375 0.223750
0.050000 1.000000 0.223750
0.125000 1.000000 0.223750
0.200000 1.000000 0.223750
0.275000 1.000000 0.223750
0.350000 1.000000 0.223750
0.425000 1.000000 0.223750
0.500000 1.000000 0.223750
0.575000 1.000000 0.223750
0.650000 1.000000 0.223750
0.725000 1.000000 0.223750
0.800000 1.000000 0.223750
0.875000 1.000000 0.223750
0.950000 1.000000 0.223750
1.000000 1.000000 0.223750
1.000000 1.000000 0.223750
1.000000 1.000000 0.223750
1.000000 1.000000 0.223750
0.050000 0.000000 0.295625
0.125000 0.000000 0.295625
0.200000 0.000000 0.295625
0.275000 0.000000 0.295625
0.350000 0.000000 0.295625
0.425000 0.000000 0.295625
0.500000 0.000000 0.295625
0.575000 0.000000 0.295625
0.650000 0.000000 0.295625
0.725000 0.000000 0.295625
0.800000 0.000000 0.295625
0.875000 0.000000 0.295625
0.950000 0.000000 0.295625
1.000000 0.000000 0.295625
1.000000 0.000000 0.295625
1.000000 0.000000 0.295625
1.000000 0.000000 0.295625
0.050000 0.065625 0.295625
