app/src/main/assets/luts/scandi_clean.cube
# ApexStudio filter: scandi_clean
LUT_3D_SIZE 5
DOMAIN_MIN 0.0 0.0 0.0
DOMAIN_MAX 1.0 1.0 1.0
0.060000 0.060000 0.080000
0.322500 0.060000 0.080000
0.585000 0.060000 0.080000
0.847500 0.060000 0.080000
1.000000 0.060000 0.080000
0.060000 0.322500 0.080000
0.322500 0.322500 0.080000
0.585000 0.322500 0.080000
0.847500 0.322500 0.080000
1.000000 0.322500 0.080000
0.060000 0.585000 0.080000
0.322500 0.585000 0.080000
0.585000 0.585000 0.080000
0.847500 0.585000 0.080000
1.000000 0.585000 0.080000
0.060000 0.847500 0.080000
0.322500 0.847500 0.080000
0.585000 0.847500 0.080000
0.847500 0.847500 0.080000
1.000000 0.847500 0.080000
0.060000 1.000000 0.080000
0.322500 1.000000 0.080000
0.585000 1.000000 0.080000
0.847500 1.000000 0.080000
1.000000 1.000000 0.080000
0.060000 0.060000 0.355000
0.322500 0.060000 0.355000
0.585000 0.060000 0.355000
0.847500 0.060000 0.355000
1.000000 0.060000 0.355000
0.060000 0.322500 0.355000
0.322500 0.322500 0.355000
0.585000 0.322500 0.355000
0.847500 0.322500 0.355000
1.000000 0.322500 0.355000
0.060000 0.585000 0.355000
0.322500 0.585000 0.355000
0.585000 0.585000 0.355000
0.847500 0.585000 0.355000
1.000000 0.585000 0.355000
0.060000 0.847500 0.355000
0.322500 0.847500 0.355000
0.585000 0.847500 0.355000
0.847500 0.847500 0.355000
1.000000 0.847500 0.355000
0.060000 1.000000 0.355000
0.322500 1.000000 0.355000
0.585000 1.000000 0.355000
0.847500 1.000000 0.355000
1.000000 1.000000 0.355000
0.060000 0.060000 0.630000
0.322500 0.060000 0.630000
0.585000 0.060000 0.630000
0.847500 0.060000 0.630000
1.000000 0.060000 0.630000
0.060000 0.322500 0.630000
0.322500 0.322500 0.630000
0.585000 0.322500 0.630000
0.847500 0.322500 0.630000
1.000000 0.322500 0.630000
0.060000 0.585000 0.630000
0.322500 0.585000 0.630000
0.585000 0.585000 0.630000
0.847500 0.585000 0.630000
1.000000 0.585000 0.630000
0.060000 0.847500 0.630000
0.322500 0.847500 0.630000
0.585000 0.847500 0.630000
0.847500 0.847500 0.630000
1.000000 0.847500 0.630000
0.060000 1.000000 0.630000
0.322500 1.000000 0.630000
0.585000 1.000000 0.630000
0.847500 1.000000 0.630000
1.000000 1.000000 0.630000
0.060000 0.060000 0.905000
0.322500 0.060000 0.905000
0.585000 0.060000 0.905000
0.847500 0.060000 0.905000
1.000000 0.060000 0.905000
0.060000 0.322500 0.905000
0.322500 0.322500 0.905000
0.585000 0.322500 0.905000
0.847500 0.322500 0.905000
1.000000 0.322500 0.905000
0.060000 0.585000 0.905000
0.322500 0.585000 0.905000
0.585000 0.585000 0.905000
0.847500 0.585000 0.905000
1.000000 0.585000 0.905000
0.060000 0.847500 0.905000
0.322500 0.847500 0.905000
0.585000 0.847500 0.905000
0.847500 0.847500 0.905000
1.000000 0.847500 0.905000
0.060000 1.000000 0.905000
0.322500 1.000000 0.905000
0.585000 1.000000 0.905000
0.847500 1.000000 0.905000
1.000000 1.000000 0.905000
0.060000 0.060000 1.000000
0.322500 0.060000 1.000000
0.585000 0.060000 1.000000
0.847500 0.060000 1.000000
1.000000 0.060000 1.000000
0.060000 0.322500 1.000000
0.322500 0.322500 1.000000
0.585000 0.322500 1.000000
0.847500 0.322500 1.000000
1.000000 0.322500 1.000000
0.060000 0.585000 1.000000
0.322500 0.585000 1.000000
0.585000 0.585000 1.000000
0.847500 0.585000 1.000000
1.000000 0.585000 1.000000
0.060000 0.847500 1.000000
0.322500 0.847500 1.000000
0.585000 0.847500 1.000000
0.847500 0.847500 1.000000
1.000000 0.847500 1.000000
0.060000 1.000000 1.000000
0.322500 1.000000 1.000000
0.585000 1.000000 1.000000
0.847500 1.000000 1.000000
1.000000 1.000000 1.000000
