app/src/main/assets/luts/scandi_clean.cube
# ApexStudio filter: scandi_clean
LUT_3D_SIZE 17
DOMAIN_MIN 0.0 0.0 0.0
DOMAIN_MAX 1.0 1.0 1.0
0.060000 0.060000 0.080000
0.125625 0.060000 0.080000
0.191250 0.060000 0.080000
0.256875 0.060000 0.080000
0.322500 0.060000 0.080000
0.388125 0.060000 0.080000
0.453750 0.060000 0.080000
0.519375 0.060000 0.080000
0.585000 0.060000 0.080000
0.650625 0.060000 0.080000
0.716250 0.060000 0.080000
0.781875 0.060000 0.080000
0.847500 0.060000 0.080000
0.913125 0.060000 0.080000
0.978750 0.060000 0.080000
1.000000 0.060000 0.080000
1.000000 0.060000 0.080000
0.060000 0.125625 0.080000
0.125625 0.125625 0.080000
0.191250 0.125625 0.080000
0.256875 0.125625 0.080000
0.322500 0.125625 0.080000
0.388125 0.125625 0.080000
0.453750 0.125625 0.080000
0.519375 0.125625 0.080000
0.585000 0.125625 0.080000
0.650625 0.125625 0.080000
0.716250 0.125625 0.080000
0.781875 0.125625 0.080000
0.847500 0.125625 0.080000
0.913125 0.125625 0.080000
0.978750 0.125625 0.080000
1.000000 0.125625 0.080000
1.000000 0.125625 0.080000
0.060000 0.191250 0.080000
0.125625 0.191250 0.080000
0.191250 0.191250 0.080000
0.256875 0.191250 0.080000
0.322500 0.191250 0.080000
0.388125 0.191250 0.080000
0.453750 0.191250 0.080000
0.519375 0.191250 0.080000
0.585000 0.191250 0.080000
0.650625 0.191250 0.080000
0.716250 0.191250 0.080000
0.781875 0.191250 0.080000
0.847500 0.191250 0.080000
0.913125 0.191250 0.080000
0.978750 0.191250 0.080000
1.000000 0.191250 0.080000
1.000000 0.191250 0.080000
0.060000 0.256875 0.080000
0.125625 0.256875 0.080000
0.191250 0.256875 0.080000
0.256875 0.256875 0.080000
0.322500 0.256875 0.080000
0.388125 0.256875 0.080000
0.453750 0.256875 0.080000
0.519375 0.256875 0.080000
0.585000 0.256875 0.080000
0.650625 0.256875 0.080000
0.716250 0.256875 0.080000
0.781875 0.256875 0.080000
0.847500 0.256875 0.080000
0.913125 0.256875 0.080000
0.978750 0.256875 0.080000
1.000000 0.256875 0.080000
1.000000 0.256875 0.080000
0.060000 0.322500 0.080000
0.125625 0.322500 0.080000
0.191250 0.322500 0.080000
0.256875 0.322500 0.080000
0.322500 0.322500 0.080000
0.388125 0.322500 0.080000
0.453750 0.322500 0.080000
0.519375 0.322500 0.080000
0.585000 0.322500 0.080000
0.650625 0.322500 0.080000
0.716250 0.322500 0.080000
0.781875 0.322500 0.080000
0.847500 0.322500 0.080000
0.913125 0.322500 0.080000
0.978750 0.322500 0.080000
1.000000 0.322500 0.080000
1.000000 0.322500 0.080000
0.060000 0.388125 0.080000
0.125625 0.388125 0.080000
0.191250 0.388125 0.080000
0.256875 0.388125 0.080000
0.322500 0.388125 0.080000
0.388125 0.388125 0.080000
0.453750 0.388125 0.080000
0.519375 0.388125 0.080000
0.585000 0.388125 0.080000
0.650625 0.388125 0.080000
0.716250 0.388125 0.080000
0.781875 0.388125 0.080000
0.847500 0.388125 0.080000
0.913125 0.388125 0.080000
0.978750 0.388125 0.080000
1.000000 0.388125 0.080000
1.000000 0.388125 0.080000
0.060000 0.453750 0.080000
0.125625 0.453750 0.080000
0.191250 0.453750 0.080000
0.256875 0.453750 0.080000
0.322500 0.453750 0.080000
0.388125 0.453750 0.080000
0.453750 0.453750 0.080000
0.519375 0.453750 0.080000
0.585000 0.453750 0.080000
0.650625 0.453750 0.080000
0.716250 0.453750 0.080000
0.781875 0.453750 0.080000
0.847500 0.453750 0.080000
0.913125 0.453750 0.080000
0.978750 0.453750 0.080000
1.000000 0.453750 0.080000
1.000000 0.453750 0.080000
0.060000 0.519375 0.080000
0.125625 0.519375 0.080000
0.191250 0.519375 0.080000
0.256875 0.519375 0.080000
0.322500 0.519375 0.080000
0.388125 0.519375 0.080000
0.453750 0.519375 0.080000
0.519375 0.519375 0.080000
0.585000 0.519375 0.080000
0.650625 0.519375 0.080000
0.716250 0.519375 0.080000
0.781875 0.519375 0.080000
0.847500 0.519375 0.080000
0.913125 0.519375 0.080000
0.978750 0.519375 0.080000
1.000000 0.519375 0.080000
1.000000 0.519375 0.080000
0.060000 0.585000 0.080000
0.125625 0.585000 0.080000
0.191250 0.585000 0.080000
0.256875 0.585000 0.080000
0.322500 0.585000 0.080000
0.388125 0.585000 0.080000
0.453750 0.585000 0.080000
0.519375 0.585000 0.080000
0.585000 0.585000 0.080000
0.650625 0.585000 0.080000
0.716250 0.585000 0.080000
0.781875 0.585000 0.080000
0.847500 0.585000 0.080000
0.913125 0.585000 0.080000
0.978750 0.585000 0.080000
1.000000 0.585000 0.080000
1.000000 0.585000 0.080000
0.060000 0.650625 0.080000
0.125625 0.650625 0.080000
0.191250 0.650625 0.080000
0.256875 0.650625 0.080000
0.322500 0.650625 0.080000
0.388125 0.650625 0.080000
0.453750 0.650625 0.080000
0.519375 0.650625 0.080000
0.585000 0.650625 0.080000
0.650625 0.650625 0.080000
0.716250 0.650625 0.080000
0.781875 0.650625 0.080000
0.847500 0.650625 0.080000
0.913125 0.650625 0.080000
0.978750 0.650625 0.080000
1.000000 0.650625 0.080000
1.000000 0.650625 0.080000
0.060000 0.716250 0.080000
0.125625 0.716250 0.080000
0.191250 0.716250 0.080000
0.256875 0.716250 0.080000
0.322500 0.716250 0.080000
0.388125 0.716250 0.080000
0.453750 0.716250 0.080000
0.519375 0.716250 0.080000
0.585000 0.716250 0.080000
0.650625 0.716250 0.080000
0.716250 0.716250 0.080000
0.781875 0.716250 0.080000
0.847500 0.716250 0.080000
0.913125 0.716250 0.080000
0.978750 0.716250 0.080000
1.000000 0.716250 0.080000
1.000000 0.716250 0.080000
0.060000 0.781875 0.080000
0.125625 0.781875 0.080000
0.191250 0.781875 0.080000
0.256875 0.781875 0.080000
0.322500 0.781875 0.080000
0.388125 0.781875 0.080000
0.453750 0.781875 0.080000
0.519375 0.781875 0.080000
0.585000 0.781875 0.080000
0.650625 0.781875 0.080000
0.716250 0.781875 0.080000
0.781875 0.781875 0.080000
0.847500 0.781875 0.080000
0.913125 0.781875 0.080000
0.978750 0.781875 0.080000
1.000000 0.781875 0.080000
1.000000 0.781875 0.080000
0.060000 0.847500 0.080000
0.125625 0.847500 0.080000
0.191250 0.847500 0.080000
0.256875 0.847500 0.080000
0.322500 0.847500 0.080000
0.388125 0.847500 0.080000
0.453750 0.847500 0.080000
0.519375 0.847500 0.080000
0.585000 0.847500 0.080000
0.650625 0.847500 0.080000
0.716250 0.847500 0.080000
0.781875 0.847500 0.080000
0.847500 0.847500 0.080000
0.913125 0.847500 0.080000
0.978750 0.847500 0.080000
1.000000 0.847500 0.080000
1.000000 0.847500 0.080000
0.060000 0.913125 0.080000
0.125625 0.913125 0.080000
0.191250 0.913125 0.080000
0.256875 0.913125 0.080000
0.322500 0.913125 0.080000
0.388125 0.913125 0.080000
0.453750 0.913125 0.080000
0.519375 0.913125 0.080000
0.585000 0.913125 0.080000
0.650625 0.913125 0.080000
0.716250 0.913125 0.080000
0.781875 0.913125 0.080000
0.847500 0.913125 0.080000
0.913125 0.913125 0.080000
0.978750 0.913125 0.080000
1.000000 0.913125 0.080000
1.000000 0.913125 0.080000
0.060000 0.978750 0.080000
0.125625 0.978750 0.080000
0.191250 0.978750 0.080000
0.256875 0.978750 0.080000
0.322500 0.978750 0.080000
0.388125 0.978750 0.080000
0.453750 0.978750 0.080000
0.519375 0.978750 0.080000
0.585000 0.978750 0.080000
0.650625 0.978750 0.080000
0.716250 0.978750 0.080000
0.781875 0.978750 0.080000
0.847500 0.978750 0.080000
0.913125 0.978750 0.080000
0.978750 0.978750 0.080000
1.000000 0.978750 0.080000
1.000000 0.978750 0.080000
0.060000 1.000000 0.080000
0.125625 1.000000 0.080000
0.191250 1.000000 0.080000
0.256875 1.000000 0.080000
0.322500 1.000000 0.080000
0.388125 1.000000 0.080000
0.453750 1.000000 0.080000
0.519375 1.000000 0.080000
0.585000 1.000000 0.080000
0.650625 1.000000 0.080000
0.716250 1.000000 0.080000
0.781875 1.000000 0.080000
0.847500 1.000000 0.080000
0.913125 1.000000 0.080000
0.978750 1.000000 0.080000
1.000000 1.000000 0.080000
1.000000 1.000000 0.080000
0.060000 1.000000 0.080000
0.125625 1.000000 0.080000
0.191250 1.000000 0.080000
0.256875 1.000000 0.080000
0.322500 1.000000 0.080000
0.388125 1.000000 0.080000
0.453750 1.000000 0.080000
0.519375 1.000000 0.080000
0.585000 1.000000 0.080000
0.650625 1.000000 0.080000
0.716250 1.000000 0.080000
0.781875 1.000000 0.080000
0.847500 1.000000 0.080000
0.913125 1.000000 0.080000
0.978750 1.000000 0.080000
1.000000 1.000000 0.080000
1.000000 1.000000 0.080000
0.060000 0.060000 0.148750
0.125625 0.060000 0.148750
0.191250 0.060000 0.148750
0.256875 0.060000 0.148750
0.322500 0.060000 0.148750
0.388125 0.060000 0.148750
0.453750 0.060000 0.148750
0.519375 0.060000 0.148750
0.585000 0.060000 0.148750
0.650625 0.060000 0.148750
0.716250 0.060000 0.148750
0.781875 0.060000 0.148750
0.847500 0.060000 0.148750
0.913125 0.060000 0.148750
0.978750 0.060000 0.148750
1.000000 0.060000 0.148750
1.000000 0.060000 0.148750
0.060000 0.125625 0.148750
0.125625 0.125625 0.148750
0.191250 0.125625 0.148750
0.256875 0.125625 0.148750
0.322500 0.125625 0.148750
0.388125 0.125625 0.148750
0.453750 0.125625 0.148750
0.519375 0.125625 0.148750
0.585000 0.125625 0.148750
0.650625 0.125625 0.148750
0.716250 0.125625 0.148750
0.781875 0.125625 0.148750
0.847500 0.125625 0.148750
0.913125 0.125625 0.148750
0.978750 0.125625 0.148750
1.000000 0.125625 0.148750
1.000000 0.125625 0.148750
0.060000 0.191250 0.148750
0.125625 0.191250 0.148750
0.191250 0.191250 0.148750
0.256875 0.191250 0.148750
0.322500 0.191250 0.148750
0.388125 0.191250 0.148750
0.453750 0.191250 0.148750
0.519375 0.191250 0.148750
0.585000 0.191250 0.148750
0.650625 0.191250 0.148750
0.716250 0.191250 0.148750
0.781875 0.191250 0.148750
0.847500 0.191250 0.148750
0.913125 0.191250 0.148750
0.978750 0.191250 0.148750
1.000000 0.191250 0.148750
1.000000 0.191250 0.148750
0.060000 0.256875 0.148750
0.125625 0.256875 0.148750
0.191250 0.256875 0.148750
0.256875 0.256875 0.148750
0.322500 0.256875 0.148750
0.388125 0.256875 0.148750
0.453750 0.256875 0.148750
0.519375 0.256875 0.148750
0.585000 0.256875 0.148750
0.650625 0.256875 0.148750
0.716250 0.256875 0.148750
0.781875 0.256875 0.148750
0.847500 0.256875 0.148750
0.913125 0.256875 0.148750
0.978750 0.256875 0.148750
1.000000 0.256875 0.148750
1.000000 0.256875 0.148750
0.060000 0.322500 0.148750
0.125625 0.322500 0.148750
0.191250 0.322500 0.148750
0.256875 0.322500 0.148750
0.322500 0.322500 0.148750
0.388125 0.322500 0.148750
0.453750 0.322500 0.148750
0.519375 0.322500 0.148750
0.585000 0.322500 0.148750
0.650625 0.322500 0.148750
0.716250 0.322500 0.148750
0.781875 0.322500 0.148750
0.847500 0.322500 0.148750
0.913125 0.322500 0.148750
0.978750 0.322500 0.148750
1.000000 0.322500 0.148750
1.000000 0.322500 0.148750
0.060000 0.388125 0.148750
0.125625 0.388125 0.148750
0.191250 0.388125 0.148750
0.256875 0.388125 0.148750
0.322500 0.388125 0.148750
0.388125 0.388125 0.148750
0.453750 0.388125 0.148750
0.519375 0.388125 0.148750
0.585000 0.388125 0.148750
0.650625 0.388125 0.148750
0.716250 0.388125 0.148750
0.781875 0.388125 0.148750
0.847500 0.388125 0.148750
0.913125 0.388125 0.148750
0.978750 0.388125 0.148750
1.000000 0.388125 0.148750
1.000000 0.388125 0.148750
0.060000 0.453750 0.148750
0.125625 0.453750 0.148750
0.191250 0.453750 0.148750
0.256875 0.453750 0.148750
0.322500 0.453750 0.148750
0.388125 0.453750 0.148750
0.453750 0.453750 0.148750
0.519375 0.453750 0.148750
0.585000 0.453750 0.148750
0.650625 0.453750 0.148750
0.716250 0.453750 0.148750
0.781875 0.453750 0.148750
0.847500 0.453750 0.148750
0.913125 0.453750 0.148750
0.978750 0.453750 0.148750
1.000000 0.453750 0.148750
1.000000 0.453750 0.148750
0.060000 0.519375 0.148750
0.125625 0.519375 0.148750
0.191250 0.519375 0.148750
0.256875 0.519375 0.148750
0.322500 0.519375 0.148750
0.388125 0.519375 0.148750
0.453750 0.519375 0.148750
0.519375 0.519375 0.148750
0.585000 0.519375 0.148750
0.650625 0.519375 0.148750
0.716250 0.519375 0.148750
0.781875 0.519375 0.148750
0.847500 0.519375 0.148750
0.913125 0.519375 0.148750
0.978750 0.519375 0.148750
1.000000 0.519375 0.148750
1.000000 0.519375 0.148750
0.060000 0.585000 0.148750
0.125625 0.585000 0.148750
0.191250 0.585000 0.148750
0.256875 0.585000 0.148750
0.322500 0.585000 0.148750
0.388125 0.585000 0.148750
0.453750 0.585000 0.148750
0.519375 0.585000 0.148750
0.585000 0.585000 0.148750
0.650625 0.585000 0.148750
0.716250 0.585000 0.148750
0.781875 0.585000 0.148750
0.847500 0.585000 0.148750
0.913125 0.585000 0.148750
0.978750 0.585000 0.148750
1.000000 0.585000 0.148750
1.000000 0.585000 0.148750
0.060000 0.650625 0.148750
0.125625 0.650625 0.148750
0.191250 0.650625 0.148750
0.256875 0.650625 0.148750
0.322500 0.650625 0.148750
0.388125 0.650625 0.148750
0.453750 0.650625 0.148750
0.519375 0.650625 0.148750
0.585000 0.650625 0.148750
0.650625 0.650625 0.148750
0.716250 0.650625 0.148750
0.781875 0.650625 0.148750
0.847500 0.650625 0.148750
0.913125 0.650625 0.148750
0.978750 0.650625 0.148750
1.000000 0.650625 0.148750
1.000000 0.650625 0.148750
0.060000 0.716250 0.148750
0.125625 0.716250 0.148750
0.191250 0.716250 0.148750
0.256875 0.716250 0.148750
0.322500 0.716250 0.148750
0.388125 0.716250 0.148750
0.453750 0.716250 0.148750
0.519375 0.716250 0.148750
0.585000 0.716250 0.148750
0.650625 0.716250 0.148750
0.716250 0.716250 0.148750
0.781875 0.716250 0.148750
0.847500 0.716250 0.148750
0.913125 0.716250 0.148750
0.978750 0.716250 0.148750
1.000000 0.716250 0.148750
1.000000 0.716250 0.148750
0.060000 0.781875 0.148750
0.125625 0.781875 0.148750
0.191250 0.781875 0.148750
0.256875 0.781875 0.148750
0.322500 0.781875 0.148750
0.388125 0.781875 0.148750
0.453750 0.781875 0.148750
0.519375 0.781875 0.148750
0.585000 0.781875 0.148750
0.650625 0.781875 0.148750
0.716250 0.781875 0.148750
0.781875 0.781875 0.148750
0.847500 0.781875 0.148750
0.913125 0.781875 0.148750
0.978750 0.781875 0.148750
1.000000 0.781875 0.148750
1.000000 0.781875 0.148750
0.060000 0.847500 0.148750
0.125625 0.847500 0.148750
0.191250 0.847500 0.148750
0.256875 0.847500 0.148750
0.322500 0.847500 0.148750
0.388125 0.847500 0.148750
0.453750 0.847500 0.148750
0.519375 0.847500 0.148750
0.585000 0.847500 0.148750
0.650625 0.847500 0.148750
0.716250 0.847500 0.148750
0.781875 0.847500 0.148750
0.847500 0.847500 0.148750
0.913125 0.847500 0.148750
0.978750 0.847500 0.148750
1.000000 0.847500 0.148750
1.000000 0.847500 0.148750
0.060000 0.913125 0.148750
0.125625 0.913125 0.148750
0.191250 0.913125 0.148750
0.256875 0.913125 0.148750
0.322500 0.913125 0.148750
0.388125 0.913125 0.148750
0.453750 0.913125 0.148750
0.519375 0.913125 0.148750
0.585000 0.913125 0.148750
0.650625 0.913125 0.148750
0.716250 0.913125 0.148750
0.781875 0.913125 0.148750
0.847500 0.913125 0.148750
0.913125 0.913125 0.148750
0.978750 0.913125 0.148750
1.000000 0.913125 0.148750
1.000000 0.913125 0.148750
0.060000 0.978750 0.148750
0.125625 0.978750 0.148750
0.191250 0.978750 0.148750
0.256875 0.978750 0.148750
0.322500 0.978750 0.148750
0.388125 0.978750 0.148750
0.453750 0.978750 0.148750
0.519375 0.978750 0.148750
0.585000 0.978750 0.148750
0.650625 0.978750 0.148750
0.716250 0.978750 0.148750
0.781875 0.978750 0.148750
0.847500 0.978750 0.148750
0.913125 0.978750 0.148750
0.978750 0.978750 0.148750
1.000000 0.978750 0.148750
1.000000 0.978750 0.148750
0.060000 1.000000 0.148750
0.125625 1.000000 0.148750
0.191250 1.000000 0.148750
0.256875 1.000000 0.148750
0.322500 1.000000 0.148750
0.388125 1.000000 0.148750
0.453750 1.000000 0.148750
0.519375 1.000000 0.148750
0.585000 1.000000 0.148750
0.650625 1.000000 0.148750
0.716250 1.000000 0.148750
0.781875 1.000000 0.148750
0.847500 1.000000 0.148750
0.913125 1.000000 0.148750
0.978750 1.000000 0.148750
1.000000 1.000000 0.148750
1.000000 1.000000 0.148750
0.060000 1.000000 0.148750
0.125625 1.000000 0.148750
0.191250 1.000000 0.148750
0.256875 1.000000 0.148750
0.322500 1.000000 0.148750
0.388125 1.000000 0.148750
0.453750 1.000000 0.148750
0.519375 1.000000 0.148750
0.585000 1.000000 0.148750
0.650625 1.000000 0.148750
0.716250 1.000000 0.148750
0.781875 1.000000 0.148750
0.847500 1.000000 0.148750
0.913125 1.000000 0.148750
0.978750 1.000000 0.148750
1.000000 1.000000 0.148750
1.000000 1.000000 0.148750
0.060000 0.060000 0.217500
0.125625 0.060000 0.217500
0.191250 0.060000 0.217500
0.256875 0.060000 0.217500
0.322500 0.060000 0.217500
0.388125 0.060000 0.217500
0.453750 0.060000 0.217500
0.519375 0.060000 0.217500
0.585000 0.060000 0.217500
0.650625 0.060000 0.217500
0.716250 0.060000 0.217500
0.781875 0.060000 0.217500
0.847500 0.060000 0.217500
0.913125 0.060000 0.217500
0.978750 0.060000 0.217500
1.000000 0.060000 0.217500
1.000000 0.060000 0.217500
0.060000 0.125625 0.217500
0.125625 0.125625 0.217500
0.191250 0.125625 0.217500
0.256875 0.125625 0.217500
0.322500 0.125625 0.217500
0.388125 0.125625 0.217500
0.453750 0.125625 0.217500
0.519375 0.125625 0.217500
0.585000 0.125625 0.217500
0.650625 0.125625 0.217500
0.716250 0.125625 0.217500
0.781875 0.125625 0.217500
0.847500 0.125625 0.217500
0.913125 0.125625 0.217500
0.978750 0.125625 0.217500
1.000000 0.125625 0.217500
1.000000 0.125625 0.217500
0.060000 0.191250 0.217500
0.125625 0.191250 0.217500
0.191250 0.191250 0.217500
0.256875 0.191250 0.217500
0.322500 0.191250 0.217500
0.388125 0.191250 0.217500
0.453750 0.191250 0.217500
0.519375 0.191250 0.217500
0.585000 0.191250 0.217500
0.650625 0.191250 0.217500
0.716250 0.191250 0.217500
0.781875 0.191250 0.217500
0.847500 0.191250 0.217500
0.913125 0.191250 0.217500
0.978750 0.191250 0.217500
1.000000 0.191250 0.217500
1.000000 0.191250 0.217500
0.060000 0.256875 0.217500
0.125625 0.256875 0.217500
0.191250 0.256875 0.217500
0.256875 0.256875 0.217500
0.322500 0.256875 0.217500
0.388125 0.256875 0.217500
0.453750 0.256875 0.217500
0.519375 0.256875 0.217500
0.585000 0.256875 0.217500
0.650625 0.256875 0.217500
0.716250 0.256875 0.217500
0.781875 0.256875 0.217500
0.847500 0.256875 0.217500
0.913125 0.256875 0.217500
0.978750 0.256875 0.217500
1.000000 0.256875 0.217500
1.000000 0.256875 0.217500
0.060000 0.322500 0.217500
0.125625 0.322500 0.217500
0.191250 0.322500 0.217500
0.256875 0.322500 0.217500
0.322500 0.322500 0.217500
0.388125 0.322500 0.217500
0.453750 0.322500 0.217500
0.519375 0.322500 0.217500
0.585000 0.322500 0.217500
0.650625 0.322500 0.217500
0.716250 0.322500 0.217500
0.781875 0.322500 0.217500
0.847500 0.322500 0.217500
0.913125 0.322500 0.217500
0.978750 0.322500 0.217500
1.000000 0.322500 0.217500
1.000000 0.322500 0.217500
0.060000 0.388125 0.217500
0.125625 0.388125 0.217500
0.191250 0.388125 0.217500
0.256875 0.388125 0.217500
0.322500 0.388125 0.217500
0.388125 0.388125 0.217500
0.453750 0.388125 0.217500
0.519375 0.388125 0.217500
0.585000 0.388125 0.217500
0.650625 0.388125 0.217500
0.716250 0.388125 0.217500
0.781875 0.388125 0.217500
0.847500 0.388125 0.217500
0.913125 0.388125 0.217500
0.978750 0.388125 0.217500
1.000000 0.388125 0.217500
1.000000 0.388125 0.217500
0.060000 0.453750 0.217500
0.125625 0.453750 0.217500
0.191250 0.453750 0.217500
0.256875 0.453750 0.217500
0.322500 0.453750 0.217500
0.388125 0.453750 0.217500
0.453750 0.453750 0.217500
0.519375 0.453750 0.217500
0.585000 0.453750 0.217500
0.650625 0.453750 0.217500
0.716250 0.453750 0.217500
0.781875 0.453750 0.217500
0.847500 0.453750 0.217500
0.913125 0.453750 0.217500
0.978750 0.453750 0.217500
1.000000 0.453750 0.217500
1.000000 0.453750 0.217500
0.060000 0.519375 0.217500
0.125625 0.519375 0.217500
0.191250 0.519375 0.217500
0.256875 0.519375 0.217500
0.322500 0.519375 0.217500
0.388125 0.519375 0.217500
0.453750 0.519375 0.217500
0.519375 0.519375 0.217500
0.585000 0.519375 0.217500
0.650625 0.519375 0.217500
0.716250 0.519375 0.217500
0.781875 0.519375 0.217500
0.847500 0.519375 0.217500
0.913125 0.519375 0.217500
0.978750 0.519375 0.217500
1.000000 0.519375 0.217500
1.000000 0.519375 0.217500
0.060000 0.585000 0.217500
0.125625 0.585000 0.217500
0.191250 0.585000 0.217500
0.256875 0.585000 0.217500
0.322500 0.585000 0.217500
0.388125 0.585000 0.217500
0.453750 0.585000 0.217500
0.519375 0.585000 0.217500
0.585000 0.585000 0.217500
0.650625 0.585000 0.217500
0.716250 0.585000 0.217500
0.781875 0.585000 0.217500
0.847500 0.585000 0.217500
0.913125 0.585000 0.217500
0.978750 0.585000 0.217500
1.000000 0.585000 0.217500
1.000000 0.585000 0.217500
0.060000 0.650625 0.217500
0.125625 0.650625 0.217500
0.191250 0.650625 0.217500
0.256875 0.650625 0.217500
0.322500 0.650625 0.217500
0.388125 0.650625 0.217500
0.453750 0.650625 0.217500
0.519375 0.650625 0.217500
0.585000 0.650625 0.217500
0.650625 0.650625 0.217500
0.716250 0.650625 0.217500
0.781875 0.650625 0.217500
0.847500 0.650625 0.217500
0.913125 0.650625 0.217500
0.978750 0.650625 0.217500
1.000000 0.650625 0.217500
1.000000 0.650625 0.217500
0.060000 0.716250 0.217500
0.125625 0.716250 0.217500
0.191250 0.716250 0.217500
0.256875 0.716250 0.217500
0.322500 0.716250 0.217500
0.388125 0.716250 0.217500
0.453750 0.716250 0.217500
0.519375 0.716250 0.217500
0.585000 0.716250 0.217500
0.650625 0.716250 0.217500
0.716250 0.716250 0.217500
0.781875 0.716250 0.217500
0.847500 0.716250 0.217500
0.913125 0.716250 0.217500
0.978750 0.716250 0.217500
1.000000 0.716250 0.217500
1.000000 0.716250 0.217500
0.060000 0.781875 0.217500
0.125625 0.781875 0.217500
0.191250 0.781875 0.217500
0.256875 0.781875 0.217500
0.322500 0.781875 0.217500
0.388125 0.781875 0.217500
0.453750 0.781875 0.217500
0.519375 0.781875 0.217500
0.585000 0.781875 0.217500
0.650625 0.781875 0.217500
0.716250 0.781875 0.217500
0.781875 0.781875 0.217500
0.847500 0.781875 0.217500
0.913125 0.781875 0.217500
0.978750 0.781875 0.217500
1.000000 0.781875 0.217500
1.000000 0.781875 0.217500
0.060000 0.847500 0.217500
0.125625 0.847500 0.217500
0.191250 0.847500 0.217500
0.256875 0.847500 0.217500
0.322500 0.847500 0.217500
0.388125 0.847500 0.217500
0.453750 0.847500 0.217500
0.519375 0.847500 0.217500
0.585000 0.847500 0.217500
0.650625 0.847500 0.217500
0.716250 0.847500 0.217500
0.781875 0.847500 0.217500
0.847500 0.847500 0.217500
0.913125 0.847500 0.217500
0.978750 0.847500 0.217500
1.000000 0.847500 0.217500
1.000000 0.847500 0.217500
0.060000 0.913125 0.217500
0.125625 0.913125 0.217500
0.191250 0.913125 0.217500
0.256875 0.913125 0.217500
0.322500 0.913125 0.217500
0.388125 0.913125 0.217500
0.453750 0.913125 0.217500
0.519375 0.913125 0.217500
0.585000 0.913125 0.217500
0.650625 0.913125 0.217500
0.716250 0.913125 0.217500
0.781875 0.913125 0.217500
0.847500 0.913125 0.217500
0.913125 0.913125 0.217500
0.978750 0.913125 0.217500
1.000000 0.913125 0.217500
1.000000 0.913125 0.217500
0.060000 0.978750 0.217500
0.125625 0.978750 0.217500
0.191250 0.978750 0.217500
0.256875 0.978750 0.217500
0.322500 0.978750 0.217500
0.388125 0.978750 0.217500
0.453750 0.978750 0.217500
0.519375 0.978750 0.217500
0.585000 0.978750 0.217500
0.650625 0.978750 0.217500
0.716250 0.978750 0.217500
0.781875 0.978750 0.217500
0.847500 0.978750 0.217500
0.913125 0.978750 0.217500
0.978750 0.978750 0.217500
1.000000 0.978750 0.217500
1.000000 0.978750 0.217500
0.060000 1.000000 0.217500
0.125625 1.000000 0.217500
0.191250 1.000000 0.217500
0.256875 1.000000 0.217500
0.322500 1.000000 0.217500
0.388125 1.000000 0.217500
0.453750 1.000000 0.217500
0.519375 1.000000 0.217500
0.585000 1.000000 0.217500
0.650625 1.000000 0.217500
0.716250 1.000000 0.217500
0.781875 1.000000 0.217500
0.847500 1.000000 0.217500
0.913125 1.000000 0.217500
0.978750 1.000000 0.217500
1.000000 1.000000 0.217500
1.000000 1.000000 0.217500
0.060000 1.000000 0.217500
0.125625 1.000000 0.217500
0.191250 1.000000 0.217500
0.256875 1.000000 0.217500
0.322500 1.000000 0.217500
0.388125 1.000000 0.217500
0.453750 1.000000 0.217500
0.519375 1.000000 0.217500
0.585000 1.000000 0.217500
0.650625 1.000000 0.217500
0.716250 1.000000 0.217500
0.781875 1.000000 0.217500
0.847500 1.000000 0.217500
0.913125 1.000000 0.217500
0.978750 1.000000 0.217500
1.000000 1.000000 0.217500
1.000000 1.000000 0.217500
0.060000 0.060000 0.286250
0.125625 0.060000 0.286250
0.191250 0.060000 0.286250
0.256875 0.060000 0.286250
0.322500 0.060000 0.286250
0.388125 0.060000 0.286250
0.453750 0.060000 0.286250
0.519375 0.060000 0.286250
0.585000 0.060000 0.286250
0.650625 0.060000 0.286250
0.716250 0.060000 0.286250
0.781875 0.060000 0.286250
0.847500 0.060000 0.286250
0.913125 0.060000 0.286250
0.978750 0.060000 0.286250
1.000000 0.060000 0.286250
1.000000 0.060000 0.286250
0.060000 0.125625 0.286250
