app/src/main/assets/luts/scandi_clean.cube
# ApexStudio filter: scandi_clean
LUT_3D_SIZE 9
DOMAIN_MIN 0.0 0.0 0.0
DOMAIN_MAX 1.0 1.0 1.0
0.060000 0.060000 0.080000
0.191250 0.060000 0.080000
0.322500 0.060000 0.080000
0.453750 0.060000 0.080000
0.585000 0.060000 0.080000
0.716250 0.060000 0.080000
0.847500 0.060000 0.080000
0.978750 0.060000 0.080000
1.000000 0.060000 0.080000
0.060000 0.191250 0.080000
0.191250 0.191250 0.080000
0.322500 0.191250 0.080000
0.453750 0.191250 0.080000
0.585000 0.191250 0.080000
0.716250 0.191250 0.080000
0.847500 0.191250 0.080000
0.978750 0.191250 0.080000
1.000000 0.191250 0.080000
0.060000 0.322500 0.080000
0.191250 0.322500 0.080000
0.322500 0.322500 0.080000
0.453750 0.322500 0.080000
0.585000 0.322500 0.080000
0.716250 0.322500 0.080000
0.847500 0.322500 0.080000
0.978750 0.322500 0.080000
1.000000 0.322500 0.080000
0.060000 0.453750 0.080000
0.191250 0.453750 0.080000
0.322500 0.453750 0.080000
0.453750 0.453750 0.080000
0.585000 0.453750 0.080000
0.716250 0.453750 0.080000
0.847500 0.453750 0.080000
0.978750 0.453750 0.080000
1.000000 0.453750 0.080000
0.060000 0.585000 0.080000
0.191250 0.585000 0.080000
0.322500 0.585000 0.080000
0.453750 0.585000 0.080000
0.585000 0.585000 0.080000
0.716250 0.585000 0.080000
0.847500 0.585000 0.080000
0.978750 0.585000 0.080000
1.000000 0.585000 0.080000
0.060000 0.716250 0.080000
0.191250 0.716250 0.080000
0.322500 0.716250 0.080000
0.453750 0.716250 0.080000
0.585000 0.716250 0.080000
0.716250 0.716250 0.080000
0.847500 0.716250 0.080000
0.978750 0.716250 0.080000
1.000000 0.716250 0.080000
0.060000 0.847500 0.080000
0.191250 0.847500 0.080000
0.322500 0.847500 0.080000
0.453750 0.847500 0.080000
0.585000 0.847500 0.080000
0.716250 0.847500 0.080000
0.847500 0.847500 0.080000
0.978750 0.847500 0.080000
1.000000 0.847500 0.080000
0.060000 0.978750 0.080000
0.191250 0.978750 0.080000
0.322500 0.978750 0.080000
0.453750 0.978750 0.080000
0.585000 0.978750 0.080000
0.716250 0.978750 0.080000
0.847500 0.978750 0.080000
0.978750 0.978750 0.080000
1.000000 0.978750 0.080000
0.060000 1.000000 0.080000
0.191250 1.000000 0.080000
0.322500 1.000000 0.080000
0.453750 1.000000 0.080000
0.585000 1.000000 0.080000
0.716250 1.000000 0.080000
0.847500 1.000000 0.080000
0.978750 1.000000 0.080000
1.000000 1.000000 0.080000
0.060000 0.060000 0.217500
0.191250 0.060000 0.217500
0.322500 0.060000 0.217500
0.453750 0.060000 0.217500
0.585000 0.060000 0.217500
0.716250 0.060000 0.217500
0.847500 0.060000 0.217500
0.978750 0.060000 0.217500
1.000000 0.060000 0.217500
0.060000 0.191250 0.217500
0.191250 0.191250 0.217500
0.322500 0.191250 0.217500
0.453750 0.191250 0.217500
0.585000 0.191250 0.217500
0.716250 0.191250 0.217500
0.847500 0.191250 0.217500
0.978750 0.191250 0.217500
1.000000 0.191250 0.217500
0.060000 0.322500 0.217500
0.191250 0.322500 0.217500
0.322500 0.322500 0.217500
0.453750 0.322500 0.217500
0.585000 0.322500 0.217500
0.716250 0.322500 0.217500
0.847500 0.322500 0.217500
0.978750 0.322500 0.217500
1.000000 0.322500 0.217500
0.060000 0.453750 0.217500
0.191250 0.453750 0.217500
0.322500 0.453750 0.217500
0.453750 0.453750 0.217500
0.585000 0.453750 0.217500
0.716250 0.453750 0.217500
0.847500 0.453750 0.217500
0.978750 0.453750 0.217500
1.000000 0.453750 0.217500
0.060000 0.585000 0.217500
0.191250 0.585000 0.217500
0.322500 0.585000 0.217500
0.453750 0.585000 0.217500
0.585000 0.585000 0.217500
0.716250 0.585000 0.217500
0.847500 0.585000 0.217500
0.978750 0.585000 0.217500
1.000000 0.585000 0.217500
0.060000 0.716250 0.217500
0.191250 0.716250 0.217500
0.322500 0.716250 0.217500
0.453750 0.716250 0.217500
0.585000 0.716250 0.217500
0.716250 0.716250 0.217500
0.847500 0.716250 0.217500
0.978750 0.716250 0.217500
1.000000 0.716250 0.217500
0.060000 0.847500 0.217500
0.191250 0.847500 0.217500
0.322500 0.847500 0.217500
0.453750 0.847500 0.217500
0.585000 0.847500 0.217500
0.716250 0.847500 0.217500
0.847500 0.847500 0.217500
0.978750 0.847500 0.217500
1.000000 0.847500 0.217500
0.060000 0.978750 0.217500
0.191250 0.978750 0.217500
0.322500 0.978750 0.217500
0.453750 0.978750 0.217500
0.585000 0.978750 0.217500
0.716250 0.978750 0.217500
0.847500 0.978750 0.217500
0.978750 0.978750 0.217500
1.000000 0.978750 0.217500
0.060000 1.000000 0.217500
0.191250 1.000000 0.217500
0.322500 1.000000 0.217500
0.453750 1.000000 0.217500
0.585000 1.000000 0.217500
0.716250 1.000000 0.217500
0.847500 1.000000 0.217500
0.978750 1.000000 0.217500
1.000000 1.000000 0.217500
0.060000 0.060000 0.355000
0.191250 0.060000 0.355000
0.322500 0.060000 0.355000
0.453750 0.060000 0.355000
0.585000 0.060000 0.355000
0.716250 0.060000 0.355000
0.847500 0.060000 0.355000
0.978750 0.060000 0.355000
1.000000 0.060000 0.355000
0.060000 0.191250 0.355000
0.191250 0.191250 0.355000
0.322500 0.191250 0.355000
0.453750 0.191250 0.355000
0.585000 0.191250 0.355000
0.716250 0.191250 0.355000
0.847500 0.191250 0.355000
0.978750 0.191250 0.355000
1.000000 0.191250 0.355000
0.060000 0.322500 0.355000
0.191250 0.322500 0.355000
0.322500 0.322500 0.355000
0.453750 0.322500 0.355000
0.585000 0.322500 0.355000
0.716250 0.322500 0.355000
0.847500 0.322500 0.355000
0.978750 0.322500 0.355000
1.000000 0.322500 0.355000
0.060000 0.453750 0.355000
0.191250 0.453750 0.355000
0.322500 0.453750 0.355000
0.453750 0.453750 0.355000
0.585000 0.453750 0.355000
0.716250 0.453750 0.355000
0.847500 0.453750 0.355000
0.978750 0.453750 0.355000
1.000000 0.453750 0.355000
0.060000 0.585000 0.355000
0.191250 0.585000 0.355000
0.322500 0.585000 0.355000
0.453750 0.585000 0.355000
0.585000 0.585000 0.355000
0.716250 0.585000 0.355000
0.847500 0.585000 0.355000
0.978750 0.585000 0.355000
1.000000 0.585000 0.355000
0.060000 0.716250 0.355000
0.191250 0.716250 0.355000
0.322500 0.716250 0.355000
0.453750 0.716250 0.355000
0.585000 0.716250 0.355000
0.716250 0.716250 0.355000
0.847500 0.716250 0.355000
0.978750 0.716250 0.355000
1.000000 0.716250 0.355000
0.060000 0.847500 0.355000
0.191250 0.847500 0.355000
0.322500 0.847500 0.355000
0.453750 0.847500 0.355000
0.585000 0.847500 0.355000
0.716250 0.847500 0.355000
0.847500 0.847500 0.355000
0.978750 0.847500 0.355000
1.000000 0.847500 0.355000
0.060000 0.978750 0.355000
0.191250 0.978750 0.355000
0.322500 0.978750 0.355000
0.453750 0.978750 0.355000
0.585000 0.978750 0.355000
0.716250 0.978750 0.355000
0.847500 0.978750 0.355000
0.978750 0.978750 0.355000
1.000000 0.978750 0.355000
0.060000 1.000000 0.355000
0.191250 1.000000 0.355000
0.322500 1.000000 0.355000
0.453750 1.000000 0.355000
0.585000 1.000000 0.355000
0.716250 1.000000 0.355000
0.847500 1.000000 0.355000
0.978750 1.000000 0.355000
1.000000 1.000000 0.355000
0.060000 0.060000 0.492500
0.191250 0.060000 0.492500
0.322500 0.060000 0.492500
0.453750 0.060000 0.492500
0.585000 0.060000 0.492500
0.716250 0.060000 0.492500
0.847500 0.060000 0.492500
0.978750 0.060000 0.492500
1.000000 0.060000 0.492500
0.060000 0.191250 0.492500
0.191250 0.191250 0.492500
0.322500 0.191250 0.492500
0.453750 0.191250 0.492500
0.585000 0.191250 0.492500
0.716250 0.191250 0.492500
0.847500 0.191250 0.492500
0.978750 0.191250 0.492500
1.000000 0.191250 0.492500
0.060000 0.322500 0.492500
0.191250 0.322500 0.492500
0.322500 0.322500 0.492500
0.453750 0.322500 0.492500
0.585000 0.322500 0.492500
0.716250 0.322500 0.492500
0.847500 0.322500 0.492500
0.978750 0.322500 0.492500
1.000000 0.322500 0.492500
0.060000 0.453750 0.492500
0.191250 0.453750 0.492500
0.322500 0.453750 0.492500
0.453750 0.453750 0.492500
0.585000 0.453750 0.492500
0.716250 0.453750 0.492500
0.847500 0.453750 0.492500
0.978750 0.453750 0.492500
1.000000 0.453750 0.492500
0.060000 0.585000 0.492500
0.191250 0.585000 0.492500
0.322500 0.585000 0.492500
0.453750 0.585000 0.492500
0.585000 0.585000 0.492500
0.716250 0.585000 0.492500
0.847500 0.585000 0.492500
0.978750 0.585000 0.492500
1.000000 0.585000 0.492500
0.060000 0.716250 0.492500
0.191250 0.716250 0.492500
0.322500 0.716250 0.492500
0.453750 0.716250 0.492500
0.585000 0.716250 0.492500
0.716250 0.716250 0.492500
0.847500 0.716250 0.492500
0.978750 0.716250 0.492500
1.000000 0.716250 0.492500
0.060000 0.847500 0.492500
0.191250 0.847500 0.492500
0.322500 0.847500 0.492500
0.453750 0.847500 0.492500
0.585000 0.847500 0.492500
0.716250 0.847500 0.492500
0.847500 0.847500 0.492500
0.978750 0.847500 0.492500
1.000000 0.847500 0.492500
0.060000 0.978750 0.492500
0.191250 0.978750 0.492500
0.322500 0.978750 0.492500
0.453750 0.978750 0.492500
0.585000 0.978750 0.492500
0.716250 0.978750 0.492500
0.847500 0.978750 0.492500
0.978750 0.978750 0.492500
1.000000 0.978750 0.492500
0.060000 1.000000 0.492500
0.191250 1.000000 0.492500
0.322500 1.000000 0.492500
0.453750 1.000000 0.492500
0.585000 1.000000 0.492500
0.716250 1.000000 0.492500
0.847500 1.000000 0.492500
0.978750 1.000000 0.492500
1.000000 1.000000 0.492500
0.060000 0.060000 0.630000
0.191250 0.060000 0.630000
0.322500 0.060000 0.630000
0.453750 0.060000 0.630000
0.585000 0.060000 0.630000
0.716250 0.060000 0.630000
0.847500 0.060000 0.630000
0.978750 0.060000 0.630000
1.000000 0.060000 0.630000
0.060000 0.191250 0.630000
0.191250 0.191250 0.630000
0.322500 0.191250 0.630000
0.453750 0.191250 0.630000
0.585000 0.191250 0.630000
0.716250 0.191250 0.630000
0.847500 0.191250 0.630000
0.978750 0.191250 0.630000
1.000000 0.191250 0.630000
0.060000 0.322500 0.630000
0.191250 0.322500 0.630000
0.322500 0.322500 0.630000
0.453750 0.322500 0.630000
0.585000 0.322500 0.630000
0.716250 0.322500 0.630000
0.847500 0.322500 0.630000
0.978750 0.322500 0.630000
1.000000 0.322500 0.630000
0.060000 0.453750 0.630000
0.191250 0.453750 0.630000
0.322500 0.453750 0.630000
0.453750 0.453750 0.630000
0.585000 0.453750 0.630000
0.716250 0.453750 0.630000
0.847500 0.453750 0.630000
0.978750 0.453750 0.630000
1.000000 0.453750 0.630000
0.060000 0.585000 0.630000
0.191250 0.585000 0.630000
0.322500 0.585000 0.630000
0.453750 0.585000 0.630000
0.585000 0.585000 0.630000
0.716250 0.585000 0.630000
0.847500 0.585000 0.630000
0.978750 0.585000 0.630000
1.000000 0.585000 0.630000
0.060000 0.716250 0.630000
0.191250 0.716250 0.630000
0.322500 0.716250 0.630000
0.453750 0.716250 0.630000
0.585000 0.716250 0.630000
0.716250 0.716250 0.630000
0.847500 0.716250 0.630000
0.978750 0.716250 0.630000
1.000000 0.716250 0.630000
0.060000 0.847500 0.630000
0.191250 0.847500 0.630000
0.322500 0.847500 0.630000
0.453750 0.847500 0.630000
0.585000 0.847500 0.630000
0.716250 0.847500 0.630000
0.847500 0.847500 0.630000
0.978750 0.847500 0.630000
1.000000 0.847500 0.630000
0.060000 0.978750 0.630000
0.191250 0.978750 0.630000
0.322500 0.978750 0.630000
0.453750 0.978750 0.630000
0.585000 0.978750 0.630000
0.716250 0.978750 0.630000
0.847500 0.978750 0.630000
0.978750 0.978750 0.630000
1.000000 0.978750 0.630000
0.060000 1.000000 0.630000
0.191250 1.000000 0.630000
0.322500 1.000000 0.630000
0.453750 1.000000 0.630000
0.585000 1.000000 0.630000
0.716250 1.000000 0.630000
0.847500 1.000000 0.630000
0.978750 1.000000 0.630000
1.000000 1.000000 0.630000
0.060000 0.060000 0.767500
0.191250 0.060000 0.767500
0.322500 0.060000 0.767500
0.453750 0.060000 0.767500
0.585000 0.060000 0.767500
0.716250 0.060000 0.767500
0.847500 0.060000 0.767500
0.978750 0.060000 0.767500
1.000000 0.060000 0.767500
0.060000 0.191250 0.767500
0.191250 0.191250 0.767500
0.322500 0.191250 0.767500
0.453750 0.191250 0.767500
0.585000 0.191250 0.767500
0.716250 0.191250 0.767500
0.847500 0.191250 0.767500
0.978750 0.191250 0.767500
1.000000 0.191250 0.767500
0.060000 0.322500 0.767500
0.191250 0.322500 0.767500
0.322500 0.322500 0.767500
0.453750 0.322500 0.767500
0.585000 0.322500 0.767500
0.716250 0.322500 0.767500
0.847500 0.322500 0.767500
0.978750 0.322500 0.767500
1.000000 0.322500 0.767500
0.060000 0.453750 0.767500
0.191250 0.453750 0.767500
0.322500 0.453750 0.767500
0.453750 0.453750 0.767500
0.585000 0.453750 0.767500
0.716250 0.453750 0.767500
0.847500 0.453750 0.767500
0.978750 0.453750 0.767500
1.000000 0.453750 0.767500
0.060000 0.585000 0.767500
0.191250 0.585000 0.767500
0.322500 0.585000 0.767500
0.453750 0.585000 0.767500
0.585000 0.585000 0.767500
0.716250 0.585000 0.767500
0.847500 0.585000 0.767500
0.978750 0.585000 0.767500
1.000000 0.585000 0.767500
0.060000 0.716250 0.767500
0.191250 0.716250 0.767500
0.322500 0.716250 0.767500
0.453750 0.716250 0.767500
0.585000 0.716250 0.767500
0.716250 0.716250 0.767500
0.847500 0.716250 0.767500
0.978750 0.716250 0.767500
1.000000 0.716250 0.767500
0.060000 0.847500 0.767500
0.191250 0.847500 0.767500
0.322500 0.847500 0.767500
0.453750 0.847500 0.767500
0.585000 0.847500 0.767500
0.716250 0.847500 0.767500
0.847500 0.847500 0.767500
0.978750 0.847500 0.767500
1.000000 0.847500 0.767500
0.060000 0.978750 0.767500
0.191250 0.978750 0.767500
0.322500 0.978750 0.767500
0.453750 0.978750 0.767500
0.585000 0.978750 0.767500
0.716250 0.978750 0.767500
0.847500 0.978750 0.767500
0.978750 0.978750 0.767500
1.000000 0.978750 0.767500
0.060000 1.000000 0.767500
0.191250 1.000000 0.767500
0.322500 1.000000 0.767500
0.453750 1.000000 0.767500
0.585000 1.000000 0.767500
0.716250 1.000000 0.767500
0.847500 1.000000 0.767500
0.978750 1.000000 0.767500
1.000000 1.000000 0.767500
0.060000 0.060000 0.905000
0.191250 0.060000 0.905000
0.322500 0.060000 0.905000
0.453750 0.060000 0.905000
0.585000 0.060000 0.905000
0.716250 0.060000 0.905000
0.847500 0.060000 0.905000
0.978750 0.060000 0.905000
1.000000 0.060000 0.905000
0.060000 0.191250 0.905000
0.191250 0.191250 0.905000
0.322500 0.191250 0.905000
0.453750 0.191250 0.905000
0.585000 0.191250 0.905000
0.716250 0.191250 0.905000
0.847500 0.191250 0.905000
0.978750 0.191250 0.905000
1.000000 0.191250 0.905000
0.060000 0.322500 0.905000
0.191250 0.322500 0.905000
0.322500 0.322500 0.905000
0.453750 0.322500 0.905000
0.585000 0.322500 0.905000
0.716250 0.322500 0.905000
0.847500 0.322500 0.905000
0.978750 0.322500 0.905000
1.000000 0.322500 0.905000
0.060000 0.453750 0.905000
0.191250 0.453750 0.905000
0.322500 0.453750 0.905000
0.453750 0.453750 0.905000
0.585000 0.453750 0.905000
0.716250 0.453750 0.905000
0.847500 0.453750 0.905000
0.978750 0.453750 0.905000
1.000000 0.453750 0.905000
0.060000 0.585000 0.905000
0.191250 0.585000 0.905000
0.322500 0.585000 0.905000
0.453750 0.585000 0.905000
0.585000 0.585000 0.905000
0.716250 0.585000 0.905000
0.847500 0.585000 0.905000
0.978750 0.585000 0.905000
1.000000 0.585000 0.905000
0.060000 0.716250 0.905000
0.191250 0.716250 0.905000
0.322500 0.716250 0.905000
0.453750 0.716250 0.905000
0.585000 0.716250 0.905000
0.716250 0.716250 0.905000
0.847500 0.716250 0.905000
0.978750 0.716250 0.905000
1.000000 0.716250 0.905000
0.060000 0.847500 0.905000
0.191250 0.847500 0.905000
0.322500 0.847500 0.905000
0.453750 0.847500 0.905000
0.585000 0.847500 0.905000
0.716250 0.847500 0.905000
0.847500 0.847500 0.905000
0.978750 0.847500 0.905000
1.000000 0.847500 0.905000
0.060000 0.978750 0.905000
0.191250 0.978750 0.905000
0.322500 0.978750 0.905000
0.453750 0.978750 0.905000
0.585000 0.978750 0.905000
0.716250 0.978750 0.905000
0.847500 0.978750 0.905000
0.978750 0.978750 0.905000
1.000000 0.978750 0.905000
0.060000 1.000000 0.905000
0.191250 1.000000 0.905000
0.322500 1.000000 0.905000
0.453750 1.000000 0.905000
0.585000 1.000000 0.905000
0.716250 1.000000 0.905000
0.847500 1.000000 0.905000
0.978750 1.000000 0.905000
1.000000 1.000000 0.905000
0.060000 0.060000 1.000000
0.191250 0.060000 1.000000
0.322500 0.060000 1.000000
0.453750 0.060000 1.000000
0.585000 0.060000 1.000000
0.716250 0.060000 1.000000
0.847500 0.060000 1.000000
0.978750 0.060000 1.000000
1.000000 0.060000 1.000000
0.060000 0.191250 1.000000
0.191250 0.191250 1.000000
0.322500 0.191250 1.000000
0.453750 0.191250 1.000000
0.585000 0.191250 1.000000
0.716250 0.191250 1.000000
0.847500 0.191250 1.000000
0.978750 0.191250 1.000000
1.000000 0.191250 1.000000
0.060000 0.322500 1.000000
0.191250 0.322500 1.000000
0.322500 0.322500 1.000000
0.453750 0.322500 1.000000
0.585000 0.322500 1.000000
0.716250 0.322500 1.000000
0.847500 0.322500 1.000000
0.978750 0.322500 1.000000
1.000000 0.322500 1.000000
0.060000 0.453750 1.000000
0.191250 0.453750 1.000000
0.322500 0.453750 1.000000
0.453750 0.453750 1.000000
0.585000 0.453750 1.000000
0.716250 0.453750 1.000000
0.847500 0.453750 1.000000
0.978750 0.453750 1.000000
1.000000 0.453750 1.000000
0.060000 0.585000 1.000000
0.191250 0.585000 1.000000
0.322500 0.585000 1.000000
0.453750 0.585000 1.000000
0.585000 0.585000 1.000000
0.716250 0.585000 1.000000
0.847500 0.585000 1.000000
0.978750 0.585000 1.000000
1.000000 0.585000 1.000000
0.060000 0.716250 1.000000
0.191250 0.716250 1.000000
0.322500 0.716250 1.000000
0.453750 0.716250 1.000000
0.585000 0.716250 1.000000
0.716250 0.716250 1.000000
0.847500 0.716250 1.000000
0.978750 0.716250 1.000000
1.000000 0.716250 1.000000
0.060000 0.847500 1.000000
0.191250 0.847500 1.000000
0.322500 0.847500 1.000000
0.453750 0.847500 1.000000
0.585000 0.847500 1.000000
0.716250 0.847500 1.000000
0.847500 0.847500 1.000000
0.978750 0.847500 1.000000
1.000000 0.847500 1.000000
0.060000 0.978750 1.000000
0.191250 0.978750 1.000000
0.322500 0.978750 1.000000
0.453750 0.978750 1.000000
0.585000 0.978750 1.000000
0.716250 0.978750 1.000000
0.847500 0.978750 1.000000
0.978750 0.978750 1.000000
1.000000 0.978750 1.000000
0.060000 1.000000 1.000000
0.191250 1.000000 1.000000
0.322500 1.000000 1.000000
0.453750 1.000000 1.000000
0.585000 1.000000 1.000000
0.716250 1.000000 1.000000
0.847500 1.000000 1.000000
0.978750 1.000000 1.000000
1.000000 1.000000 1.000000
0.060000 0.060000 1.000000
0.191250 0.060000 1.000000
0.322500 0.060000 1.000000
0.453750 0.060000 1.000000
0.585000 0.060000 1.000000
0.716250 0.060000 1.000000
0.847500 0.060000 1.000000
0.978750 0.060000 1.000000
1.000000 0.060000 1.000000
0.060000 0.191250 1.000000
0.191250 0.191250 1.000000
0.322500 0.191250 1.000000
0.453750 0.191250 1.000000
0.585000 0.191250 1.000000
0.716250 0.191250 1.000000
0.847500 0.191250 1.000000
0.978750 0.191250 1.000000
1.000000 0.191250 1.000000
0.060000 0.322500 1.000000
0.191250 0.322500 1.000000
0.322500 0.322500 1.000000
0.453750 0.322500 1.000000
0.585000 0.322500 1.000000
0.716250 0.322500 1.000000
0.847500 0.322500 1.000000
0.978750 0.322500 1.000000
1.000000 0.322500 1.000000
0.060000 0.453750 1.000000
0.191250 0.453750 1.000000
0.322500 0.453750 1.000000
0.453750 0.453750 1.000000
0.585000 0.453750 1.000000
0.716250 0.453750 1.000000
0.847500 0.453750 1.000000
0.978750 0.453750 1.000000
1.000000 0.453750 1.000000
0.060000 0.585000 1.000000
0.191250 0.585000 1.000000
0.322500 0.585000 1.000000
0.453750 0.585000 1.000000
0.585000 0.585000 1.000000
0.716250 0.585000 1.000000
0.847500 0.585000 1.000000
0.978750 0.585000 1.000000
1.000000 0.585000 1.000000
0.060000 0.716250 1.000000
0.191250 0.716250 1.000000
0.322500 0.716250 1.000000
0.453750 0.716250 1.000000
0.585000 0.716250 1.000000
0.716250 0.716250 1.000000
0.847500 0.716250 1.000000
0.978750 0.716250 1.000000
1.000000 0.716250 1.000000
0.060000 0.847500 1.000000
0.191250 0.847500 1.000000
0.322500 0.847500 1.000000
0.453750 0.847500 1.000000
0.585000 0.847500 1.000000
0.716250 0.847500 1.000000
0.847500 0.847500 1.000000
0.978750 0.847500 1.000000
1.000000 0.847500 1.000000
0.060000 0.978750 1.000000
0.191250 0.978750 1.000000
0.322500 0.978750 1.000000
0.453750 0.978750 1.000000
0.585000 0.978750 1.000000
0.716250 0.978750 1.000000
0.847500 0.978750 1.000000
0.978750 0.978750 1.000000
1.000000 0.978750 1.000000
0.060000 1.000000 1.000000
0.191250 1.000000 1.000000
0.322500 1.000000 1.000000
0.453750 1.000000 1.000000
0.585000 1.000000 1.000000
0.716250 1.000000 1.000000
0.847500 1.000000 1.000000
0.978750 1.000000 1.000000
1.000000 1.000000 1.000000
