app/src/main/assets/luts/seventies_sun.cube
# ApexStudio filter: seventies_sun
LUT_3D_SIZE 17
DOMAIN_MIN 0.0 0.0 0.0
DOMAIN_MAX 1.0 1.0 1.0
0.120000 0.050000 0.000000
0.201250 0.050000 0.000000
0.282500 0.050000 0.000000
0.363750 0.050000 0.000000
0.445000 0.050000 0.000000
0.526250 0.050000 0.000000
0.607500 0.050000 0.000000
0.688750 0.050000 0.000000
0.770000 0.050000 0.000000
0.851250 0.050000 0.000000
0.932500 0.050000 0.000000
1.000000 0.050000 0.000000
1.000000 0.050000 0.000000
1.000000 0.050000 0.000000
1.000000 0.050000 0.000000
1.000000 0.050000 0.000000
1.000000 0.050000 0.000000
0.120000 0.115625 0.000000
0.201250 0.115625 0.000000
0.282500 0.115625 0.000000
0.363750 0.115625 0.000000
0.445000 0.115625 0.000000
0.526250 0.115625 0.000000
0.607500 0.115625 0.000000
0.688750 0.115625 0.000000
0.770000 0.115625 0.000000
0.851250 0.115625 0.000000
0.932500 0.115625 0.000000
1.000000 0.115625 0.000000
1.000000 0.115625 0.000000
1.000000 0.115625 0.000000
1.000000 0.115625 0.000000
1.000000 0.115625 0.000000
1.000000 0.115625 0.000000
0.120000 0.181250 0.000000
0.201250 0.181250 0.000000
0.282500 0.181250 0.000000
0.363750 0.181250 0.000000
0.445000 0.181250 0.000000
0.526250 0.181250 0.000000
0.607500 0.181250 0.000000
0.688750 0.181250 0.000000
0.770000 0.181250 0.000000
0.851250 0.181250 0.000000
0.932500 0.181250 0.000000
1.000000 0.181250 0.000000
1.000000 0.181250 0.000000
1.000000 0.181250 0.000000
1.000000 0.181250 0.000000
1.000000 0.181250 0.000000
1.000000 0.181250 0.000000
0.120000 0.246875 0.000000
0.201250 0.246875 0.000000
0.282500 0.246875 0.000000
0.363750 0.246875 0.000000
0.445000 0.246875 0.000000
0.526250 0.246875 0.000000
0.607500 0.246875 0.000000
0.688750 0.246875 0.000000
0.770000 0.246875 0.000000
0.851250 0.246875 0.000000
0.932500 0.246875 0.000000
1.000000 0.246875 0.000000
1.000000 0.246875 0.000000
1.000000 0.246875 0.000000
1.000000 0.246875 0.000000
1.000000 0.246875 0.000000
1.000000 0.246875 0.000000
0.120000 0.312500 0.000000
0.201250 0.312500 0.000000
0.282500 0.312500 0.000000
0.363750 0.312500 0.000000
0.445000 0.312500 0.000000
0.526250 0.312500 0.000000
0.607500 0.312500 0.000000
0.688750 0.312500 0.000000
0.770000 0.312500 0.000000
0.851250 0.312500 0.000000
0.932500 0.312500 0.000000
1.000000 0.312500 0.000000
1.000000 0.312500 0.000000
1.000000 0.312500 0.000000
1.000000 0.312500 0.000000
1.000000 0.312500 0.000000
1.000000 0.312500 0.000000
0.120000 0.378125 0.000000
0.201250 0.378125 0.000000
0.282500 0.378125 0.000000
0.363750 0.378125 0.000000
0.445000 0.378125 0.000000
0.526250 0.378125 0.000000
0.607500 0.378125 0.000000
0.688750 0.378125 0.000000
0.770000 0.378125 0.000000
0.851250 0.378125 0.000000
0.932500 0.378125 0.000000
1.000000 0.378125 0.000000
1.000000 0.378125 0.000000
1.000000 0.378125 0.000000
1.000000 0.378125 0.000000
1.000000 0.378125 0.000000
1.000000 0.378125 0.000000
0.120000 0.443750 0.000000
0.201250 0.443750 0.000000
0.282500 0.443750 0.000000
0.363750 0.443750 0.000000
0.445000 0.443750 0.000000
0.526250 0.443750 0.000000
0.607500 0.443750 0.000000
0.688750 0.443750 0.000000
0.770000 0.443750 0.000000
0.851250 0.443750 0.000000
0.932500 0.443750 0.000000
1.000000 0.443750 0.000000
1.000000 0.443750 0.000000
1.000000 0.443750 0.000000
1.000000 0.443750 0.000000
1.000000 0.443750 0.000000
1.000000 0.443750 0.000000
0.120000 0.509375 0.000000
0.201250 0.509375 0.000000
0.282500 0.509375 0.000000
0.363750 0.509375 0.000000
0.445000 0.509375 0.000000
0.526250 0.509375 0.000000
0.607500 0.509375 0.000000
0.688750 0.509375 0.000000
0.770000 0.509375 0.000000
0.851250 0.509375 0.000000
0.932500 0.509375 0.000000
1.000000 0.509375 0.000000
1.000000 0.509375 0.000000
1.000000 0.509375 0.000000
1.000000 0.509375 0.000000
1.000000 0.509375 0.000000
1.000000 0.509375 0.000000
0.120000 0.575000 0.000000
0.201250 0.575000 0.000000
0.282500 0.575000 0.000000
0.363750 0.575000 0.000000
0.445000 0.575000 0.000000
0.526250 0.575000 0.000000
0.607500 0.575000 0.000000
0.688750 0.575000 0.000000
0.770000 0.575000 0.000000
0.851250 0.575000 0.000000
0.932500 0.575000 0.000000
1.000000 0.575000 0.000000
1.000000 0.575000 0.000000
1.000000 0.575000 0.000000
1.000000 0.575000 0.000000
1.000000 0.575000 0.000000
1.000000 0.575000 0.000000
0.120000 0.640625 0.000000
0.201250 0.640625 0.000000
0.282500 0.640625 0.000000
0.363750 0.640625 0.000000
0.445000 0.640625 0.000000
0.526250 0.640625 0.000000
0.607500 0.640625 0.000000
0.688750 0.640625 0.000000
0.770000 0.640625 0.000000
0.851250 0.640625 0.000000
0.932500 0.640625 0.000000
1.000000 0.640625 0.000000
1.000000 0.640625 0.000000
1.000000 0.640625 0.000000
1.000000 0.640625 0.000000
1.000000 0.640625 0.000000
1.000000 0.640625 0.000000
0.120000 0.706250 0.000000
0.201250 0.706250 0.000000
0.282500 0.706250 0.000000
0.363750 0.706250 0.000000
0.445000 0.706250 0.000000
0.526250 0.706250 0.000000
0.607500 0.706250 0.000000
0.688750 0.706250 0.000000
0.770000 0.706250 0.000000
0.851250 0.706250 0.000000
0.932500 0.706250 0.000000
1.000000 0.706250 0.000000
1.000000 0.706250 0.000000
1.000000 0.706250 0.000000
1.000000 0.706250 0.000000
1.000000 0.706250 0.000000
1.000000 0.706250 0.000000
0.120000 0.771875 0.000000
0.201250 0.771875 0.000000
0.282500 0.771875 0.000000
0.363750 0.771875 0.000000
0.445000 0.771875 0.000000
0.526250 0.771875 0.000000
0.607500 0.771875 0.000000
0.688750 0.771875 0.000000
0.770000 0.771875 0.000000
0.851250 0.771875 0.000000
0.932500 0.771875 0.000000
1.000000 0.771875 0.000000
1.000000 0.771875 0.000000
1.000000 0.771875 0.000000
1.000000 0.771875 0.000000
1.000000 0.771875 0.000000
1.000000 0.771875 0.000000
0.120000 0.837500 0.000000
0.201250 0.837500 0.000000
0.282500 0.837500 0.000000
0.363750 0.837500 0.000000
0.445000 0.837500 0.000000
0.526250 0.837500 0.000000
0.607500 0.837500 0.000000
0.688750 0.837500 0.000000
0.770000 0.837500 0.000000
0.851250 0.837500 0.000000
0.932500 0.837500 0.000000
1.000000 0.837500 0.000000
1.000000 0.837500 0.000000
1.000000 0.837500 0.000000
1.000000 0.837500 0.000000
1.000000 0.837500 0.000000
1.000000 0.837500 0.000000
0.120000 0.903125 0.000000
0.201250 0.903125 0.000000
0.282500 0.903125 0.000000
0.363750 0.903125 0.000000
0.445000 0.903125 0.000000
0.526250 0.903125 0.000000
0.607500 0.903125 0.000000
0.688750 0.903125 0.000000
0.770000 0.903125 0.000000
0.851250 0.903125 0.000000
0.932500 0.903125 0.000000
1.000000 0.903125 0.000000
1.000000 0.903125 0.000000
1.000000 0.903125 0.000000
1.000000 0.903125 0.000000
1.000000 0.903125 0.000000
1.000000 0.903125 0.000000
0.120000 0.968750 0.000000
0.201250 0.968750 0.000000
0.282500 0.968750 0.000000
0.363750 0.968750 0.000000
0.445000 0.968750 0.000000
0.526250 0.968750 0.000000
0.607500 0.968750 0.000000
0.688750 0.968750 0.000000
0.770000 0.968750 0.000000
0.851250 0.968750 0.000000
0.932500 0.968750 0.000000
1.000000 0.968750 0.000000
1.000000 0.968750 0.000000
1.000000 0.968750 0.000000
1.000000 0.968750 0.000000
1.000000 0.968750 0.000000
1.000000 0.968750 0.000000
0.120000 1.000000 0.000000
0.201250 1.000000 0.000000
0.282500 1.000000 0.000000
0.363750 1.000000 0.000000
0.445000 1.000000 0.000000
0.526250 1.000000 0.000000
0.607500 1.000000 0.000000
0.688750 1.000000 0.000000
0.770000 1.000000 0.000000
0.851250 1.000000 0.000000
0.932500 1.000000 0.000000
1.000000 1.000000 0.000000
1.000000 1.000000 0.000000
1.000000 1.000000 0.000000
1.000000 1.000000 0.000000
1.000000 1.000000 0.000000
1.000000 1.000000 0.000000
0.120000 1.000000 0.000000
0.201250 1.000000 0.000000
0.282500 1.000000 0.000000
0.363750 1.000000 0.000000
0.445000 1.000000 0.000000
0.526250 1.000000 0.000000
0.607500 1.000000 0.000000
0.688750 1.000000 0.000000
0.770000 1.000000 0.000000
0.851250 1.000000 0.000000
0.932500 1.000000 0.000000
1.000000 1.000000 0.000000
1.000000 1.000000 0.000000
1.000000 1.000000 0.000000
1.000000 1.000000 0.000000
1.000000 1.000000 0.000000
1.000000 1.000000 0.000000
0.120000 0.050000 0.000000
0.201250 0.050000 0.000000
0.282500 0.050000 0.000000
0.363750 0.050000 0.000000
0.445000 0.050000 0.000000
0.526250 0.050000 0.000000
0.607500 0.050000 0.000000
0.688750 0.050000 0.000000
0.770000 0.050000 0.000000
0.851250 0.050000 0.000000
0.932500 0.050000 0.000000
1.000000 0.050000 0.000000
1.000000 0.050000 0.000000
1.000000 0.050000 0.000000
1.000000 0.050000 0.000000
1.000000 0.050000 0.000000
1.000000 0.050000 0.000000
0.120000 0.115625 0.000000
0.201250 0.115625 0.000000
0.282500 0.115625 0.000000
0.363750 0.115625 0.000000
0.445000 0.115625 0.000000
0.526250 0.115625 0.000000
0.607500 0.115625 0.000000
0.688750 0.115625 0.000000
0.770000 0.115625 0.000000
0.851250 0.115625 0.000000
0.932500 0.115625 0.000000
1.000000 0.115625 0.000000
1.000000 0.115625 0.000000
1.000000 0.115625 0.000000
1.000000 0.115625 0.000000
1.000000 0.115625 0.000000
1.000000 0.115625 0.000000
0.120000 0.181250 0.000000
0.201250 0.181250 0.000000
0.282500 0.181250 0.000000
0.363750 0.181250 0.000000
0.445000 0.181250 0.000000
0.526250 0.181250 0.000000
0.607500 0.181250 0.000000
0.688750 0.181250 0.000000
0.770000 0.181250 0.000000
0.851250 0.181250 0.000000
0.932500 0.181250 0.000000
1.000000 0.181250 0.000000
1.000000 0.181250 0.000000
1.000000 0.181250 0.000000
1.000000 0.181250 0.000000
1.000000 0.181250 0.000000
1.000000 0.181250 0.000000
0.120000 0.246875 0.000000
0.201250 0.246875 0.000000
0.282500 0.246875 0.000000
0.363750 0.246875 0.000000
0.445000 0.246875 0.000000
0.526250 0.246875 0.000000
0.607500 0.246875 0.000000
0.688750 0.246875 0.000000
0.770000 0.246875 0.000000
0.851250 0.246875 0.000000
0.932500 0.246875 0.000000
1.000000 0.246875 0.000000
1.000000 0.246875 0.000000
1.000000 0.246875 0.000000
1.000000 0.246875 0.000000
1.000000 0.246875 0.000000
1.000000 0.246875 0.000000
0.120000 0.312500 0.000000
0.201250 0.312500 0.000000
0.282500 0.312500 0.000000
0.363750 0.312500 0.000000
0.445000 0.312500 0.000000
0.526250 0.312500 0.000000
0.607500 0.312500 0.000000
0.688750 0.312500 0.000000
0.770000 0.312500 0.000000
0.851250 0.312500 0.000000
0.932500 0.312500 0.000000
1.000000 0.312500 0.000000
1.000000 0.312500 0.000000
1.000000 0.312500 0.000000
1.000000 0.312500 0.000000
1.000000 0.312500 0.000000
1.000000 0.312500 0.000000
0.120000 0.378125 0.000000
0.201250 0.378125 0.000000
0.282500 0.378125 0.000000
0.363750 0.378125 0.000000
0.445000 0.378125 0.000000
0.526250 0.378125 0.000000
0.607500 0.378125 0.000000
0.688750 0.378125 0.000000
0.770000 0.378125 0.000000
0.851250 0.378125 0.000000
0.932500 0.378125 0.000000
1.000000 0.378125 0.000000
1.000000 0.378125 0.000000
1.000000 0.378125 0.000000
1.000000 0.378125 0.000000
1.000000 0.378125 0.000000
1.000000 0.378125 0.000000
0.120000 0.443750 0.000000
0.201250 0.443750 0.000000
0.282500 0.443750 0.000000
0.363750 0.443750 0.000000
0.445000 0.443750 0.000000
0.526250 0.443750 0.000000
0.607500 0.443750 0.000000
0.688750 0.443750 0.000000
0.770000 0.443750 0.000000
0.851250 0.443750 0.000000
0.932500 0.443750 0.000000
1.000000 0.443750 0.000000
1.000000 0.443750 0.000000
1.000000 0.443750 0.000000
1.000000 0.443750 0.000000
1.000000 0.443750 0.000000
1.000000 0.443750 0.000000
0.120000 0.509375 0.000000
0.201250 0.509375 0.000000
0.282500 0.509375 0.000000
0.363750 0.509375 0.000000
0.445000 0.509375 0.000000
0.526250 0.509375 0.000000
0.607500 0.509375 0.000000
0.688750 0.509375 0.000000
0.770000 0.509375 0.000000
0.851250 0.509375 0.000000
0.932500 0.509375 0.000000
1.000000 0.509375 0.000000
1.000000 0.509375 0.000000
1.000000 0.509375 0.000000
1.000000 0.509375 0.000000
1.000000 0.509375 0.000000
1.000000 0.509375 0.000000
0.120000 0.575000 0.000000
0.201250 0.575000 0.000000
0.282500 0.575000 0.000000
0.363750 0.575000 0.000000
0.445000 0.575000 0.000000
0.526250 0.575000 0.000000
0.607500 0.575000 0.000000
0.688750 0.575000 0.000000
0.770000 0.575000 0.000000
0.851250 0.575000 0.000000
0.932500 0.575000 0.000000
1.000000 0.575000 0.000000
1.000000 0.575000 0.000000
1.000000 0.575000 0.000000
1.000000 0.575000 0.000000
1.000000 0.575000 0.000000
1.000000 0.575000 0.000000
0.120000 0.640625 0.000000
0.201250 0.640625 0.000000
0.282500 0.640625 0.000000
0.363750 0.640625 0.000000
0.445000 0.640625 0.000000
0.526250 0.640625 0.000000
0.607500 0.640625 0.000000
0.688750 0.640625 0.000000
0.770000 0.640625 0.000000
0.851250 0.640625 0.000000
0.932500 0.640625 0.000000
1.000000 0.640625 0.000000
1.000000 0.640625 0.000000
1.000000 0.640625 0.000000
1.000000 0.640625 0.000000
1.000000 0.640625 0.000000
1.000000 0.640625 0.000000
0.120000 0.706250 0.000000
0.201250 0.706250 0.000000
0.282500 0.706250 0.000000
0.363750 0.706250 0.000000
0.445000 0.706250 0.000000
0.526250 0.706250 0.000000
0.607500 0.706250 0.000000
0.688750 0.706250 0.000000
0.770000 0.706250 0.000000
0.851250 0.706250 0.000000
0.932500 0.706250 0.000000
1.000000 0.706250 0.000000
1.000000 0.706250 0.000000
1.000000 0.706250 0.000000
1.000000 0.706250 0.000000
1.000000 0.706250 0.000000
1.000000 0.706250 0.000000
0.120000 0.771875 0.000000
0.201250 0.771875 0.000000
0.282500 0.771875 0.000000
0.363750 0.771875 0.000000
0.445000 0.771875 0.000000
0.526250 0.771875 0.000000
0.607500 0.771875 0.000000
0.688750 0.771875 0.000000
0.770000 0.771875 0.000000
0.851250 0.771875 0.000000
0.932500 0.771875 0.000000
1.000000 0.771875 0.000000
1.000000 0.771875 0.000000
1.000000 0.771875 0.000000
1.000000 0.771875 0.000000
1.000000 0.771875 0.000000
1.000000 0.771875 0.000000
0.120000 0.837500 0.000000
0.201250 0.837500 0.000000
0.282500 0.837500 0.000000
0.363750 0.837500 0.000000
0.445000 0.837500 0.000000
0.526250 0.837500 0.000000
0.607500 0.837500 0.000000
0.688750 0.837500 0.000000
0.770000 0.837500 0.000000
0.851250 0.837500 0.000000
0.932500 0.837500 0.000000
1.000000 0.837500 0.000000
1.000000 0.837500 0.000000
1.000000 0.837500 0.000000
1.000000 0.837500 0.000000
1.000000 0.837500 0.000000
1.000000 0.837500 0.000000
0.120000 0.903125 0.000000
0.201250 0.903125 0.000000
0.282500 0.903125 0.000000
0.363750 0.903125 0.000000
0.445000 0.903125 0.000000
0.526250 0.903125 0.000000
0.607500 0.903125 0.000000
0.688750 0.903125 0.000000
0.770000 0.903125 0.000000
0.851250 0.903125 0.000000
0.932500 0.903125 0.000000
1.000000 0.903125 0.000000
1.000000 0.903125 0.000000
1.000000 0.903125 0.000000
1.000000 0.903125 0.000000
1.000000 0.903125 0.000000
1.000000 0.903125 0.000000
0.120000 0.968750 0.000000
0.201250 0.968750 0.000000
0.282500 0.968750 0.000000
0.363750 0.968750 0.000000
0.445000 0.968750 0.000000
0.526250 0.968750 0.000000
0.607500 0.968750 0.000000
0.688750 0.968750 0.000000
0.770000 0.968750 0.000000
0.851250 0.968750 0.000000
0.932500 0.968750 0.000000
1.000000 0.968750 0.000000
1.000000 0.968750 0.000000
1.000000 0.968750 0.000000
1.000000 0.968750 0.000000
1.000000 0.968750 0.000000
1.000000 0.968750 0.000000
0.120000 1.000000 0.000000
0.201250 1.000000 0.000000
0.282500 1.000000 0.000000
0.363750 1.000000 0.000000
0.445000 1.000000 0.000000
0.526250 1.000000 0.000000
0.607500 1.000000 0.000000
0.688750 1.000000 0.000000
0.770000 1.000000 0.000000
0.851250 1.000000 0.000000
0.932500 1.000000 0.000000
1.000000 1.000000 0.000000
1.000000 1.000000 0.000000
1.000000 1.000000 0.000000
1.000000 1.000000 0.000000
1.000000 1.000000 0.000000
1.000000 1.000000 0.000000
0.120000 1.000000 0.000000
0.201250 1.000000 0.000000
0.282500 1.000000 0.000000
0.363750 1.000000 0.000000
0.445000 1.000000 0.000000
0.526250 1.000000 0.000000
0.607500 1.000000 0.000000
0.688750 1.000000 0.000000
0.770000 1.000000 0.000000
0.851250 1.000000 0.000000
0.932500 1.000000 0.000000
1.000000 1.000000 0.000000
1.000000 1.000000 0.000000
1.000000 1.000000 0.000000
1.000000 1.000000 0.000000
1.000000 1.000000 0.000000
1.000000 1.000000 0.000000
0.120000 0.050000 0.000000
0.201250 0.050000 0.000000
0.282500 0.050000 0.000000
0.363750 0.050000 0.000000
0.445000 0.050000 0.000000
0.526250 0.050000 0.000000
0.607500 0.050000 0.000000
0.688750 0.050000 0.000000
0.770000 0.050000 0.000000
0.851250 0.050000 0.000000
0.932500 0.050000 0.000000
1.000000 0.050000 0.000000
1.000000 0.050000 0.000000
1.000000 0.050000 0.000000
1.000000 0.050000 0.000000
1.000000 0.050000 0.000000
1.000000 0.050000 0.000000
0.120000 0.115625 0.000000
0.201250 0.115625 0.000000
0.282500 0.115625 0.000000
0.363750 0.115625 0.000000
0.445000 0.115625 0.000000
0.526250 0.115625 0.000000
0.607500 0.115625 0.000000
0.688750 0.115625 0.000000
0.770000 0.115625 0.000000
0.851250 0.115625 0.000000
0.932500 0.115625 0.000000
1.000000 0.115625 0.000000
1.000000 0.115625 0.000000
1.000000 0.115625 0.000000
1.000000 0.115625 0.000000
1.000000 0.115625 0.000000
1.000000 0.115625 0.000000
0.120000 0.181250 0.000000
0.201250 0.181250 0.000000
0.282500 0.181250 0.000000
0.363750 0.181250 0.000000
0.445000 0.181250 0.000000
0.526250 0.181250 0.000000
0.607500 0.181250 0.000000
0.688750 0.181250 0.000000
0.770000 0.181250 0.000000
0.851250 0.181250 0.000000
0.932500 0.181250 0.000000
1.000000 0.181250 0.000000
1.000000 0.181250 0.000000
1.000000 0.181250 0.000000
1.000000 0.181250 0.000000
1.000000 0.181250 0.000000
1.000000 0.181250 0.000000
0.120000 0.246875 0.000000
0.201250 0.246875 0.000000
0.282500 0.246875 0.000000
0.363750 0.246875 0.000000
0.445000 0.246875 0.000000
0.526250 0.246875 0.000000
0.607500 0.246875 0.000000
0.688750 0.246875 0.000000
0.770000 0.246875 0.000000
0.851250 0.246875 0.000000
0.932500 0.246875 0.000000
1.000000 0.246875 0.000000
1.000000 0.246875 0.000000
1.000000 0.246875 0.000000
1.000000 0.246875 0.000000
1.000000 0.246875 0.000000
1.000000 0.246875 0.000000
0.120000 0.312500 0.000000
0.201250 0.312500 0.000000
0.282500 0.312500 0.000000
0.363750 0.312500 0.000000
0.445000 0.312500 0.000000
0.526250 0.312500 0.000000
0.607500 0.312500 0.000000
0.688750 0.312500 0.000000
0.770000 0.312500 0.000000
0.851250 0.312500 0.000000
0.932500 0.312500 0.000000
1.000000 0.312500 0.000000
1.000000 0.312500 0.000000
1.000000 0.312500 0.000000
1.000000 0.312500 0.000000
1.000000 0.312500 0.000000
1.000000 0.312500 0.000000
0.120000 0.378125 0.000000
0.201250 0.378125 0.000000
0.282500 0.378125 0.000000
0.363750 0.378125 0.000000
0.445000 0.378125 0.000000
0.526250 0.378125 0.000000
0.607500 0.378125 0.000000
0.688750 0.378125 0.000000
0.770000 0.378125 0.000000
0.851250 0.378125 0.000000
0.932500 0.378125 0.000000
1.000000 0.378125 0.000000
1.000000 0.378125 0.000000
1.000000 0.378125 0.000000
1.000000 0.378125 0.000000
1.000000 0.378125 0.000000
1.000000 0.378125 0.000000
0.120000 0.443750 0.000000
0.201250 0.443750 0.000000
0.282500 0.443750 0.000000
0.363750 0.443750 0.000000
0.445000 0.443750 0.000000
0.526250 0.443750 0.000000
0.607500 0.443750 0.000000
0.688750 0.443750 0.000000
0.770000 0.443750 0.000000
0.851250 0.443750 0.000000
0.932500 0.443750 0.000000
1.000000 0.443750 0.000000
1.000000 0.443750 0.000000
1.000000 0.443750 0.000000
1.000000 0.443750 0.000000
1.000000 0.443750 0.000000
1.000000 0.443750 0.000000
0.120000 0.509375 0.000000
0.201250 0.509375 0.000000
0.282500 0.509375 0.000000
0.363750 0.509375 0.000000
0.445000 0.509375 0.000000
0.526250 0.509375 0.000000
0.607500 0.509375 0.000000
0.688750 0.509375 0.000000
0.770000 0.509375 0.000000
0.851250 0.509375 0.000000
0.932500 0.509375 0.000000
1.000000 0.509375 0.000000
1.000000 0.509375 0.000000
1.000000 0.509375 0.000000
1.000000 0.509375 0.000000
1.000000 0.509375 0.000000
1.000000 0.509375 0.000000
0.120000 0.575000 0.000000
0.201250 0.575000 0.000000
0.282500 0.575000 0.000000
0.363750 0.575000 0.000000
0.445000 0.575000 0.000000
0.526250 0.575000 0.000000
0.607500 0.575000 0.000000
0.688750 0.575000 0.000000
0.770000 0.575000 0.000000
0.851250 0.575000 0.000000
0.932500 0.575000 0.000000
1.000000 0.575000 0.000000
1.000000 0.575000 0.000000
1.000000 0.575000 0.000000
1.000000 0.575000 0.000000
1.000000 0.575000 0.000000
1.000000 0.575000 0.000000
0.120000 0.640625 0.000000
0.201250 0.640625 0.000000
0.282500 0.640625 0.000000
0.363750 0.640625 0.000000
0.445000 0.640625 0.000000
0.526250 0.640625 0.000000
0.607500 0.640625 0.000000
0.688750 0.640625 0.000000
0.770000 0.640625 0.000000
0.851250 0.640625 0.000000
0.932500 0.640625 0.000000
1.000000 0.640625 0.000000
1.000000 0.640625 0.000000
1.000000 0.640625 0.000000
1.000000 0.640625 0.000000
1.000000 0.640625 0.000000
1.000000 0.640625 0.000000
0.120000 0.706250 0.000000
0.201250 0.706250 0.000000
0.282500 0.706250 0.000000
0.363750 0.706250 0.000000
0.445000 0.706250 0.000000
0.526250 0.706250 0.000000
0.607500 0.706250 0.000000
0.688750 0.706250 0.000000
0.770000 0.706250 0.000000
0.851250 0.706250 0.000000
0.932500 0.706250 0.000000
1.000000 0.706250 0.000000
1.000000 0.706250 0.000000
1.000000 0.706250 0.000000
1.000000 0.706250 0.000000
1.000000 0.706250 0.000000
1.000000 0.706250 0.000000
0.120000 0.771875 0.000000
0.201250 0.771875 0.000000
0.282500 0.771875 0.000000
0.363750 0.771875 0.000000
0.445000 0.771875 0.000000
0.526250 0.771875 0.000000
0.607500 0.771875 0.000000
0.688750 0.771875 0.000000
0.770000 0.771875 0.000000
0.851250 0.771875 0.000000
0.932500 0.771875 0.000000
1.000000 0.771875 0.000000
1.000000 0.771875 0.000000
1.000000 0.771875 0.000000
1.000000 0.771875 0.000000
1.000000 0.771875 0.000000
1.000000 0.771875 0.000000
0.120000 0.837500 0.000000
0.201250 0.837500 0.000000
0.282500 0.837500 0.000000
0.363750 0.837500 0.000000
0.445000 0.837500 0.000000
0.526250 0.837500 0.000000
0.607500 0.837500 0.000000
0.688750 0.837500 0.000000
0.770000 0.837500 0.000000
0.851250 0.837500 0.000000
0.932500 0.837500 0.000000
1.000000 0.837500 0.000000
1.000000 0.837500 0.000000
1.000000 0.837500 0.000000
1.000000 0.837500 0.000000
1.000000 0.837500 0.000000
1.000000 0.837500 0.000000
0.120000 0.903125 0.000000
0.201250 0.903125 0.000000
0.282500 0.903125 0.000000
0.363750 0.903125 0.000000
0.445000 0.903125 0.000000
0.526250 0.903125 0.000000
0.607500 0.903125 0.000000
0.688750 0.903125 0.000000
0.770000 0.903125 0.000000
0.851250 0.903125 0.000000
0.932500 0.903125 0.000000
1.000000 0.903125 0.000000
1.000000 0.903125 0.000000
1.000000 0.903125 0.000000
1.000000 0.903125 0.000000
1.000000 0.903125 0.000000
1.000000 0.903125 0.000000
0.120000 0.968750 0.000000
0.201250 0.968750 0.000000
0.282500 0.968750 0.000000
0.363750 0.968750 0.000000
0.445000 0.968750 0.000000
0.526250 0.968750 0.000000
0.607500 0.968750 0.000000
0.688750 0.968750 0.000000
0.770000 0.968750 0.000000
0.851250 0.968750 0.000000
0.932500 0.968750 0.000000
1.000000 0.968750 0.000000
1.000000 0.968750 0.000000
1.000000 0.968750 0.000000
1.000000 0.968750 0.000000
1.000000 0.968750 0.000000
1.000000 0.968750 0.000000
0.120000 1.000000 0.000000
0.201250 1.000000 0.000000
0.282500 1.000000 0.000000
0.363750 1.000000 0.000000
0.445000 1.000000 0.000000
0.526250 1.000000 0.000000
0.607500 1.000000 0.000000
0.688750 1.000000 0.000000
0.770000 1.000000 0.000000
0.851250 1.000000 0.000000
0.932500 1.000000 0.000000
1.000000 1.000000 0.000000
1.000000 1.000000 0.000000
1.000000 1.000000 0.000000
1.000000 1.000000 0.000000
1.000000 1.000000 0.000000
1.000000 1.000000 0.000000
0.120000 1.000000 0.000000
0.201250 1.000000 0.000000
0.282500 1.000000 0.000000
0.363750 1.000000 0.000000
0.445000 1.000000 0.000000
0.526250 1.000000 0.000000
0.607500 1.000000 0.000000
0.688750 1.000000 0.000000
0.770000 1.000000 0.000000
0.851250 1.000000 0.000000
0.932500 1.000000 0.000000
1.000000 1.000000 0.000000
1.000000 1.000000 0.000000
1.000000 1.000000 0.000000
1.000000 1.000000 0.000000
1.000000 1.000000 0.000000
1.000000 1.000000 0.000000
0.120000 0.050000 0.050000
0.201250 0.050000 0.050000
0.282500 0.050000 0.050000
0.363750 0.050000 0.050000
0.445000 0.050000 0.050000
0.526250 0.050000 0.050000
0.607500 0.050000 0.050000
0.688750 0.050000 0.050000
0.770000 0.050000 0.050000
0.851250 0.050000 0.050000
0.932500 0.050000 0.050000
1.000000 0.050000 0.050000
1.000000 0.050000 0.050000
1.000000 0.050000 0.050000
1.000000 0.050000 0.050000
1.000000 0.050000 0.050000
1.000000 0.050000 0.050000
0.120000 0.115625 0.050000
