app/src/main/assets/luts/seventies_sun.cube
# ApexStudio filter: seventies_sun
LUT_3D_SIZE 9
DOMAIN_MIN 0.0 0.0 0.0
DOMAIN_MAX 1.0 1.0 1.0
0.120000 0.050000 0.000000
0.282500 0.050000 0.000000
0.445000 0.050000 0.000000
0.607500 0.050000 0.000000
0.770000 0.050000 0.000000
0.932500 0.050000 0.000000
1.000000 0.050000 0.000000
1.000000 0.050000 0.000000
1.000000 0.050000 0.000000
0.120000 0.181250 0.000000
0.282500 0.181250 0.000000
0.445000 0.181250 0.000000
0.607500 0.181250 0.000000
0.770000 0.181250 0.000000
0.932500 0.181250 0.000000
1.000000 0.181250 0.000000
1.000000 0.181250 0.000000
1.000000 0.181250 0.000000
0.120000 0.312500 0.000000
0.282500 0.312500 0.000000
0.445000 0.312500 0.000000
0.607500 0.312500 0.000000
0.770000 0.312500 0.000000
0.932500 0.312500 0.000000
1.000000 0.312500 0.000000
1.000000 0.312500 0.000000
1.000000 0.312500 0.000000
0.120000 0.443750 0.000000
0.282500 0.443750 0.000000
0.445000 0.443750 0.000000
0.607500 0.443750 0.000000
0.770000 0.443750 0.000000
0.932500 0.443750 0.000000
1.000000 0.443750 0.000000
1.000000 0.443750 0.000000
1.000000 0.443750 0.000000
0.120000 0.575000 0.000000
0.282500 0.575000 0.000000
0.445000 0.575000 0.000000
0.607500 0.575000 0.000000
0.770000 0.575000 0.000000
0.932500 0.575000 0.000000
1.000000 0.575000 0.000000
1.000000 0.575000 0.000000
1.000000 0.575000 0.000000
0.120000 0.706250 0.000000
0.282500 0.706250 0.000000
0.445000 0.706250 0.000000
0.607500 0.706250 0.000000
0.770000 0.706250 0.000000
0.932500 0.706250 0.000000
1.000000 0.706250 0.000000
1.000000 0.706250 0.000000
1.000000 0.706250 0.000000
0.120000 0.837500 0.000000
0.282500 0.837500 0.000000
0.445000 0.837500 0.000000
0.607500 0.837500 0.000000
0.770000 0.837500 0.000000
0.932500 0.837500 0.000000
1.000000 0.837500 0.000000
1.000000 0.837500 0.000000
1.000000 0.837500 0.000000
0.120000 0.968750 0.000000
0.282500 0.968750 0.000000
0.445000 0.968750 0.000000
0.607500 0.968750 0.000000
0.770000 0.968750 0.000000
0.932500 0.968750 0.000000
1.000000 0.968750 0.000000
1.000000 0.968750 0.000000
1.000000 0.968750 0.000000
0.120000 1.000000 0.000000
0.282500 1.000000 0.000000
0.445000 1.000000 0.000000
0.607500 1.000000 0.000000
0.770000 1.000000 0.000000
0.932500 1.000000 0.000000
1.000000 1.000000 0.000000
1.000000 1.000000 0.000000
1.000000 1.000000 0.000000
0.120000 0.050000 0.000000
0.282500 0.050000 0.000000
0.445000 0.050000 0.000000
0.607500 0.050000 0.000000
0.770000 0.050000 0.000000
0.932500 0.050000 0.000000
1.000000 0.050000 0.000000
1.000000 0.050000 0.000000
1.000000 0.050000 0.000000
0.120000 0.181250 0.000000
0.282500 0.181250 0.000000
0.445000 0.181250 0.000000
0.607500 0.181250 0.000000
0.770000 0.181250 0.000000
0.932500 0.181250 0.000000
1.000000 0.181250 0.000000
1.000000 0.181250 0.000000
1.000000 0.181250 0.000000
0.120000 0.312500 0.000000
0.282500 0.312500 0.000000
0.445000 0.312500 0.000000
0.607500 0.312500 0.000000
0.770000 0.312500 0.000000
0.932500 0.312500 0.000000
1.000000 0.312500 0.000000
1.000000 0.312500 0.000000
1.000000 0.312500 0.000000
0.120000 0.443750 0.000000
0.282500 0.443750 0.000000
0.445000 0.443750 0.000000
0.607500 0.443750 0.000000
0.770000 0.443750 0.000000
0.932500 0.443750 0.000000
1.000000 0.443750 0.000000
1.000000 0.443750 0.000000
1.000000 0.443750 0.000000
0.120000 0.575000 0.000000
0.282500 0.575000 0.000000
0.445000 0.575000 0.000000
0.607500 0.575000 0.000000
0.770000 0.575000 0.000000
0.932500 0.575000 0.000000
1.000000 0.575000 0.000000
1.000000 0.575000 0.000000
1.000000 0.575000 0.000000
0.120000 0.706250 0.000000
0.282500 0.706250 0.000000
0.445000 0.706250 0.000000
0.607500 0.706250 0.000000
0.770000 0.706250 0.000000
0.932500 0.706250 0.000000
1.000000 0.706250 0.000000
1.000000 0.706250 0.000000
1.000000 0.706250 0.000000
0.120000 0.837500 0.000000
0.282500 0.837500 0.000000
0.445000 0.837500 0.000000
0.607500 0.837500 0.000000
0.770000 0.837500 0.000000
0.932500 0.837500 0.000000
1.000000 0.837500 0.000000
1.000000 0.837500 0.000000
1.000000 0.837500 0.000000
0.120000 0.968750 0.000000
0.282500 0.968750 0.000000
0.445000 0.968750 0.000000
0.607500 0.968750 0.000000
0.770000 0.968750 0.000000
0.932500 0.968750 0.000000
1.000000 0.968750 0.000000
1.000000 0.968750 0.000000
1.000000 0.968750 0.000000
0.120000 1.000000 0.000000
0.282500 1.000000 0.000000
0.445000 1.000000 0.000000
0.607500 1.000000 0.000000
0.770000 1.000000 0.000000
0.932500 1.000000 0.000000
1.000000 1.000000 0.000000
1.000000 1.000000 0.000000
1.000000 1.000000 0.000000
0.120000 0.050000 0.100000
0.282500 0.050000 0.100000
0.445000 0.050000 0.100000
0.607500 0.050000 0.100000
0.770000 0.050000 0.100000
0.932500 0.050000 0.100000
1.000000 0.050000 0.100000
1.000000 0.050000 0.100000
1.000000 0.050000 0.100000
0.120000 0.181250 0.100000
0.282500 0.181250 0.100000
0.445000 0.181250 0.100000
0.607500 0.181250 0.100000
0.770000 0.181250 0.100000
0.932500 0.181250 0.100000
1.000000 0.181250 0.100000
1.000000 0.181250 0.100000
1.000000 0.181250 0.100000
0.120000 0.312500 0.100000
0.282500 0.312500 0.100000
0.445000 0.312500 0.100000
0.607500 0.312500 0.100000
0.770000 0.312500 0.100000
0.932500 0.312500 0.100000
1.000000 0.312500 0.100000
1.000000 0.312500 0.100000
1.000000 0.312500 0.100000
0.120000 0.443750 0.100000
0.282500 0.443750 0.100000
0.445000 0.443750 0.100000
0.607500 0.443750 0.100000
0.770000 0.443750 0.100000
0.932500 0.443750 0.100000
1.000000 0.443750 0.100000
1.000000 0.443750 0.100000
1.000000 0.443750 0.100000
0.120000 0.575000 0.100000
0.282500 0.575000 0.100000
0.445000 0.575000 0.100000
0.607500 0.575000 0.100000
0.770000 0.575000 0.100000
0.932500 0.575000 0.100000
1.000000 0.575000 0.100000
1.000000 0.575000 0.100000
1.000000 0.575000 0.100000
0.120000 0.706250 0.100000
0.282500 0.706250 0.100000
0.445000 0.706250 0.100000
0.607500 0.706250 0.100000
0.770000 0.706250 0.100000
0.932500 0.706250 0.100000
1.000000 0.706250 0.100000
1.000000 0.706250 0.100000
1.000000 0.706250 0.100000
0.120000 0.837500 0.100000
0.282500 0.837500 0.100000
0.445000 0.837500 0.100000
0.607500 0.837500 0.100000
0.770000 0.837500 0.100000
0.932500 0.837500 0.100000
1.000000 0.837500 0.100000
1.000000 0.837500 0.100000
1.000000 0.837500 0.100000
0.120000 0.968750 0.100000
0.282500 0.968750 0.100000
0.445000 0.968750 0.100000
0.607500 0.968750 0.100000
0.770000 0.968750 0.100000
0.932500 0.968750 0.100000
1.000000 0.968750 0.100000
1.000000 0.968750 0.100000
1.000000 0.968750 0.100000
0.120000 1.000000 0.100000
0.282500 1.000000 0.100000
0.445000 1.000000 0.100000
0.607500 1.000000 0.100000
0.770000 1.000000 0.100000
0.932500 1.000000 0.100000
1.000000 1.000000 0.100000
1.000000 1.000000 0.100000
1.000000 1.000000 0.100000
0.120000 0.050000 0.200000
0.282500 0.050000 0.200000
0.445000 0.050000 0.200000
0.607500 0.050000 0.200000
0.770000 0.050000 0.200000
0.932500 0.050000 0.200000
1.000000 0.050000 0.200000
1.000000 0.050000 0.200000
1.000000 0.050000 0.200000
0.120000 0.181250 0.200000
0.282500 0.181250 0.200000
0.445000 0.181250 0.200000
0.607500 0.181250 0.200000
0.770000 0.181250 0.200000
0.932500 0.181250 0.200000
1.000000 0.181250 0.200000
1.000000 0.181250 0.200000
1.000000 0.181250 0.200000
0.120000 0.312500 0.200000
0.282500 0.312500 0.200000
0.445000 0.312500 0.200000
0.607500 0.312500 0.200000
0.770000 0.312500 0.200000
0.932500 0.312500 0.200000
1.000000 0.312500 0.200000
1.000000 0.312500 0.200000
1.000000 0.312500 0.200000
0.120000 0.443750 0.200000
0.282500 0.443750 0.200000
0.445000 0.443750 0.200000
0.607500 0.443750 0.200000
0.770000 0.443750 0.200000
0.932500 0.443750 0.200000
1.000000 0.443750 0.200000
1.000000 0.443750 0.200000
1.000000 0.443750 0.200000
0.120000 0.575000 0.200000
0.282500 0.575000 0.200000
0.445000 0.575000 0.200000
0.607500 0.575000 0.200000
0.770000 0.575000 0.200000
0.932500 0.575000 0.200000
1.000000 0.575000 0.200000
1.000000 0.575000 0.200000
1.000000 0.575000 0.200000
0.120000 0.706250 0.200000
0.282500 0.706250 0.200000
0.445000 0.706250 0.200000
0.607500 0.706250 0.200000
0.770000 0.706250 0.200000
0.932500 0.706250 0.200000
1.000000 0.706250 0.200000
1.000000 0.706250 0.200000
1.000000 0.706250 0.200000
0.120000 0.837500 0.200000
0.282500 0.837500 0.200000
0.445000 0.837500 0.200000
0.607500 0.837500 0.200000
0.770000 0.837500 0.200000
0.932500 0.837500 0.200000
1.000000 0.837500 0.200000
1.000000 0.837500 0.200000
1.000000 0.837500 0.200000
0.120000 0.968750 0.200000
0.282500 0.968750 0.200000
0.445000 0.968750 0.200000
0.607500 0.968750 0.200000
0.770000 0.968750 0.200000
0.932500 0.968750 0.200000
1.000000 0.968750 0.200000
1.000000 0.968750 0.200000
1.000000 0.968750 0.200000
0.120000 1.000000 0.200000
0.282500 1.000000 0.200000
0.445000 1.000000 0.200000
0.607500 1.000000 0.200000
0.770000 1.000000 0.200000
0.932500 1.000000 0.200000
1.000000 1.000000 0.200000
1.000000 1.000000 0.200000
1.000000 1.000000 0.200000
0.120000 0.050000 0.300000
0.282500 0.050000 0.300000
0.445000 0.050000 0.300000
0.607500 0.050000 0.300000
0.770000 0.050000 0.300000
0.932500 0.050000 0.300000
1.000000 0.050000 0.300000
1.000000 0.050000 0.300000
1.000000 0.050000 0.300000
0.120000 0.181250 0.300000
0.282500 0.181250 0.300000
0.445000 0.181250 0.300000
0.607500 0.181250 0.300000
0.770000 0.181250 0.300000
0.932500 0.181250 0.300000
1.000000 0.181250 0.300000
1.000000 0.181250 0.300000
1.000000 0.181250 0.300000
0.120000 0.312500 0.300000
0.282500 0.312500 0.300000
0.445000 0.312500 0.300000
0.607500 0.312500 0.300000
0.770000 0.312500 0.300000
0.932500 0.312500 0.300000
1.000000 0.312500 0.300000
1.000000 0.312500 0.300000
1.000000 0.312500 0.300000
0.120000 0.443750 0.300000
0.282500 0.443750 0.300000
0.445000 0.443750 0.300000
0.607500 0.443750 0.300000
0.770000 0.443750 0.300000
0.932500 0.443750 0.300000
1.000000 0.443750 0.300000
1.000000 0.443750 0.300000
1.000000 0.443750 0.300000
0.120000 0.575000 0.300000
0.282500 0.575000 0.300000
0.445000 0.575000 0.300000
0.607500 0.575000 0.300000
0.770000 0.575000 0.300000
0.932500 0.575000 0.300000
1.000000 0.575000 0.300000
1.000000 0.575000 0.300000
1.000000 0.575000 0.300000
0.120000 0.706250 0.300000
0.282500 0.706250 0.300000
0.445000 0.706250 0.300000
0.607500 0.706250 0.300000
0.770000 0.706250 0.300000
0.932500 0.706250 0.300000
1.000000 0.706250 0.300000
1.000000 0.706250 0.300000
1.000000 0.706250 0.300000
0.120000 0.837500 0.300000
0.282500 0.837500 0.300000
0.445000 0.837500 0.300000
0.607500 0.837500 0.300000
0.770000 0.837500 0.300000
0.932500 0.837500 0.300000
1.000000 0.837500 0.300000
1.000000 0.837500 0.300000
1.000000 0.837500 0.300000
0.120000 0.968750 0.300000
0.282500 0.968750 0.300000
0.445000 0.968750 0.300000
0.607500 0.968750 0.300000
0.770000 0.968750 0.300000
0.932500 0.968750 0.300000
1.000000 0.968750 0.300000
1.000000 0.968750 0.300000
1.000000 0.968750 0.300000
0.120000 1.000000 0.300000
0.282500 1.000000 0.300000
0.445000 1.000000 0.300000
0.607500 1.000000 0.300000
0.770000 1.000000 0.300000
0.932500 1.000000 0.300000
1.000000 1.000000 0.300000
1.000000 1.000000 0.300000
1.000000 1.000000 0.300000
0.120000 0.050000 0.400000
0.282500 0.050000 0.400000
0.445000 0.050000 0.400000
0.607500 0.050000 0.400000
0.770000 0.050000 0.400000
0.932500 0.050000 0.400000
1.000000 0.050000 0.400000
1.000000 0.050000 0.400000
1.000000 0.050000 0.400000
0.120000 0.181250 0.400000
0.282500 0.181250 0.400000
0.445000 0.181250 0.400000
0.607500 0.181250 0.400000
0.770000 0.181250 0.400000
0.932500 0.181250 0.400000
1.000000 0.181250 0.400000
1.000000 0.181250 0.400000
1.000000 0.181250 0.400000
0.120000 0.312500 0.400000
0.282500 0.312500 0.400000
0.445000 0.312500 0.400000
0.607500 0.312500 0.400000
0.770000 0.312500 0.400000
0.932500 0.312500 0.400000
1.000000 0.312500 0.400000
1.000000 0.312500 0.400000
1.000000 0.312500 0.400000
0.120000 0.443750 0.400000
0.282500 0.443750 0.400000
0.445000 0.443750 0.400000
0.607500 0.443750 0.400000
0.770000 0.443750 0.400000
0.932500 0.443750 0.400000
1.000000 0.443750 0.400000
1.000000 0.443750 0.400000
1.000000 0.443750 0.400000
0.120000 0.575000 0.400000
0.282500 0.575000 0.400000
0.445000 0.575000 0.400000
0.607500 0.575000 0.400000
0.770000 0.575000 0.400000
0.932500 0.575000 0.400000
1.000000 0.575000 0.400000
1.000000 0.575000 0.400000
1.000000 0.575000 0.400000
0.120000 0.706250 0.400000
0.282500 0.706250 0.400000
0.445000 0.706250 0.400000
0.607500 0.706250 0.400000
0.770000 0.706250 0.400000
0.932500 0.706250 0.400000
1.000000 0.706250 0.400000
1.000000 0.706250 0.400000
1.000000 0.706250 0.400000
0.120000 0.837500 0.400000
0.282500 0.837500 0.400000
0.445000 0.837500 0.400000
0.607500 0.837500 0.400000
0.770000 0.837500 0.400000
0.932500 0.837500 0.400000
1.000000 0.837500 0.400000
1.000000 0.837500 0.400000
1.000000 0.837500 0.400000
0.120000 0.968750 0.400000
0.282500 0.968750 0.400000
0.445000 0.968750 0.400000
0.607500 0.968750 0.400000
0.770000 0.968750 0.400000
0.932500 0.968750 0.400000
1.000000 0.968750 0.400000
1.000000 0.968750 0.400000
1.000000 0.968750 0.400000
0.120000 1.000000 0.400000
0.282500 1.000000 0.400000
0.445000 1.000000 0.400000
0.607500 1.000000 0.400000
0.770000 1.000000 0.400000
0.932500 1.000000 0.400000
1.000000 1.000000 0.400000
1.000000 1.000000 0.400000
1.000000 1.000000 0.400000
0.120000 0.050000 0.500000
0.282500 0.050000 0.500000
0.445000 0.050000 0.500000
0.607500 0.050000 0.500000
0.770000 0.050000 0.500000
0.932500 0.050000 0.500000
1.000000 0.050000 0.500000
1.000000 0.050000 0.500000
1.000000 0.050000 0.500000
0.120000 0.181250 0.500000
0.282500 0.181250 0.500000
0.445000 0.181250 0.500000
0.607500 0.181250 0.500000
0.770000 0.181250 0.500000
0.932500 0.181250 0.500000
1.000000 0.181250 0.500000
1.000000 0.181250 0.500000
1.000000 0.181250 0.500000
0.120000 0.312500 0.500000
0.282500 0.312500 0.500000
0.445000 0.312500 0.500000
0.607500 0.312500 0.500000
0.770000 0.312500 0.500000
0.932500 0.312500 0.500000
1.000000 0.312500 0.500000
1.000000 0.312500 0.500000
1.000000 0.312500 0.500000
0.120000 0.443750 0.500000
0.282500 0.443750 0.500000
0.445000 0.443750 0.500000
0.607500 0.443750 0.500000
0.770000 0.443750 0.500000
0.932500 0.443750 0.500000
1.000000 0.443750 0.500000
1.000000 0.443750 0.500000
1.000000 0.443750 0.500000
0.120000 0.575000 0.500000
0.282500 0.575000 0.500000
0.445000 0.575000 0.500000
0.607500 0.575000 0.500000
0.770000 0.575000 0.500000
0.932500 0.575000 0.500000
1.000000 0.575000 0.500000
1.000000 0.575000 0.500000
1.000000 0.575000 0.500000
0.120000 0.706250 0.500000
0.282500 0.706250 0.500000
0.445000 0.706250 0.500000
0.607500 0.706250 0.500000
0.770000 0.706250 0.500000
0.932500 0.706250 0.500000
1.000000 0.706250 0.500000
1.000000 0.706250 0.500000
1.000000 0.706250 0.500000
0.120000 0.837500 0.500000
0.282500 0.837500 0.500000
0.445000 0.837500 0.500000
0.607500 0.837500 0.500000
0.770000 0.837500 0.500000
0.932500 0.837500 0.500000
1.000000 0.837500 0.500000
1.000000 0.837500 0.500000
1.000000 0.837500 0.500000
0.120000 0.968750 0.500000
0.282500 0.968750 0.500000
0.445000 0.968750 0.500000
0.607500 0.968750 0.500000
0.770000 0.968750 0.500000
0.932500 0.968750 0.500000
1.000000 0.968750 0.500000
1.000000 0.968750 0.500000
1.000000 0.968750 0.500000
0.120000 1.000000 0.500000
0.282500 1.000000 0.500000
0.445000 1.000000 0.500000
0.607500 1.000000 0.500000
0.770000 1.000000 0.500000
0.932500 1.000000 0.500000
1.000000 1.000000 0.500000
1.000000 1.000000 0.500000
1.000000 1.000000 0.500000
0.120000 0.050000 0.600000
0.282500 0.050000 0.600000
0.445000 0.050000 0.600000
0.607500 0.050000 0.600000
0.770000 0.050000 0.600000
0.932500 0.050000 0.600000
1.000000 0.050000 0.600000
1.000000 0.050000 0.600000
1.000000 0.050000 0.600000
0.120000 0.181250 0.600000
0.282500 0.181250 0.600000
0.445000 0.181250 0.600000
0.607500 0.181250 0.600000
0.770000 0.181250 0.600000
0.932500 0.181250 0.600000
1.000000 0.181250 0.600000
1.000000 0.181250 0.600000
1.000000 0.181250 0.600000
0.120000 0.312500 0.600000
0.282500 0.312500 0.600000
0.445000 0.312500 0.600000
0.607500 0.312500 0.600000
0.770000 0.312500 0.600000
0.932500 0.312500 0.600000
1.000000 0.312500 0.600000
1.000000 0.312500 0.600000
1.000000 0.312500 0.600000
0.120000 0.443750 0.600000
0.282500 0.443750 0.600000
0.445000 0.443750 0.600000
0.607500 0.443750 0.600000
0.770000 0.443750 0.600000
0.932500 0.443750 0.600000
1.000000 0.443750 0.600000
1.000000 0.443750 0.600000
1.000000 0.443750 0.600000
0.120000 0.575000 0.600000
0.282500 0.575000 0.600000
0.445000 0.575000 0.600000
0.607500 0.575000 0.600000
0.770000 0.575000 0.600000
0.932500 0.575000 0.600000
1.000000 0.575000 0.600000
1.000000 0.575000 0.600000
1.000000 0.575000 0.600000
0.120000 0.706250 0.600000
0.282500 0.706250 0.600000
0.445000 0.706250 0.600000
0.607500 0.706250 0.600000
0.770000 0.706250 0.600000
0.932500 0.706250 0.600000
1.000000 0.706250 0.600000
1.000000 0.706250 0.600000
1.000000 0.706250 0.600000
0.120000 0.837500 0.600000
0.282500 0.837500 0.600000
0.445000 0.837500 0.600000
0.607500 0.837500 0.600000
0.770000 0.837500 0.600000
0.932500 0.837500 0.600000
1.000000 0.837500 0.600000
1.000000 0.837500 0.600000
1.000000 0.837500 0.600000
0.120000 0.968750 0.600000
0.282500 0.968750 0.600000
0.445000 0.968750 0.600000
0.607500 0.968750 0.600000
0.770000 0.968750 0.600000
0.932500 0.968750 0.600000
1.000000 0.968750 0.600000
1.000000 0.968750 0.600000
1.000000 0.968750 0.600000
0.120000 1.000000 0.600000
0.282500 1.000000 0.600000
0.445000 1.000000 0.600000
0.607500 1.000000 0.600000
0.770000 1.000000 0.600000
0.932500 1.000000 0.600000
1.000000 1.000000 0.600000
1.000000 1.000000 0.600000
1.000000 1.000000 0.600000
0.120000 0.050000 0.700000
0.282500 0.050000 0.700000
0.445000 0.050000 0.700000
0.607500 0.050000 0.700000
0.770000 0.050000 0.700000
0.932500 0.050000 0.700000
1.000000 0.050000 0.700000
1.000000 0.050000 0.700000
1.000000 0.050000 0.700000
0.120000 0.181250 0.700000
0.282500 0.181250 0.700000
0.445000 0.181250 0.700000
0.607500 0.181250 0.700000
0.770000 0.181250 0.700000
0.932500 0.181250 0.700000
1.000000 0.181250 0.700000
1.000000 0.181250 0.700000
1.000000 0.181250 0.700000
0.120000 0.312500 0.700000
0.282500 0.312500 0.700000
0.445000 0.312500 0.700000
0.607500 0.312500 0.700000
0.770000 0.312500 0.700000
0.932500 0.312500 0.700000
1.000000 0.312500 0.700000
1.000000 0.312500 0.700000
1.000000 0.312500 0.700000
0.120000 0.443750 0.700000
0.282500 0.443750 0.700000
0.445000 0.443750 0.700000
0.607500 0.443750 0.700000
0.770000 0.443750 0.700000
0.932500 0.443750 0.700000
1.000000 0.443750 0.700000
1.000000 0.443750 0.700000
1.000000 0.443750 0.700000
0.120000 0.575000 0.700000
0.282500 0.575000 0.700000
0.445000 0.575000 0.700000
0.607500 0.575000 0.700000
0.770000 0.575000 0.700000
0.932500 0.575000 0.700000
1.000000 0.575000 0.700000
1.000000 0.575000 0.700000
1.000000 0.575000 0.700000
0.120000 0.706250 0.700000
0.282500 0.706250 0.700000
0.445000 0.706250 0.700000
0.607500 0.706250 0.700000
0.770000 0.706250 0.700000
0.932500 0.706250 0.700000
1.000000 0.706250 0.700000
1.000000 0.706250 0.700000
1.000000 0.706250 0.700000
0.120000 0.837500 0.700000
0.282500 0.837500 0.700000
0.445000 0.837500 0.700000
0.607500 0.837500 0.700000
0.770000 0.837500 0.700000
0.932500 0.837500 0.700000
1.000000 0.837500 0.700000
1.000000 0.837500 0.700000
1.000000 0.837500 0.700000
0.120000 0.968750 0.700000
0.282500 0.968750 0.700000
0.445000 0.968750 0.700000
0.607500 0.968750 0.700000
0.770000 0.968750 0.700000
0.932500 0.968750 0.700000
1.000000 0.968750 0.700000
1.000000 0.968750 0.700000
1.000000 0.968750 0.700000
0.120000 1.000000 0.700000
0.282500 1.000000 0.700000
0.445000 1.000000 0.700000
0.607500 1.000000 0.700000
0.770000 1.000000 0.700000
0.932500 1.000000 0.700000
1.000000 1.000000 0.700000
1.000000 1.000000 0.700000
1.000000 1.000000 0.700000
