app/src/main/assets/luts/shadow_crush.cube
# ApexStudio filter: shadow_crush
LUT_3D_SIZE 9
DOMAIN_MIN 0.0 0.0 0.0
DOMAIN_MAX 1.0 1.0 1.0
0.000000 0.000000 0.000000
0.030000 0.000000 0.000000
0.180000 0.000000 0.000000
0.330000 0.000000 0.000000
0.480000 0.000000 0.000000
0.630000 0.000000 0.000000
0.780000 0.000000 0.000000
0.930000 0.000000 0.000000
1.000000 0.000000 0.000000
0.000000 0.030000 0.000000
0.030000 0.030000 0.000000
0.180000 0.030000 0.000000
0.330000 0.030000 0.000000
0.480000 0.030000 0.000000
0.630000 0.030000 0.000000
0.780000 0.030000 0.000000
0.930000 0.030000 0.000000
1.000000 0.030000 0.000000
0.000000 0.180000 0.000000
0.030000 0.180000 0.000000
0.180000 0.180000 0.000000
0.330000 0.180000 0.000000
0.480000 0.180000 0.000000
0.630000 0.180000 0.000000
0.780000 0.180000 0.000000
0.930000 0.180000 0.000000
1.000000 0.180000 0.000000
0.000000 0.330000 0.000000
0.030000 0.330000 0.000000
0.180000 0.330000 0.000000
0.330000 0.330000 0.000000
0.480000 0.330000 0.000000
0.630000 0.330000 0.000000
0.780000 0.330000 0.000000
0.930000 0.330000 0.000000
1.000000 0.330000 0.000000
0.000000 0.480000 0.000000
0.030000 0.480000 0.000000
0.180000 0.480000 0.000000
0.330000 0.480000 0.000000
0.480000 0.480000 0.000000
0.630000 0.480000 0.000000
0.780000 0.480000 0.000000
0.930000 0.480000 0.000000
1.000000 0.480000 0.000000
0.000000 0.630000 0.000000
0.030000 0.630000 0.000000
0.180000 0.630000 0.000000
0.330000 0.630000 0.000000
0.480000 0.630000 0.000000
0.630000 0.630000 0.000000
0.780000 0.630000 0.000000
0.930000 0.630000 0.000000
1.000000 0.630000 0.000000
0.000000 0.780000 0.000000
0.030000 0.780000 0.000000
0.180000 0.780000 0.000000
0.330000 0.780000 0.000000
0.480000 0.780000 0.000000
0.630000 0.780000 0.000000
0.780000 0.780000 0.000000
0.930000 0.780000 0.000000
1.000000 0.780000 0.000000
0.000000 0.930000 0.000000
0.030000 0.930000 0.000000
0.180000 0.930000 0.000000
0.330000 0.930000 0.000000
0.480000 0.930000 0.000000
0.630000 0.930000 0.000000
0.780000 0.930000 0.000000
0.930000 0.930000 0.000000
1.000000 0.930000 0.000000
0.000000 1.000000 0.000000
0.030000 1.000000 0.000000
0.180000 1.000000 0.000000
0.330000 1.000000 0.000000
0.480000 1.000000 0.000000
0.630000 1.000000 0.000000
0.780000 1.000000 0.000000
0.930000 1.000000 0.000000
1.000000 1.000000 0.000000
0.000000 0.000000 0.030000
0.030000 0.000000 0.030000
0.180000 0.000000 0.030000
0.330000 0.000000 0.030000
0.480000 0.000000 0.030000
0.630000 0.000000 0.030000
0.780000 0.000000 0.030000
0.930000 0.000000 0.030000
1.000000 0.000000 0.030000
0.000000 0.030000 0.030000
0.030000 0.030000 0.030000
0.180000 0.030000 0.030000
0.330000 0.030000 0.030000
0.480000 0.030000 0.030000
0.630000 0.030000 0.030000
0.780000 0.030000 0.030000
0.930000 0.030000 0.030000
1.000000 0.030000 0.030000
0.000000 0.180000 0.030000
0.030000 0.180000 0.030000
0.180000 0.180000 0.030000
0.330000 0.180000 0.030000
0.480000 0.180000 0.030000
0.630000 0.180000 0.030000
0.780000 0.180000 0.030000
0.930000 0.180000 0.030000
1.000000 0.180000 0.030000
0.000000 0.330000 0.030000
0.030000 0.330000 0.030000
0.180000 0.330000 0.030000
0.330000 0.330000 0.030000
0.480000 0.330000 0.030000
0.630000 0.330000 0.030000
0.780000 0.330000 0.030000
0.930000 0.330000 0.030000
1.000000 0.330000 0.030000
0.000000 0.480000 0.030000
0.030000 0.480000 0.030000
0.180000 0.480000 0.030000
0.330000 0.480000 0.030000
0.480000 0.480000 0.030000
0.630000 0.480000 0.030000
0.780000 0.480000 0.030000
0.930000 0.480000 0.030000
1.000000 0.480000 0.030000
0.000000 0.630000 0.030000
0.030000 0.630000 0.030000
0.180000 0.630000 0.030000
0.330000 0.630000 0.030000
0.480000 0.630000 0.030000
0.630000 0.630000 0.030000
0.780000 0.630000 0.030000
0.930000 0.630000 0.030000
1.000000 0.630000 0.030000
0.000000 0.780000 0.030000
0.030000 0.780000 0.030000
0.180000 0.780000 0.030000
0.330000 0.780000 0.030000
0.480000 0.780000 0.030000
0.630000 0.780000 0.030000
0.780000 0.780000 0.030000
0.930000 0.780000 0.030000
1.000000 0.780000 0.030000
0.000000 0.930000 0.030000
0.030000 0.930000 0.030000
0.180000 0.930000 0.030000
0.330000 0.930000 0.030000
0.480000 0.930000 0.030000
0.630000 0.930000 0.030000
0.780000 0.930000 0.030000
0.930000 0.930000 0.030000
1.000000 0.930000 0.030000
0.000000 1.000000 0.030000
0.030000 1.000000 0.030000
0.180000 1.000000 0.030000
0.330000 1.000000 0.030000
0.480000 1.000000 0.030000
0.630000 1.000000 0.030000
0.780000 1.000000 0.030000
0.930000 1.000000 0.030000
1.000000 1.000000 0.030000
0.000000 0.000000 0.180000
0.030000 0.000000 0.180000
0.180000 0.000000 0.180000
0.330000 0.000000 0.180000
0.480000 0.000000 0.180000
0.630000 0.000000 0.180000
0.780000 0.000000 0.180000
0.930000 0.000000 0.180000
1.000000 0.000000 0.180000
0.000000 0.030000 0.180000
0.030000 0.030000 0.180000
0.180000 0.030000 0.180000
0.330000 0.030000 0.180000
0.480000 0.030000 0.180000
0.630000 0.030000 0.180000
0.780000 0.030000 0.180000
0.930000 0.030000 0.180000
1.000000 0.030000 0.180000
0.000000 0.180000 0.180000
0.030000 0.180000 0.180000
0.180000 0.180000 0.180000
0.330000 0.180000 0.180000
0.480000 0.180000 0.180000
0.630000 0.180000 0.180000
0.780000 0.180000 0.180000
0.930000 0.180000 0.180000
1.000000 0.180000 0.180000
0.000000 0.330000 0.180000
0.030000 0.330000 0.180000
0.180000 0.330000 0.180000
0.330000 0.330000 0.180000
0.480000 0.330000 0.180000
0.630000 0.330000 0.180000
0.780000 0.330000 0.180000
0.930000 0.330000 0.180000
1.000000 0.330000 0.180000
0.000000 0.480000 0.180000
0.030000 0.480000 0.180000
0.180000 0.480000 0.180000
0.330000 0.480000 0.180000
0.480000 0.480000 0.180000
0.630000 0.480000 0.180000
0.780000 0.480000 0.180000
0.930000 0.480000 0.180000
1.000000 0.480000 0.180000
0.000000 0.630000 0.180000
0.030000 0.630000 0.180000
0.180000 0.630000 0.180000
0.330000 0.630000 0.180000
0.480000 0.630000 0.180000
0.630000 0.630000 0.180000
0.780000 0.630000 0.180000
0.930000 0.630000 0.180000
1.000000 0.630000 0.180000
0.000000 0.780000 0.180000
0.030000 0.780000 0.180000
0.180000 0.780000 0.180000
0.330000 0.780000 0.180000
0.480000 0.780000 0.180000
0.630000 0.780000 0.180000
0.780000 0.780000 0.180000
0.930000 0.780000 0.180000
1.000000 0.780000 0.180000
0.000000 0.930000 0.180000
0.030000 0.930000 0.180000
0.180000 0.930000 0.180000
0.330000 0.930000 0.180000
0.480000 0.930000 0.180000
0.630000 0.930000 0.180000
0.780000 0.930000 0.180000
0.930000 0.930000 0.180000
1.000000 0.930000 0.180000
0.000000 1.000000 0.180000
0.030000 1.000000 0.180000
0.180000 1.000000 0.180000
0.330000 1.000000 0.180000
0.480000 1.000000 0.180000
0.630000 1.000000 0.180000
0.780000 1.000000 0.180000
0.930000 1.000000 0.180000
1.000000 1.000000 0.180000
0.000000 0.000000 0.330000
0.030000 0.000000 0.330000
0.180000 0.000000 0.330000
0.330000 0.000000 0.330000
0.480000 0.000000 0.330000
0.630000 0.000000 0.330000
0.780000 0.000000 0.330000
0.930000 0.000000 0.330000
1.000000 0.000000 0.330000
0.000000 0.030000 0.330000
0.030000 0.030000 0.330000
0.180000 0.030000 0.330000
0.330000 0.030000 0.330000
0.480000 0.030000 0.330000
0.630000 0.030000 0.330000
0.780000 0.030000 0.330000
0.930000 0.030000 0.330000
1.000000 0.030000 0.330000
0.000000 0.180000 0.330000
0.030000 0.180000 0.330000
0.180000 0.180000 0.330000
0.330000 0.180000 0.330000
0.480000 0.180000 0.330000
0.630000 0.180000 0.330000
0.780000 0.180000 0.330000
0.930000 0.180000 0.330000
1.000000 0.180000 0.330000
0.000000 0.330000 0.330000
0.030000 0.330000 0.330000
0.180000 0.330000 0.330000
0.330000 0.330000 0.330000
0.480000 0.330000 0.330000
0.630000 0.330000 0.330000
0.780000 0.330000 0.330000
0.930000 0.330000 0.330000
1.000000 0.330000 0.330000
0.000000 0.480000 0.330000
0.030000 0.480000 0.330000
0.180000 0.480000 0.330000
0.330000 0.480000 0.330000
0.480000 0.480000 0.330000
0.630000 0.480000 0.330000
0.780000 0.480000 0.330000
0.930000 0.480000 0.330000
1.000000 0.480000 0.330000
0.000000 0.630000 0.330000
0.030000 0.630000 0.330000
0.180000 0.630000 0.330000
0.330000 0.630000 0.330000
0.480000 0.630000 0.330000
0.630000 0.630000 0.330000
0.780000 0.630000 0.330000
0.930000 0.630000 0.330000
1.000000 0.630000 0.330000
0.000000 0.780000 0.330000
0.030000 0.780000 0.330000
0.180000 0.780000 0.330000
0.330000 0.780000 0.330000
0.480000 0.780000 0.330000
0.630000 0.780000 0.330000
0.780000 0.780000 0.330000
0.930000 0.780000 0.330000
1.000000 0.780000 0.330000
0.000000 0.930000 0.330000
0.030000 0.930000 0.330000
0.180000 0.930000 0.330000
0.330000 0.930000 0.330000
0.480000 0.930000 0.330000
0.630000 0.930000 0.330000
0.780000 0.930000 0.330000
0.930000 0.930000 0.330000
1.000000 0.930000 0.330000
0.000000 1.000000 0.330000
0.030000 1.000000 0.330000
0.180000 1.000000 0.330000
0.330000 1.000000 0.330000
0.480000 1.000000 0.330000
0.630000 1.000000 0.330000
0.780000 1.000000 0.330000
0.930000 1.000000 0.330000
1.000000 1.000000 0.330000
0.000000 0.000000 0.480000
0.030000 0.000000 0.480000
0.180000 0.000000 0.480000
0.330000 0.000000 0.480000
0.480000 0.000000 0.480000
0.630000 0.000000 0.480000
0.780000 0.000000 0.480000
0.930000 0.000000 0.480000
1.000000 0.000000 0.480000
0.000000 0.030000 0.480000
0.030000 0.030000 0.480000
0.180000 0.030000 0.480000
0.330000 0.030000 0.480000
0.480000 0.030000 0.480000
0.630000 0.030000 0.480000
0.780000 0.030000 0.480000
0.930000 0.030000 0.480000
1.000000 0.030000 0.480000
0.000000 0.180000 0.480000
0.030000 0.180000 0.480000
0.180000 0.180000 0.480000
0.330000 0.180000 0.480000
0.480000 0.180000 0.480000
0.630000 0.180000 0.480000
0.780000 0.180000 0.480000
0.930000 0.180000 0.480000
1.000000 0.180000 0.480000
0.000000 0.330000 0.480000
0.030000 0.330000 0.480000
0.180000 0.330000 0.480000
0.330000 0.330000 0.480000
0.480000 0.330000 0.480000
0.630000 0.330000 0.480000
0.780000 0.330000 0.480000
0.930000 0.330000 0.480000
1.000000 0.330000 0.480000
0.000000 0.480000 0.480000
0.030000 0.480000 0.480000
0.180000 0.480000 0.480000
0.330000 0.480000 0.480000
0.480000 0.480000 0.480000
0.630000 0.480000 0.480000
0.780000 0.480000 0.480000
0.930000 0.480000 0.480000
1.000000 0.480000 0.480000
0.000000 0.630000 0.480000
0.030000 0.630000 0.480000
0.180000 0.630000 0.480000
0.330000 0.630000 0.480000
0.480000 0.630000 0.480000
0.630000 0.630000 0.480000
0.780000 0.630000 0.480000
0.930000 0.630000 0.480000
1.000000 0.630000 0.480000
0.000000 0.780000 0.480000
0.030000 0.780000 0.480000
0.180000 0.780000 0.480000
0.330000 0.780000 0.480000
0.480000 0.780000 0.480000
0.630000 0.780000 0.480000
0.780000 0.780000 0.480000
0.930000 0.780000 0.480000
1.000000 0.780000 0.480000
0.000000 0.930000 0.480000
0.030000 0.930000 0.480000
0.180000 0.930000 0.480000
0.330000 0.930000 0.480000
0.480000 0.930000 0.480000
0.630000 0.930000 0.480000
0.780000 0.930000 0.480000
0.930000 0.930000 0.480000
1.000000 0.930000 0.480000
0.000000 1.000000 0.480000
0.030000 1.000000 0.480000
0.180000 1.000000 0.480000
0.330000 1.000000 0.480000
0.480000 1.000000 0.480000
0.630000 1.000000 0.480000
0.780000 1.000000 0.480000
0.930000 1.000000 0.480000
1.000000 1.000000 0.480000
0.000000 0.000000 0.630000
0.030000 0.000000 0.630000
0.180000 0.000000 0.630000
0.330000 0.000000 0.630000
0.480000 0.000000 0.630000
0.630000 0.000000 0.630000
0.780000 0.000000 0.630000
0.930000 0.000000 0.630000
1.000000 0.000000 0.630000
0.000000 0.030000 0.630000
0.030000 0.030000 0.630000
0.180000 0.030000 0.630000
0.330000 0.030000 0.630000
0.480000 0.030000 0.630000
0.630000 0.030000 0.630000
0.780000 0.030000 0.630000
0.930000 0.030000 0.630000
1.000000 0.030000 0.630000
0.000000 0.180000 0.630000
0.030000 0.180000 0.630000
0.180000 0.180000 0.630000
0.330000 0.180000 0.630000
0.480000 0.180000 0.630000
0.630000 0.180000 0.630000
0.780000 0.180000 0.630000
0.930000 0.180000 0.630000
1.000000 0.180000 0.630000
0.000000 0.330000 0.630000
0.030000 0.330000 0.630000
0.180000 0.330000 0.630000
0.330000 0.330000 0.630000
0.480000 0.330000 0.630000
0.630000 0.330000 0.630000
0.780000 0.330000 0.630000
0.930000 0.330000 0.630000
1.000000 0.330000 0.630000
0.000000 0.480000 0.630000
0.030000 0.480000 0.630000
0.180000 0.480000 0.630000
0.330000 0.480000 0.630000
0.480000 0.480000 0.630000
0.630000 0.480000 0.630000
0.780000 0.480000 0.630000
0.930000 0.480000 0.630000
1.000000 0.480000 0.630000
0.000000 0.630000 0.630000
0.030000 0.630000 0.630000
0.180000 0.630000 0.630000
0.330000 0.630000 0.630000
0.480000 0.630000 0.630000
0.630000 0.630000 0.630000
0.780000 0.630000 0.630000
0.930000 0.630000 0.630000
1.000000 0.630000 0.630000
0.000000 0.780000 0.630000
0.030000 0.780000 0.630000
0.180000 0.780000 0.630000
0.330000 0.780000 0.630000
0.480000 0.780000 0.630000
0.630000 0.780000 0.630000
0.780000 0.780000 0.630000
0.930000 0.780000 0.630000
1.000000 0.780000 0.630000
0.000000 0.930000 0.630000
0.030000 0.930000 0.630000
0.180000 0.930000 0.630000
0.330000 0.930000 0.630000
0.480000 0.930000 0.630000
0.630000 0.930000 0.630000
0.780000 0.930000 0.630000
0.930000 0.930000 0.630000
1.000000 0.930000 0.630000
0.000000 1.000000 0.630000
0.030000 1.000000 0.630000
0.180000 1.000000 0.630000
0.330000 1.000000 0.630000
0.480000 1.000000 0.630000
0.630000 1.000000 0.630000
0.780000 1.000000 0.630000
0.930000 1.000000 0.630000
1.000000 1.000000 0.630000
0.000000 0.000000 0.780000
0.030000 0.000000 0.780000
0.180000 0.000000 0.780000
0.330000 0.000000 0.780000
0.480000 0.000000 0.780000
0.630000 0.000000 0.780000
0.780000 0.000000 0.780000
0.930000 0.000000 0.780000
1.000000 0.000000 0.780000
0.000000 0.030000 0.780000
0.030000 0.030000 0.780000
0.180000 0.030000 0.780000
0.330000 0.030000 0.780000
0.480000 0.030000 0.780000
0.630000 0.030000 0.780000
0.780000 0.030000 0.780000
0.930000 0.030000 0.780000
1.000000 0.030000 0.780000
0.000000 0.180000 0.780000
0.030000 0.180000 0.780000
0.180000 0.180000 0.780000
0.330000 0.180000 0.780000
0.480000 0.180000 0.780000
0.630000 0.180000 0.780000
0.780000 0.180000 0.780000
0.930000 0.180000 0.780000
1.000000 0.180000 0.780000
0.000000 0.330000 0.780000
0.030000 0.330000 0.780000
0.180000 0.330000 0.780000
0.330000 0.330000 0.780000
0.480000 0.330000 0.780000
0.630000 0.330000 0.780000
0.780000 0.330000 0.780000
0.930000 0.330000 0.780000
1.000000 0.330000 0.780000
0.000000 0.480000 0.780000
0.030000 0.480000 0.780000
0.180000 0.480000 0.780000
0.330000 0.480000 0.780000
0.480000 0.480000 0.780000
0.630000 0.480000 0.780000
0.780000 0.480000 0.780000
0.930000 0.480000 0.780000
1.000000 0.480000 0.780000
0.000000 0.630000 0.780000
0.030000 0.630000 0.780000
0.180000 0.630000 0.780000
0.330000 0.630000 0.780000
0.480000 0.630000 0.780000
0.630000 0.630000 0.780000
0.780000 0.630000 0.780000
0.930000 0.630000 0.780000
1.000000 0.630000 0.780000
0.000000 0.780000 0.780000
0.030000 0.780000 0.780000
0.180000 0.780000 0.780000
0.330000 0.780000 0.780000
0.480000 0.780000 0.780000
0.630000 0.780000 0.780000
0.780000 0.780000 0.780000
0.930000 0.780000 0.780000
1.000000 0.780000 0.780000
0.000000 0.930000 0.780000
0.030000 0.930000 0.780000
0.180000 0.930000 0.780000
0.330000 0.930000 0.780000
0.480000 0.930000 0.780000
0.630000 0.930000 0.780000
0.780000 0.930000 0.780000
0.930000 0.930000 0.780000
1.000000 0.930000 0.780000
0.000000 1.000000 0.780000
0.030000 1.000000 0.780000
0.180000 1.000000 0.780000
0.330000 1.000000 0.780000
0.480000 1.000000 0.780000
0.630000 1.000000 0.780000
0.780000 1.000000 0.780000
0.930000 1.000000 0.780000
1.000000 1.000000 0.780000
0.000000 0.000000 0.930000
0.030000 0.000000 0.930000
0.180000 0.000000 0.930000
0.330000 0.000000 0.930000
0.480000 0.000000 0.930000
0.630000 0.000000 0.930000
0.780000 0.000000 0.930000
0.930000 0.000000 0.930000
1.000000 0.000000 0.930000
0.000000 0.030000 0.930000
0.030000 0.030000 0.930000
0.180000 0.030000 0.930000
0.330000 0.030000 0.930000
0.480000 0.030000 0.930000
0.630000 0.030000 0.930000
0.780000 0.030000 0.930000
0.930000 0.030000 0.930000
1.000000 0.030000 0.930000
0.000000 0.180000 0.930000
0.030000 0.180000 0.930000
0.180000 0.180000 0.930000
0.330000 0.180000 0.930000
0.480000 0.180000 0.930000
0.630000 0.180000 0.930000
0.780000 0.180000 0.930000
0.930000 0.180000 0.930000
1.000000 0.180000 0.930000
0.000000 0.330000 0.930000
0.030000 0.330000 0.930000
0.180000 0.330000 0.930000
0.330000 0.330000 0.930000
0.480000 0.330000 0.930000
0.630000 0.330000 0.930000
0.780000 0.330000 0.930000
0.930000 0.330000 0.930000
1.000000 0.330000 0.930000
0.000000 0.480000 0.930000
0.030000 0.480000 0.930000
0.180000 0.480000 0.930000
0.330000 0.480000 0.930000
0.480000 0.480000 0.930000
0.630000 0.480000 0.930000
0.780000 0.480000 0.930000
0.930000 0.480000 0.930000
1.000000 0.480000 0.930000
0.000000 0.630000 0.930000
0.030000 0.630000 0.930000
0.180000 0.630000 0.930000
0.330000 0.630000 0.930000
0.480000 0.630000 0.930000
0.630000 0.630000 0.930000
0.780000 0.630000 0.930000
0.930000 0.630000 0.930000
1.000000 0.630000 0.930000
0.000000 0.780000 0.930000
0.030000 0.780000 0.930000
0.180000 0.780000 0.930000
0.330000 0.780000 0.930000
0.480000 0.780000 0.930000
0.630000 0.780000 0.930000
0.780000 0.780000 0.930000
0.930000 0.780000 0.930000
1.000000 0.780000 0.930000
0.000000 0.930000 0.930000
0.030000 0.930000 0.930000
0.180000 0.930000 0.930000
0.330000 0.930000 0.930000
0.480000 0.930000 0.930000
0.630000 0.930000 0.930000
0.780000 0.930000 0.930000
0.930000 0.930000 0.930000
1.000000 0.930000 0.930000
0.000000 1.000000 0.930000
0.030000 1.000000 0.930000
0.180000 1.000000 0.930000
0.330000 1.000000 0.930000
0.480000 1.000000 0.930000
0.630000 1.000000 0.930000
0.780000 1.000000 0.930000
0.930000 1.000000 0.930000
1.000000 1.000000 0.930000
0.000000 0.000000 1.000000
0.030000 0.000000 1.000000
0.180000 0.000000 1.000000
0.330000 0.000000 1.000000
0.480000 0.000000 1.000000
0.630000 0.000000 1.000000
0.780000 0.000000 1.000000
0.930000 0.000000 1.000000
1.000000 0.000000 1.000000
0.000000 0.030000 1.000000
0.030000 0.030000 1.000000
0.180000 0.030000 1.000000
0.330000 0.030000 1.000000
0.480000 0.030000 1.000000
0.630000 0.030000 1.000000
0.780000 0.030000 1.000000
0.930000 0.030000 1.000000
1.000000 0.030000 1.000000
0.000000 0.180000 1.000000
0.030000 0.180000 1.000000
0.180000 0.180000 1.000000
0.330000 0.180000 1.000000
0.480000 0.180000 1.000000
0.630000 0.180000 1.000000
0.780000 0.180000 1.000000
0.930000 0.180000 1.000000
1.000000 0.180000 1.000000
0.000000 0.330000 1.000000
0.030000 0.330000 1.000000
0.180000 0.330000 1.000000
0.330000 0.330000 1.000000
0.480000 0.330000 1.000000
0.630000 0.330000 1.000000
0.780000 0.330000 1.000000
0.930000 0.330000 1.000000
1.000000 0.330000 1.000000
0.000000 0.480000 1.000000
0.030000 0.480000 1.000000
0.180000 0.480000 1.000000
0.330000 0.480000 1.000000
0.480000 0.480000 1.000000
0.630000 0.480000 1.000000
0.780000 0.480000 1.000000
0.930000 0.480000 1.000000
1.000000 0.480000 1.000000
0.000000 0.630000 1.000000
0.030000 0.630000 1.000000
0.180000 0.630000 1.000000
0.330000 0.630000 1.000000
0.480000 0.630000 1.000000
0.630000 0.630000 1.000000
0.780000 0.630000 1.000000
0.930000 0.630000 1.000000
1.000000 0.630000 1.000000
0.000000 0.780000 1.000000
0.030000 0.780000 1.000000
0.180000 0.780000 1.000000
0.330000 0.780000 1.000000
0.480000 0.780000 1.000000
0.630000 0.780000 1.000000
0.780000 0.780000 1.000000
0.930000 0.780000 1.000000
1.000000 0.780000 1.000000
0.000000 0.930000 1.000000
0.030000 0.930000 1.000000
0.180000 0.930000 1.000000
0.330000 0.930000 1.000000
0.480000 0.930000 1.000000
0.630000 0.930000 1.000000
0.780000 0.930000 1.000000
0.930000 0.930000 1.000000
1.000000 0.930000 1.000000
0.000000 1.000000 1.000000
0.030000 1.000000 1.000000
0.180000 1.000000 1.000000
0.330000 1.000000 1.000000
0.480000 1.000000 1.000000
0.630000 1.000000 1.000000
0.780000 1.000000 1.000000
0.930000 1.000000 1.000000
1.000000 1.000000 1.000000
