app/src/main/assets/luts/silver_oxide.cube
# ApexStudio filter: silver_oxide
LUT_3D_SIZE 9
DOMAIN_MIN 0.0 0.0 0.0
DOMAIN_MAX 1.0 1.0 1.0
0.000000 0.000000 0.000000
0.033750 0.035625 0.039375
0.067500 0.071250 0.078750
0.101250 0.106875 0.118125
0.135000 0.142500 0.157500
0.168750 0.178125 0.196875
0.202500 0.213750 0.236250
0.236250 0.249375 0.275625
0.270000 0.285000 0.315000
0.066375 0.070062 0.077437
0.100125 0.105687 0.116812
0.133875 0.141312 0.156188
0.167625 0.176937 0.195562
0.201375 0.212562 0.234938
0.235125 0.248187 0.274313
0.268875 0.283812 0.313687
0.302625 0.319437 0.353063
0.336375 0.355062 0.392437
0.132750 0.140125 0.154875
0.166500 0.175750 0.194250
0.200250 0.211375 0.233625
0.234000 0.247000 0.273000
0.267750 0.282625 0.312375
0.301500 0.318250 0.351750
0.335250 0.353875 0.391125
0.369000 0.389500 0.430500
0.402750 0.425125 0.469875
0.199125 0.210187 0.232313
0.232875 0.245812 0.271687
0.266625 0.281438 0.311063
0.300375 0.317062 0.350438
0.334125 0.352687 0.389813
0.367875 0.388313 0.429187
0.401625 0.423937 0.468562
0.435375 0.459562 0.507938
0.469125 0.495187 0.547312
0.265500 0.280250 0.309750
0.299250 0.315875 0.349125
0.333000 0.351500 0.388500
0.366750 0.387125 0.427875
0.400500 0.422750 0.467250
0.434250 0.458375 0.506625
0.468000 0.494000 0.546000
0.501750 0.529625 0.585375
0.535500 0.565250 0.624750
0.331875 0.350312 0.387187
0.365625 0.385937 0.426562
0.399375 0.421562 0.465938
0.433125 0.457187 0.505312
0.466875 0.492812 0.544687
0.500625 0.528437 0.584062
0.534375 0.564063 0.623437
0.568125 0.599687 0.662813
0.601875 0.635312 0.702187
0.398250 0.420375 0.464625
0.432000 0.456000 0.504000
0.465750 0.491625 0.543375
0.499500 0.527250 0.582750
0.533250 0.562875 0.622125
0.567000 0.598500 0.661500
0.600750 0.634125 0.700875
0.634500 0.669750 0.740250
0.668250 0.705375 0.779625
0.464625 0.490437 0.542063
0.498375 0.526062 0.581437
0.532125 0.561687 0.620812
0.565875 0.597312 0.660187
0.599625 0.632937 0.699563
0.633375 0.668562 0.738938
0.667125 0.704187 0.778312
0.700875 0.739812 0.817688
0.734625 0.775437 0.857062
0.531000 0.560500 0.619500
0.564750 0.596125 0.658875
0.598500 0.631750 0.698250
0.632250 0.667375 0.737625
0.666000 0.703000 0.777000
0.699750 0.738625 0.816375
0.733500 0.774250 0.855750
0.767250 0.809875 0.895125
0.801000 0.845500 0.934500
0.012375 0.013062 0.014438
0.046125 0.048687 0.053812
0.079875 0.084312 0.093187
0.113625 0.119937 0.132562
0.147375 0.155562 0.171938
0.181125 0.191188 0.211313
0.214875 0.226812 0.250688
0.248625 0.262437 0.290063
0.282375 0.298062 0.329437
0.078750 0.083125 0.091875
0.112500 0.118750 0.131250
0.146250 0.154375 0.170625
0.180000 0.190000 0.210000
0.213750 0.225625 0.249375
0.247500 0.261250 0.288750
0.281250 0.296875 0.328125
0.315000 0.332500 0.367500
0.348750 0.368125 0.406875
0.145125 0.153188 0.169313
0.178875 0.188812 0.208688
0.212625 0.224437 0.248062
0.246375 0.260062 0.287438
0.280125 0.295687 0.326813
0.313875 0.331312 0.366187
0.347625 0.366937 0.405562
0.381375 0.402562 0.444938
0.415125 0.438187 0.484313
0.211500 0.223250 0.246750
0.245250 0.258875 0.286125
0.279000 0.294500 0.325500
0.312750 0.330125 0.364875
0.346500 0.365750 0.404250
0.380250 0.401375 0.443625
0.414000 0.437000 0.483000
0.447750 0.472625 0.522375
0.481500 0.508250 0.561750
0.277875 0.293312 0.324187
0.311625 0.328937 0.363562
0.345375 0.364562 0.402938
0.379125 0.400187 0.442312
0.412875 0.435812 0.481687
0.446625 0.471437 0.521062
0.480375 0.507063 0.560438
0.514125 0.542687 0.599813
0.547875 0.578313 0.639188
0.344250 0.363375 0.401625
0.378000 0.399000 0.441000
0.411750 0.434625 0.480375
0.445500 0.470250 0.519750
0.479250 0.505875 0.559125
0.513000 0.541500 0.598500
0.546750 0.577125 0.637875
0.580500 0.612750 0.677250
0.614250 0.648375 0.716625
0.410625 0.433437 0.479063
0.444375 0.469062 0.518437
0.478125 0.504687 0.557813
0.511875 0.540312 0.597187
0.545625 0.575937 0.636563
0.579375 0.611563 0.675938
0.613125 0.647188 0.715313
0.646875 0.682813 0.754688
0.680625 0.718437 0.794063
0.477000 0.503500 0.556500
0.510750 0.539125 0.595875
0.544500 0.574750 0.635250
0.578250 0.610375 0.674625
0.612000 0.646000 0.714000
0.645750 0.681625 0.753375
0.679500 0.717250 0.792750
0.713250 0.752875 0.832125
0.747000 0.788500 0.871500
0.543375 0.573562 0.633938
0.577125 0.609187 0.673312
0.610875 0.644812 0.712688
0.644625 0.680437 0.752062
0.678375 0.716063 0.791438
0.712125 0.751687 0.830813
0.745875 0.787312 0.870188
0.779625 0.822937 0.909563
0.813375 0.858562 0.948937
0.024750 0.026125 0.028875
0.058500 0.061750 0.068250
0.092250 0.097375 0.107625
0.126000 0.133000 0.147000
0.159750 0.168625 0.186375
0.193500 0.204250 0.225750
0.227250 0.239875 0.265125
0.261000 0.275500 0.304500
0.294750 0.311125 0.343875
0.091125 0.096187 0.106312
0.124875 0.131812 0.145687
0.158625 0.167437 0.185062
0.192375 0.203062 0.224437
0.226125 0.238688 0.263813
0.259875 0.274313 0.303187
0.293625 0.309937 0.342562
0.327375 0.345562 0.381938
0.361125 0.381187 0.421313
0.157500 0.166250 0.183750
0.191250 0.201875 0.223125
0.225000 0.237500 0.262500
0.258750 0.273125 0.301875
0.292500 0.308750 0.341250
0.326250 0.344375 0.380625
0.360000 0.380000 0.420000
0.393750 0.415625 0.459375
0.427500 0.451250 0.498750
0.223875 0.236312 0.261188
0.257625 0.271937 0.300563
0.291375 0.307563 0.339938
0.325125 0.343187 0.379313
0.358875 0.378812 0.418687
0.392625 0.414438 0.458063
0.426375 0.450062 0.497438
0.460125 0.485687 0.536813
0.493875 0.521312 0.576187
0.290250 0.306375 0.338625
0.324000 0.342000 0.378000
0.357750 0.377625 0.417375
0.391500 0.413250 0.456750
0.425250 0.448875 0.496125
0.459000 0.484500 0.535500
0.492750 0.520125 0.574875
0.526500 0.555750 0.614250
0.560250 0.591375 0.653625
0.356625 0.376437 0.416063
0.390375 0.412062 0.455437
0.424125 0.447687 0.494813
0.457875 0.483312 0.534187
0.491625 0.518937 0.573562
0.525375 0.554562 0.612937
0.559125 0.590187 0.652312
0.592875 0.625812 0.691688
0.626625 0.661437 0.731062
0.423000 0.446500 0.493500
0.456750 0.482125 0.532875
0.490500 0.517750 0.572250
0.524250 0.553375 0.611625
0.558000 0.589000 0.651000
0.591750 0.624625 0.690375
0.625500 0.660250 0.729750
0.659250 0.695875 0.769125
0.693000 0.731500 0.808500
0.489375 0.516562 0.570937
0.523125 0.552187 0.610312
0.556875 0.587812 0.649687
0.590625 0.623437 0.689062
0.624375 0.659062 0.728437
0.658125 0.694687 0.767813
0.691875 0.730312 0.807187
0.725625 0.765937 0.846563
0.759375 0.801562 0.885937
0.555750 0.586625 0.648375
0.589500 0.622250 0.687750
0.623250 0.657875 0.727125
0.657000 0.693500 0.766500
0.690750 0.729125 0.805875
0.724500 0.764750 0.845250
0.758250 0.800375 0.884625
0.792000 0.836000 0.924000
0.825750 0.871625 0.963375
0.037125 0.039188 0.043313
0.070875 0.074812 0.082688
0.104625 0.110437 0.122062
0.138375 0.146062 0.161438
0.172125 0.181688 0.200813
0.205875 0.217312 0.240188
0.239625 0.252937 0.279562
0.273375 0.288562 0.318938
0.307125 0.324187 0.358313
0.103500 0.109250 0.120750
0.137250 0.144875 0.160125
0.171000 0.180500 0.199500
0.204750 0.216125 0.238875
0.238500 0.251750 0.278250
0.272250 0.287375 0.317625
0.306000 0.323000 0.357000
0.339750 0.358625 0.396375
0.373500 0.394250 0.435750
0.169875 0.179312 0.198188
0.203625 0.214938 0.237563
0.237375 0.250562 0.276938
0.271125 0.286187 0.316313
0.304875 0.321813 0.355687
0.338625 0.357437 0.395062
0.372375 0.393062 0.434437
0.406125 0.428687 0.473813
0.439875 0.464313 0.513188
0.236250 0.249375 0.275625
0.270000 0.285000 0.315000
0.303750 0.320625 0.354375
0.337500 0.356250 0.393750
0.371250 0.391875 0.433125
0.405000 0.427500 0.472500
0.438750 0.463125 0.511875
0.472500 0.498750 0.551250
0.506250 0.534375 0.590625
0.302625 0.319437 0.353063
0.336375 0.355062 0.392437
0.370125 0.390687 0.431813
0.403875 0.426312 0.471187
0.437625 0.461937 0.510563
0.471375 0.497562 0.549937
0.505125 0.533188 0.589313
0.538875 0.568812 0.628688
0.572625 0.604437 0.668063
0.369000 0.389500 0.430500
0.402750 0.425125 0.469875
0.436500 0.460750 0.509250
0.470250 0.496375 0.548625
0.504000 0.532000 0.588000
0.537750 0.567625 0.627375
0.571500 0.603250 0.666750
0.605250 0.638875 0.706125
0.639000 0.674500 0.745500
0.435375 0.459562 0.507938
0.469125 0.495187 0.547312
0.502875 0.530812 0.586688
0.536625 0.566437 0.626062
0.570375 0.602063 0.665438
0.604125 0.637687 0.704813
0.637875 0.673312 0.744188
0.671625 0.708937 0.783563
0.705375 0.744562 0.822937
0.501750 0.529625 0.585375
0.535500 0.565250 0.624750
0.569250 0.600875 0.664125
0.603000 0.636500 0.703500
0.636750 0.672125 0.742875
0.670500 0.707750 0.782250
0.704250 0.743375 0.821625
0.738000 0.779000 0.861000
0.771750 0.814625 0.900375
0.568125 0.599687 0.662813
0.601875 0.635312 0.702187
0.635625 0.670937 0.741563
0.669375 0.706562 0.780937
0.703125 0.742188 0.820312
0.736875 0.777812 0.859688
0.770625 0.813437 0.899062
0.804375 0.849063 0.938438
0.838125 0.884687 0.977812
0.049500 0.052250 0.057750
0.083250 0.087875 0.097125
0.117000 0.123500 0.136500
0.150750 0.159125 0.175875
0.184500 0.194750 0.215250
0.218250 0.230375 0.254625
0.252000 0.266000 0.294000
0.285750 0.301625 0.333375
0.319500 0.337250 0.372750
0.115875 0.122312 0.135188
0.149625 0.157937 0.174562
0.183375 0.193562 0.213938
0.217125 0.229187 0.253312
0.250875 0.264813 0.292687
0.284625 0.300437 0.332062
0.318375 0.336062 0.371437
0.352125 0.371687 0.410813
0.385875 0.407312 0.450187
0.182250 0.192375 0.212625
0.216000 0.228000 0.252000
0.249750 0.263625 0.291375
0.283500 0.299250 0.330750
0.317250 0.334875 0.370125
0.351000 0.370500 0.409500
0.384750 0.406125 0.448875
0.418500 0.441750 0.488250
0.452250 0.477375 0.527625
0.248625 0.262437 0.290063
0.282375 0.298062 0.329437
0.316125 0.333687 0.368813
0.349875 0.369312 0.408187
0.383625 0.404937 0.447562
0.417375 0.440562 0.486938
0.451125 0.476187 0.526312
0.484875 0.511813 0.565688
0.518625 0.547438 0.605063
0.315000 0.332500 0.367500
0.348750 0.368125 0.406875
0.382500 0.403750 0.446250
0.416250 0.439375 0.485625
0.450000 0.475000 0.525000
0.483750 0.510625 0.564375
0.517500 0.546250 0.603750
0.551250 0.581875 0.643125
0.585000 0.617500 0.682500
0.381375 0.402562 0.444937
0.415125 0.438187 0.484312
0.448875 0.473812 0.523687
0.482625 0.509437 0.563063
0.516375 0.545063 0.602437
0.550125 0.580687 0.641813
0.583875 0.616313 0.681188
0.617625 0.651937 0.720563
0.651375 0.687562 0.759938
0.447750 0.472625 0.522375
0.481500 0.508250 0.561750
0.515250 0.543875 0.601125
0.549000 0.579500 0.640500
0.582750 0.615125 0.679875
0.616500 0.650750 0.719250
0.650250 0.686375 0.758625
0.684000 0.722000 0.798000
0.717750 0.757625 0.837375
0.514125 0.542687 0.599813
0.547875 0.578313 0.639188
0.581625 0.613937 0.678563
0.615375 0.649562 0.717938
0.649125 0.685188 0.757313
0.682875 0.720812 0.796688
0.716625 0.756437 0.836063
0.750375 0.792063 0.875438
0.784125 0.827687 0.914813
0.580500 0.612750 0.677250
0.614250 0.648375 0.716625
0.648000 0.684000 0.756000
0.681750 0.719625 0.795375
0.715500 0.755250 0.834750
0.749250 0.790875 0.874125
0.783000 0.826500 0.913500
0.816750 0.862125 0.952875
0.850500 0.897750 0.992250
0.061875 0.065312 0.072188
0.095625 0.100937 0.111563
0.129375 0.136562 0.150938
0.163125 0.172187 0.190312
0.196875 0.207812 0.229688
0.230625 0.243437 0.269062
0.264375 0.279062 0.308437
0.298125 0.314688 0.347813
0.331875 0.350313 0.387188
0.128250 0.135375 0.149625
0.162000 0.171000 0.189000
0.195750 0.206625 0.228375
0.229500 0.242250 0.267750
0.263250 0.277875 0.307125
0.297000 0.313500 0.346500
0.330750 0.349125 0.385875
0.364500 0.384750 0.425250
0.398250 0.420375 0.464625
0.194625 0.205437 0.227063
0.228375 0.241063 0.266438
0.262125 0.276687 0.305813
0.295875 0.312312 0.345187
0.329625 0.347937 0.384562
0.363375 0.383562 0.423937
0.397125 0.419187 0.463312
0.430875 0.454813 0.502688
0.464625 0.490437 0.542063
0.261000 0.275500 0.304500
0.294750 0.311125 0.343875
0.328500 0.346750 0.383250
0.362250 0.382375 0.422625
0.396000 0.418000 0.462000
0.429750 0.453625 0.501375
0.463500 0.489250 0.540750
0.497250 0.524875 0.580125
0.531000 0.560500 0.619500
0.327375 0.345562 0.381938
0.361125 0.381187 0.421313
0.394875 0.416812 0.460687
0.428625 0.452437 0.500062
0.462375 0.488062 0.539437
0.496125 0.523687 0.578813
0.529875 0.559312 0.618188
0.563625 0.594937 0.657563
0.597375 0.630562 0.696937
0.393750 0.415625 0.459375
0.427500 0.451250 0.498750
0.461250 0.486875 0.538125
0.495000 0.522500 0.577500
0.528750 0.558125 0.616875
0.562500 0.593750 0.656250
0.596250 0.629375 0.695625
0.630000 0.665000 0.735000
0.663750 0.700625 0.774375
0.460125 0.485687 0.536813
0.493875 0.521312 0.576187
0.527625 0.556937 0.615563
0.561375 0.592562 0.654937
0.595125 0.628188 0.694312
0.628875 0.663812 0.733688
0.662625 0.699437 0.773062
0.696375 0.735063 0.812438
0.730125 0.770687 0.851812
0.526500 0.555750 0.614250
0.560250 0.591375 0.653625
0.594000 0.627000 0.693000
0.627750 0.662625 0.732375
0.661500 0.698250 0.771750
0.695250 0.733875 0.811125
0.729000 0.769500 0.850500
0.762750 0.805125 0.889875
0.796500 0.840750 0.929250
0.592875 0.625812 0.691688
0.626625 0.661437 0.731062
0.660375 0.697062 0.770437
0.694125 0.732687 0.809812
0.727875 0.768312 0.849187
0.761625 0.803937 0.888563
0.795375 0.839562 0.927937
0.829125 0.875188 0.967313
0.862875 0.910812 1.000000
0.074250 0.078375 0.086625
0.108000 0.114000 0.126000
0.141750 0.149625 0.165375
0.175500 0.185250 0.204750
0.209250 0.220875 0.244125
0.243000 0.256500 0.283500
0.276750 0.292125 0.322875
0.310500 0.327750 0.362250
0.344250 0.363375 0.401625
0.140625 0.148438 0.164062
0.174375 0.184062 0.203437
0.208125 0.219688 0.242813
0.241875 0.255312 0.282187
0.275625 0.290938 0.321563
0.309375 0.326562 0.360938
0.343125 0.362187 0.400313
0.376875 0.397813 0.439688
0.410625 0.433437 0.479063
0.207000 0.218500 0.241500
0.240750 0.254125 0.280875
0.274500 0.289750 0.320250
0.308250 0.325375 0.359625
0.342000 0.361000 0.399000
0.375750 0.396625 0.438375
0.409500 0.432250 0.477750
0.443250 0.467875 0.517125
0.477000 0.503500 0.556500
0.273375 0.288562 0.318938
0.307125 0.324187 0.358313
0.340875 0.359813 0.397688
0.374625 0.395437 0.437063
0.408375 0.431062 0.476438
0.442125 0.466687 0.515813
0.475875 0.502312 0.555187
0.509625 0.537937 0.594563
0.543375 0.573562 0.633938
0.339750 0.358625 0.396375
0.373500 0.394250 0.435750
0.407250 0.429875 0.475125
0.441000 0.465500 0.514500
0.474750 0.501125 0.553875
0.508500 0.536750 0.593250
0.542250 0.572375 0.632625
0.576000 0.608000 0.672000
0.609750 0.643625 0.711375
0.406125 0.428687 0.473813
0.439875 0.464312 0.513188
0.473625 0.499937 0.552563
0.507375 0.535562 0.591938
0.541125 0.571187 0.631312
0.574875 0.606812 0.670687
0.608625 0.642437 0.710063
0.642375 0.678063 0.749437
0.676125 0.713687 0.788813
0.472500 0.498750 0.551250
0.506250 0.534375 0.590625
0.540000 0.570000 0.630000
0.573750 0.605625 0.669375
0.607500 0.641250 0.708750
0.641250 0.676875 0.748125
0.675000 0.712500 0.787500
0.708750 0.748125 0.826875
0.742500 0.783750 0.866250
0.538875 0.568812 0.628688
0.572625 0.604437 0.668063
0.606375 0.640062 0.707437
0.640125 0.675687 0.746812
0.673875 0.711313 0.786188
0.707625 0.746937 0.825563
0.741375 0.782562 0.864938
0.775125 0.818188 0.904313
0.808875 0.853812 0.943688
0.605250 0.638875 0.706125
0.639000 0.674500 0.745500
0.672750 0.710125 0.784875
0.706500 0.745750 0.824250
0.740250 0.781375 0.863625
0.774000 0.817000 0.903000
0.807750 0.852625 0.942375
0.841500 0.888250 0.981750
0.875250 0.923875 1.000000
0.086625 0.091437 0.101063
0.120375 0.127062 0.140438
0.154125 0.162688 0.179813
0.187875 0.198312 0.219188
0.221625 0.233937 0.258563
0.255375 0.269562 0.297938
0.289125 0.305187 0.337313
0.322875 0.340813 0.376688
0.356625 0.376437 0.416063
0.153000 0.161500 0.178500
0.186750 0.197125 0.217875
0.220500 0.232750 0.257250
0.254250 0.268375 0.296625
0.288000 0.304000 0.336000
0.321750 0.339625 0.375375
0.355500 0.375250 0.414750
0.389250 0.410875 0.454125
0.423000 0.446500 0.493500
0.219375 0.231562 0.255937
0.253125 0.267187 0.295313
0.286875 0.302812 0.334687
0.320625 0.338438 0.374063
0.354375 0.374062 0.413438
0.388125 0.409687 0.452813
0.421875 0.445312 0.492187
0.455625 0.480938 0.531563
0.489375 0.516562 0.570937
0.285750 0.301625 0.333375
0.319500 0.337250 0.372750
0.353250 0.372875 0.412125
0.387000 0.408500 0.451500
0.420750 0.444125 0.490875
0.454500 0.479750 0.530250
0.488250 0.515375 0.569625
0.522000 0.551000 0.609000
0.555750 0.586625 0.648375
0.352125 0.371687 0.410813
0.385875 0.407312 0.450187
0.419625 0.442937 0.489563
0.453375 0.478562 0.528937
0.487125 0.514188 0.568312
0.520875 0.549812 0.607688
0.554625 0.585437 0.647062
0.588375 0.621063 0.686438
0.622125 0.656687 0.725812
0.418500 0.441750 0.488250
0.452250 0.477375 0.527625
0.486000 0.513000 0.567000
0.519750 0.548625 0.606375
0.553500 0.584250 0.645750
0.587250 0.619875 0.685125
0.621000 0.655500 0.724500
0.654750 0.691125 0.763875
0.688500 0.726750 0.803250
0.484875 0.511813 0.565688
0.518625 0.547437 0.605062
0.552375 0.583063 0.644437
0.586125 0.618687 0.683812
0.619875 0.654312 0.723187
0.653625 0.689937 0.762563
0.687375 0.725562 0.801937
0.721125 0.761188 0.841313
0.754875 0.796812 0.880687
0.551250 0.581875 0.643125
0.585000 0.617500 0.682500
0.618750 0.653125 0.721875
0.652500 0.688750 0.761250
0.686250 0.724375 0.800625
0.720000 0.760000 0.840000
0.753750 0.795625 0.879375
0.787500 0.831250 0.918750
0.821250 0.866875 0.958125
0.617625 0.651937 0.720563
0.651375 0.687562 0.759937
0.685125 0.723187 0.799312
0.718875 0.758812 0.838687
0.752625 0.794437 0.878062
0.786375 0.830063 0.917438
0.820125 0.865687 0.956812
0.853875 0.901312 0.996188
0.887625 0.936937 1.000000
0.099000 0.104500 0.115500
0.132750 0.140125 0.154875
0.166500 0.175750 0.194250
0.200250 0.211375 0.233625
0.234000 0.247000 0.273000
0.267750 0.282625 0.312375
0.301500 0.318250 0.351750
0.335250 0.353875 0.391125
0.369000 0.389500 0.430500
0.165375 0.174562 0.192938
0.199125 0.210187 0.232313
0.232875 0.245812 0.271687
0.266625 0.281437 0.311062
0.300375 0.317062 0.350438
0.334125 0.352687 0.389813
0.367875 0.388312 0.429187
0.401625 0.423937 0.468562
0.435375 0.459562 0.507937
0.231750 0.244625 0.270375
0.265500 0.280250 0.309750
0.299250 0.315875 0.349125
0.333000 0.351500 0.388500
0.366750 0.387125 0.427875
0.400500 0.422750 0.467250
0.434250 0.458375 0.506625
0.468000 0.494000 0.546000
0.501750 0.529625 0.585375
0.298125 0.314687 0.347813
0.331875 0.350312 0.387187
0.365625 0.385937 0.426563
0.399375 0.421562 0.465938
0.433125 0.457187 0.505312
0.466875 0.492813 0.544688
0.500625 0.528438 0.584063
0.534375 0.564063 0.623437
0.568125 0.599687 0.662813
0.364500 0.384750 0.425250
0.398250 0.420375 0.464625
0.432000 0.456000 0.504000
0.465750 0.491625 0.543375
0.499500 0.527250 0.582750
0.533250 0.562875 0.622125
0.567000 0.598500 0.661500
0.600750 0.634125 0.700875
0.634500 0.669750 0.740250
0.430875 0.454812 0.502687
0.464625 0.490437 0.542063
0.498375 0.526062 0.581437
0.532125 0.561687 0.620812
0.565875 0.597312 0.660187
0.599625 0.632937 0.699562
0.633375 0.668562 0.738938
0.667125 0.704187 0.778312
0.700875 0.739812 0.817688
0.497250 0.524875 0.580125
0.531000 0.560500 0.619500
0.564750 0.596125 0.658875
0.598500 0.631750 0.698250
0.632250 0.667375 0.737625
0.666000 0.703000 0.777000
0.699750 0.738625 0.816375
0.733500 0.774250 0.855750
0.767250 0.809875 0.895125
0.563625 0.594937 0.657563
0.597375 0.630562 0.696937
0.631125 0.666187 0.736312
0.664875 0.701812 0.775687
0.698625 0.737437 0.815063
0.732375 0.773062 0.854437
0.766125 0.808687 0.893813
0.799875 0.844313 0.933188
0.833625 0.879937 0.972562
0.630000 0.665000 0.735000
0.663750 0.700625 0.774375
0.697500 0.736250 0.813750
0.731250 0.771875 0.853125
0.765000 0.807500 0.892500
0.798750 0.843125 0.931875
0.832500 0.878750 0.971250
0.866250 0.914375 1.000000
0.900000 0.950000 1.000000
