app/src/main/assets/luts/silver_oxide.cube
# ApexStudio filter: silver_oxide
LUT_3D_SIZE 5
DOMAIN_MIN 0.0 0.0 0.0
DOMAIN_MAX 1.0 1.0 1.0
0.000000 0.000000 0.000000
0.067500 0.071250 0.078750
0.135000 0.142500 0.157500
0.202500 0.213750 0.236250
0.270000 0.285000 0.315000
0.132750 0.140125 0.154875
0.200250 0.211375 0.233625
0.267750 0.282625 0.312375
0.335250 0.353875 0.391125
0.402750 0.425125 0.469875
0.265500 0.280250 0.309750
0.333000 0.351500 0.388500
0.400500 0.422750 0.467250
0.468000 0.494000 0.546000
0.535500 0.565250 0.624750
0.398250 0.420375 0.464625
0.465750 0.491625 0.543375
0.533250 0.562875 0.622125
0.600750 0.634125 0.700875
0.668250 0.705375 0.779625
0.531000 0.560500 0.619500
0.598500 0.631750 0.698250
0.666000 0.703000 0.777000
0.733500 0.774250 0.855750
0.801000 0.845500 0.934500
0.024750 0.026125 0.028875
0.092250 0.097375 0.107625
0.159750 0.168625 0.186375
0.227250 0.239875 0.265125
0.294750 0.311125 0.343875
0.157500 0.166250 0.183750
0.225000 0.237500 0.262500
0.292500 0.308750 0.341250
0.360000 0.380000 0.420000
0.427500 0.451250 0.498750
0.290250 0.306375 0.338625
0.357750 0.377625 0.417375
0.425250 0.448875 0.496125
0.492750 0.520125 0.574875
0.560250 0.591375 0.653625
0.423000 0.446500 0.493500
0.490500 0.517750 0.572250
0.558000 0.589000 0.651000
0.625500 0.660250 0.729750
0.693000 0.731500 0.808500
0.555750 0.586625 0.648375
0.623250 0.657875 0.727125
0.690750 0.729125 0.805875
0.758250 0.800375 0.884625
0.825750 0.871625 0.963375
0.049500 0.052250 0.057750
0.117000 0.123500 0.136500
0.184500 0.194750 0.215250
0.252000 0.266000 0.294000
0.319500 0.337250 0.372750
0.182250 0.192375 0.212625
0.249750 0.263625 0.291375
0.317250 0.334875 0.370125
0.384750 0.406125 0.448875
0.452250 0.477375 0.527625
0.315000 0.332500 0.367500
0.382500 0.403750 0.446250
0.450000 0.475000 0.525000
0.517500 0.546250 0.603750
0.585000 0.617500 0.682500
0.447750 0.472625 0.522375
0.515250 0.543875 0.601125
0.582750 0.615125 0.679875
0.650250 0.686375 0.758625
0.717750 0.757625 0.837375
0.580500 0.612750 0.677250
0.648000 0.684000 0.756000
0.715500 0.755250 0.834750
0.783000 0.826500 0.913500
0.850500 0.897750 0.992250
0.074250 0.078375 0.086625
0.141750 0.149625 0.165375
0.209250 0.220875 0.244125
0.276750 0.292125 0.322875
0.344250 0.363375 0.401625
0.207000 0.218500 0.241500
0.274500 0.289750 0.320250
0.342000 0.361000 0.399000
0.409500 0.432250 0.477750
0.477000 0.503500 0.556500
0.339750 0.358625 0.396375
0.407250 0.429875 0.475125
0.474750 0.501125 0.553875
0.542250 0.572375 0.632625
0.609750 0.643625 0.711375
0.472500 0.498750 0.551250
0.540000 0.570000 0.630000
0.607500 0.641250 0.708750
0.675000 0.712500 0.787500
0.742500 0.783750 0.866250
0.605250 0.638875 0.706125
0.672750 0.710125 0.784875
0.740250 0.781375 0.863625
0.807750 0.852625 0.942375
0.875250 0.923875 1.000000
0.099000 0.104500 0.115500
0.166500 0.175750 0.194250
0.234000 0.247000 0.273000
0.301500 0.318250 0.351750
0.369000 0.389500 0.430500
0.231750 0.244625 0.270375
0.299250 0.315875 0.349125
0.366750 0.387125 0.427875
0.434250 0.458375 0.506625
0.501750 0.529625 0.585375
0.364500 0.384750 0.425250
0.432000 0.456000 0.504000
0.499500 0.527250 0.582750
0.567000 0.598500 0.661500
0.634500 0.669750 0.740250
0.497250 0.524875 0.580125
0.564750 0.596125 0.658875
0.632250 0.667375 0.737625
0.699750 0.738625 0.816375
0.767250 0.809875 0.895125
0.630000 0.665000 0.735000
0.697500 0.736250 0.813750
0.765000 0.807500 0.892500
0.832500 0.878750 0.971250
0.900000 0.950000 1.000000
