app/src/main/assets/luts/silver_oxide.cube
# ApexStudio filter: silver_oxide
LUT_3D_SIZE 17
DOMAIN_MIN 0.0 0.0 0.0
DOMAIN_MAX 1.0 1.0 1.0
0.000000 0.000000 0.000000
0.016875 0.017812 0.019688
0.033750 0.035625 0.039375
0.050625 0.053437 0.059062
0.067500 0.071250 0.078750
0.084375 0.089062 0.098438
0.101250 0.106875 0.118125
0.118125 0.124687 0.137813
0.135000 0.142500 0.157500
0.151875 0.160312 0.177187
0.168750 0.178125 0.196875
0.185625 0.195937 0.216562
0.202500 0.213750 0.236250
0.219375 0.231562 0.255937
0.236250 0.249375 0.275625
0.253125 0.267187 0.295313
0.270000 0.285000 0.315000
0.033188 0.035031 0.038719
0.050062 0.052844 0.058406
0.066937 0.070656 0.078094
0.083812 0.088469 0.097781
0.100687 0.106281 0.117469
0.117563 0.124094 0.137156
0.134437 0.141906 0.156844
0.151312 0.159719 0.176531
0.168187 0.177531 0.196219
0.185062 0.195344 0.215906
0.201937 0.213156 0.235594
0.218812 0.230969 0.255281
0.235687 0.248781 0.274969
0.252563 0.266594 0.294656
0.269437 0.284406 0.314344
0.286313 0.302219 0.334031
0.303187 0.320031 0.353719
0.066375 0.070062 0.077437
0.083250 0.087875 0.097125
0.100125 0.105687 0.116812
0.117000 0.123500 0.136500
0.133875 0.141312 0.156188
0.150750 0.159125 0.175875
0.167625 0.176937 0.195562
0.184500 0.194750 0.215250
0.201375 0.212562 0.234938
0.218250 0.230375 0.254625
0.235125 0.248187 0.274313
0.252000 0.266000 0.294000
0.268875 0.283812 0.313687
0.285750 0.301625 0.333375
0.302625 0.319437 0.353063
0.319500 0.337250 0.372750
0.336375 0.355062 0.392437
0.099562 0.105094 0.116156
0.116437 0.122906 0.135844
0.133313 0.140719 0.155531
0.150188 0.158531 0.175219
0.167063 0.176344 0.194906
0.183938 0.194156 0.214594
0.200813 0.211969 0.234281
0.217688 0.229781 0.253969
0.234563 0.247594 0.273656
0.251437 0.265406 0.293344
0.268313 0.283219 0.313031
0.285188 0.301031 0.332719
0.302062 0.318844 0.352406
0.318937 0.336656 0.372094
0.335813 0.354469 0.391781
0.352687 0.372281 0.411469
0.369563 0.390094 0.431156
0.132750 0.140125 0.154875
0.149625 0.157937 0.174562
0.166500 0.175750 0.194250
0.183375 0.193562 0.213938
0.200250 0.211375 0.233625
0.217125 0.229187 0.253312
0.234000 0.247000 0.273000
0.250875 0.264813 0.292687
0.267750 0.282625 0.312375
0.284625 0.300437 0.332062
0.301500 0.318250 0.351750
0.318375 0.336062 0.371438
0.335250 0.353875 0.391125
0.352125 0.371687 0.410813
0.369000 0.389500 0.430500
0.385875 0.407312 0.450187
0.402750 0.425125 0.469875
0.165937 0.175156 0.193594
0.182812 0.192969 0.213281
0.199687 0.210781 0.232969
0.216562 0.228594 0.252656
0.233437 0.246406 0.272344
0.250312 0.264219 0.292031
0.267188 0.282031 0.311719
0.284062 0.299844 0.331406
0.300937 0.317656 0.351094
0.317812 0.335469 0.370781
0.334687 0.353281 0.390469
0.351562 0.371094 0.410156
0.368437 0.388906 0.429844
0.385313 0.406719 0.449531
0.402188 0.424531 0.469219
0.419062 0.442344 0.488906
0.435938 0.460156 0.508594
0.199125 0.210187 0.232313
0.216000 0.228000 0.252000
0.232875 0.245812 0.271687
0.249750 0.263625 0.291375
0.266625 0.281438 0.311063
0.283500 0.299250 0.330750
0.300375 0.317062 0.350438
0.317250 0.334875 0.370125
0.334125 0.352687 0.389813
0.351000 0.370500 0.409500
0.367875 0.388313 0.429187
0.384750 0.406125 0.448875
0.401625 0.423937 0.468562
0.418500 0.441750 0.488250
0.435375 0.459562 0.507938
0.452250 0.477375 0.527625
0.469125 0.495187 0.547312
0.232313 0.245219 0.271031
0.249187 0.263031 0.290719
0.266062 0.280844 0.310406
0.282937 0.298656 0.330094
0.299813 0.316469 0.349781
0.316688 0.334281 0.369469
0.333562 0.352094 0.389156
0.350438 0.369906 0.408844
0.367312 0.387719 0.428531
0.384188 0.405531 0.448219
0.401062 0.423344 0.467906
0.417938 0.441156 0.487594
0.434812 0.458969 0.507281
0.451687 0.476781 0.526969
0.468562 0.494594 0.546656
0.485437 0.512406 0.566344
0.502313 0.530219 0.586031
0.265500 0.280250 0.309750
0.282375 0.298062 0.329437
0.299250 0.315875 0.349125
0.316125 0.333687 0.368812
0.333000 0.351500 0.388500
0.349875 0.369312 0.408187
0.366750 0.387125 0.427875
0.383625 0.404938 0.447563
0.400500 0.422750 0.467250
0.417375 0.440562 0.486938
0.434250 0.458375 0.506625
0.451125 0.476187 0.526312
0.468000 0.494000 0.546000
0.484875 0.511812 0.565688
0.501750 0.529625 0.585375
0.518625 0.547437 0.605062
0.535500 0.565250 0.624750
0.298687 0.315281 0.348469
0.315562 0.333094 0.368156
0.332437 0.350906 0.387844
0.349312 0.368719 0.407531
0.366187 0.386531 0.427219
0.383062 0.404344 0.446906
0.399938 0.422156 0.466594
0.416813 0.439969 0.486281
0.433687 0.457781 0.505969
0.450562 0.475594 0.525656
0.467437 0.493406 0.545344
0.484312 0.511219 0.565031
0.501188 0.529031 0.584719
0.518062 0.546844 0.604406
0.534937 0.564656 0.624094
0.551812 0.582469 0.643781
0.568688 0.600281 0.663469
0.331875 0.350312 0.387187
0.348750 0.368125 0.406875
0.365625 0.385937 0.426562
0.382500 0.403750 0.446250
0.399375 0.421562 0.465938
0.416250 0.439375 0.485625
0.433125 0.457187 0.505312
0.450000 0.475000 0.525000
0.466875 0.492812 0.544687
0.483750 0.510625 0.564375
0.500625 0.528437 0.584062
0.517500 0.546250 0.603750
0.534375 0.564063 0.623437
0.551250 0.581875 0.643125
0.568125 0.599687 0.662813
0.585000 0.617500 0.682500
0.601875 0.635312 0.702187
0.365062 0.385344 0.425906
0.381937 0.403156 0.445594
0.398812 0.420969 0.465281
0.415687 0.438781 0.484969
0.432562 0.456594 0.504656
0.449437 0.474406 0.524344
0.466312 0.492219 0.544031
0.483187 0.510031 0.563719
0.500062 0.527844 0.583406
0.516937 0.545656 0.603094
0.533812 0.563469 0.622781
0.550687 0.581281 0.642469
0.567562 0.599094 0.662156
0.584437 0.616906 0.681844
0.601313 0.634719 0.701531
0.618187 0.652531 0.721219
0.635062 0.670344 0.740906
0.398250 0.420375 0.464625
0.415125 0.438187 0.484313
0.432000 0.456000 0.504000
0.448875 0.473813 0.523688
0.465750 0.491625 0.543375
0.482625 0.509437 0.563063
0.499500 0.527250 0.582750
0.516375 0.545063 0.602437
0.533250 0.562875 0.622125
0.550125 0.580687 0.641813
0.567000 0.598500 0.661500
0.583875 0.616312 0.681187
0.600750 0.634125 0.700875
0.617625 0.651937 0.720563
0.634500 0.669750 0.740250
0.651375 0.687562 0.759938
0.668250 0.705375 0.779625
0.431438 0.455406 0.503344
0.448313 0.473219 0.523031
0.465187 0.491031 0.542719
0.482063 0.508844 0.562406
0.498937 0.526656 0.582094
0.515813 0.544469 0.601781
0.532687 0.562281 0.621469
0.549562 0.580094 0.641156
0.566438 0.597906 0.660844
0.583313 0.615719 0.680531
0.600187 0.633531 0.700219
0.617062 0.651344 0.719906
0.633938 0.669156 0.739594
0.650813 0.686969 0.759281
0.667688 0.704781 0.778969
0.684562 0.722594 0.798656
0.701437 0.740406 0.818344
0.464625 0.490437 0.542063
0.481500 0.508250 0.561750
0.498375 0.526062 0.581437
0.515250 0.543875 0.601125
0.532125 0.561687 0.620812
0.549000 0.579500 0.640500
0.565875 0.597312 0.660187
0.582750 0.615125 0.679875
0.599625 0.632937 0.699563
0.616500 0.650750 0.719250
0.633375 0.668562 0.738938
0.650250 0.686375 0.758625
0.667125 0.704187 0.778312
0.684000 0.722000 0.798000
0.700875 0.739812 0.817688
0.717750 0.757625 0.837375
0.734625 0.775437 0.857062
0.497812 0.525469 0.580781
0.514688 0.543281 0.600469
0.531562 0.561094 0.620156
0.548438 0.578906 0.639844
0.565312 0.596719 0.659531
0.582187 0.614531 0.679219
0.599062 0.632344 0.698906
0.615938 0.650156 0.718594
0.632812 0.667969 0.738281
0.649687 0.685781 0.757969
0.666562 0.703594 0.777656
0.683437 0.721406 0.797344
0.700313 0.739219 0.817031
0.717187 0.757031 0.836719
0.734063 0.774844 0.856406
0.750938 0.792656 0.876094
0.767812 0.810469 0.895781
0.531000 0.560500 0.619500
0.547875 0.578313 0.639188
0.564750 0.596125 0.658875
0.581625 0.613937 0.678563
0.598500 0.631750 0.698250
0.615375 0.649562 0.717938
0.632250 0.667375 0.737625
0.649125 0.685187 0.757312
0.666000 0.703000 0.777000
0.682875 0.720812 0.796687
0.699750 0.738625 0.816375
0.716625 0.756437 0.836062
0.733500 0.774250 0.855750
0.750375 0.792063 0.875437
0.767250 0.809875 0.895125
0.784125 0.827687 0.914813
0.801000 0.845500 0.934500
0.006188 0.006531 0.007219
0.023062 0.024344 0.026906
0.039938 0.042156 0.046594
0.056813 0.059969 0.066281
0.073688 0.077781 0.085969
0.090563 0.095594 0.105656
0.107437 0.113406 0.125344
0.124313 0.131219 0.145031
0.141187 0.149031 0.164719
0.158062 0.166844 0.184406
0.174937 0.184656 0.204094
0.191812 0.202469 0.223781
0.208687 0.220281 0.243469
0.225562 0.238094 0.263156
0.242438 0.255906 0.282844
0.259313 0.273719 0.302531
0.276188 0.291531 0.322219
0.039375 0.041562 0.045937
0.056250 0.059375 0.065625
0.073125 0.077187 0.085313
0.090000 0.095000 0.105000
0.106875 0.112812 0.124688
0.123750 0.130625 0.144375
0.140625 0.148437 0.164062
0.157500 0.166250 0.183750
0.174375 0.184062 0.203437
0.191250 0.201875 0.223125
0.208125 0.219687 0.242812
0.225000 0.237500 0.262500
0.241875 0.255312 0.282187
0.258750 0.273125 0.301875
0.275625 0.290938 0.321563
0.292500 0.308750 0.341250
0.309375 0.326562 0.360938
0.072563 0.076594 0.084656
0.089438 0.094406 0.104344
0.106312 0.112219 0.124031
0.123188 0.130031 0.143719
0.140062 0.147844 0.163406
0.156937 0.165656 0.183094
0.173812 0.183469 0.202781
0.190688 0.201281 0.222469
0.207563 0.219094 0.242156
0.224437 0.236906 0.261844
0.241313 0.254719 0.281531
0.258188 0.272531 0.301219
0.275062 0.290344 0.320906
0.291938 0.308156 0.340594
0.308813 0.325969 0.360281
0.325688 0.343781 0.379969
0.342562 0.361594 0.399656
0.105750 0.111625 0.123375
0.122625 0.129437 0.143062
0.139500 0.147250 0.162750
0.156375 0.165062 0.182438
0.173250 0.182875 0.202125
0.190125 0.200687 0.221812
0.207000 0.218500 0.241500
0.223875 0.236312 0.261188
0.240750 0.254125 0.280875
0.257625 0.271937 0.300563
0.274500 0.289750 0.320250
0.291375 0.307563 0.339938
0.308250 0.325375 0.359625
0.325125 0.343187 0.379313
0.342000 0.361000 0.399000
0.358875 0.378812 0.418687
0.375750 0.396625 0.438375
0.138937 0.146656 0.162094
0.155812 0.164469 0.181781
0.172687 0.182281 0.201469
0.189562 0.200094 0.221156
0.206437 0.217906 0.240844
0.223312 0.235719 0.260531
0.240188 0.253531 0.280219
0.257063 0.271344 0.299906
0.273938 0.289156 0.319594
0.290813 0.306969 0.339281
0.307688 0.324781 0.358969
0.324563 0.342594 0.378656
0.341437 0.360406 0.398344
0.358313 0.378219 0.418031
0.375188 0.396031 0.437719
0.392062 0.413844 0.457406
0.408938 0.431656 0.477094
0.172125 0.181687 0.200812
0.189000 0.199500 0.220500
0.205875 0.217312 0.240187
0.222750 0.235125 0.259875
0.239625 0.252937 0.279562
0.256500 0.270750 0.299250
0.273375 0.288562 0.318938
0.290250 0.306375 0.338625
0.307125 0.324187 0.358313
0.324000 0.342000 0.378000
0.340875 0.359812 0.397687
0.357750 0.377625 0.417375
0.374625 0.395437 0.437062
0.391500 0.413250 0.456750
0.408375 0.431063 0.476438
0.425250 0.448875 0.496125
0.442125 0.466687 0.515813
0.205313 0.216719 0.239531
0.222187 0.234531 0.259219
0.239063 0.252344 0.278906
0.255937 0.270156 0.298594
0.272813 0.287969 0.318281
0.289688 0.305781 0.337969
0.306563 0.323594 0.357656
0.323438 0.341406 0.377344
0.340313 0.359219 0.397031
0.357188 0.377031 0.416719
0.374063 0.394844 0.436406
0.390937 0.412656 0.456094
0.407813 0.430469 0.475781
0.424687 0.448281 0.495469
0.441563 0.466094 0.515156
0.458437 0.483906 0.534844
0.475312 0.501719 0.554531
0.238500 0.251750 0.278250
0.255375 0.269562 0.297938
0.272250 0.287375 0.317625
0.289125 0.305187 0.337313
0.306000 0.323000 0.357000
0.322875 0.340813 0.376688
0.339750 0.358625 0.396375
0.356625 0.376438 0.416063
0.373500 0.394250 0.435750
0.390375 0.412062 0.455438
0.407250 0.429875 0.475125
0.424125 0.447687 0.494813
0.441000 0.465500 0.514500
0.457875 0.483312 0.534187
0.474750 0.501125 0.553875
0.491625 0.518937 0.573562
0.508500 0.536750 0.593250
0.271688 0.286781 0.316969
0.288562 0.304594 0.336656
0.305437 0.322406 0.356344
0.322313 0.340219 0.376031
0.339188 0.358031 0.395719
0.356063 0.375844 0.415406
0.372937 0.393656 0.435094
0.389813 0.411469 0.454781
0.406687 0.429281 0.474469
0.423563 0.447094 0.494156
0.440438 0.464906 0.513844
0.457312 0.482719 0.533531
0.474187 0.500531 0.553219
0.491062 0.518344 0.572906
0.507937 0.536156 0.592594
0.524812 0.553969 0.612281
0.541687 0.571781 0.631969
0.304875 0.321813 0.355687
0.321750 0.339625 0.375375
0.338625 0.357437 0.395062
0.355500 0.375250 0.414750
0.372375 0.393062 0.434438
0.389250 0.410875 0.454125
0.406125 0.428687 0.473813
0.423000 0.446500 0.493500
0.439875 0.464312 0.513188
0.456750 0.482125 0.532875
0.473625 0.499937 0.552562
0.490500 0.517750 0.572250
0.507375 0.535562 0.591938
0.524250 0.553375 0.611625
0.541125 0.571187 0.631312
0.558000 0.589000 0.651000
0.574875 0.606812 0.670687
0.338062 0.356844 0.394406
0.354937 0.374656 0.414094
0.371812 0.392469 0.433781
0.388687 0.410281 0.453469
0.405562 0.428094 0.473156
0.422438 0.445906 0.492844
0.439312 0.463719 0.512531
0.456187 0.481531 0.532219
0.473062 0.499344 0.551906
0.489937 0.517156 0.571594
0.506812 0.534969 0.591281
0.523687 0.552781 0.610969
0.540562 0.570594 0.630656
0.557437 0.588406 0.650344
0.574313 0.606219 0.670031
0.591187 0.624031 0.689719
0.608062 0.641844 0.709406
0.371250 0.391875 0.433125
0.388125 0.409687 0.452813
0.405000 0.427500 0.472500
0.421875 0.445312 0.492187
0.438750 0.463125 0.511875
0.455625 0.480937 0.531563
0.472500 0.498750 0.551250
0.489375 0.516562 0.570937
0.506250 0.534375 0.590625
0.523125 0.552187 0.610312
0.540000 0.570000 0.630000
0.556875 0.587812 0.649687
0.573750 0.605625 0.669375
0.590625 0.623437 0.689062
0.607500 0.641250 0.708750
0.624375 0.659062 0.728437
0.641250 0.676875 0.748125
0.404438 0.426906 0.471844
0.421313 0.444719 0.491531
0.438188 0.462531 0.511219
0.455062 0.480344 0.530906
0.471937 0.498156 0.550594
0.488812 0.515969 0.570281
0.505687 0.533781 0.589969
0.522562 0.551594 0.609656
0.539438 0.569406 0.629344
0.556312 0.587219 0.649031
0.573187 0.605031 0.668719
0.590062 0.622844 0.688406
0.606938 0.640656 0.708094
0.623812 0.658469 0.727781
0.640688 0.676281 0.747469
0.657562 0.694094 0.767156
0.674437 0.711906 0.786844
0.437625 0.461938 0.510563
0.454500 0.479750 0.530250
0.471375 0.497562 0.549937
0.488250 0.515375 0.569625
0.505125 0.533187 0.589312
0.522000 0.551000 0.609000
0.538875 0.568812 0.628687
0.555750 0.586625 0.648375
0.572625 0.604437 0.668063
0.589500 0.622250 0.687750
0.606375 0.640062 0.707437
0.623250 0.657875 0.727125
0.640125 0.675687 0.746812
0.657000 0.693500 0.766500
0.673875 0.711313 0.786188
0.690750 0.729125 0.805875
0.707625 0.746937 0.825562
0.470812 0.496969 0.549281
0.487687 0.514781 0.568969
0.504562 0.532594 0.588656
0.521437 0.550406 0.608344
0.538312 0.568219 0.628031
0.555187 0.586031 0.647719
0.572062 0.603844 0.667406
0.588938 0.621656 0.687094
0.605812 0.639469 0.706781
0.622687 0.657281 0.726469
0.639562 0.675094 0.746156
0.656437 0.692906 0.765844
0.673312 0.710719 0.785531
0.690187 0.728531 0.805219
0.707063 0.746344 0.824906
0.723938 0.764156 0.844594
0.740812 0.781969 0.864281
0.504000 0.532000 0.588000
0.520875 0.549812 0.607688
0.537750 0.567625 0.627375
0.554625 0.585437 0.647062
0.571500 0.603250 0.666750
0.588375 0.621062 0.686437
0.605250 0.638875 0.706125
0.622125 0.656687 0.725812
0.639000 0.674500 0.745500
0.655875 0.692312 0.765187
0.672750 0.710125 0.784875
0.689625 0.727937 0.804562
0.706500 0.745750 0.824250
0.723375 0.763562 0.843938
0.740250 0.781375 0.863625
0.757125 0.799187 0.883312
0.774000 0.817000 0.903000
0.537187 0.567031 0.626719
0.554063 0.584844 0.646406
0.570937 0.602656 0.666094
0.587812 0.620469 0.685781
0.604687 0.638281 0.705469
0.621562 0.656094 0.725156
0.638437 0.673906 0.744844
0.655312 0.691719 0.764531
0.672187 0.709531 0.784219
0.689062 0.727344 0.803906
0.705937 0.745156 0.823594
0.722812 0.762969 0.843281
0.739687 0.780781 0.862969
0.756563 0.798594 0.882656
0.773438 0.816406 0.902344
0.790312 0.834219 0.922031
0.807187 0.852031 0.941719
0.012375 0.013062 0.014438
0.029250 0.030875 0.034125
0.046125 0.048687 0.053812
0.063000 0.066500 0.073500
0.079875 0.084312 0.093187
0.096750 0.102125 0.112875
0.113625 0.119937 0.132562
0.130500 0.137750 0.152250
0.147375 0.155562 0.171938
0.164250 0.173375 0.191625
0.181125 0.191188 0.211313
0.198000 0.209000 0.231000
0.214875 0.226812 0.250688
0.231750 0.244625 0.270375
0.248625 0.262437 0.290063
0.265500 0.280250 0.309750
0.282375 0.298062 0.329437
0.045562 0.048094 0.053156
0.062437 0.065906 0.072844
0.079312 0.083719 0.092531
0.096187 0.101531 0.112219
0.113063 0.119344 0.131906
0.129938 0.137156 0.151594
0.146812 0.154969 0.171281
0.163688 0.172781 0.190969
0.180563 0.190594 0.210656
0.197437 0.208406 0.230344
0.214313 0.226219 0.250031
0.231187 0.244031 0.269719
0.248062 0.261844 0.289406
0.264937 0.279656 0.309094
0.281813 0.297469 0.328781
0.298687 0.315281 0.348469
0.315562 0.333094 0.368156
0.078750 0.083125 0.091875
0.095625 0.100937 0.111562
0.112500 0.118750 0.131250
0.129375 0.136563 0.150938
0.146250 0.154375 0.170625
0.163125 0.172187 0.190312
0.180000 0.190000 0.210000
0.196875 0.207813 0.229688
0.213750 0.225625 0.249375
0.230625 0.243437 0.269062
0.247500 0.261250 0.288750
0.264375 0.279062 0.308437
0.281250 0.296875 0.328125
0.298125 0.314687 0.347813
0.315000 0.332500 0.367500
0.331875 0.350312 0.387187
0.348750 0.368125 0.406875
0.111937 0.118156 0.130594
0.128812 0.135969 0.150281
0.145688 0.153781 0.169969
0.162562 0.171594 0.189656
0.179437 0.189406 0.209344
0.196313 0.207219 0.229031
0.213188 0.225031 0.248719
0.230063 0.242844 0.268406
0.246937 0.260656 0.288094
0.263813 0.278469 0.307781
0.280687 0.296281 0.327469
0.297563 0.314094 0.347156
0.314437 0.331906 0.366844
0.331313 0.349719 0.386531
0.348188 0.367531 0.406219
0.365062 0.385344 0.425906
0.381937 0.403156 0.445594
0.145125 0.153188 0.169313
0.162000 0.171000 0.189000
0.178875 0.188812 0.208688
0.195750 0.206625 0.228375
0.212625 0.224437 0.248062
0.229500 0.242250 0.267750
0.246375 0.260062 0.287438
0.263250 0.277875 0.307125
0.280125 0.295687 0.326813
0.297000 0.313500 0.346500
0.313875 0.331312 0.366187
0.330750 0.349125 0.385875
0.347625 0.366937 0.405562
0.364500 0.384750 0.425250
0.381375 0.402562 0.444938
0.398250 0.420375 0.464625
0.415125 0.438187 0.484313
0.178313 0.188219 0.208031
0.195187 0.206031 0.227719
0.212063 0.223844 0.247406
0.228937 0.241656 0.267094
0.245812 0.259469 0.286781
0.262687 0.277281 0.306469
0.279562 0.295094 0.326156
0.296437 0.312906 0.345844
0.313312 0.330719 0.365531
0.330187 0.348531 0.385219
0.347062 0.366344 0.404906
0.363937 0.384156 0.424594
0.380812 0.401969 0.444281
0.397687 0.419781 0.463969
0.414563 0.437594 0.483656
0.431437 0.455406 0.503344
0.448313 0.473219 0.523031
0.211500 0.223250 0.246750
0.228375 0.241062 0.266437
0.245250 0.258875 0.286125
0.262125 0.276687 0.305812
0.279000 0.294500 0.325500
0.295875 0.312312 0.345187
0.312750 0.330125 0.364875
0.329625 0.347938 0.384563
0.346500 0.365750 0.404250
0.363375 0.383562 0.423938
0.380250 0.401375 0.443625
0.397125 0.419187 0.463313
0.414000 0.437000 0.483000
0.430875 0.454812 0.502687
0.447750 0.472625 0.522375
0.464625 0.490437 0.542063
0.481500 0.508250 0.561750
0.244687 0.258281 0.285469
0.261562 0.276094 0.305156
0.278437 0.293906 0.324844
0.295312 0.311719 0.344531
0.312188 0.329531 0.364219
0.329062 0.347344 0.383906
0.345937 0.365156 0.403594
0.362813 0.382969 0.423281
0.379687 0.400781 0.442969
0.396562 0.418594 0.462656
0.413438 0.436406 0.482344
0.430312 0.454219 0.502031
0.447187 0.472031 0.521719
0.464062 0.489844 0.541406
0.480938 0.507656 0.561094
0.497812 0.525469 0.580781
0.514688 0.543281 0.600469
0.277875 0.293312 0.324187
0.294750 0.311125 0.343875
0.311625 0.328937 0.363562
0.328500 0.346750 0.383250
0.345375 0.364562 0.402938
0.362250 0.382375 0.422625
0.379125 0.400187 0.442312
0.396000 0.418000 0.462000
0.412875 0.435812 0.481687
0.429750 0.453625 0.501375
0.446625 0.471437 0.521062
0.463500 0.489250 0.540750
0.480375 0.507063 0.560438
0.497250 0.524875 0.580125
0.514125 0.542687 0.599813
0.531000 0.560500 0.619500
0.547875 0.578313 0.639188
0.311062 0.328344 0.362906
0.327937 0.346156 0.382594
0.344812 0.363969 0.402281
0.361687 0.381781 0.421969
0.378562 0.399594 0.441656
0.395437 0.417406 0.461344
0.412312 0.435219 0.481031
0.429187 0.453031 0.500719
0.446062 0.470844 0.520406
0.462938 0.488656 0.540094
0.479812 0.506469 0.559781
0.496688 0.524281 0.579469
0.513563 0.542094 0.599156
0.530438 0.559906 0.618844
0.547313 0.577719 0.638531
0.564187 0.595531 0.658219
0.581063 0.613344 0.677906
0.344250 0.363375 0.401625
0.361125 0.381187 0.421312
0.378000 0.399000 0.441000
0.394875 0.416812 0.460687
0.411750 0.434625 0.480375
0.428625 0.452437 0.500062
0.445500 0.470250 0.519750
0.462375 0.488063 0.539438
0.479250 0.505875 0.559125
0.496125 0.523687 0.578813
0.513000 0.541500 0.598500
0.529875 0.559312 0.618188
0.546750 0.577125 0.637875
0.563625 0.594937 0.657563
0.580500 0.612750 0.677250
0.597375 0.630562 0.696937
0.614250 0.648375 0.716625
0.377437 0.398406 0.440344
0.394312 0.416219 0.460031
0.411187 0.434031 0.479719
0.428062 0.451844 0.499406
0.444937 0.469656 0.519094
0.461812 0.487469 0.538781
0.478687 0.505281 0.558469
0.495563 0.523094 0.578156
0.512437 0.540906 0.597844
0.529313 0.558719 0.617531
0.546187 0.576531 0.637219
0.563063 0.594344 0.656906
0.579937 0.612156 0.676594
0.596812 0.629969 0.696281
0.613688 0.647781 0.715969
0.630562 0.665594 0.735656
0.647437 0.683406 0.755344
0.410625 0.433437 0.479063
0.427500 0.451250 0.498750
0.444375 0.469062 0.518437
0.461250 0.486875 0.538125
0.478125 0.504687 0.557813
0.495000 0.522500 0.577500
0.511875 0.540312 0.597187
0.528750 0.558125 0.616875
0.545625 0.575937 0.636563
0.562500 0.593750 0.656250
0.579375 0.611563 0.675938
0.596250 0.629375 0.695625
0.613125 0.647188 0.715313
0.630000 0.665000 0.735000
0.646875 0.682813 0.754688
0.663750 0.700625 0.774375
0.680625 0.718437 0.794063
0.443812 0.468469 0.517781
0.460687 0.486281 0.537469
0.477563 0.504094 0.557156
0.494438 0.521906 0.576844
0.511313 0.539719 0.596531
0.528188 0.557531 0.616219
0.545063 0.575344 0.635906
0.561937 0.593156 0.655594
0.578813 0.610969 0.675281
0.595688 0.628781 0.694969
0.612563 0.646594 0.714656
0.629437 0.664406 0.734344
0.646313 0.682219 0.754031
0.663188 0.700031 0.773719
0.680063 0.717844 0.793406
0.696938 0.735656 0.813094
0.713812 0.753469 0.832781
0.477000 0.503500 0.556500
0.493875 0.521313 0.576188
0.510750 0.539125 0.595875
0.527625 0.556937 0.615563
0.544500 0.574750 0.635250
0.561375 0.592562 0.654938
0.578250 0.610375 0.674625
0.595125 0.628188 0.694312
0.612000 0.646000 0.714000
0.628875 0.663812 0.733688
0.645750 0.681625 0.753375
0.662625 0.699437 0.773062
0.679500 0.717250 0.792750
0.696375 0.735063 0.812438
0.713250 0.752875 0.832125
0.730125 0.770687 0.851813
0.747000 0.788500 0.871500
0.510188 0.538531 0.595219
0.527063 0.556344 0.614906
0.543937 0.574156 0.634594
0.560813 0.591969 0.654281
0.577688 0.609781 0.673969
0.594562 0.627594 0.693656
0.611437 0.645406 0.713344
0.628313 0.663219 0.733031
0.645188 0.681031 0.752719
0.662062 0.698844 0.772406
0.678938 0.716656 0.792094
0.695812 0.734469 0.811781
0.712688 0.752281 0.831469
0.729563 0.770094 0.851156
0.746438 0.787906 0.870844
0.763313 0.805719 0.890531
0.780187 0.823531 0.910219
0.543375 0.573562 0.633938
0.560250 0.591375 0.653625
0.577125 0.609187 0.673312
0.594000 0.627000 0.693000
0.610875 0.644812 0.712688
0.627750 0.662625 0.732375
0.644625 0.680437 0.752062
0.661500 0.698250 0.771750
0.678375 0.716063 0.791438
0.695250 0.733875 0.811125
0.712125 0.751687 0.830813
0.729000 0.769500 0.850500
0.745875 0.787312 0.870188
0.762750 0.805125 0.889875
0.779625 0.822937 0.909563
0.796500 0.840750 0.929250
0.813375 0.858562 0.948937
0.018563 0.019594 0.021656
0.035438 0.037406 0.041344
0.052312 0.055219 0.061031
0.069187 0.073031 0.080719
0.086063 0.090844 0.100406
0.102938 0.108656 0.120094
0.119813 0.126469 0.139781
0.136688 0.144281 0.159469
0.153562 0.162094 0.179156
0.170437 0.179906 0.198844
0.187313 0.197719 0.218531
0.204187 0.215531 0.238219
0.221062 0.233344 0.257906
0.237937 0.251156 0.277594
0.254812 0.268969 0.297281
0.271688 0.286781 0.316969
0.288562 0.304594 0.336656
0.051750 0.054625 0.060375
