app/src/main/assets/luts/soft_skin_glow.cube
# ApexStudio filter: soft_skin_glow
LUT_3D_SIZE 5
DOMAIN_MIN 0.0 0.0 0.0
DOMAIN_MAX 1.0 1.0 1.0
0.047042 0.030042 0.000000
0.270755 0.041254 0.000000
0.494467 0.052467 0.009967
0.718180 0.063679 0.021179
0.941892 0.074892 0.032392
0.069055 0.264555 0.009555
0.292767 0.275767 0.020767
0.516479 0.286980 0.031979
0.740192 0.298192 0.043192
0.963905 0.309405 0.054405
0.091067 0.499067 0.031567
0.314779 0.510279 0.042779
0.538492 0.521492 0.053992
0.762205 0.532705 0.065204
0.985917 0.543917 0.076417
0.113079 0.733580 0.053580
0.336792 0.744792 0.064792
0.560505 0.756004 0.076005
0.784217 0.767217 0.087217
1.000000 0.778429 0.098430
0.135092 0.968092 0.075592
0.358805 0.979305 0.086804
0.582517 0.990517 0.098017
0.806230 1.000000 0.109229
1.000000 1.000000 0.120442
0.051317 0.034317 0.204317
0.275029 0.045530 0.215529
0.498742 0.056742 0.226742
0.722454 0.067955 0.237955
0.946167 0.079167 0.249167
0.073329 0.268829 0.226330
0.297042 0.280042 0.237542
0.520755 0.291255 0.248755
0.744467 0.302467 0.259967
0.968179 0.313679 0.271180
0.095342 0.503342 0.248342
0.319055 0.514555 0.259555
0.542767 0.525767 0.270767
0.766479 0.536980 0.281979
0.990192 0.548192 0.293192
0.117355 0.737855 0.270355
0.341067 0.749067 0.281567
0.564779 0.760279 0.292780
0.788492 0.771492 0.303992
1.000000 0.782705 0.315204
0.139367 0.972367 0.292367
0.363079 0.983580 0.303580
0.586792 0.994792 0.314792
0.810505 1.000000 0.326005
1.000000 1.000000 0.337217
0.055592 0.038592 0.421092
0.279304 0.049805 0.432304
0.503017 0.061017 0.443517
0.726730 0.072230 0.454730
0.950442 0.083442 0.465942
0.077605 0.273105 0.443105
0.301317 0.284317 0.454317
0.525030 0.295530 0.465529
0.748742 0.306742 0.476742
0.972454 0.317955 0.487954
0.099617 0.507617 0.465117
0.323329 0.518830 0.476329
0.547042 0.530042 0.487542
0.770755 0.541254 0.498754
0.994467 0.552467 0.509967
0.121630 0.742129 0.487129
0.345342 0.753342 0.498342
0.569055 0.764555 0.509555
0.792767 0.775767 0.520767
1.000000 0.786980 0.531980
0.143642 0.976642 0.509142
0.367354 0.987855 0.520355
0.591067 0.999067 0.531567
0.814779 1.000000 0.542779
1.000000 1.000000 0.553992
0.059867 0.042867 0.637867
0.283579 0.054080 0.649080
0.507292 0.065292 0.660292
0.731005 0.076504 0.671504
0.954717 0.087717 0.682717
0.081879 0.277380 0.659879
0.305592 0.288592 0.671092
0.529305 0.299805 0.682304
0.753017 0.311017 0.693517
0.976730 0.322230 0.704730
0.103892 0.511892 0.681892
0.327604 0.523104 0.693105
0.551317 0.534317 0.704317
0.775030 0.545530 0.715529
0.998742 0.556742 0.726742
0.125905 0.746405 0.703904
0.349617 0.757617 0.715117
0.573330 0.768830 0.726329
0.797042 0.780042 0.737542
1.000000 0.791254 0.748754
0.147917 0.980917 0.725917
0.371630 0.992129 0.737129
0.595342 1.000000 0.748342
0.819055 1.000000 0.759554
1.000000 1.000000 0.770767
0.064142 0.047142 0.854642
0.287855 0.058355 0.865854
0.511567 0.069567 0.877067
0.735280 0.080780 0.888279
0.958992 0.091992 0.899492
0.086154 0.281655 0.876655
0.309867 0.292867 0.887867
0.533580 0.304080 0.899079
0.757292 0.315292 0.910292
0.981005 0.326505 0.921504
0.108167 0.516167 0.898667
0.331879 0.527380 0.909879
0.555592 0.538592 0.921092
0.779305 0.549805 0.932304
1.000000 0.561017 0.943517
0.130180 0.750680 0.920679
0.353892 0.761892 0.931892
0.577605 0.773105 0.943105
0.801317 0.784317 0.954317
1.000000 0.795530 0.965529
0.152192 0.985192 0.942692
0.375905 0.996405 0.953904
0.599617 1.000000 0.965117
0.823330 1.000000 0.976329
1.000000 1.000000 0.987542
