app/src/main/assets/luts/soft_skin_glow.cube
# ApexStudio filter: soft_skin_glow
LUT_3D_SIZE 17
DOMAIN_MIN 0.0 0.0 0.0
DOMAIN_MAX 1.0 1.0 1.0
0.047042 0.030042 0.000000
0.102970 0.032845 0.000000
0.158898 0.035648 0.000000
0.214826 0.038451 0.000000
0.270755 0.041254 0.000000
0.326683 0.044058 0.001558
0.382611 0.046861 0.004361
0.438539 0.049664 0.007164
0.494467 0.052467 0.009967
0.550395 0.055270 0.012770
0.606323 0.058073 0.015573
0.662251 0.060876 0.018376
0.718180 0.063679 0.021179
0.774108 0.066483 0.023983
0.830036 0.069286 0.026786
0.885964 0.072089 0.029589
0.941892 0.074892 0.032392
0.052545 0.088670 0.000000
0.108473 0.091473 0.000000
0.164401 0.094276 0.000000
0.220329 0.097079 0.001455
0.276258 0.099883 0.004258
0.332186 0.102686 0.007061
0.388114 0.105489 0.009864
0.444042 0.108292 0.012667
0.499970 0.111095 0.015470
0.555898 0.113898 0.018273
0.611826 0.116701 0.021076
0.667755 0.119505 0.023879
0.723683 0.122308 0.026683
0.779611 0.125111 0.029486
0.835539 0.127914 0.032289
0.891467 0.130717 0.035092
0.947395 0.133520 0.037895
0.058048 0.147298 0.000000
0.113976 0.150101 0.001351
0.169904 0.152904 0.004155
0.225833 0.155708 0.006958
0.281761 0.158511 0.009761
0.337689 0.161314 0.012564
0.393617 0.164117 0.015367
0.449545 0.166920 0.018170
0.505473 0.169723 0.020973
0.561401 0.172526 0.023776
0.617330 0.175329 0.026579
0.673258 0.178133 0.029383
0.729186 0.180936 0.032186
0.785114 0.183739 0.034989
0.841042 0.186542 0.037792
0.896970 0.189345 0.040595
0.952898 0.192148 0.043398
0.063551 0.205926 0.004051
0.119480 0.208730 0.006855
0.175408 0.211533 0.009658
0.231336 0.214336 0.012461
0.287264 0.217139 0.015264
0.343192 0.219942 0.018067
0.399120 0.222745 0.020870
0.455048 0.225548 0.023673
0.510976 0.228351 0.026476
0.566905 0.231154 0.029280
0.622833 0.233958 0.032083
0.678761 0.236761 0.034886
0.734689 0.239564 0.037689
0.790617 0.242367 0.040492
0.846545 0.245170 0.043295
0.902473 0.247973 0.046098
0.958401 0.250776 0.048901
0.069055 0.264555 0.009555
0.124983 0.267358 0.012358
0.180911 0.270161 0.015161
0.236839 0.272964 0.017964
0.292767 0.275767 0.020767
0.348695 0.278570 0.023570
0.404623 0.281373 0.026373
0.460551 0.284176 0.029176
0.516479 0.286980 0.031979
0.572408 0.289783 0.034783
0.628336 0.292586 0.037586
0.684264 0.295389 0.040389
0.740192 0.298192 0.043192
0.796120 0.300995 0.045995
0.852048 0.303798 0.048798
0.907976 0.306601 0.051601
0.963905 0.309405 0.054405
0.074558 0.323183 0.015058
0.130486 0.325986 0.017861
0.186414 0.328789 0.020664
0.242342 0.331592 0.023467
0.298270 0.334395 0.026270
0.354198 0.337198 0.029073
0.410126 0.340001 0.031876
0.466054 0.342805 0.034679
0.521983 0.345608 0.037483
0.577911 0.348411 0.040286
0.633839 0.351214 0.043089
0.689767 0.354017 0.045892
0.745695 0.356820 0.048695
0.801623 0.359623 0.051498
0.857551 0.362426 0.054301
0.913479 0.365230 0.057105
0.969408 0.368033 0.059908
0.080061 0.381811 0.020561
0.135989 0.384614 0.023364
0.191917 0.387417 0.026167
0.247845 0.390220 0.028970
0.303773 0.393023 0.031773
0.359701 0.395826 0.034576
0.415629 0.398630 0.037380
0.471558 0.401433 0.040183
0.527486 0.404236 0.042986
0.583414 0.407039 0.045789
0.639342 0.409842 0.048592
0.695270 0.412645 0.051395
0.751198 0.415448 0.054198
0.807126 0.418251 0.057001
0.863055 0.421055 0.059805
0.918983 0.423858 0.062608
0.974911 0.426661 0.065411
0.085564 0.440439 0.026064
0.141492 0.443242 0.028867
0.197420 0.446045 0.031670
0.253348 0.448848 0.034473
0.309276 0.451651 0.037276
0.365204 0.454454 0.040079
0.421133 0.457258 0.042883
0.477061 0.460061 0.045686
0.532989 0.462864 0.048489
0.588917 0.465667 0.051292
0.644845 0.468470 0.054095
0.700773 0.471273 0.056898
0.756701 0.474076 0.059701
0.812630 0.476880 0.062505
0.868558 0.479683 0.065308
0.924486 0.482486 0.068111
0.980414 0.485289 0.070914
0.091067 0.499067 0.031567
0.146995 0.501870 0.034370
0.202923 0.504673 0.037173
0.258851 0.507476 0.039976
0.314779 0.510279 0.042779
0.370708 0.513083 0.045583
0.426636 0.515886 0.048386
0.482564 0.518689 0.051189
0.538492 0.521492 0.053992
0.594420 0.524295 0.056795
0.650348 0.527098 0.059598
0.706276 0.529901 0.062401
0.762205 0.532705 0.065204
0.818133 0.535508 0.068008
0.874061 0.538311 0.070811
0.929989 0.541114 0.073614
0.985917 0.543917 0.076417
0.096570 0.557695 0.037070
0.152498 0.560498 0.039873
0.208426 0.563301 0.042676
0.264354 0.566105 0.045480
0.320283 0.568908 0.048283
0.376211 0.571711 0.051086
0.432139 0.574514 0.053889
0.488067 0.577317 0.056692
0.543995 0.580120 0.059495
0.599923 0.582923 0.062298
0.655851 0.585726 0.065101
0.711780 0.588530 0.067904
0.767708 0.591333 0.070708
0.823636 0.594136 0.073511
0.879564 0.596939 0.076314
0.935492 0.599742 0.079117
0.991420 0.602545 0.081920
0.102073 0.616323 0.042573
0.158001 0.619126 0.045376
0.213929 0.621930 0.048179
0.269858 0.624733 0.050983
0.325786 0.627536 0.053786
0.381714 0.630339 0.056589
0.437642 0.633142 0.059392
0.493570 0.635945 0.062195
0.549498 0.638748 0.064998
0.605426 0.641551 0.067801
0.661355 0.644355 0.070604
0.717283 0.647158 0.073408
0.773211 0.649961 0.076211
0.829139 0.652764 0.079014
0.885067 0.655567 0.081817
0.940995 0.658370 0.084620
0.996923 0.661173 0.087423
0.107576 0.674951 0.048076
0.163504 0.677755 0.050879
0.219433 0.680558 0.053683
0.275361 0.683361 0.056486
0.331289 0.686164 0.059289
0.387217 0.688967 0.062092
0.443145 0.691770 0.064895
0.499073 0.694573 0.067698
0.555001 0.697376 0.070501
0.610930 0.700180 0.073304
0.666858 0.702983 0.076108
0.722786 0.705786 0.078911
0.778714 0.708589 0.081714
0.834642 0.711392 0.084517
0.890570 0.714195 0.087320
0.946498 0.716998 0.090123
1.000000 0.719801 0.092926
0.113079 0.733580 0.053580
0.169008 0.736383 0.056383
0.224936 0.739186 0.059186
0.280864 0.741989 0.061989
0.336792 0.744792 0.064792
0.392720 0.747595 0.067595
0.448648 0.750398 0.070398
0.504576 0.753201 0.073201
0.560505 0.756004 0.076005
0.616433 0.758808 0.078808
0.672361 0.761611 0.081611
0.728289 0.764414 0.084414
0.784217 0.767217 0.087217
0.840145 0.770020 0.090020
0.896073 0.772823 0.092823
0.952001 0.775626 0.095626
1.000000 0.778429 0.098430
0.118583 0.792208 0.059083
0.174511 0.795011 0.061886
0.230439 0.797814 0.064689
0.286367 0.800617 0.067492
0.342295 0.803420 0.070295
0.398223 0.806223 0.073098
0.454151 0.809026 0.075901
0.510080 0.811829 0.078704
0.566008 0.814633 0.081508
0.621936 0.817436 0.084311
0.677864 0.820239 0.087114
0.733792 0.823042 0.089917
0.789720 0.825845 0.092720
0.845648 0.828648 0.095523
0.901576 0.831451 0.098326
0.957504 0.834255 0.101129
1.000000 0.837058 0.103933
0.124086 0.850836 0.064586
0.180014 0.853639 0.067389
0.235942 0.856442 0.070192
0.291870 0.859245 0.072995
0.347798 0.862048 0.075798
0.403726 0.864851 0.078601
0.459654 0.867654 0.081404
0.515583 0.870458 0.084208
0.571511 0.873261 0.087011
0.627439 0.876064 0.089814
0.683367 0.878867 0.092617
0.739295 0.881670 0.095420
0.795223 0.884473 0.098223
0.851151 0.887276 0.101026
0.907080 0.890080 0.103830
0.963008 0.892883 0.106633
1.000000 0.895686 0.109436
0.129589 0.909464 0.070089
0.185517 0.912267 0.072892
0.241445 0.915070 0.075695
0.297373 0.917873 0.078498
0.353301 0.920676 0.081301
0.409230 0.923480 0.084105
0.465158 0.926283 0.086908
0.521086 0.929086 0.089711
0.577014 0.931889 0.092514
0.632942 0.934692 0.095317
0.688870 0.937495 0.098120
0.744798 0.940298 0.100923
0.800726 0.943101 0.103726
0.856654 0.945905 0.106530
0.912583 0.948708 0.109333
0.968511 0.951511 0.112136
1.000000 0.954314 0.114939
0.135092 0.968092 0.075592
0.191020 0.970895 0.078395
0.246948 0.973698 0.081198
0.302876 0.976501 0.084001
0.358805 0.979305 0.086804
0.414733 0.982108 0.089608
0.470661 0.984911 0.092411
0.526589 0.987714 0.095214
0.582517 0.990517 0.098017
0.638445 0.993320 0.100820
0.694373 0.996123 0.103623
0.750301 0.998926 0.106426
0.806230 1.000000 0.109229
0.862158 1.000000 0.112033
0.918086 1.000000 0.114836
0.974014 1.000000 0.117639
1.000000 1.000000 0.120442
0.048111 0.031111 0.041736
0.104039 0.033914 0.044539
0.159967 0.036717 0.047342
0.215895 0.039520 0.050145
0.271823 0.042323 0.052948
0.327751 0.045126 0.055751
0.383679 0.047929 0.058554
0.439608 0.050733 0.061358
0.495536 0.053536 0.064161
0.551464 0.056339 0.066964
0.607392 0.059142 0.069767
0.663320 0.061945 0.072570
0.719248 0.064748 0.075373
0.775176 0.067551 0.078176
0.831105 0.070355 0.080979
0.887033 0.073158 0.083783
0.942961 0.075961 0.086586
0.053614 0.089739 0.047239
0.109542 0.092542 0.050042
0.165470 0.095345 0.052845
0.221398 0.098148 0.055648
0.277326 0.100951 0.058451
0.333255 0.103754 0.061255
0.389183 0.106558 0.064058
0.445111 0.109361 0.066861
0.501039 0.112164 0.069664
0.556967 0.114967 0.072467
0.612895 0.117770 0.075270
0.668823 0.120573 0.078073
0.724751 0.123376 0.080876
0.780680 0.126179 0.083679
0.836608 0.128983 0.086483
0.892536 0.131786 0.089286
0.948464 0.134589 0.092089
0.059117 0.148367 0.052742
0.115045 0.151170 0.055545
0.170973 0.153973 0.058348
0.226901 0.156776 0.061151
0.282829 0.159579 0.063954
0.338758 0.162383 0.066758
0.394686 0.165186 0.069561
0.450614 0.167989 0.072364
0.506542 0.170792 0.075167
0.562470 0.173595 0.077970
0.618398 0.176398 0.080773
0.674326 0.179201 0.083576
0.730255 0.182005 0.086379
0.786183 0.184808 0.089183
0.842111 0.187611 0.091986
0.898039 0.190414 0.094789
0.953967 0.193217 0.097592
0.064620 0.206995 0.058245
0.120548 0.209798 0.061048
0.176476 0.212601 0.063851
0.232404 0.215404 0.066654
0.288333 0.218208 0.069458
0.344261 0.221011 0.072261
0.400189 0.223814 0.075064
0.456117 0.226617 0.077867
0.512045 0.229420 0.080670
0.567973 0.232223 0.083473
0.623901 0.235026 0.086276
0.679830 0.237829 0.089079
0.735758 0.240633 0.091883
0.791686 0.243436 0.094686
0.847614 0.246239 0.097489
0.903542 0.249042 0.100292
0.959470 0.251845 0.103095
0.070123 0.265623 0.063748
0.126051 0.268426 0.066551
0.181979 0.271230 0.069354
0.237908 0.274033 0.072158
0.293836 0.276836 0.074961
0.349764 0.279639 0.077764
0.405692 0.282442 0.080567
0.461620 0.285245 0.083370
0.517548 0.288048 0.086173
0.573476 0.290851 0.088976
0.629405 0.293655 0.091780
0.685333 0.296458 0.094583
0.741261 0.299261 0.097386
0.797189 0.302064 0.100189
0.853117 0.304867 0.102992
0.909045 0.307670 0.105795
0.964973 0.310473 0.108598
0.075626 0.324251 0.069251
0.131554 0.327055 0.072054
0.187483 0.329858 0.074858
0.243411 0.332661 0.077661
0.299339 0.335464 0.080464
0.355267 0.338267 0.083267
0.411195 0.341070 0.086070
0.467123 0.343873 0.088873
0.523051 0.346676 0.091676
0.578979 0.349479 0.094479
0.634908 0.352283 0.097283
0.690836 0.355086 0.100086
0.746764 0.357889 0.102889
0.802692 0.360692 0.105692
0.858620 0.363495 0.108495
0.914548 0.366298 0.111298
0.970476 0.369101 0.114101
0.081129 0.382880 0.074754
0.137058 0.385683 0.077558
0.192986 0.388486 0.080361
0.248914 0.391289 0.083164
0.304842 0.394092 0.085967
0.360770 0.396895 0.088770
0.416698 0.399698 0.091573
0.472626 0.402501 0.094376
0.528555 0.405305 0.097179
0.584483 0.408108 0.099983
0.640411 0.410911 0.102786
0.696339 0.413714 0.105589
0.752267 0.416517 0.108392
0.808195 0.419320 0.111195
0.864123 0.422123 0.113998
0.920051 0.424926 0.116801
0.975979 0.427729 0.119605
0.086633 0.441508 0.080258
0.142561 0.444311 0.083061
0.198489 0.447114 0.085864
0.254417 0.449917 0.088667
0.310345 0.452720 0.091470
0.366273 0.455523 0.094273
0.422201 0.458326 0.097076
0.478129 0.461130 0.099880
0.534058 0.463933 0.102683
0.589986 0.466736 0.105486
0.645914 0.469539 0.108289
0.701842 0.472342 0.111092
0.757770 0.475145 0.113895
0.813698 0.477948 0.116698
0.869626 0.480751 0.119501
0.925555 0.483554 0.122304
0.981483 0.486358 0.125108
0.092136 0.500136 0.085761
0.148064 0.502939 0.088564
0.203992 0.505742 0.091367
0.259920 0.508545 0.094170
0.315848 0.511348 0.096973
0.371776 0.514151 0.099776
0.427704 0.516954 0.102579
0.483633 0.519758 0.105383
0.539561 0.522561 0.108186
0.595489 0.525364 0.110989
0.651417 0.528167 0.113792
0.707345 0.530970 0.116595
0.763273 0.533773 0.119398
0.819201 0.536576 0.122201
0.875130 0.539380 0.125005
0.931058 0.542183 0.127808
0.986986 0.544986 0.130611
0.097639 0.558764 0.091264
0.153567 0.561567 0.094067
0.209495 0.564370 0.096870
0.265423 0.567173 0.099673
0.321351 0.569976 0.102476
0.377279 0.572779 0.105279
0.433208 0.575583 0.108083
0.489136 0.578386 0.110886
0.545064 0.581189 0.113689
0.600992 0.583992 0.116492
0.656920 0.586795 0.119295
0.712848 0.589598 0.122098
0.768776 0.592401 0.124901
0.824705 0.595205 0.127704
0.880633 0.598008 0.130508
0.936561 0.600811 0.133311
0.992489 0.603614 0.136114
0.103142 0.617392 0.096767
0.159070 0.620195 0.099570
0.214998 0.622998 0.102373
0.270926 0.625801 0.105176
0.326854 0.628605 0.107980
0.382783 0.631408 0.110783
0.438711 0.634211 0.113586
0.494639 0.637014 0.116389
0.550567 0.639817 0.119192
0.606495 0.642620 0.121995
0.662423 0.645423 0.124798
0.718351 0.648226 0.127601
0.774280 0.651030 0.130404
0.830208 0.653833 0.133208
0.886136 0.656636 0.136011
0.942064 0.659439 0.138814
0.997992 0.662242 0.141617
0.108645 0.676020 0.102270
0.164573 0.678823 0.105073
0.220501 0.681626 0.107876
0.276429 0.684430 0.110679
0.332358 0.687233 0.113483
0.388286 0.690036 0.116286
0.444214 0.692839 0.119089
0.500142 0.695642 0.121892
0.556070 0.698445 0.124695
0.611998 0.701248 0.127498
0.667926 0.704051 0.130301
0.723855 0.706855 0.133104
0.779783 0.709658 0.135908
0.835711 0.712461 0.138711
0.891639 0.715264 0.141514
0.947567 0.718067 0.144317
1.000000 0.720870 0.147120
0.114148 0.734648 0.107773
0.170076 0.737451 0.110576
0.226004 0.740255 0.113379
0.281933 0.743058 0.116183
0.337861 0.745861 0.118986
0.393789 0.748664 0.121789
0.449717 0.751467 0.124592
0.505645 0.754270 0.127395
0.561573 0.757073 0.130198
0.617501 0.759876 0.133001
0.673430 0.762679 0.135804
0.729358 0.765483 0.138608
0.785286 0.768286 0.141411
0.841214 0.771089 0.144214
0.897142 0.773892 0.147017
0.953070 0.776695 0.149820
1.000000 0.779498 0.152623
0.119651 0.793276 0.113276
0.175579 0.796080 0.116080
0.231508 0.798883 0.118883
0.287436 0.801686 0.121686
0.343364 0.804489 0.124489
0.399292 0.807292 0.127292
0.455220 0.810095 0.130095
0.511148 0.812898 0.132898
0.567076 0.815701 0.135701
0.623005 0.818504 0.138505
0.678933 0.821308 0.141308
0.734861 0.824111 0.144111
0.790789 0.826914 0.146914
0.846717 0.829717 0.149717
0.902645 0.832520 0.152520
0.958573 0.835323 0.155323
1.000000 0.838126 0.158126
0.125155 0.851905 0.118779
0.181083 0.854708 0.121583
0.237011 0.857511 0.124386
0.292939 0.860314 0.127189
0.348867 0.863117 0.129992
0.404795 0.865920 0.132795
0.460723 0.868723 0.135598
0.516651 0.871526 0.138401
0.572580 0.874329 0.141204
0.628508 0.877133 0.144008
0.684436 0.879936 0.146811
0.740364 0.882739 0.149614
0.796292 0.885542 0.152417
0.852220 0.888345 0.155220
0.908148 0.891148 0.158023
0.964076 0.893951 0.160826
1.000000 0.896755 0.163629
0.130658 0.910533 0.124283
0.186586 0.913336 0.127086
0.242514 0.916139 0.129889
0.298442 0.918942 0.132692
0.354370 0.921745 0.135495
0.410298 0.924548 0.138298
0.466226 0.927351 0.141101
0.522154 0.930154 0.143904
0.578083 0.932958 0.146708
0.634011 0.935761 0.149511
0.689939 0.938564 0.152314
0.745867 0.941367 0.155117
0.801795 0.944170 0.157920
0.857723 0.946973 0.160723
0.913651 0.949776 0.163526
0.969580 0.952580 0.166330
1.000000 0.955383 0.169133
0.136161 0.969161 0.129786
0.192089 0.971964 0.132589
0.248017 0.974767 0.135392
0.303945 0.977570 0.138195
0.359873 0.980373 0.140998
0.415801 0.983176 0.143801
0.471729 0.985980 0.146605
0.527658 0.988783 0.149408
0.583586 0.991586 0.152211
0.639514 0.994389 0.155014
0.695442 0.997192 0.157817
0.751370 0.999995 0.160620
0.807298 1.000000 0.163423
0.863226 1.000000 0.166226
0.919154 1.000000 0.169030
0.975083 1.000000 0.171833
1.000000 1.000000 0.174636
0.049180 0.032179 0.095930
0.105108 0.034983 0.098733
0.161036 0.037786 0.101536
0.216964 0.040589 0.104339
0.272892 0.043392 0.107142
0.328820 0.046195 0.109945
0.384748 0.048998 0.112748
0.440676 0.051801 0.115551
0.496605 0.054605 0.118355
0.552533 0.057408 0.121158
0.608461 0.060211 0.123961
0.664389 0.063014 0.126764
0.720317 0.065817 0.129567
0.776245 0.068620 0.132370
0.832173 0.071423 0.135173
0.888101 0.074226 0.137976
0.944030 0.077030 0.140780
0.054683 0.090808 0.101433
0.110611 0.093611 0.104236
0.166539 0.096414 0.107039
0.222467 0.099217 0.109842
0.278395 0.102020 0.112645
0.334323 0.104823 0.115448
0.390251 0.107626 0.118251
0.446179 0.110429 0.121054
0.502108 0.113233 0.123858
0.558036 0.116036 0.126661
0.613964 0.118839 0.129464
0.669892 0.121642 0.132267
0.725820 0.124445 0.135070
0.781748 0.127248 0.137873
0.837676 0.130051 0.140676
0.893605 0.132854 0.143479
0.949533 0.135658 0.146283
0.060186 0.149436 0.106936
0.116114 0.152239 0.109739
0.172042 0.155042 0.112542
0.227970 0.157845 0.115345
0.283898 0.160648 0.118148
0.339826 0.163451 0.120951
0.395755 0.166254 0.123755
0.451683 0.169058 0.126558
0.507611 0.171861 0.129361
0.563539 0.174664 0.132164
0.619467 0.177467 0.134967
0.675395 0.180270 0.137770
0.731323 0.183073 0.140573
0.787251 0.185876 0.143376
0.843180 0.188679 0.146179
0.899108 0.191483 0.148983
0.955036 0.194286 0.151786
0.065689 0.208064 0.112439
0.121617 0.210867 0.115242
0.177545 0.213670 0.118045
0.233473 0.216473 0.120848
0.289401 0.219276 0.123651
0.345329 0.222079 0.126455
0.401258 0.224883 0.129258
0.457186 0.227686 0.132061
0.513114 0.230489 0.134864
0.569042 0.233292 0.137667
0.624970 0.236095 0.140470
0.680898 0.238898 0.143273
0.736826 0.241701 0.146076
0.792755 0.244505 0.148879
0.848683 0.247308 0.151683
0.904611 0.250111 0.154486
0.960539 0.252914 0.157289
0.071192 0.266692 0.117942
0.127120 0.269495 0.120745
0.183048 0.272298 0.123548
0.238976 0.275101 0.126351
0.294905 0.277904 0.129154
0.350833 0.280708 0.131958
0.406761 0.283511 0.134761
0.462689 0.286314 0.137564
0.518617 0.289117 0.140367
0.574545 0.291920 0.143170
0.630473 0.294723 0.145973
0.686401 0.297526 0.148776
0.742330 0.300330 0.151579
0.798258 0.303133 0.154383
0.854186 0.305936 0.157186
0.910114 0.308739 0.159989
0.966042 0.311542 0.162792
0.076695 0.325320 0.123445
0.132623 0.328123 0.126248
0.188551 0.330926 0.129051
0.244479 0.333730 0.131854
0.300408 0.336533 0.134658
0.356336 0.339336 0.137461
0.412264 0.342139 0.140264
0.468192 0.344942 0.143067
0.524120 0.347745 0.145870
0.580048 0.350548 0.148673
0.635976 0.353351 0.151476
0.691905 0.356155 0.154280
0.747833 0.358958 0.157083
0.803761 0.361761 0.159886
0.859689 0.364564 0.162689
0.915617 0.367367 0.165492
0.971545 0.370170 0.168295
0.082198 0.383948 0.128948
0.138126 0.386751 0.131751
0.194054 0.389555 0.134554
0.249983 0.392358 0.137358
0.305911 0.395161 0.140161
0.361839 0.397964 0.142964
0.417767 0.400767 0.145767
0.473695 0.403570 0.148570
0.529623 0.406373 0.151373
0.585551 0.409176 0.154176
0.641479 0.411979 0.156979
0.697408 0.414783 0.159783
0.753336 0.417586 0.162586
0.809264 0.420389 0.165389
0.865192 0.423192 0.168192
0.921120 0.425995 0.170995
0.977048 0.428798 0.173798
0.087701 0.442576 0.134451
0.143629 0.445380 0.137254
0.199558 0.448183 0.140058
0.255486 0.450986 0.142861
0.311414 0.453789 0.145664
0.367342 0.456592 0.148467
0.423270 0.459395 0.151270
0.479198 0.462198 0.154073
0.535126 0.465001 0.156876
0.591055 0.467805 0.159679
0.646983 0.470608 0.162483
0.702911 0.473411 0.165286
0.758839 0.476214 0.168089
0.814767 0.479017 0.170892
0.870695 0.481820 0.173695
0.926623 0.484623 0.176498
0.982551 0.487426 0.179301
0.093204 0.501205 0.139954
0.149133 0.504008 0.142758
0.205061 0.506811 0.145561
0.260989 0.509614 0.148364
0.316917 0.512417 0.151167
0.372845 0.515220 0.153970
0.428773 0.518023 0.156773
0.484701 0.520826 0.159576
0.540629 0.523629 0.162380
0.596558 0.526433 0.165183
0.652486 0.529236 0.167986
0.708414 0.532039 0.170789
0.764342 0.534842 0.173592
0.820270 0.537645 0.176395
0.876198 0.540448 0.179198
0.932126 0.543251 0.182001
0.988055 0.546054 0.184804
0.098708 0.559833 0.145458
0.154636 0.562636 0.148261
0.210564 0.565439 0.151064
0.266492 0.568242 0.153867
0.322420 0.571045 0.156670
0.378348 0.573848 0.159473
0.434276 0.576651 0.162276
0.490204 0.579454 0.165079
0.546133 0.582258 0.167883
0.602061 0.585061 0.170686
0.657989 0.587864 0.173489
0.713917 0.590667 0.176292
0.769845 0.593470 0.179095
0.825773 0.596273 0.181898
0.881701 0.599076 0.184701
0.937630 0.601880 0.187505
0.993558 0.604683 0.190308
0.104211 0.618461 0.150961
0.160139 0.621264 0.153764
0.216067 0.624067 0.156567
0.271995 0.626870 0.159370
0.327923 0.629673 0.162173
0.383851 0.632476 0.164976
0.439779 0.635279 0.167780
0.495708 0.638083 0.170583
0.551636 0.640886 0.173386
0.607564 0.643689 0.176189
0.663492 0.646492 0.178992
0.719420 0.649295 0.181795
0.775348 0.652098 0.184598
0.831276 0.654901 0.187401
0.887205 0.657705 0.190204
0.943133 0.660508 0.193008
0.999061 0.663311 0.195811
0.109714 0.677089 0.156464
0.165642 0.679892 0.159267
0.221570 0.682695 0.162070
0.277498 0.685498 0.164873
0.333426 0.688301 0.167676
0.389354 0.691105 0.170480
0.445283 0.693908 0.173283
0.501211 0.696711 0.176086
0.557139 0.699514 0.178889
0.613067 0.702317 0.181692
0.668995 0.705120 0.184495
0.724923 0.707923 0.187298
0.780851 0.710726 0.190101
0.836780 0.713530 0.192904
0.892708 0.716333 0.195708
0.948636 0.719136 0.198511
1.000000 0.721939 0.201314
0.115217 0.735717 0.161967
0.171145 0.738520 0.164770
0.227073 0.741323 0.167573
0.283001 0.744126 0.170376
0.338929 0.746930 0.173179
0.394858 0.749733 0.175983
0.450786 0.752536 0.178786
0.506714 0.755339 0.181589
0.562642 0.758142 0.184392
0.618570 0.760945 0.187195
0.674498 0.763748 0.189998
0.730426 0.766551 0.192801
0.786355 0.769355 0.195604
0.842283 0.772158 0.198408
0.898211 0.774961 0.201211
0.954139 0.777764 0.204014
1.000000 0.780567 0.206817
0.120720 0.794345 0.167470
0.176648 0.797148 0.170273
0.232576 0.799951 0.173076
0.288504 0.802755 0.175879
0.344433 0.805558 0.178683
0.400361 0.808361 0.181486
0.456289 0.811164 0.184289
0.512217 0.813967 0.187092
0.568145 0.816770 0.189895
0.624073 0.819573 0.192698
0.680001 0.822376 0.195501
0.735930 0.825180 0.198304
0.791858 0.827983 0.201108
0.847786 0.830786 0.203911
0.903714 0.833589 0.206714
0.959642 0.836392 0.209517
1.000000 0.839195 0.212320
0.126223 0.852973 0.172973
0.182151 0.855776 0.175776
0.238079 0.858580 0.178580
0.294008 0.861383 0.181383
0.349936 0.864186 0.184186
0.405864 0.866989 0.186989
0.461792 0.869792 0.189792
0.517720 0.872595 0.192595
0.573648 0.875398 0.195398
0.629576 0.878201 0.198201
0.685505 0.881004 0.201005
0.741433 0.883808 0.203808
0.797361 0.886611 0.206611
0.853289 0.889414 0.209414
0.909217 0.892217 0.212217
0.965145 0.895020 0.215020
1.000000 0.897823 0.217823
0.131726 0.911601 0.178476
0.187655 0.914405 0.181279
0.243583 0.917208 0.184083
0.299511 0.920011 0.186886
0.355439 0.922814 0.189689
0.411367 0.925617 0.192492
0.467295 0.928420 0.195295
0.523223 0.931223 0.198098
0.579151 0.934026 0.200901
0.635080 0.936829 0.203705
0.691008 0.939633 0.206508
0.746936 0.942436 0.209311
0.802864 0.945239 0.212114
0.858792 0.948042 0.214917
0.914720 0.950845 0.217720
0.970648 0.953648 0.220523
1.000000 0.956451 0.223326
0.137230 0.970230 0.183980
0.193158 0.973033 0.186783
0.249086 0.975836 0.189586
0.305014 0.978639 0.192389
0.360942 0.981442 0.195192
0.416870 0.984245 0.197995
0.472798 0.987048 0.200798
0.528726 0.989851 0.203601
0.584655 0.992654 0.206404
0.640583 0.995458 0.209208
0.696511 0.998261 0.212011
0.752439 1.000000 0.214814
0.808367 1.000000 0.217617
0.864295 1.000000 0.220420
0.920223 1.000000 0.223223
0.976151 1.000000 0.226026
1.000000 1.000000 0.228830
0.050248 0.033248 0.150123
0.106176 0.036051 0.152926
0.162104 0.038855 0.155730
0.218033 0.041658 0.158533
0.273961 0.044461 0.161336
0.329889 0.047264 0.164139
0.385817 0.050067 0.166942
0.441745 0.052870 0.169745
0.497673 0.055673 0.172548
0.553601 0.058476 0.175351
0.609530 0.061280 0.178154
0.665458 0.064083 0.180958
0.721386 0.066886 0.183761
0.777314 0.069689 0.186564
0.833242 0.072492 0.189367
0.889170 0.075295 0.192170
0.945098 0.078098 0.194973
0.055751 0.091876 0.155626
