app/src/main/assets/luts/soft_skin_glow.cube
# ApexStudio filter: soft_skin_glow
LUT_3D_SIZE 9
DOMAIN_MIN 0.0 0.0 0.0
DOMAIN_MAX 1.0 1.0 1.0
0.047042 0.030042 0.000000
0.158898 0.035648 0.000000
0.270755 0.041254 0.000000
0.382611 0.046861 0.004361
0.494467 0.052467 0.009967
0.606323 0.058073 0.015573
0.718180 0.063679 0.021179
0.830036 0.069286 0.026786
0.941892 0.074892 0.032392
0.058048 0.147298 0.000000
0.169904 0.152904 0.004155
0.281761 0.158511 0.009761
0.393617 0.164117 0.015367
0.505473 0.169723 0.020973
0.617330 0.175329 0.026579
0.729186 0.180936 0.032186
0.841042 0.186542 0.037792
0.952898 0.192148 0.043398
0.069055 0.264555 0.009555
0.180911 0.270161 0.015161
0.292767 0.275767 0.020767
0.404623 0.281373 0.026373
0.516479 0.286980 0.031979
0.628336 0.292586 0.037586
0.740192 0.298192 0.043192
0.852048 0.303798 0.048798
0.963905 0.309405 0.054405
0.080061 0.381811 0.020561
0.191917 0.387417 0.026167
0.303773 0.393023 0.031773
0.415629 0.398630 0.037380
0.527486 0.404236 0.042986
0.639342 0.409842 0.048592
0.751198 0.415448 0.054198
0.863055 0.421055 0.059805
0.974911 0.426661 0.065411
0.091067 0.499067 0.031567
0.202923 0.504673 0.037173
0.314779 0.510279 0.042779
0.426636 0.515886 0.048386
0.538492 0.521492 0.053992
0.650348 0.527098 0.059598
0.762205 0.532705 0.065204
0.874061 0.538311 0.070811
0.985917 0.543917 0.076417
0.102073 0.616323 0.042573
0.213929 0.621930 0.048179
0.325786 0.627536 0.053786
0.437642 0.633142 0.059392
0.549498 0.638748 0.064998
0.661355 0.644355 0.070604
0.773211 0.649961 0.076211
0.885067 0.655567 0.081817
0.996923 0.661173 0.087423
0.113079 0.733580 0.053580
0.224936 0.739186 0.059186
0.336792 0.744792 0.064792
0.448648 0.750398 0.070398
0.560505 0.756004 0.076005
0.672361 0.761611 0.081611
0.784217 0.767217 0.087217
0.896073 0.772823 0.092823
1.000000 0.778429 0.098430
0.124086 0.850836 0.064586
0.235942 0.856442 0.070192
0.347798 0.862048 0.075798
0.459654 0.867654 0.081404
0.571511 0.873261 0.087011
0.683367 0.878867 0.092617
0.795223 0.884473 0.098223
0.907080 0.890080 0.103830
1.000000 0.895686 0.109436
0.135092 0.968092 0.075592
0.246948 0.973698 0.081198
0.358805 0.979305 0.086804
0.470661 0.984911 0.092411
0.582517 0.990517 0.098017
0.694373 0.996123 0.103623
0.806230 1.000000 0.109229
0.918086 1.000000 0.114836
1.000000 1.000000 0.120442
0.049180 0.032179 0.095930
0.161036 0.037786 0.101536
0.272892 0.043392 0.107142
0.384748 0.048998 0.112748
0.496605 0.054605 0.118355
0.608461 0.060211 0.123961
0.720317 0.065817 0.129567
0.832173 0.071423 0.135173
0.944030 0.077030 0.140780
0.060186 0.149436 0.106936
0.172042 0.155042 0.112542
0.283898 0.160648 0.118148
0.395755 0.166254 0.123755
0.507611 0.171861 0.129361
0.619467 0.177467 0.134967
0.731323 0.183073 0.140573
0.843180 0.188679 0.146179
0.955036 0.194286 0.151786
0.071192 0.266692 0.117942
0.183048 0.272298 0.123548
0.294905 0.277904 0.129154
0.406761 0.283511 0.134761
0.518617 0.289117 0.140367
0.630473 0.294723 0.145973
0.742330 0.300330 0.151579
0.854186 0.305936 0.157186
0.966042 0.311542 0.162792
0.082198 0.383948 0.128948
0.194054 0.389555 0.134554
0.305911 0.395161 0.140161
0.417767 0.400767 0.145767
0.529623 0.406373 0.151373
0.641479 0.411979 0.156979
0.753336 0.417586 0.162586
0.865192 0.423192 0.168192
0.977048 0.428798 0.173798
0.093204 0.501205 0.139954
0.205061 0.506811 0.145561
0.316917 0.512417 0.151167
0.428773 0.518023 0.156773
0.540629 0.523629 0.162380
0.652486 0.529236 0.167986
0.764342 0.534842 0.173592
0.876198 0.540448 0.179198
0.988055 0.546054 0.184804
0.104211 0.618461 0.150961
0.216067 0.624067 0.156567
0.327923 0.629673 0.162173
0.439779 0.635279 0.167780
0.551636 0.640886 0.173386
0.663492 0.646492 0.178992
0.775348 0.652098 0.184598
0.887205 0.657705 0.190204
0.999061 0.663311 0.195811
0.115217 0.735717 0.161967
0.227073 0.741323 0.167573
0.338929 0.746930 0.173179
0.450786 0.752536 0.178786
0.562642 0.758142 0.184392
0.674498 0.763748 0.189998
0.786355 0.769355 0.195604
0.898211 0.774961 0.201211
1.000000 0.780567 0.206817
0.126223 0.852973 0.172973
0.238079 0.858580 0.178580
0.349936 0.864186 0.184186
0.461792 0.869792 0.189792
0.573648 0.875398 0.195398
0.685505 0.881004 0.201005
0.797361 0.886611 0.206611
0.909217 0.892217 0.212217
1.000000 0.897823 0.217823
0.137230 0.970230 0.183980
0.249086 0.975836 0.189586
0.360942 0.981442 0.195192
0.472798 0.987048 0.200798
0.584655 0.992654 0.206404
0.696511 0.998261 0.212011
0.808367 1.000000 0.217617
0.920223 1.000000 0.223223
1.000000 1.000000 0.228830
0.051317 0.034317 0.204317
0.163173 0.039923 0.209923
0.275029 0.045530 0.215529
0.386886 0.051136 0.221136
0.498742 0.056742 0.226742
0.610598 0.062348 0.232348
0.722454 0.067955 0.237955
0.834311 0.073561 0.243561
0.946167 0.079167 0.249167
0.062323 0.151573 0.215323
0.174179 0.157179 0.220930
0.286036 0.162786 0.226536
0.397892 0.168392 0.232142
0.509748 0.173998 0.237748
0.621605 0.179605 0.243355
0.733461 0.185211 0.248961
0.845317 0.190817 0.254567
0.957173 0.196423 0.260173
0.073329 0.268829 0.226330
0.185186 0.274436 0.231936
0.297042 0.280042 0.237542
0.408898 0.285648 0.243148
0.520755 0.291255 0.248755
0.632611 0.296861 0.254361
0.744467 0.302467 0.259967
0.856323 0.308073 0.265573
0.968179 0.313679 0.271180
0.084336 0.386086 0.237336
0.196192 0.391692 0.242942
0.308048 0.397298 0.248548
0.419905 0.402904 0.254155
0.531761 0.408511 0.259761
0.643617 0.414117 0.265367
0.755473 0.419723 0.270973
0.867330 0.425330 0.276579
0.979186 0.430936 0.282186
0.095342 0.503342 0.248342
0.207198 0.508948 0.253948
0.319055 0.514555 0.259555
0.430911 0.520161 0.265161
0.542767 0.525767 0.270767
0.654623 0.531373 0.276373
0.766479 0.536980 0.281979
0.878336 0.542586 0.287586
0.990192 0.548192 0.293192
0.106348 0.620598 0.259348
0.218204 0.626205 0.264954
0.330061 0.631811 0.270561
0.441917 0.637417 0.276167
0.553773 0.643023 0.281773
0.665630 0.648629 0.287380
0.777486 0.654236 0.292986
0.889342 0.659842 0.298592
1.000000 0.665448 0.304198
0.117355 0.737855 0.270355
0.229211 0.743461 0.275961
0.341067 0.749067 0.281567
0.452923 0.754673 0.287173
0.564779 0.760279 0.292780
0.676636 0.765886 0.298386
0.788492 0.771492 0.303992
0.900348 0.777098 0.309598
1.000000 0.782705 0.315204
0.128361 0.855111 0.281361
0.240217 0.860717 0.286967
0.352073 0.866323 0.292573
0.463929 0.871930 0.298179
0.575786 0.877536 0.303786
0.687642 0.883142 0.309392
0.799498 0.888748 0.314998
0.911355 0.894355 0.320604
1.000000 0.899961 0.326211
0.139367 0.972367 0.292367
0.251223 0.977973 0.297973
0.363079 0.983580 0.303580
0.474936 0.989186 0.309186
0.586792 0.994792 0.314792
0.698648 1.000000 0.320398
0.810505 1.000000 0.326005
0.922361 1.000000 0.331611
1.000000 1.000000 0.337217
0.053455 0.036455 0.312704
0.165311 0.042061 0.318311
0.277167 0.047667 0.323917
0.389023 0.053273 0.329523
0.500880 0.058880 0.335129
0.612736 0.064486 0.340736
0.724592 0.070092 0.346342
0.836448 0.075698 0.351948
0.948304 0.081305 0.357554
0.064461 0.153711 0.323711
0.176317 0.159317 0.329317
0.288173 0.164923 0.334923
0.400029 0.170530 0.340529
0.511886 0.176136 0.346136
0.623742 0.181742 0.351742
0.735598 0.187348 0.357348
0.847454 0.192955 0.362954
0.959311 0.198561 0.368561
0.075467 0.270967 0.334717
0.187323 0.276573 0.340323
0.299179 0.282180 0.345930
0.411036 0.287786 0.351536
0.522892 0.293392 0.357142
0.634748 0.298998 0.362748
0.746605 0.304605 0.368354
0.858461 0.310211 0.373961
0.970317 0.315817 0.379567
0.086473 0.388223 0.345723
0.198329 0.393829 0.351329
0.310186 0.399436 0.356936
0.422042 0.405042 0.362542
0.533898 0.410648 0.368148
0.645755 0.416255 0.373754
0.757611 0.421861 0.379361
0.869467 0.427467 0.384967
0.981323 0.433073 0.390573
0.097479 0.505480 0.356729
0.209336 0.511086 0.362336
0.321192 0.516692 0.367942
0.433048 0.522298 0.373548
0.544905 0.527904 0.379154
0.656761 0.533511 0.384761
0.768617 0.539117 0.390367
0.880473 0.544723 0.395973
0.992330 0.550330 0.401579
0.108486 0.622736 0.367736
0.220342 0.628342 0.373342
0.332198 0.633948 0.378948
0.444055 0.639555 0.384555
0.555911 0.645161 0.390161
0.667767 0.650767 0.395767
0.779623 0.656373 0.401373
0.891479 0.661980 0.406979
1.000000 0.667586 0.412586
0.119492 0.739992 0.378742
0.231348 0.745598 0.384348
0.343205 0.751205 0.389954
0.455061 0.756811 0.395561
0.566917 0.762417 0.401167
0.678773 0.768023 0.406773
0.790630 0.773629 0.412380
0.902486 0.779236 0.417986
1.000000 0.784842 0.423592
0.130498 0.857248 0.389748
0.242354 0.862855 0.395354
0.354211 0.868461 0.400961
0.466067 0.874067 0.406567
0.577923 0.879673 0.412173
0.689779 0.885279 0.417780
0.801636 0.890886 0.423386
0.913492 0.896492 0.428992
1.000000 0.902098 0.434598
0.141505 0.974504 0.400755
0.253361 0.980111 0.406361
0.365217 0.985717 0.411967
0.477073 0.991323 0.417573
0.588930 0.996930 0.423179
0.700786 1.000000 0.428786
0.812642 1.000000 0.434392
0.924498 1.000000 0.439998
1.000000 1.000000 0.445604
0.055592 0.038592 0.421092
0.167448 0.044198 0.426698
0.279304 0.049805 0.432304
0.391161 0.055411 0.437911
0.503017 0.061017 0.443517
0.614873 0.066623 0.449123
0.726730 0.072230 0.454730
0.838586 0.077836 0.460336
0.950442 0.083442 0.465942
0.066598 0.155848 0.432098
0.178454 0.161455 0.437704
0.290311 0.167061 0.443311
0.402167 0.172667 0.448917
0.514023 0.178273 0.454523
0.625880 0.183880 0.460129
0.737736 0.189486 0.465736
0.849592 0.195092 0.471342
0.961448 0.200698 0.476948
0.077605 0.273105 0.443105
0.189461 0.278711 0.448711
0.301317 0.284317 0.454317
0.413173 0.289923 0.459923
0.525030 0.295530 0.465529
0.636886 0.301136 0.471136
0.748742 0.306742 0.476742
0.860598 0.312348 0.482348
0.972454 0.317955 0.487954
0.088611 0.390361 0.454111
0.200467 0.395967 0.459717
0.312323 0.401573 0.465323
0.424179 0.407180 0.470930
0.536036 0.412786 0.476536
0.647892 0.418392 0.482142
0.759748 0.423998 0.487748
0.871605 0.429605 0.493354
0.983461 0.435211 0.498961
0.099617 0.507617 0.465117
0.211473 0.513223 0.470723
0.323329 0.518830 0.476329
0.435186 0.524436 0.481936
0.547042 0.530042 0.487542
0.658898 0.535648 0.493148
0.770755 0.541254 0.498754
0.882611 0.546861 0.504361
0.994467 0.552467 0.509967
0.110623 0.624873 0.476123
0.222479 0.630480 0.481729
0.334336 0.636086 0.487336
0.446192 0.641692 0.492942
0.558048 0.647298 0.498548
0.669905 0.652904 0.504154
0.781761 0.658511 0.509761
0.893617 0.664117 0.515367
1.000000 0.669723 0.520973
0.121630 0.742129 0.487129
0.233486 0.747736 0.492736
0.345342 0.753342 0.498342
0.457198 0.758948 0.503948
0.569055 0.764555 0.509555
0.680911 0.770161 0.515161
0.792767 0.775767 0.520767
0.904623 0.781373 0.526373
1.000000 0.786980 0.531980
0.132636 0.859386 0.498136
0.244492 0.864992 0.503742
0.356348 0.870598 0.509348
0.468205 0.876205 0.514954
0.580061 0.881811 0.520561
0.691917 0.887417 0.526167
0.803773 0.893023 0.531773
0.915630 0.898629 0.537380
1.000000 0.904236 0.542986
0.143642 0.976642 0.509142
0.255498 0.982248 0.514748
0.367354 0.987855 0.520355
0.479211 0.993461 0.525961
0.591067 0.999067 0.531567
0.702923 1.000000 0.537173
0.814779 1.000000 0.542779
0.926636 1.000000 0.548386
1.000000 1.000000 0.553992
0.057730 0.040730 0.529479
0.169586 0.046336 0.535086
0.281442 0.051942 0.540692
0.393298 0.057548 0.546298
0.505154 0.063155 0.551905
0.617011 0.068761 0.557511
0.728867 0.074367 0.563117
0.840723 0.079973 0.568723
0.952580 0.085580 0.574329
0.068736 0.157986 0.540486
0.180592 0.163592 0.546092
0.292448 0.169198 0.551698
0.404304 0.174805 0.557304
0.516161 0.180411 0.562911
0.628017 0.186017 0.568517
0.739873 0.191623 0.574123
0.851730 0.197230 0.579730
0.963586 0.202836 0.585336
0.079742 0.275242 0.551492
0.191598 0.280848 0.557098
0.303455 0.286455 0.562704
0.415311 0.292061 0.568311
0.527167 0.297667 0.573917
0.639023 0.303273 0.579523
0.750880 0.308880 0.585129
0.862736 0.314486 0.590736
0.974592 0.320092 0.596342
0.090748 0.392498 0.562498
0.202604 0.398105 0.568105
0.314461 0.403711 0.573711
0.426317 0.409317 0.579317
0.538173 0.414923 0.584923
0.650030 0.420530 0.590529
0.761886 0.426136 0.596136
0.873742 0.431742 0.601742
0.985598 0.437348 0.607348
0.101754 0.509754 0.573504
0.213611 0.515361 0.579111
0.325467 0.520967 0.584717
0.437323 0.526573 0.590323
0.549180 0.532180 0.595930
0.661036 0.537786 0.601536
0.772892 0.543392 0.607142
0.884748 0.548998 0.612748
0.996605 0.554605 0.618354
0.112761 0.627011 0.584511
0.224617 0.632617 0.590117
0.336473 0.638223 0.595723
0.448329 0.643830 0.601329
0.560186 0.649436 0.606936
0.672042 0.655042 0.612542
0.783898 0.660648 0.618148
0.895755 0.666254 0.623754
1.000000 0.671861 0.629361
0.123767 0.744267 0.595517
0.235623 0.749873 0.601123
0.347479 0.755479 0.606729
0.459336 0.761086 0.612336
0.571192 0.766692 0.617942
0.683048 0.772298 0.623548
0.794905 0.777904 0.629154
0.906761 0.783511 0.634761
1.000000 0.789117 0.640367
0.134773 0.861523 0.606523
0.246630 0.867129 0.612129
0.358486 0.872736 0.617736
0.470342 0.878342 0.623342
0.582198 0.883948 0.628948
0.694055 0.889555 0.634555
0.805911 0.895161 0.640161
0.917767 0.900767 0.645767
1.000000 0.906373 0.651373
0.145780 0.978780 0.617529
0.257636 0.984386 0.623136
0.369492 0.989992 0.628742
0.481348 0.995598 0.634348
0.593205 1.000000 0.639954
0.705061 1.000000 0.645561
0.816917 1.000000 0.651167
0.928773 1.000000 0.656773
1.000000 1.000000 0.662380
0.059867 0.042867 0.637867
0.171723 0.048473 0.643473
0.283579 0.054080 0.649080
0.395436 0.059686 0.654686
0.507292 0.065292 0.660292
0.619148 0.070898 0.665898
0.731005 0.076504 0.671504
0.842861 0.082111 0.677111
0.954717 0.087717 0.682717
0.070873 0.160123 0.648873
0.182729 0.165730 0.654479
0.294586 0.171336 0.660086
0.406442 0.176942 0.665692
0.518298 0.182548 0.671298
0.630155 0.188155 0.676905
0.742011 0.193761 0.682511
0.853867 0.199367 0.688117
0.965723 0.204973 0.693723
0.081879 0.277380 0.659879
0.193736 0.282986 0.665486
0.305592 0.288592 0.671092
0.417448 0.294198 0.676698
0.529305 0.299805 0.682304
0.641161 0.305411 0.687911
0.753017 0.311017 0.693517
0.864873 0.316623 0.699123
0.976730 0.322230 0.704730
0.092886 0.394636 0.670886
0.204742 0.400242 0.676492
0.316598 0.405848 0.682098
0.428454 0.411455 0.687704
0.540311 0.417061 0.693311
0.652167 0.422667 0.698917
0.764023 0.428273 0.704523
0.875880 0.433880 0.710129
0.987736 0.439486 0.715736
0.103892 0.511892 0.681892
0.215748 0.517498 0.687498
0.327604 0.523104 0.693105
0.439461 0.528711 0.698711
0.551317 0.534317 0.704317
0.663173 0.539923 0.709923
0.775030 0.545530 0.715529
0.886886 0.551136 0.721136
0.998742 0.556742 0.726742
0.114898 0.629148 0.692898
0.226754 0.634754 0.698504
0.338611 0.640361 0.704111
0.450467 0.645967 0.709717
0.562323 0.651573 0.715323
0.674180 0.657180 0.720930
0.786036 0.662786 0.726536
0.897892 0.668392 0.732142
1.000000 0.673998 0.737748
0.125905 0.746405 0.703904
0.237761 0.752011 0.709511
0.349617 0.757617 0.715117
0.461473 0.763223 0.720723
0.573330 0.768830 0.726329
0.685186 0.774436 0.731936
0.797042 0.780042 0.737542
0.908898 0.785648 0.743148
1.000000 0.791254 0.748754
0.136911 0.863661 0.714911
0.248767 0.869267 0.720517
0.360623 0.874873 0.726123
0.472479 0.880479 0.731729
0.584336 0.886086 0.737336
0.696192 0.891692 0.742942
0.808048 0.897298 0.748548
0.919905 0.902904 0.754154
1.000000 0.908511 0.759761
0.147917 0.980917 0.725917
0.259773 0.986523 0.731523
0.371630 0.992129 0.737129
0.483486 0.997736 0.742736
0.595342 1.000000 0.748342
0.707198 1.000000 0.753948
0.819055 1.000000 0.759554
0.930911 1.000000 0.765161
1.000000 1.000000 0.770767
0.062005 0.045005 0.746254
0.173861 0.050611 0.751861
0.285717 0.056217 0.757467
0.397573 0.061823 0.763073
0.509429 0.067430 0.768679
0.621286 0.073036 0.774286
0.733142 0.078642 0.779892
0.844998 0.084248 0.785498
0.956855 0.089855 0.791104
0.073011 0.162261 0.757261
0.184867 0.167867 0.762867
0.296723 0.173473 0.768473
0.408579 0.179080 0.774080
0.520436 0.184686 0.779686
0.632292 0.190292 0.785292
0.744148 0.195898 0.790898
0.856005 0.201504 0.796504
0.967861 0.207111 0.802111
0.084017 0.279517 0.768267
0.195873 0.285123 0.773873
0.307729 0.290730 0.779479
0.419586 0.296336 0.785086
0.531442 0.301942 0.790692
0.643298 0.307548 0.796298
0.755155 0.313155 0.801905
0.867011 0.318761 0.807511
0.978867 0.324367 0.813117
0.095023 0.396773 0.779273
0.206879 0.402380 0.784879
0.318736 0.407986 0.790486
0.430592 0.413592 0.796092
0.542448 0.419198 0.801698
0.654305 0.424805 0.807304
0.766161 0.430411 0.812911
0.878017 0.436017 0.818517
0.989873 0.441623 0.824123
0.106029 0.514030 0.790280
0.217886 0.519636 0.795886
0.329742 0.525242 0.801492
0.441598 0.530848 0.807098
0.553455 0.536455 0.812704
0.665311 0.542061 0.818311
0.777167 0.547667 0.823917
0.889023 0.553273 0.829523
1.000000 0.558879 0.835129
0.117036 0.631286 0.801286
0.228892 0.636892 0.806892
0.340748 0.642498 0.812498
0.452604 0.648104 0.818105
0.564461 0.653711 0.823711
0.676317 0.659317 0.829317
0.788173 0.664923 0.834923
0.900030 0.670530 0.840529
1.000000 0.676136 0.846136
0.128042 0.748542 0.812292
0.239898 0.754148 0.817898
0.351754 0.759754 0.823504
0.463611 0.765361 0.829111
0.575467 0.770967 0.834717
0.687323 0.776573 0.840323
0.799180 0.782180 0.845930
0.911036 0.787786 0.851536
1.000000 0.793392 0.857142
0.139048 0.865798 0.823298
0.250905 0.871405 0.828904
0.362761 0.877011 0.834511
0.474617 0.882617 0.840117
0.586473 0.888223 0.845723
0.698330 0.893830 0.851329
0.810186 0.899436 0.856936
0.922042 0.905042 0.862542
1.000000 0.910648 0.868148
0.150055 0.983054 0.834305
0.261911 0.988661 0.839911
0.373767 0.994267 0.845517
0.485623 0.999873 0.851123
0.597480 1.000000 0.856730
0.709336 1.000000 0.862336
0.821192 1.000000 0.867942
0.933048 1.000000 0.873548
1.000000 1.000000 0.879154
0.064142 0.047142 0.854642
0.175998 0.052748 0.860248
0.287855 0.058355 0.865854
0.399711 0.063961 0.871461
0.511567 0.069567 0.877067
0.623423 0.075173 0.882673
0.735280 0.080780 0.888279
0.847136 0.086386 0.893886
0.958992 0.091992 0.899492
0.075148 0.164398 0.865648
0.187004 0.170005 0.871254
0.298861 0.175611 0.876861
0.410717 0.181217 0.882467
0.522573 0.186823 0.888073
0.634429 0.192430 0.893679
0.746286 0.198036 0.899286
0.858142 0.203642 0.904892
0.969998 0.209248 0.910498
0.086154 0.281655 0.876655
0.198011 0.287261 0.882261
0.309867 0.292867 0.887867
0.421723 0.298473 0.893473
0.533580 0.304080 0.899079
0.645436 0.309686 0.904686
0.757292 0.315292 0.910292
0.869148 0.320898 0.915898
0.981005 0.326505 0.921504
0.097161 0.398911 0.887661
0.209017 0.404517 0.893267
0.320873 0.410123 0.898873
0.432729 0.415730 0.904479
0.544586 0.421336 0.910086
0.656442 0.426942 0.915692
0.768298 0.432548 0.921298
0.880155 0.438155 0.926905
0.992011 0.443761 0.932511
0.108167 0.516167 0.898667
0.220023 0.521773 0.904273
0.331879 0.527380 0.909879
0.443736 0.532986 0.915486
0.555592 0.538592 0.921092
0.667448 0.544198 0.926698
0.779305 0.549805 0.932304
0.891161 0.555411 0.937911
1.000000 0.561017 0.943517
0.119173 0.633423 0.909673
0.231029 0.639030 0.915280
0.342886 0.644636 0.920886
0.454742 0.650242 0.926492
0.566598 0.655848 0.932098
0.678455 0.661455 0.937704
0.790311 0.667061 0.943311
0.902167 0.672667 0.948917
1.000000 0.678273 0.954523
0.130180 0.750680 0.920679
0.242036 0.756286 0.926286
0.353892 0.761892 0.931892
0.465748 0.767498 0.937498
0.577605 0.773105 0.943105
0.689461 0.778711 0.948711
0.801317 0.784317 0.954317
0.913173 0.789923 0.959923
1.000000 0.795530 0.965529
0.141186 0.867936 0.931686
0.253042 0.873542 0.937292
0.364898 0.879148 0.942898
0.476754 0.884754 0.948504
0.588611 0.890361 0.954111
0.700467 0.895967 0.959717
0.812323 0.901573 0.965323
0.924180 0.907180 0.970930
1.000000 0.912786 0.976536
0.152192 0.985192 0.942692
0.264048 0.990798 0.948298
0.375905 0.996405 0.953904
0.487761 1.000000 0.959511
0.599617 1.000000 0.965117
0.711473 1.000000 0.970723
0.823330 1.000000 0.976329
0.935186 1.000000 0.981936
1.000000 1.000000 0.987542
