app/src/main/assets/luts/spirited_green.cube
# ApexStudio filter: spirited_green
LUT_3D_SIZE 17
DOMAIN_MIN 0.0 0.0 0.0
DOMAIN_MAX 1.0 1.0 1.0
0.000000 0.120000 0.000000
0.042500 0.120000 0.000000
0.105000 0.120000 0.000000
0.167500 0.120000 0.000000
0.230000 0.120000 0.000000
0.292500 0.120000 0.000000
0.355000 0.120000 0.000000
0.417500 0.120000 0.000000
0.480000 0.120000 0.000000
0.542500 0.120000 0.000000
0.605000 0.120000 0.000000
0.667500 0.120000 0.000000
0.730000 0.120000 0.000000
0.792500 0.120000 0.000000
0.855000 0.120000 0.000000
0.917500 0.120000 0.000000
0.980000 0.120000 0.000000
0.000000 0.201250 0.000000
0.042500 0.201250 0.000000
0.105000 0.201250 0.000000
0.167500 0.201250 0.000000
0.230000 0.201250 0.000000
0.292500 0.201250 0.000000
0.355000 0.201250 0.000000
0.417500 0.201250 0.000000
0.480000 0.201250 0.000000
0.542500 0.201250 0.000000
0.605000 0.201250 0.000000
0.667500 0.201250 0.000000
0.730000 0.201250 0.000000
0.792500 0.201250 0.000000
0.855000 0.201250 0.000000
0.917500 0.201250 0.000000
0.980000 0.201250 0.000000
0.000000 0.282500 0.000000
0.042500 0.282500 0.000000
0.105000 0.282500 0.000000
0.167500 0.282500 0.000000
0.230000 0.282500 0.000000
0.292500 0.282500 0.000000
0.355000 0.282500 0.000000
0.417500 0.282500 0.000000
0.480000 0.282500 0.000000
0.542500 0.282500 0.000000
0.605000 0.282500 0.000000
0.667500 0.282500 0.000000
0.730000 0.282500 0.000000
0.792500 0.282500 0.000000
0.855000 0.282500 0.000000
0.917500 0.282500 0.000000
0.980000 0.282500 0.000000
0.000000 0.363750 0.000000
0.042500 0.363750 0.000000
0.105000 0.363750 0.000000
0.167500 0.363750 0.000000
0.230000 0.363750 0.000000
0.292500 0.363750 0.000000
0.355000 0.363750 0.000000
0.417500 0.363750 0.000000
0.480000 0.363750 0.000000
0.542500 0.363750 0.000000
0.605000 0.363750 0.000000
0.667500 0.363750 0.000000
0.730000 0.363750 0.000000
0.792500 0.363750 0.000000
0.855000 0.363750 0.000000
0.917500 0.363750 0.000000
0.980000 0.363750 0.000000
0.000000 0.445000 0.000000
0.042500 0.445000 0.000000
0.105000 0.445000 0.000000
0.167500 0.445000 0.000000
0.230000 0.445000 0.000000
0.292500 0.445000 0.000000
0.355000 0.445000 0.000000
0.417500 0.445000 0.000000
0.480000 0.445000 0.000000
0.542500 0.445000 0.000000
0.605000 0.445000 0.000000
0.667500 0.445000 0.000000
0.730000 0.445000 0.000000
0.792500 0.445000 0.000000
0.855000 0.445000 0.000000
0.917500 0.445000 0.000000
0.980000 0.445000 0.000000
0.000000 0.526250 0.000000
0.042500 0.526250 0.000000
0.105000 0.526250 0.000000
0.167500 0.526250 0.000000
0.230000 0.526250 0.000000
0.292500 0.526250 0.000000
0.355000 0.526250 0.000000
0.417500 0.526250 0.000000
0.480000 0.526250 0.000000
0.542500 0.526250 0.000000
0.605000 0.526250 0.000000
0.667500 0.526250 0.000000
0.730000 0.526250 0.000000
0.792500 0.526250 0.000000
0.855000 0.526250 0.000000
0.917500 0.526250 0.000000
0.980000 0.526250 0.000000
0.000000 0.607500 0.000000
0.042500 0.607500 0.000000
0.105000 0.607500 0.000000
0.167500 0.607500 0.000000
0.230000 0.607500 0.000000
0.292500 0.607500 0.000000
0.355000 0.607500 0.000000
0.417500 0.607500 0.000000
0.480000 0.607500 0.000000
0.542500 0.607500 0.000000
0.605000 0.607500 0.000000
0.667500 0.607500 0.000000
0.730000 0.607500 0.000000
0.792500 0.607500 0.000000
0.855000 0.607500 0.000000
0.917500 0.607500 0.000000
0.980000 0.607500 0.000000
0.000000 0.688750 0.000000
0.042500 0.688750 0.000000
0.105000 0.688750 0.000000
0.167500 0.688750 0.000000
0.230000 0.688750 0.000000
0.292500 0.688750 0.000000
0.355000 0.688750 0.000000
0.417500 0.688750 0.000000
0.480000 0.688750 0.000000
0.542500 0.688750 0.000000
0.605000 0.688750 0.000000
0.667500 0.688750 0.000000
0.730000 0.688750 0.000000
0.792500 0.688750 0.000000
0.855000 0.688750 0.000000
0.917500 0.688750 0.000000
0.980000 0.688750 0.000000
0.000000 0.770000 0.000000
0.042500 0.770000 0.000000
0.105000 0.770000 0.000000
0.167500 0.770000 0.000000
0.230000 0.770000 0.000000
0.292500 0.770000 0.000000
0.355000 0.770000 0.000000
0.417500 0.770000 0.000000
0.480000 0.770000 0.000000
0.542500 0.770000 0.000000
0.605000 0.770000 0.000000
0.667500 0.770000 0.000000
0.730000 0.770000 0.000000
0.792500 0.770000 0.000000
0.855000 0.770000 0.000000
0.917500 0.770000 0.000000
0.980000 0.770000 0.000000
0.000000 0.851250 0.000000
0.042500 0.851250 0.000000
0.105000 0.851250 0.000000
0.167500 0.851250 0.000000
0.230000 0.851250 0.000000
0.292500 0.851250 0.000000
0.355000 0.851250 0.000000
0.417500 0.851250 0.000000
0.480000 0.851250 0.000000
0.542500 0.851250 0.000000
0.605000 0.851250 0.000000
0.667500 0.851250 0.000000
0.730000 0.851250 0.000000
0.792500 0.851250 0.000000
0.855000 0.851250 0.000000
0.917500 0.851250 0.000000
0.980000 0.851250 0.000000
0.000000 0.932500 0.000000
0.042500 0.932500 0.000000
0.105000 0.932500 0.000000
0.167500 0.932500 0.000000
0.230000 0.932500 0.000000
0.292500 0.932500 0.000000
0.355000 0.932500 0.000000
0.417500 0.932500 0.000000
0.480000 0.932500 0.000000
0.542500 0.932500 0.000000
0.605000 0.932500 0.000000
0.667500 0.932500 0.000000
0.730000 0.932500 0.000000
0.792500 0.932500 0.000000
0.855000 0.932500 0.000000
0.917500 0.932500 0.000000
0.980000 0.932500 0.000000
0.000000 1.000000 0.000000
0.042500 1.000000 0.000000
0.105000 1.000000 0.000000
0.167500 1.000000 0.000000
0.230000 1.000000 0.000000
0.292500 1.000000 0.000000
0.355000 1.000000 0.000000
0.417500 1.000000 0.000000
0.480000 1.000000 0.000000
0.542500 1.000000 0.000000
0.605000 1.000000 0.000000
0.667500 1.000000 0.000000
0.730000 1.000000 0.000000
0.792500 1.000000 0.000000
0.855000 1.000000 0.000000
0.917500 1.000000 0.000000
0.980000 1.000000 0.000000
0.000000 1.000000 0.000000
0.042500 1.000000 0.000000
0.105000 1.000000 0.000000
0.167500 1.000000 0.000000
0.230000 1.000000 0.000000
0.292500 1.000000 0.000000
0.355000 1.000000 0.000000
0.417500 1.000000 0.000000
0.480000 1.000000 0.000000
0.542500 1.000000 0.000000
0.605000 1.000000 0.000000
0.667500 1.000000 0.000000
0.730000 1.000000 0.000000
0.792500 1.000000 0.000000
0.855000 1.000000 0.000000
0.917500 1.000000 0.000000
0.980000 1.000000 0.000000
0.000000 1.000000 0.000000
0.042500 1.000000 0.000000
0.105000 1.000000 0.000000
0.167500 1.000000 0.000000
0.230000 1.000000 0.000000
0.292500 1.000000 0.000000
0.355000 1.000000 0.000000
0.417500 1.000000 0.000000
0.480000 1.000000 0.000000
0.542500 1.000000 0.000000
0.605000 1.000000 0.000000
0.667500 1.000000 0.000000
0.730000 1.000000 0.000000
0.792500 1.000000 0.000000
0.855000 1.000000 0.000000
0.917500 1.000000 0.000000
0.980000 1.000000 0.000000
0.000000 1.000000 0.000000
0.042500 1.000000 0.000000
0.105000 1.000000 0.000000
0.167500 1.000000 0.000000
0.230000 1.000000 0.000000
0.292500 1.000000 0.000000
0.355000 1.000000 0.000000
0.417500 1.000000 0.000000
0.480000 1.000000 0.000000
0.542500 1.000000 0.000000
0.605000 1.000000 0.000000
0.667500 1.000000 0.000000
0.730000 1.000000 0.000000
0.792500 1.000000 0.000000
0.855000 1.000000 0.000000
0.917500 1.000000 0.000000
0.980000 1.000000 0.000000
0.000000 1.000000 0.000000
0.042500 1.000000 0.000000
0.105000 1.000000 0.000000
0.167500 1.000000 0.000000
0.230000 1.000000 0.000000
0.292500 1.000000 0.000000
0.355000 1.000000 0.000000
0.417500 1.000000 0.000000
0.480000 1.000000 0.000000
0.542500 1.000000 0.000000
0.605000 1.000000 0.000000
0.667500 1.000000 0.000000
0.730000 1.000000 0.000000
0.792500 1.000000 0.000000
0.855000 1.000000 0.000000
0.917500 1.000000 0.000000
0.980000 1.000000 0.000000
0.000000 1.000000 0.000000
0.042500 1.000000 0.000000
0.105000 1.000000 0.000000
0.167500 1.000000 0.000000
0.230000 1.000000 0.000000
0.292500 1.000000 0.000000
0.355000 1.000000 0.000000
0.417500 1.000000 0.000000
0.480000 1.000000 0.000000
0.542500 1.000000 0.000000
0.605000 1.000000 0.000000
0.667500 1.000000 0.000000
0.730000 1.000000 0.000000
0.792500 1.000000 0.000000
0.855000 1.000000 0.000000
0.917500 1.000000 0.000000
0.980000 1.000000 0.000000
0.000000 0.120000 0.006250
0.042500 0.120000 0.006250
0.105000 0.120000 0.006250
0.167500 0.120000 0.006250
0.230000 0.120000 0.006250
0.292500 0.120000 0.006250
0.355000 0.120000 0.006250
0.417500 0.120000 0.006250
0.480000 0.120000 0.006250
0.542500 0.120000 0.006250
0.605000 0.120000 0.006250
0.667500 0.120000 0.006250
0.730000 0.120000 0.006250
0.792500 0.120000 0.006250
0.855000 0.120000 0.006250
0.917500 0.120000 0.006250
0.980000 0.120000 0.006250
0.000000 0.201250 0.006250
0.042500 0.201250 0.006250
0.105000 0.201250 0.006250
0.167500 0.201250 0.006250
0.230000 0.201250 0.006250
0.292500 0.201250 0.006250
0.355000 0.201250 0.006250
0.417500 0.201250 0.006250
0.480000 0.201250 0.006250
0.542500 0.201250 0.006250
0.605000 0.201250 0.006250
0.667500 0.201250 0.006250
0.730000 0.201250 0.006250
0.792500 0.201250 0.006250
0.855000 0.201250 0.006250
0.917500 0.201250 0.006250
0.980000 0.201250 0.006250
0.000000 0.282500 0.006250
0.042500 0.282500 0.006250
0.105000 0.282500 0.006250
0.167500 0.282500 0.006250
0.230000 0.282500 0.006250
0.292500 0.282500 0.006250
0.355000 0.282500 0.006250
0.417500 0.282500 0.006250
0.480000 0.282500 0.006250
0.542500 0.282500 0.006250
0.605000 0.282500 0.006250
0.667500 0.282500 0.006250
0.730000 0.282500 0.006250
0.792500 0.282500 0.006250
0.855000 0.282500 0.006250
0.917500 0.282500 0.006250
0.980000 0.282500 0.006250
0.000000 0.363750 0.006250
0.042500 0.363750 0.006250
0.105000 0.363750 0.006250
0.167500 0.363750 0.006250
0.230000 0.363750 0.006250
0.292500 0.363750 0.006250
0.355000 0.363750 0.006250
0.417500 0.363750 0.006250
0.480000 0.363750 0.006250
0.542500 0.363750 0.006250
0.605000 0.363750 0.006250
0.667500 0.363750 0.006250
0.730000 0.363750 0.006250
0.792500 0.363750 0.006250
0.855000 0.363750 0.006250
0.917500 0.363750 0.006250
0.980000 0.363750 0.006250
0.000000 0.445000 0.006250
0.042500 0.445000 0.006250
0.105000 0.445000 0.006250
0.167500 0.445000 0.006250
0.230000 0.445000 0.006250
0.292500 0.445000 0.006250
0.355000 0.445000 0.006250
0.417500 0.445000 0.006250
0.480000 0.445000 0.006250
0.542500 0.445000 0.006250
0.605000 0.445000 0.006250
0.667500 0.445000 0.006250
0.730000 0.445000 0.006250
0.792500 0.445000 0.006250
0.855000 0.445000 0.006250
0.917500 0.445000 0.006250
0.980000 0.445000 0.006250
0.000000 0.526250 0.006250
0.042500 0.526250 0.006250
0.105000 0.526250 0.006250
0.167500 0.526250 0.006250
0.230000 0.526250 0.006250
0.292500 0.526250 0.006250
0.355000 0.526250 0.006250
0.417500 0.526250 0.006250
0.480000 0.526250 0.006250
0.542500 0.526250 0.006250
0.605000 0.526250 0.006250
0.667500 0.526250 0.006250
0.730000 0.526250 0.006250
0.792500 0.526250 0.006250
0.855000 0.526250 0.006250
0.917500 0.526250 0.006250
0.980000 0.526250 0.006250
0.000000 0.607500 0.006250
0.042500 0.607500 0.006250
0.105000 0.607500 0.006250
0.167500 0.607500 0.006250
0.230000 0.607500 0.006250
0.292500 0.607500 0.006250
0.355000 0.607500 0.006250
0.417500 0.607500 0.006250
0.480000 0.607500 0.006250
0.542500 0.607500 0.006250
0.605000 0.607500 0.006250
0.667500 0.607500 0.006250
0.730000 0.607500 0.006250
0.792500 0.607500 0.006250
0.855000 0.607500 0.006250
0.917500 0.607500 0.006250
0.980000 0.607500 0.006250
0.000000 0.688750 0.006250
0.042500 0.688750 0.006250
0.105000 0.688750 0.006250
0.167500 0.688750 0.006250
0.230000 0.688750 0.006250
0.292500 0.688750 0.006250
0.355000 0.688750 0.006250
0.417500 0.688750 0.006250
0.480000 0.688750 0.006250
0.542500 0.688750 0.006250
0.605000 0.688750 0.006250
0.667500 0.688750 0.006250
0.730000 0.688750 0.006250
0.792500 0.688750 0.006250
0.855000 0.688750 0.006250
0.917500 0.688750 0.006250
0.980000 0.688750 0.006250
0.000000 0.770000 0.006250
0.042500 0.770000 0.006250
0.105000 0.770000 0.006250
0.167500 0.770000 0.006250
0.230000 0.770000 0.006250
0.292500 0.770000 0.006250
0.355000 0.770000 0.006250
0.417500 0.770000 0.006250
0.480000 0.770000 0.006250
0.542500 0.770000 0.006250
0.605000 0.770000 0.006250
0.667500 0.770000 0.006250
0.730000 0.770000 0.006250
0.792500 0.770000 0.006250
0.855000 0.770000 0.006250
0.917500 0.770000 0.006250
0.980000 0.770000 0.006250
0.000000 0.851250 0.006250
0.042500 0.851250 0.006250
0.105000 0.851250 0.006250
0.167500 0.851250 0.006250
0.230000 0.851250 0.006250
0.292500 0.851250 0.006250
0.355000 0.851250 0.006250
0.417500 0.851250 0.006250
0.480000 0.851250 0.006250
0.542500 0.851250 0.006250
0.605000 0.851250 0.006250
0.667500 0.851250 0.006250
0.730000 0.851250 0.006250
0.792500 0.851250 0.006250
0.855000 0.851250 0.006250
0.917500 0.851250 0.006250
0.980000 0.851250 0.006250
0.000000 0.932500 0.006250
0.042500 0.932500 0.006250
0.105000 0.932500 0.006250
0.167500 0.932500 0.006250
0.230000 0.932500 0.006250
0.292500 0.932500 0.006250
0.355000 0.932500 0.006250
0.417500 0.932500 0.006250
0.480000 0.932500 0.006250
0.542500 0.932500 0.006250
0.605000 0.932500 0.006250
0.667500 0.932500 0.006250
0.730000 0.932500 0.006250
0.792500 0.932500 0.006250
0.855000 0.932500 0.006250
0.917500 0.932500 0.006250
0.980000 0.932500 0.006250
0.000000 1.000000 0.006250
0.042500 1.000000 0.006250
0.105000 1.000000 0.006250
0.167500 1.000000 0.006250
0.230000 1.000000 0.006250
0.292500 1.000000 0.006250
0.355000 1.000000 0.006250
0.417500 1.000000 0.006250
0.480000 1.000000 0.006250
0.542500 1.000000 0.006250
0.605000 1.000000 0.006250
0.667500 1.000000 0.006250
0.730000 1.000000 0.006250
0.792500 1.000000 0.006250
0.855000 1.000000 0.006250
0.917500 1.000000 0.006250
0.980000 1.000000 0.006250
0.000000 1.000000 0.006250
0.042500 1.000000 0.006250
0.105000 1.000000 0.006250
0.167500 1.000000 0.006250
0.230000 1.000000 0.006250
0.292500 1.000000 0.006250
0.355000 1.000000 0.006250
0.417500 1.000000 0.006250
0.480000 1.000000 0.006250
0.542500 1.000000 0.006250
0.605000 1.000000 0.006250
0.667500 1.000000 0.006250
0.730000 1.000000 0.006250
0.792500 1.000000 0.006250
0.855000 1.000000 0.006250
0.917500 1.000000 0.006250
0.980000 1.000000 0.006250
0.000000 1.000000 0.006250
0.042500 1.000000 0.006250
0.105000 1.000000 0.006250
0.167500 1.000000 0.006250
0.230000 1.000000 0.006250
0.292500 1.000000 0.006250
0.355000 1.000000 0.006250
0.417500 1.000000 0.006250
0.480000 1.000000 0.006250
0.542500 1.000000 0.006250
0.605000 1.000000 0.006250
0.667500 1.000000 0.006250
0.730000 1.000000 0.006250
0.792500 1.000000 0.006250
0.855000 1.000000 0.006250
0.917500 1.000000 0.006250
0.980000 1.000000 0.006250
0.000000 1.000000 0.006250
0.042500 1.000000 0.006250
0.105000 1.000000 0.006250
0.167500 1.000000 0.006250
0.230000 1.000000 0.006250
0.292500 1.000000 0.006250
0.355000 1.000000 0.006250
0.417500 1.000000 0.006250
0.480000 1.000000 0.006250
0.542500 1.000000 0.006250
0.605000 1.000000 0.006250
0.667500 1.000000 0.006250
0.730000 1.000000 0.006250
0.792500 1.000000 0.006250
0.855000 1.000000 0.006250
0.917500 1.000000 0.006250
0.980000 1.000000 0.006250
0.000000 1.000000 0.006250
0.042500 1.000000 0.006250
0.105000 1.000000 0.006250
0.167500 1.000000 0.006250
0.230000 1.000000 0.006250
0.292500 1.000000 0.006250
0.355000 1.000000 0.006250
0.417500 1.000000 0.006250
0.480000 1.000000 0.006250
0.542500 1.000000 0.006250
0.605000 1.000000 0.006250
0.667500 1.000000 0.006250
0.730000 1.000000 0.006250
0.792500 1.000000 0.006250
0.855000 1.000000 0.006250
0.917500 1.000000 0.006250
0.980000 1.000000 0.006250
0.000000 1.000000 0.006250
0.042500 1.000000 0.006250
0.105000 1.000000 0.006250
0.167500 1.000000 0.006250
0.230000 1.000000 0.006250
0.292500 1.000000 0.006250
0.355000 1.000000 0.006250
0.417500 1.000000 0.006250
0.480000 1.000000 0.006250
0.542500 1.000000 0.006250
0.605000 1.000000 0.006250
0.667500 1.000000 0.006250
0.730000 1.000000 0.006250
0.792500 1.000000 0.006250
0.855000 1.000000 0.006250
0.917500 1.000000 0.006250
0.980000 1.000000 0.006250
0.000000 0.120000 0.062500
0.042500 0.120000 0.062500
0.105000 0.120000 0.062500
0.167500 0.120000 0.062500
0.230000 0.120000 0.062500
0.292500 0.120000 0.062500
0.355000 0.120000 0.062500
0.417500 0.120000 0.062500
0.480000 0.120000 0.062500
0.542500 0.120000 0.062500
0.605000 0.120000 0.062500
0.667500 0.120000 0.062500
0.730000 0.120000 0.062500
0.792500 0.120000 0.062500
0.855000 0.120000 0.062500
0.917500 0.120000 0.062500
0.980000 0.120000 0.062500
0.000000 0.201250 0.062500
0.042500 0.201250 0.062500
0.105000 0.201250 0.062500
0.167500 0.201250 0.062500
0.230000 0.201250 0.062500
0.292500 0.201250 0.062500
0.355000 0.201250 0.062500
0.417500 0.201250 0.062500
0.480000 0.201250 0.062500
0.542500 0.201250 0.062500
0.605000 0.201250 0.062500
0.667500 0.201250 0.062500
0.730000 0.201250 0.062500
0.792500 0.201250 0.062500
0.855000 0.201250 0.062500
0.917500 0.201250 0.062500
0.980000 0.201250 0.062500
0.000000 0.282500 0.062500
0.042500 0.282500 0.062500
0.105000 0.282500 0.062500
0.167500 0.282500 0.062500
0.230000 0.282500 0.062500
0.292500 0.282500 0.062500
0.355000 0.282500 0.062500
0.417500 0.282500 0.062500
0.480000 0.282500 0.062500
0.542500 0.282500 0.062500
0.605000 0.282500 0.062500
0.667500 0.282500 0.062500
0.730000 0.282500 0.062500
0.792500 0.282500 0.062500
0.855000 0.282500 0.062500
0.917500 0.282500 0.062500
0.980000 0.282500 0.062500
0.000000 0.363750 0.062500
0.042500 0.363750 0.062500
0.105000 0.363750 0.062500
0.167500 0.363750 0.062500
0.230000 0.363750 0.062500
0.292500 0.363750 0.062500
0.355000 0.363750 0.062500
0.417500 0.363750 0.062500
0.480000 0.363750 0.062500
0.542500 0.363750 0.062500
0.605000 0.363750 0.062500
0.667500 0.363750 0.062500
0.730000 0.363750 0.062500
0.792500 0.363750 0.062500
0.855000 0.363750 0.062500
0.917500 0.363750 0.062500
0.980000 0.363750 0.062500
0.000000 0.445000 0.062500
0.042500 0.445000 0.062500
0.105000 0.445000 0.062500
0.167500 0.445000 0.062500
0.230000 0.445000 0.062500
0.292500 0.445000 0.062500
0.355000 0.445000 0.062500
0.417500 0.445000 0.062500
0.480000 0.445000 0.062500
0.542500 0.445000 0.062500
0.605000 0.445000 0.062500
0.667500 0.445000 0.062500
0.730000 0.445000 0.062500
0.792500 0.445000 0.062500
0.855000 0.445000 0.062500
0.917500 0.445000 0.062500
0.980000 0.445000 0.062500
0.000000 0.526250 0.062500
0.042500 0.526250 0.062500
0.105000 0.526250 0.062500
0.167500 0.526250 0.062500
0.230000 0.526250 0.062500
0.292500 0.526250 0.062500
0.355000 0.526250 0.062500
0.417500 0.526250 0.062500
0.480000 0.526250 0.062500
0.542500 0.526250 0.062500
0.605000 0.526250 0.062500
0.667500 0.526250 0.062500
0.730000 0.526250 0.062500
0.792500 0.526250 0.062500
0.855000 0.526250 0.062500
0.917500 0.526250 0.062500
0.980000 0.526250 0.062500
0.000000 0.607500 0.062500
0.042500 0.607500 0.062500
0.105000 0.607500 0.062500
0.167500 0.607500 0.062500
0.230000 0.607500 0.062500
0.292500 0.607500 0.062500
0.355000 0.607500 0.062500
0.417500 0.607500 0.062500
0.480000 0.607500 0.062500
0.542500 0.607500 0.062500
0.605000 0.607500 0.062500
0.667500 0.607500 0.062500
0.730000 0.607500 0.062500
0.792500 0.607500 0.062500
0.855000 0.607500 0.062500
0.917500 0.607500 0.062500
0.980000 0.607500 0.062500
0.000000 0.688750 0.062500
0.042500 0.688750 0.062500
0.105000 0.688750 0.062500
0.167500 0.688750 0.062500
0.230000 0.688750 0.062500
0.292500 0.688750 0.062500
0.355000 0.688750 0.062500
0.417500 0.688750 0.062500
0.480000 0.688750 0.062500
0.542500 0.688750 0.062500
0.605000 0.688750 0.062500
0.667500 0.688750 0.062500
0.730000 0.688750 0.062500
0.792500 0.688750 0.062500
0.855000 0.688750 0.062500
0.917500 0.688750 0.062500
0.980000 0.688750 0.062500
0.000000 0.770000 0.062500
0.042500 0.770000 0.062500
0.105000 0.770000 0.062500
0.167500 0.770000 0.062500
0.230000 0.770000 0.062500
0.292500 0.770000 0.062500
0.355000 0.770000 0.062500
0.417500 0.770000 0.062500
0.480000 0.770000 0.062500
0.542500 0.770000 0.062500
0.605000 0.770000 0.062500
0.667500 0.770000 0.062500
0.730000 0.770000 0.062500
0.792500 0.770000 0.062500
0.855000 0.770000 0.062500
0.917500 0.770000 0.062500
0.980000 0.770000 0.062500
0.000000 0.851250 0.062500
0.042500 0.851250 0.062500
0.105000 0.851250 0.062500
0.167500 0.851250 0.062500
0.230000 0.851250 0.062500
0.292500 0.851250 0.062500
0.355000 0.851250 0.062500
0.417500 0.851250 0.062500
0.480000 0.851250 0.062500
0.542500 0.851250 0.062500
0.605000 0.851250 0.062500
0.667500 0.851250 0.062500
0.730000 0.851250 0.062500
0.792500 0.851250 0.062500
0.855000 0.851250 0.062500
0.917500 0.851250 0.062500
0.980000 0.851250 0.062500
0.000000 0.932500 0.062500
0.042500 0.932500 0.062500
0.105000 0.932500 0.062500
0.167500 0.932500 0.062500
0.230000 0.932500 0.062500
0.292500 0.932500 0.062500
0.355000 0.932500 0.062500
0.417500 0.932500 0.062500
0.480000 0.932500 0.062500
0.542500 0.932500 0.062500
0.605000 0.932500 0.062500
0.667500 0.932500 0.062500
0.730000 0.932500 0.062500
0.792500 0.932500 0.062500
0.855000 0.932500 0.062500
0.917500 0.932500 0.062500
0.980000 0.932500 0.062500
0.000000 1.000000 0.062500
0.042500 1.000000 0.062500
0.105000 1.000000 0.062500
0.167500 1.000000 0.062500
0.230000 1.000000 0.062500
0.292500 1.000000 0.062500
0.355000 1.000000 0.062500
0.417500 1.000000 0.062500
0.480000 1.000000 0.062500
0.542500 1.000000 0.062500
0.605000 1.000000 0.062500
0.667500 1.000000 0.062500
0.730000 1.000000 0.062500
0.792500 1.000000 0.062500
0.855000 1.000000 0.062500
0.917500 1.000000 0.062500
0.980000 1.000000 0.062500
0.000000 1.000000 0.062500
0.042500 1.000000 0.062500
0.105000 1.000000 0.062500
0.167500 1.000000 0.062500
0.230000 1.000000 0.062500
0.292500 1.000000 0.062500
0.355000 1.000000 0.062500
0.417500 1.000000 0.062500
0.480000 1.000000 0.062500
0.542500 1.000000 0.062500
0.605000 1.000000 0.062500
0.667500 1.000000 0.062500
0.730000 1.000000 0.062500
0.792500 1.000000 0.062500
0.855000 1.000000 0.062500
0.917500 1.000000 0.062500
0.980000 1.000000 0.062500
0.000000 1.000000 0.062500
0.042500 1.000000 0.062500
0.105000 1.000000 0.062500
0.167500 1.000000 0.062500
0.230000 1.000000 0.062500
0.292500 1.000000 0.062500
0.355000 1.000000 0.062500
0.417500 1.000000 0.062500
0.480000 1.000000 0.062500
0.542500 1.000000 0.062500
0.605000 1.000000 0.062500
0.667500 1.000000 0.062500
0.730000 1.000000 0.062500
0.792500 1.000000 0.062500
0.855000 1.000000 0.062500
0.917500 1.000000 0.062500
0.980000 1.000000 0.062500
0.000000 1.000000 0.062500
0.042500 1.000000 0.062500
0.105000 1.000000 0.062500
0.167500 1.000000 0.062500
0.230000 1.000000 0.062500
0.292500 1.000000 0.062500
0.355000 1.000000 0.062500
0.417500 1.000000 0.062500
0.480000 1.000000 0.062500
0.542500 1.000000 0.062500
0.605000 1.000000 0.062500
0.667500 1.000000 0.062500
0.730000 1.000000 0.062500
0.792500 1.000000 0.062500
0.855000 1.000000 0.062500
0.917500 1.000000 0.062500
0.980000 1.000000 0.062500
0.000000 1.000000 0.062500
0.042500 1.000000 0.062500
0.105000 1.000000 0.062500
0.167500 1.000000 0.062500
0.230000 1.000000 0.062500
0.292500 1.000000 0.062500
0.355000 1.000000 0.062500
0.417500 1.000000 0.062500
0.480000 1.000000 0.062500
0.542500 1.000000 0.062500
0.605000 1.000000 0.062500
0.667500 1.000000 0.062500
0.730000 1.000000 0.062500
0.792500 1.000000 0.062500
0.855000 1.000000 0.062500
0.917500 1.000000 0.062500
0.980000 1.000000 0.062500
0.000000 1.000000 0.062500
0.042500 1.000000 0.062500
0.105000 1.000000 0.062500
0.167500 1.000000 0.062500
0.230000 1.000000 0.062500
0.292500 1.000000 0.062500
0.355000 1.000000 0.062500
0.417500 1.000000 0.062500
0.480000 1.000000 0.062500
0.542500 1.000000 0.062500
0.605000 1.000000 0.062500
0.667500 1.000000 0.062500
0.730000 1.000000 0.062500
0.792500 1.000000 0.062500
0.855000 1.000000 0.062500
0.917500 1.000000 0.062500
0.980000 1.000000 0.062500
0.000000 0.120000 0.118750
0.042500 0.120000 0.118750
0.105000 0.120000 0.118750
0.167500 0.120000 0.118750
0.230000 0.120000 0.118750
0.292500 0.120000 0.118750
0.355000 0.120000 0.118750
0.417500 0.120000 0.118750
0.480000 0.120000 0.118750
0.542500 0.120000 0.118750
0.605000 0.120000 0.118750
0.667500 0.120000 0.118750
0.730000 0.120000 0.118750
0.792500 0.120000 0.118750
0.855000 0.120000 0.118750
0.917500 0.120000 0.118750
0.980000 0.120000 0.118750
0.000000 0.201250 0.118750
