app/src/main/assets/luts/spirited_green.cube
# ApexStudio filter: spirited_green
LUT_3D_SIZE 5
DOMAIN_MIN 0.0 0.0 0.0
DOMAIN_MAX 1.0 1.0 1.0
0.000000 0.120000 0.000000
0.230000 0.120000 0.000000
0.480000 0.120000 0.000000
0.730000 0.120000 0.000000
0.980000 0.120000 0.000000
0.000000 0.445000 0.000000
0.230000 0.445000 0.000000
0.480000 0.445000 0.000000
0.730000 0.445000 0.000000
0.980000 0.445000 0.000000
0.000000 0.770000 0.000000
0.230000 0.770000 0.000000
0.480000 0.770000 0.000000
0.730000 0.770000 0.000000
0.980000 0.770000 0.000000
0.000000 1.000000 0.000000
0.230000 1.000000 0.000000
0.480000 1.000000 0.000000
0.730000 1.000000 0.000000
0.980000 1.000000 0.000000
0.000000 1.000000 0.000000
0.230000 1.000000 0.000000
0.480000 1.000000 0.000000
0.730000 1.000000 0.000000
0.980000 1.000000 0.000000
0.000000 0.120000 0.175000
0.230000 0.120000 0.175000
0.480000 0.120000 0.175000
0.730000 0.120000 0.175000
0.980000 0.120000 0.175000
0.000000 0.445000 0.175000
0.230000 0.445000 0.175000
0.480000 0.445000 0.175000
0.730000 0.445000 0.175000
0.980000 0.445000 0.175000
0.000000 0.770000 0.175000
0.230000 0.770000 0.175000
0.480000 0.770000 0.175000
0.730000 0.770000 0.175000
0.980000 0.770000 0.175000
0.000000 1.000000 0.175000
0.230000 1.000000 0.175000
0.480000 1.000000 0.175000
0.730000 1.000000 0.175000
0.980000 1.000000 0.175000
0.000000 1.000000 0.175000
0.230000 1.000000 0.175000
0.480000 1.000000 0.175000
0.730000 1.000000 0.175000
0.980000 1.000000 0.175000
0.000000 0.120000 0.400000
0.230000 0.120000 0.400000
0.480000 0.120000 0.400000
0.730000 0.120000 0.400000
0.980000 0.120000 0.400000
0.000000 0.445000 0.400000
0.230000 0.445000 0.400000
0.480000 0.445000 0.400000
0.730000 0.445000 0.400000
0.980000 0.445000 0.400000
0.000000 0.770000 0.400000
0.230000 0.770000 0.400000
0.480000 0.770000 0.400000
0.730000 0.770000 0.400000
0.980000 0.770000 0.400000
0.000000 1.000000 0.400000
0.230000 1.000000 0.400000
0.480000 1.000000 0.400000
0.730000 1.000000 0.400000
0.980000 1.000000 0.400000
0.000000 1.000000 0.400000
0.230000 1.000000 0.400000
0.480000 1.000000 0.400000
0.730000 1.000000 0.400000
0.980000 1.000000 0.400000
0.000000 0.120000 0.625000
0.230000 0.120000 0.625000
0.480000 0.120000 0.625000
0.730000 0.120000 0.625000
0.980000 0.120000 0.625000
0.000000 0.445000 0.625000
0.230000 0.445000 0.625000
0.480000 0.445000 0.625000
0.730000 0.445000 0.625000
0.980000 0.445000 0.625000
0.000000 0.770000 0.625000
0.230000 0.770000 0.625000
0.480000 0.770000 0.625000
0.730000 0.770000 0.625000
0.980000 0.770000 0.625000
0.000000 1.000000 0.625000
0.230000 1.000000 0.625000
0.480000 1.000000 0.625000
0.730000 1.000000 0.625000
0.980000 1.000000 0.625000
0.000000 1.000000 0.625000
0.230000 1.000000 0.625000
0.480000 1.000000 0.625000
0.730000 1.000000 0.625000
0.980000 1.000000 0.625000
0.000000 0.120000 0.850000
0.230000 0.120000 0.850000
0.480000 0.120000 0.850000
0.730000 0.120000 0.850000
0.980000 0.120000 0.850000
0.000000 0.445000 0.850000
0.230000 0.445000 0.850000
0.480000 0.445000 0.850000
0.730000 0.445000 0.850000
0.980000 0.445000 0.850000
0.000000 0.770000 0.850000
0.230000 0.770000 0.850000
0.480000 0.770000 0.850000
0.730000 0.770000 0.850000
0.980000 0.770000 0.850000
0.000000 1.000000 0.850000
0.230000 1.000000 0.850000
0.480000 1.000000 0.850000
0.730000 1.000000 0.850000
0.980000 1.000000 0.850000
0.000000 1.000000 0.850000
0.230000 1.000000 0.850000
0.480000 1.000000 0.850000
0.730000 1.000000 0.850000
0.980000 1.000000 0.850000
