app/src/main/assets/luts/spirited_green.cube
# ApexStudio filter: spirited_green
LUT_3D_SIZE 9
DOMAIN_MIN 0.0 0.0 0.0
DOMAIN_MAX 1.0 1.0 1.0
0.000000 0.120000 0.000000
0.105000 0.120000 0.000000
0.230000 0.120000 0.000000
0.355000 0.120000 0.000000
0.480000 0.120000 0.000000
0.605000 0.120000 0.000000
0.730000 0.120000 0.000000
0.855000 0.120000 0.000000
0.980000 0.120000 0.000000
0.000000 0.282500 0.000000
0.105000 0.282500 0.000000
0.230000 0.282500 0.000000
0.355000 0.282500 0.000000
0.480000 0.282500 0.000000
0.605000 0.282500 0.000000
0.730000 0.282500 0.000000
0.855000 0.282500 0.000000
0.980000 0.282500 0.000000
0.000000 0.445000 0.000000
0.105000 0.445000 0.000000
0.230000 0.445000 0.000000
0.355000 0.445000 0.000000
0.480000 0.445000 0.000000
0.605000 0.445000 0.000000
0.730000 0.445000 0.000000
0.855000 0.445000 0.000000
0.980000 0.445000 0.000000
0.000000 0.607500 0.000000
0.105000 0.607500 0.000000
0.230000 0.607500 0.000000
0.355000 0.607500 0.000000
0.480000 0.607500 0.000000
0.605000 0.607500 0.000000
0.730000 0.607500 0.000000
0.855000 0.607500 0.000000
0.980000 0.607500 0.000000
0.000000 0.770000 0.000000
0.105000 0.770000 0.000000
0.230000 0.770000 0.000000
0.355000 0.770000 0.000000
0.480000 0.770000 0.000000
0.605000 0.770000 0.000000
0.730000 0.770000 0.000000
0.855000 0.770000 0.000000
0.980000 0.770000 0.000000
0.000000 0.932500 0.000000
0.105000 0.932500 0.000000
0.230000 0.932500 0.000000
0.355000 0.932500 0.000000
0.480000 0.932500 0.000000
0.605000 0.932500 0.000000
0.730000 0.932500 0.000000
0.855000 0.932500 0.000000
0.980000 0.932500 0.000000
0.000000 1.000000 0.000000
0.105000 1.000000 0.000000
0.230000 1.000000 0.000000
0.355000 1.000000 0.000000
0.480000 1.000000 0.000000
0.605000 1.000000 0.000000
0.730000 1.000000 0.000000
0.855000 1.000000 0.000000
0.980000 1.000000 0.000000
0.000000 1.000000 0.000000
0.105000 1.000000 0.000000
0.230000 1.000000 0.000000
0.355000 1.000000 0.000000
0.480000 1.000000 0.000000
0.605000 1.000000 0.000000
0.730000 1.000000 0.000000
0.855000 1.000000 0.000000
0.980000 1.000000 0.000000
0.000000 1.000000 0.000000
0.105000 1.000000 0.000000
0.230000 1.000000 0.000000
0.355000 1.000000 0.000000
0.480000 1.000000 0.000000
0.605000 1.000000 0.000000
0.730000 1.000000 0.000000
0.855000 1.000000 0.000000
0.980000 1.000000 0.000000
0.000000 0.120000 0.062500
0.105000 0.120000 0.062500
0.230000 0.120000 0.062500
0.355000 0.120000 0.062500
0.480000 0.120000 0.062500
0.605000 0.120000 0.062500
0.730000 0.120000 0.062500
0.855000 0.120000 0.062500
0.980000 0.120000 0.062500
0.000000 0.282500 0.062500
0.105000 0.282500 0.062500
0.230000 0.282500 0.062500
0.355000 0.282500 0.062500
0.480000 0.282500 0.062500
0.605000 0.282500 0.062500
0.730000 0.282500 0.062500
0.855000 0.282500 0.062500
0.980000 0.282500 0.062500
0.000000 0.445000 0.062500
0.105000 0.445000 0.062500
0.230000 0.445000 0.062500
0.355000 0.445000 0.062500
0.480000 0.445000 0.062500
0.605000 0.445000 0.062500
0.730000 0.445000 0.062500
0.855000 0.445000 0.062500
0.980000 0.445000 0.062500
0.000000 0.607500 0.062500
0.105000 0.607500 0.062500
0.230000 0.607500 0.062500
0.355000 0.607500 0.062500
0.480000 0.607500 0.062500
0.605000 0.607500 0.062500
0.730000 0.607500 0.062500
0.855000 0.607500 0.062500
0.980000 0.607500 0.062500
0.000000 0.770000 0.062500
0.105000 0.770000 0.062500
0.230000 0.770000 0.062500
0.355000 0.770000 0.062500
0.480000 0.770000 0.062500
0.605000 0.770000 0.062500
0.730000 0.770000 0.062500
0.855000 0.770000 0.062500
0.980000 0.770000 0.062500
0.000000 0.932500 0.062500
0.105000 0.932500 0.062500
0.230000 0.932500 0.062500
0.355000 0.932500 0.062500
0.480000 0.932500 0.062500
0.605000 0.932500 0.062500
0.730000 0.932500 0.062500
0.855000 0.932500 0.062500
0.980000 0.932500 0.062500
0.000000 1.000000 0.062500
0.105000 1.000000 0.062500
0.230000 1.000000 0.062500
0.355000 1.000000 0.062500
0.480000 1.000000 0.062500
0.605000 1.000000 0.062500
0.730000 1.000000 0.062500
0.855000 1.000000 0.062500
0.980000 1.000000 0.062500
0.000000 1.000000 0.062500
0.105000 1.000000 0.062500
0.230000 1.000000 0.062500
0.355000 1.000000 0.062500
0.480000 1.000000 0.062500
0.605000 1.000000 0.062500
0.730000 1.000000 0.062500
0.855000 1.000000 0.062500
0.980000 1.000000 0.062500
0.000000 1.000000 0.062500
0.105000 1.000000 0.062500
0.230000 1.000000 0.062500
0.355000 1.000000 0.062500
0.480000 1.000000 0.062500
0.605000 1.000000 0.062500
0.730000 1.000000 0.062500
0.855000 1.000000 0.062500
0.980000 1.000000 0.062500
0.000000 0.120000 0.175000
0.105000 0.120000 0.175000
0.230000 0.120000 0.175000
0.355000 0.120000 0.175000
0.480000 0.120000 0.175000
0.605000 0.120000 0.175000
0.730000 0.120000 0.175000
0.855000 0.120000 0.175000
0.980000 0.120000 0.175000
0.000000 0.282500 0.175000
0.105000 0.282500 0.175000
0.230000 0.282500 0.175000
0.355000 0.282500 0.175000
0.480000 0.282500 0.175000
0.605000 0.282500 0.175000
0.730000 0.282500 0.175000
0.855000 0.282500 0.175000
0.980000 0.282500 0.175000
0.000000 0.445000 0.175000
0.105000 0.445000 0.175000
0.230000 0.445000 0.175000
0.355000 0.445000 0.175000
0.480000 0.445000 0.175000
0.605000 0.445000 0.175000
0.730000 0.445000 0.175000
0.855000 0.445000 0.175000
0.980000 0.445000 0.175000
0.000000 0.607500 0.175000
0.105000 0.607500 0.175000
0.230000 0.607500 0.175000
0.355000 0.607500 0.175000
0.480000 0.607500 0.175000
0.605000 0.607500 0.175000
0.730000 0.607500 0.175000
0.855000 0.607500 0.175000
0.980000 0.607500 0.175000
0.000000 0.770000 0.175000
0.105000 0.770000 0.175000
0.230000 0.770000 0.175000
0.355000 0.770000 0.175000
0.480000 0.770000 0.175000
0.605000 0.770000 0.175000
0.730000 0.770000 0.175000
0.855000 0.770000 0.175000
0.980000 0.770000 0.175000
0.000000 0.932500 0.175000
0.105000 0.932500 0.175000
0.230000 0.932500 0.175000
0.355000 0.932500 0.175000
0.480000 0.932500 0.175000
0.605000 0.932500 0.175000
0.730000 0.932500 0.175000
0.855000 0.932500 0.175000
0.980000 0.932500 0.175000
0.000000 1.000000 0.175000
0.105000 1.000000 0.175000
0.230000 1.000000 0.175000
0.355000 1.000000 0.175000
0.480000 1.000000 0.175000
0.605000 1.000000 0.175000
0.730000 1.000000 0.175000
0.855000 1.000000 0.175000
0.980000 1.000000 0.175000
0.000000 1.000000 0.175000
0.105000 1.000000 0.175000
0.230000 1.000000 0.175000
0.355000 1.000000 0.175000
0.480000 1.000000 0.175000
0.605000 1.000000 0.175000
0.730000 1.000000 0.175000
0.855000 1.000000 0.175000
0.980000 1.000000 0.175000
0.000000 1.000000 0.175000
0.105000 1.000000 0.175000
0.230000 1.000000 0.175000
0.355000 1.000000 0.175000
0.480000 1.000000 0.175000
0.605000 1.000000 0.175000
0.730000 1.000000 0.175000
0.855000 1.000000 0.175000
0.980000 1.000000 0.175000
0.000000 0.120000 0.287500
0.105000 0.120000 0.287500
0.230000 0.120000 0.287500
0.355000 0.120000 0.287500
0.480000 0.120000 0.287500
0.605000 0.120000 0.287500
0.730000 0.120000 0.287500
0.855000 0.120000 0.287500
0.980000 0.120000 0.287500
0.000000 0.282500 0.287500
0.105000 0.282500 0.287500
0.230000 0.282500 0.287500
0.355000 0.282500 0.287500
0.480000 0.282500 0.287500
0.605000 0.282500 0.287500
0.730000 0.282500 0.287500
0.855000 0.282500 0.287500
0.980000 0.282500 0.287500
0.000000 0.445000 0.287500
0.105000 0.445000 0.287500
0.230000 0.445000 0.287500
0.355000 0.445000 0.287500
0.480000 0.445000 0.287500
0.605000 0.445000 0.287500
0.730000 0.445000 0.287500
0.855000 0.445000 0.287500
0.980000 0.445000 0.287500
0.000000 0.607500 0.287500
0.105000 0.607500 0.287500
0.230000 0.607500 0.287500
0.355000 0.607500 0.287500
0.480000 0.607500 0.287500
0.605000 0.607500 0.287500
0.730000 0.607500 0.287500
0.855000 0.607500 0.287500
0.980000 0.607500 0.287500
0.000000 0.770000 0.287500
0.105000 0.770000 0.287500
0.230000 0.770000 0.287500
0.355000 0.770000 0.287500
0.480000 0.770000 0.287500
0.605000 0.770000 0.287500
0.730000 0.770000 0.287500
0.855000 0.770000 0.287500
0.980000 0.770000 0.287500
0.000000 0.932500 0.287500
0.105000 0.932500 0.287500
0.230000 0.932500 0.287500
0.355000 0.932500 0.287500
0.480000 0.932500 0.287500
0.605000 0.932500 0.287500
0.730000 0.932500 0.287500
0.855000 0.932500 0.287500
0.980000 0.932500 0.287500
0.000000 1.000000 0.287500
0.105000 1.000000 0.287500
0.230000 1.000000 0.287500
0.355000 1.000000 0.287500
0.480000 1.000000 0.287500
0.605000 1.000000 0.287500
0.730000 1.000000 0.287500
0.855000 1.000000 0.287500
0.980000 1.000000 0.287500
0.000000 1.000000 0.287500
0.105000 1.000000 0.287500
0.230000 1.000000 0.287500
0.355000 1.000000 0.287500
0.480000 1.000000 0.287500
0.605000 1.000000 0.287500
0.730000 1.000000 0.287500
0.855000 1.000000 0.287500
0.980000 1.000000 0.287500
0.000000 1.000000 0.287500
0.105000 1.000000 0.287500
0.230000 1.000000 0.287500
0.355000 1.000000 0.287500
0.480000 1.000000 0.287500
0.605000 1.000000 0.287500
0.730000 1.000000 0.287500
0.855000 1.000000 0.287500
0.980000 1.000000 0.287500
0.000000 0.120000 0.400000
0.105000 0.120000 0.400000
0.230000 0.120000 0.400000
0.355000 0.120000 0.400000
0.480000 0.120000 0.400000
0.605000 0.120000 0.400000
0.730000 0.120000 0.400000
0.855000 0.120000 0.400000
0.980000 0.120000 0.400000
0.000000 0.282500 0.400000
0.105000 0.282500 0.400000
0.230000 0.282500 0.400000
0.355000 0.282500 0.400000
0.480000 0.282500 0.400000
0.605000 0.282500 0.400000
0.730000 0.282500 0.400000
0.855000 0.282500 0.400000
0.980000 0.282500 0.400000
0.000000 0.445000 0.400000
0.105000 0.445000 0.400000
0.230000 0.445000 0.400000
0.355000 0.445000 0.400000
0.480000 0.445000 0.400000
0.605000 0.445000 0.400000
0.730000 0.445000 0.400000
0.855000 0.445000 0.400000
0.980000 0.445000 0.400000
0.000000 0.607500 0.400000
0.105000 0.607500 0.400000
0.230000 0.607500 0.400000
0.355000 0.607500 0.400000
0.480000 0.607500 0.400000
0.605000 0.607500 0.400000
0.730000 0.607500 0.400000
0.855000 0.607500 0.400000
0.980000 0.607500 0.400000
0.000000 0.770000 0.400000
0.105000 0.770000 0.400000
0.230000 0.770000 0.400000
0.355000 0.770000 0.400000
0.480000 0.770000 0.400000
0.605000 0.770000 0.400000
0.730000 0.770000 0.400000
0.855000 0.770000 0.400000
0.980000 0.770000 0.400000
0.000000 0.932500 0.400000
0.105000 0.932500 0.400000
0.230000 0.932500 0.400000
0.355000 0.932500 0.400000
0.480000 0.932500 0.400000
0.605000 0.932500 0.400000
0.730000 0.932500 0.400000
0.855000 0.932500 0.400000
0.980000 0.932500 0.400000
0.000000 1.000000 0.400000
0.105000 1.000000 0.400000
0.230000 1.000000 0.400000
0.355000 1.000000 0.400000
0.480000 1.000000 0.400000
0.605000 1.000000 0.400000
0.730000 1.000000 0.400000
0.855000 1.000000 0.400000
0.980000 1.000000 0.400000
0.000000 1.000000 0.400000
0.105000 1.000000 0.400000
0.230000 1.000000 0.400000
0.355000 1.000000 0.400000
0.480000 1.000000 0.400000
0.605000 1.000000 0.400000
0.730000 1.000000 0.400000
0.855000 1.000000 0.400000
0.980000 1.000000 0.400000
0.000000 1.000000 0.400000
0.105000 1.000000 0.400000
0.230000 1.000000 0.400000
0.355000 1.000000 0.400000
0.480000 1.000000 0.400000
0.605000 1.000000 0.400000
0.730000 1.000000 0.400000
0.855000 1.000000 0.400000
0.980000 1.000000 0.400000
0.000000 0.120000 0.512500
0.105000 0.120000 0.512500
0.230000 0.120000 0.512500
0.355000 0.120000 0.512500
0.480000 0.120000 0.512500
0.605000 0.120000 0.512500
0.730000 0.120000 0.512500
0.855000 0.120000 0.512500
0.980000 0.120000 0.512500
0.000000 0.282500 0.512500
0.105000 0.282500 0.512500
0.230000 0.282500 0.512500
0.355000 0.282500 0.512500
0.480000 0.282500 0.512500
0.605000 0.282500 0.512500
0.730000 0.282500 0.512500
0.855000 0.282500 0.512500
0.980000 0.282500 0.512500
0.000000 0.445000 0.512500
0.105000 0.445000 0.512500
0.230000 0.445000 0.512500
0.355000 0.445000 0.512500
0.480000 0.445000 0.512500
0.605000 0.445000 0.512500
0.730000 0.445000 0.512500
0.855000 0.445000 0.512500
0.980000 0.445000 0.512500
0.000000 0.607500 0.512500
0.105000 0.607500 0.512500
0.230000 0.607500 0.512500
0.355000 0.607500 0.512500
0.480000 0.607500 0.512500
0.605000 0.607500 0.512500
0.730000 0.607500 0.512500
0.855000 0.607500 0.512500
0.980000 0.607500 0.512500
0.000000 0.770000 0.512500
0.105000 0.770000 0.512500
0.230000 0.770000 0.512500
0.355000 0.770000 0.512500
0.480000 0.770000 0.512500
0.605000 0.770000 0.512500
0.730000 0.770000 0.512500
0.855000 0.770000 0.512500
0.980000 0.770000 0.512500
0.000000 0.932500 0.512500
0.105000 0.932500 0.512500
0.230000 0.932500 0.512500
0.355000 0.932500 0.512500
0.480000 0.932500 0.512500
0.605000 0.932500 0.512500
0.730000 0.932500 0.512500
0.855000 0.932500 0.512500
0.980000 0.932500 0.512500
0.000000 1.000000 0.512500
0.105000 1.000000 0.512500
0.230000 1.000000 0.512500
0.355000 1.000000 0.512500
0.480000 1.000000 0.512500
0.605000 1.000000 0.512500
0.730000 1.000000 0.512500
0.855000 1.000000 0.512500
0.980000 1.000000 0.512500
0.000000 1.000000 0.512500
0.105000 1.000000 0.512500
0.230000 1.000000 0.512500
0.355000 1.000000 0.512500
0.480000 1.000000 0.512500
0.605000 1.000000 0.512500
0.730000 1.000000 0.512500
0.855000 1.000000 0.512500
0.980000 1.000000 0.512500
0.000000 1.000000 0.512500
0.105000 1.000000 0.512500
0.230000 1.000000 0.512500
0.355000 1.000000 0.512500
0.480000 1.000000 0.512500
0.605000 1.000000 0.512500
0.730000 1.000000 0.512500
0.855000 1.000000 0.512500
0.980000 1.000000 0.512500
0.000000 0.120000 0.625000
0.105000 0.120000 0.625000
0.230000 0.120000 0.625000
0.355000 0.120000 0.625000
0.480000 0.120000 0.625000
0.605000 0.120000 0.625000
0.730000 0.120000 0.625000
0.855000 0.120000 0.625000
0.980000 0.120000 0.625000
0.000000 0.282500 0.625000
0.105000 0.282500 0.625000
0.230000 0.282500 0.625000
0.355000 0.282500 0.625000
0.480000 0.282500 0.625000
0.605000 0.282500 0.625000
0.730000 0.282500 0.625000
0.855000 0.282500 0.625000
0.980000 0.282500 0.625000
0.000000 0.445000 0.625000
0.105000 0.445000 0.625000
0.230000 0.445000 0.625000
0.355000 0.445000 0.625000
0.480000 0.445000 0.625000
0.605000 0.445000 0.625000
0.730000 0.445000 0.625000
0.855000 0.445000 0.625000
0.980000 0.445000 0.625000
0.000000 0.607500 0.625000
0.105000 0.607500 0.625000
0.230000 0.607500 0.625000
0.355000 0.607500 0.625000
0.480000 0.607500 0.625000
0.605000 0.607500 0.625000
0.730000 0.607500 0.625000
0.855000 0.607500 0.625000
0.980000 0.607500 0.625000
0.000000 0.770000 0.625000
0.105000 0.770000 0.625000
0.230000 0.770000 0.625000
0.355000 0.770000 0.625000
0.480000 0.770000 0.625000
0.605000 0.770000 0.625000
0.730000 0.770000 0.625000
0.855000 0.770000 0.625000
0.980000 0.770000 0.625000
0.000000 0.932500 0.625000
0.105000 0.932500 0.625000
0.230000 0.932500 0.625000
0.355000 0.932500 0.625000
0.480000 0.932500 0.625000
0.605000 0.932500 0.625000
0.730000 0.932500 0.625000
0.855000 0.932500 0.625000
0.980000 0.932500 0.625000
0.000000 1.000000 0.625000
0.105000 1.000000 0.625000
0.230000 1.000000 0.625000
0.355000 1.000000 0.625000
0.480000 1.000000 0.625000
0.605000 1.000000 0.625000
0.730000 1.000000 0.625000
0.855000 1.000000 0.625000
0.980000 1.000000 0.625000
0.000000 1.000000 0.625000
0.105000 1.000000 0.625000
0.230000 1.000000 0.625000
0.355000 1.000000 0.625000
0.480000 1.000000 0.625000
0.605000 1.000000 0.625000
0.730000 1.000000 0.625000
0.855000 1.000000 0.625000
0.980000 1.000000 0.625000
0.000000 1.000000 0.625000
0.105000 1.000000 0.625000
0.230000 1.000000 0.625000
0.355000 1.000000 0.625000
0.480000 1.000000 0.625000
0.605000 1.000000 0.625000
0.730000 1.000000 0.625000
0.855000 1.000000 0.625000
0.980000 1.000000 0.625000
0.000000 0.120000 0.737500
0.105000 0.120000 0.737500
0.230000 0.120000 0.737500
0.355000 0.120000 0.737500
0.480000 0.120000 0.737500
0.605000 0.120000 0.737500
0.730000 0.120000 0.737500
0.855000 0.120000 0.737500
0.980000 0.120000 0.737500
0.000000 0.282500 0.737500
0.105000 0.282500 0.737500
0.230000 0.282500 0.737500
0.355000 0.282500 0.737500
0.480000 0.282500 0.737500
0.605000 0.282500 0.737500
0.730000 0.282500 0.737500
0.855000 0.282500 0.737500
0.980000 0.282500 0.737500
0.000000 0.445000 0.737500
0.105000 0.445000 0.737500
0.230000 0.445000 0.737500
0.355000 0.445000 0.737500
0.480000 0.445000 0.737500
0.605000 0.445000 0.737500
0.730000 0.445000 0.737500
0.855000 0.445000 0.737500
0.980000 0.445000 0.737500
0.000000 0.607500 0.737500
0.105000 0.607500 0.737500
0.230000 0.607500 0.737500
0.355000 0.607500 0.737500
0.480000 0.607500 0.737500
0.605000 0.607500 0.737500
0.730000 0.607500 0.737500
0.855000 0.607500 0.737500
0.980000 0.607500 0.737500
0.000000 0.770000 0.737500
0.105000 0.770000 0.737500
0.230000 0.770000 0.737500
0.355000 0.770000 0.737500
0.480000 0.770000 0.737500
0.605000 0.770000 0.737500
0.730000 0.770000 0.737500
0.855000 0.770000 0.737500
0.980000 0.770000 0.737500
0.000000 0.932500 0.737500
0.105000 0.932500 0.737500
0.230000 0.932500 0.737500
0.355000 0.932500 0.737500
0.480000 0.932500 0.737500
0.605000 0.932500 0.737500
0.730000 0.932500 0.737500
0.855000 0.932500 0.737500
0.980000 0.932500 0.737500
0.000000 1.000000 0.737500
0.105000 1.000000 0.737500
0.230000 1.000000 0.737500
0.355000 1.000000 0.737500
0.480000 1.000000 0.737500
0.605000 1.000000 0.737500
0.730000 1.000000 0.737500
0.855000 1.000000 0.737500
0.980000 1.000000 0.737500
0.000000 1.000000 0.737500
0.105000 1.000000 0.737500
0.230000 1.000000 0.737500
0.355000 1.000000 0.737500
0.480000 1.000000 0.737500
0.605000 1.000000 0.737500
0.730000 1.000000 0.737500
0.855000 1.000000 0.737500
0.980000 1.000000 0.737500
0.000000 1.000000 0.737500
0.105000 1.000000 0.737500
0.230000 1.000000 0.737500
0.355000 1.000000 0.737500
0.480000 1.000000 0.737500
0.605000 1.000000 0.737500
0.730000 1.000000 0.737500
0.855000 1.000000 0.737500
0.980000 1.000000 0.737500
0.000000 0.120000 0.850000
0.105000 0.120000 0.850000
0.230000 0.120000 0.850000
0.355000 0.120000 0.850000
0.480000 0.120000 0.850000
0.605000 0.120000 0.850000
0.730000 0.120000 0.850000
0.855000 0.120000 0.850000
0.980000 0.120000 0.850000
0.000000 0.282500 0.850000
0.105000 0.282500 0.850000
0.230000 0.282500 0.850000
0.355000 0.282500 0.850000
0.480000 0.282500 0.850000
0.605000 0.282500 0.850000
0.730000 0.282500 0.850000
0.855000 0.282500 0.850000
0.980000 0.282500 0.850000
0.000000 0.445000 0.850000
0.105000 0.445000 0.850000
0.230000 0.445000 0.850000
0.355000 0.445000 0.850000
0.480000 0.445000 0.850000
0.605000 0.445000 0.850000
0.730000 0.445000 0.850000
0.855000 0.445000 0.850000
0.980000 0.445000 0.850000
0.000000 0.607500 0.850000
0.105000 0.607500 0.850000
0.230000 0.607500 0.850000
0.355000 0.607500 0.850000
0.480000 0.607500 0.850000
0.605000 0.607500 0.850000
0.730000 0.607500 0.850000
0.855000 0.607500 0.850000
0.980000 0.607500 0.850000
0.000000 0.770000 0.850000
0.105000 0.770000 0.850000
0.230000 0.770000 0.850000
0.355000 0.770000 0.850000
0.480000 0.770000 0.850000
0.605000 0.770000 0.850000
0.730000 0.770000 0.850000
0.855000 0.770000 0.850000
0.980000 0.770000 0.850000
0.000000 0.932500 0.850000
0.105000 0.932500 0.850000
0.230000 0.932500 0.850000
0.355000 0.932500 0.850000
0.480000 0.932500 0.850000
0.605000 0.932500 0.850000
0.730000 0.932500 0.850000
0.855000 0.932500 0.850000
0.980000 0.932500 0.850000
0.000000 1.000000 0.850000
0.105000 1.000000 0.850000
0.230000 1.000000 0.850000
0.355000 1.000000 0.850000
0.480000 1.000000 0.850000
0.605000 1.000000 0.850000
0.730000 1.000000 0.850000
0.855000 1.000000 0.850000
0.980000 1.000000 0.850000
0.000000 1.000000 0.850000
0.105000 1.000000 0.850000
0.230000 1.000000 0.850000
0.355000 1.000000 0.850000
0.480000 1.000000 0.850000
0.605000 1.000000 0.850000
0.730000 1.000000 0.850000
0.855000 1.000000 0.850000
0.980000 1.000000 0.850000
0.000000 1.000000 0.850000
0.105000 1.000000 0.850000
0.230000 1.000000 0.850000
0.355000 1.000000 0.850000
0.480000 1.000000 0.850000
0.605000 1.000000 0.850000
0.730000 1.000000 0.850000
0.855000 1.000000 0.850000
0.980000 1.000000 0.850000
