app/src/main/assets/luts/street_blue.cube
# ApexStudio filter: street_blue
LUT_3D_SIZE 17
DOMAIN_MIN 0.0 0.0 0.0
DOMAIN_MAX 1.0 1.0 1.0
0.000000 0.000000 0.133623
0.039532 0.000000 0.132479
0.099725 0.000000 0.130797
0.159918 0.000000 0.129115
0.220111 0.000000 0.127433
0.280305 0.000000 0.125751
0.340498 0.000000 0.124070
0.400691 0.000000 0.122388
0.460884 0.000000 0.120706
0.521077 0.000000 0.119024
0.581270 0.000000 0.117342
0.641463 0.000000 0.115660
0.701656 0.000000 0.113978
0.761850 0.000000 0.112296
0.822043 0.000000 0.110615
0.882236 0.000000 0.108933
0.942429 0.000000 0.107251
0.000000 0.060428 0.130137
0.036047 0.059284 0.128994
0.096240 0.057602 0.127312
0.156433 0.055920 0.125630
0.216626 0.054239 0.123948
0.276819 0.052557 0.122266
0.337012 0.050875 0.120584
0.397205 0.049193 0.118902
0.457399 0.047511 0.117221
0.517592 0.045829 0.115539
0.577785 0.044147 0.113857
0.637978 0.042465 0.112175
0.698171 0.040784 0.110493
0.758364 0.039102 0.108811
0.818557 0.037420 0.107129
0.878750 0.035738 0.105447
0.938944 0.034056 0.103766
0.000000 0.122255 0.126652
0.032561 0.121111 0.125508
0.092755 0.119430 0.123826
0.152948 0.117748 0.122145
0.213141 0.116066 0.120463
0.273334 0.114384 0.118781
0.333527 0.112702 0.117099
0.393720 0.111020 0.115417
0.453913 0.109338 0.113735
0.514106 0.107656 0.112053
0.574300 0.105975 0.110371
0.634493 0.104293 0.108690
0.694686 0.102611 0.107008
0.754879 0.100929 0.105326
0.815072 0.099247 0.103644
0.875265 0.097565 0.101962
0.935458 0.095883 0.100280
0.000000 0.184082 0.123167
0.029076 0.182939 0.122023
0.089269 0.181257 0.120341
0.149462 0.179575 0.118659
0.209655 0.177893 0.116977
0.269849 0.176211 0.115296
0.330042 0.174529 0.113614
0.390235 0.172847 0.111932
0.450428 0.171165 0.110250
0.510621 0.169484 0.108568
0.570814 0.167802 0.106886
0.631007 0.166120 0.105204
0.691200 0.164438 0.103522
0.751394 0.162756 0.101841
0.811587 0.161074 0.100159
0.871780 0.159392 0.098477
0.931973 0.157710 0.096795
0.000000 0.245909 0.119681
0.025591 0.244766 0.118538
0.085784 0.243084 0.116856
0.145977 0.241402 0.115174
0.206170 0.239720 0.113492
0.266363 0.238038 0.111810
0.326556 0.236356 0.110128
0.386750 0.234675 0.108446
0.446943 0.232993 0.106765
0.507136 0.231311 0.105083
0.567329 0.229629 0.103401
0.627522 0.227947 0.101719
0.687715 0.226265 0.100037
0.747908 0.224583 0.098355
0.808101 0.222901 0.096673
0.868295 0.221220 0.094991
0.928488 0.219538 0.093310
0.000000 0.307737 0.116196
0.022105 0.306593 0.115052
0.082299 0.304911 0.113371
0.142492 0.303229 0.111689
0.202685 0.301547 0.110007
0.262878 0.299865 0.108325
0.323071 0.298184 0.106643
0.383264 0.296502 0.104961
0.443457 0.294820 0.103279
0.503650 0.293138 0.101597
0.563844 0.291456 0.099916
0.624037 0.289774 0.098234
0.684230 0.288092 0.096552
0.744423 0.286410 0.094870
0.804616 0.284729 0.093188
0.864809 0.283047 0.091506
0.925002 0.281365 0.089824
0.000000 0.369564 0.112711
0.018620 0.368420 0.111567
0.078813 0.366738 0.109885
0.139006 0.365056 0.108203
0.199200 0.363375 0.106521
0.259393 0.361693 0.104840
0.319586 0.360011 0.103158
0.379779 0.358329 0.101476
0.439972 0.356647 0.099794
0.500165 0.354965 0.098112
0.560358 0.353283 0.096430
0.620551 0.351601 0.094748
0.680745 0.349920 0.093066
0.740938 0.348238 0.091385
0.801131 0.346556 0.089703
0.861324 0.344874 0.088021
0.921517 0.343192 0.086339
0.000000 0.431391 0.109225
0.015135 0.430247 0.108082
0.075328 0.428565 0.106400
0.135521 0.426884 0.104718
0.195714 0.425202 0.103036
0.255907 0.423520 0.101354
0.316100 0.421838 0.099672
0.376294 0.420156 0.097991
0.436487 0.418474 0.096309
0.496680 0.416792 0.094627
0.556873 0.415110 0.092945
0.617066 0.413429 0.091263
0.677259 0.411747 0.089581
0.737452 0.410065 0.087899
0.797645 0.408383 0.086217
0.857839 0.406701 0.084536
0.918032 0.405019 0.082854
0.000000 0.493218 0.105740
0.011650 0.492075 0.104596
0.071843 0.490393 0.102915
0.132036 0.488711 0.101233
0.192229 0.487029 0.099551
0.252422 0.485347 0.097869
0.312615 0.483665 0.096187
0.372808 0.481983 0.094505
0.433001 0.480301 0.092823
0.493195 0.478620 0.091141
0.553388 0.476938 0.089460
0.613581 0.475256 0.087778
0.673774 0.473574 0.086096
0.733967 0.471892 0.084414
0.794160 0.470210 0.082732
0.854353 0.468528 0.081050
0.914546 0.466846 0.079368
0.000000 0.555045 0.102255
0.008164 0.553902 0.101111
0.068357 0.552220 0.099429
0.128550 0.550538 0.097747
0.188744 0.548856 0.096066
0.248937 0.547174 0.094384
0.309130 0.545492 0.092702
0.369323 0.543810 0.091020
0.429516 0.542129 0.089338
0.489709 0.540447 0.087656
0.549902 0.538765 0.085974
0.610095 0.537083 0.084292
0.670289 0.535401 0.082611
0.730482 0.533719 0.080929
0.790675 0.532037 0.079247
0.850868 0.530355 0.077565
0.911061 0.528674 0.075883
0.000000 0.616873 0.098770
0.004679 0.615729 0.097626
0.064872 0.614047 0.095944
0.125065 0.612365 0.094262
0.185258 0.610683 0.092580
0.245451 0.609001 0.090898
0.305645 0.607320 0.089216
0.365838 0.605638 0.087535
0.426031 0.603956 0.085853
0.486224 0.602274 0.084171
0.546417 0.600592 0.082489
0.606610 0.598910 0.080807
0.666803 0.597228 0.079125
0.726996 0.595546 0.077443
0.787190 0.593865 0.075761
0.847383 0.592183 0.074080
0.907576 0.590501 0.072398
0.000000 0.678700 0.095284
0.001194 0.677556 0.094141
0.061387 0.675874 0.092459
0.121580 0.674192 0.090777
0.181773 0.672510 0.089095
0.241966 0.670829 0.087413
0.302159 0.669147 0.085731
0.362352 0.667465 0.084049
0.422545 0.665783 0.082367
0.482739 0.664101 0.080686
0.542932 0.662419 0.079004
0.603125 0.660737 0.077322
0.663318 0.659055 0.075640
0.723511 0.657374 0.073958
0.783704 0.655692 0.072276
0.843897 0.654010 0.070594
0.904090 0.652328 0.068912
0.000000 0.740527 0.091799
0.000000 0.739383 0.090655
0.057901 0.737701 0.088973
0.118095 0.736020 0.087291
0.178288 0.734338 0.085610
0.238481 0.732656 0.083928
0.298674 0.730974 0.082246
0.358867 0.729292 0.080564
0.419060 0.727610 0.078882
0.479253 0.725928 0.077200
0.539446 0.724246 0.075518
0.599640 0.722565 0.073836
0.659833 0.720883 0.072155
0.720026 0.719201 0.070473
0.780219 0.717519 0.068791
0.840412 0.715837 0.067109
0.900605 0.714155 0.065427
0.000000 0.802354 0.088314
0.000000 0.801210 0.087170
0.054416 0.799529 0.085488
0.114609 0.797847 0.083806
0.174802 0.796165 0.082124
0.234995 0.794483 0.080442
0.295189 0.792801 0.078761
0.355382 0.791119 0.077079
0.415575 0.789437 0.075397
0.475768 0.787755 0.073715
0.535961 0.786074 0.072033
0.596154 0.784392 0.070351
0.656347 0.782710 0.068669
0.716540 0.781028 0.066987
0.776734 0.779346 0.065306
0.836927 0.777664 0.063624
0.897120 0.775982 0.061942
0.000000 0.864181 0.084828
0.000000 0.863038 0.083685
0.050931 0.861356 0.082003
0.111124 0.859674 0.080321
0.171317 0.857992 0.078639
0.231510 0.856310 0.076957
0.291703 0.854628 0.075275
0.351896 0.852946 0.073593
0.412090 0.851265 0.071911
0.472283 0.849583 0.070230
0.532476 0.847901 0.068548
0.592669 0.846219 0.066866
0.652862 0.844537 0.065184
0.713055 0.842855 0.063502
0.773248 0.841173 0.061820
0.833441 0.839491 0.060138
0.893635 0.837810 0.058456
0.000000 0.926008 0.081343
0.000000 0.924865 0.080199
0.047445 0.923183 0.078517
0.107639 0.921501 0.076836
0.167832 0.919819 0.075154
0.228025 0.918137 0.073472
0.288218 0.916455 0.071790
0.348411 0.914774 0.070108
0.408604 0.913092 0.068426
0.468797 0.911410 0.066744
0.528990 0.909728 0.065062
0.589184 0.908046 0.063381
0.649377 0.906364 0.061699
0.709570 0.904682 0.060017
0.769763 0.903000 0.058335
0.829956 0.901319 0.056653
0.890149 0.899637 0.054971
0.000000 0.987836 0.077858
0.000000 0.986692 0.076714
0.043960 0.985010 0.075032
0.104153 0.983328 0.073350
0.164346 0.981646 0.071668
0.224540 0.979965 0.069986
0.284733 0.978283 0.068305
0.344926 0.976601 0.066623
0.405119 0.974919 0.064941
0.465312 0.973237 0.063259
0.525505 0.971555 0.061577
0.585698 0.969873 0.059895
0.645891 0.968191 0.058213
0.706085 0.966510 0.056531
0.766278 0.964828 0.054850
0.826471 0.963146 0.053168
0.886664 0.961464 0.051486
0.000000 0.000000 0.212174
0.038709 0.000000 0.211031
0.098903 0.000000 0.209349
0.159096 0.000000 0.207667
0.219289 0.000000 0.205985
0.279482 0.000000 0.204303
0.339675 0.000000 0.202621
0.399868 0.000000 0.200939
0.460061 0.000000 0.199258
0.520254 0.000000 0.197576
0.580448 0.000000 0.195894
0.640641 0.000000 0.194212
0.700834 0.000000 0.192530
0.761027 0.000000 0.190848
0.821220 0.000000 0.189166
0.881413 0.000000 0.187484
0.941606 0.000000 0.185803
0.000000 0.059605 0.208689
0.035224 0.058462 0.207545
0.095417 0.056780 0.205863
0.155610 0.055098 0.204182
0.215803 0.053416 0.202500
0.275997 0.051734 0.200818
0.336190 0.050052 0.199136
0.396383 0.048370 0.197454
0.456576 0.046688 0.195772
0.516769 0.045007 0.194090
0.576962 0.043325 0.192408
0.637155 0.041643 0.190727
0.697348 0.039961 0.189045
0.757542 0.038279 0.187363
0.817735 0.036597 0.185681
0.877928 0.034915 0.183999
0.938121 0.033233 0.182317
0.000000 0.121432 0.205204
0.031739 0.120289 0.204060
0.091932 0.118607 0.202378
0.152125 0.116925 0.200696
0.212318 0.115243 0.199014
0.272511 0.113561 0.197333
0.332704 0.111879 0.195651
0.392898 0.110198 0.193969
0.453091 0.108516 0.192287
0.513284 0.106834 0.190605
0.573477 0.105152 0.188923
0.633670 0.103470 0.187241
0.693863 0.101788 0.185559
0.754056 0.100106 0.183878
0.814249 0.098424 0.182196
0.874443 0.096743 0.180514
0.934636 0.095061 0.178832
0.000000 0.183260 0.201718
0.028253 0.182116 0.200575
0.088447 0.180434 0.198893
0.148640 0.178752 0.197211
0.208833 0.177070 0.195529
0.269026 0.175388 0.193847
0.329219 0.173707 0.192165
0.389412 0.172025 0.190483
0.449605 0.170343 0.188802
0.509798 0.168661 0.187120
0.569992 0.166979 0.185438
0.630185 0.165297 0.183756
0.690378 0.163615 0.182074
0.750571 0.161933 0.180392
0.810764 0.160252 0.178710
0.870957 0.158570 0.177028
0.931150 0.156888 0.175347
0.000000 0.245087 0.198233
0.024768 0.243943 0.197089
0.084961 0.242261 0.195408
0.145154 0.240579 0.193726
0.205348 0.238898 0.192044
0.265541 0.237216 0.190362
0.325734 0.235534 0.188680
0.385927 0.233852 0.186998
0.446120 0.232170 0.185316
0.506313 0.230488 0.183634
0.566506 0.228806 0.181953
0.626699 0.227124 0.180271
0.686893 0.225443 0.178589
0.747086 0.223761 0.176907
0.807279 0.222079 0.175225
0.867472 0.220397 0.173543
0.927665 0.218715 0.171861
0.000000 0.306914 0.194748
0.021283 0.305770 0.193604
0.081476 0.304088 0.191922
0.141669 0.302407 0.190240
0.201862 0.300725 0.188558
0.262055 0.299043 0.186877
0.322248 0.297361 0.185195
0.382442 0.295679 0.183513
0.442635 0.293997 0.181831
0.502828 0.292315 0.180149
0.563021 0.290633 0.178467
0.623214 0.288952 0.176785
0.683407 0.287270 0.175103
0.743600 0.285588 0.173422
0.803793 0.283906 0.171740
0.863987 0.282224 0.170058
0.924180 0.280542 0.168376
0.000000 0.368741 0.191262
0.017798 0.367598 0.190119
0.077991 0.365916 0.188437
0.138184 0.364234 0.186755
0.198377 0.362552 0.185073
0.258570 0.360870 0.183391
0.318763 0.359188 0.181709
0.378956 0.357506 0.180028
0.439149 0.355824 0.178346
0.499343 0.354143 0.176664
0.559536 0.352461 0.174982
0.619729 0.350779 0.173300
0.679922 0.349097 0.171618
0.740115 0.347415 0.169936
0.800308 0.345733 0.168254
0.860501 0.344051 0.166573
0.920694 0.342369 0.164891
0.000000 0.430568 0.187777
0.014312 0.429425 0.186633
0.074505 0.427743 0.184952
0.134698 0.426061 0.183270
0.194892 0.424379 0.181588
0.255085 0.422697 0.179906
0.315278 0.421015 0.178224
0.375471 0.419333 0.176542
0.435664 0.417652 0.174860
0.495857 0.415970 0.173178
0.556050 0.414288 0.171497
0.616243 0.412606 0.169815
0.676437 0.410924 0.168133
0.736630 0.409242 0.166451
0.796823 0.407560 0.164769
0.857016 0.405878 0.163087
0.917209 0.404197 0.161405
0.000000 0.492396 0.184292
0.010827 0.491252 0.183148
0.071020 0.489570 0.181466
0.131213 0.487888 0.179784
0.191406 0.486206 0.178103
0.251599 0.484524 0.176421
0.311793 0.482843 0.174739
0.371986 0.481161 0.173057
0.432179 0.479479 0.171375
0.492372 0.477797 0.169693
0.552565 0.476115 0.168011
0.612758 0.474433 0.166329
0.672951 0.472751 0.164648
0.733144 0.471069 0.162966
0.793338 0.469388 0.161284
0.853531 0.467706 0.159602
0.913724 0.466024 0.157920
0.000000 0.554223 0.180806
0.007342 0.553079 0.179663
0.067535 0.551397 0.177981
0.127728 0.549715 0.176299
0.187921 0.548033 0.174617
0.248114 0.546352 0.172935
0.308307 0.544670 0.171253
0.368500 0.542988 0.169572
0.428693 0.541306 0.167890
0.488887 0.539624 0.166208
0.549080 0.537942 0.164526
0.609273 0.536260 0.162844
0.669466 0.534578 0.161162
0.729659 0.532897 0.159480
0.789852 0.531215 0.157798
0.850045 0.529533 0.156117
0.910238 0.527851 0.154435
0.000000 0.616050 0.177321
0.003856 0.614906 0.176178
0.064049 0.613224 0.174496
0.124243 0.611543 0.172814
0.184436 0.609861 0.171132
0.244629 0.608179 0.169450
0.304822 0.606497 0.167768
0.365015 0.604815 0.166086
0.425208 0.603133 0.164404
0.485401 0.601451 0.162723
0.545594 0.599769 0.161041
0.605788 0.598088 0.159359
0.665981 0.596406 0.157677
0.726174 0.594724 0.155995
0.786367 0.593042 0.154313
0.846560 0.591360 0.152631
0.906753 0.589678 0.150949
0.000000 0.677877 0.173836
0.000371 0.676733 0.172692
0.060564 0.675052 0.171010
0.120757 0.673370 0.169328
0.180950 0.671688 0.167647
0.241143 0.670006 0.165965
0.301337 0.668324 0.164283
0.361530 0.666642 0.162601
0.421723 0.664960 0.160919
0.481916 0.663278 0.159237
0.542109 0.661597 0.157555
0.602302 0.659915 0.155873
0.662495 0.658233 0.154192
0.722688 0.656551 0.152510
0.782882 0.654869 0.150828
0.843075 0.653187 0.149146
0.903268 0.651505 0.147464
0.000000 0.739704 0.170351
0.000000 0.738561 0.169207
0.057079 0.736879 0.167525
0.117272 0.735197 0.165843
0.177465 0.733515 0.164161
0.237658 0.731833 0.162479
0.297851 0.730151 0.160798
0.358044 0.728469 0.159116
0.418238 0.726788 0.157434
0.478431 0.725106 0.155752
0.538624 0.723424 0.154070
0.598817 0.721742 0.152388
0.659010 0.720060 0.150706
0.719203 0.718378 0.149024
0.779396 0.716696 0.147343
0.839589 0.715014 0.145661
0.899783 0.713333 0.143979
0.000000 0.801532 0.166865
0.000000 0.800388 0.165722
0.053593 0.798706 0.164040
0.113787 0.797024 0.162358
0.173980 0.795342 0.160676
0.234173 0.793660 0.158994
0.294366 0.791978 0.157312
0.354559 0.790297 0.155630
0.414752 0.788615 0.153948
0.474945 0.786933 0.152267
0.535138 0.785251 0.150585
0.595332 0.783569 0.148903
0.655525 0.781887 0.147221
0.715718 0.780205 0.145539
0.775911 0.778523 0.143857
0.836104 0.776842 0.142175
0.896297 0.775160 0.140493
0.000000 0.863359 0.163380
0.000000 0.862215 0.162236
0.050108 0.860533 0.160554
0.110301 0.858851 0.158873
0.170494 0.857169 0.157191
0.230688 0.855488 0.155509
0.290881 0.853806 0.153827
0.351074 0.852124 0.152145
0.411267 0.850442 0.150463
0.471460 0.848760 0.148781
0.531653 0.847078 0.147099
0.591846 0.845396 0.145418
0.652039 0.843714 0.143736
0.712233 0.842033 0.142054
0.772426 0.840351 0.140372
0.832619 0.838669 0.138690
0.892812 0.836987 0.137008
0.000000 0.925186 0.159895
0.000000 0.924042 0.158751
0.046623 0.922360 0.157069
0.106816 0.920678 0.155387
0.167009 0.918997 0.153705
0.227202 0.917315 0.152023
0.287395 0.915633 0.150342
0.347588 0.913951 0.148660
0.407782 0.912269 0.146978
0.467975 0.910587 0.145296
0.528168 0.908905 0.143614
0.588361 0.907223 0.141932
0.648554 0.905542 0.140250
0.708747 0.903860 0.138568
0.768940 0.902178 0.136887
0.829133 0.900496 0.135205
0.889327 0.898814 0.133523
0.000000 0.987013 0.156409
0.000000 0.985869 0.155266
0.043138 0.984188 0.153584
0.103331 0.982506 0.151902
0.163524 0.980824 0.150220
0.223717 0.979142 0.148538
0.283910 0.977460 0.146856
0.344103 0.975778 0.145174
0.404296 0.974096 0.143493
0.464489 0.972414 0.141811
0.524683 0.970733 0.140129
0.584876 0.969051 0.138447
0.645069 0.967369 0.136765
0.705262 0.965687 0.135083
0.765455 0.964005 0.133401
0.825648 0.962323 0.131719
0.885841 0.960641 0.130038
0.000000 0.000000 0.289262
0.037902 0.000000 0.288119
0.098095 0.000000 0.286437
0.158288 0.000000 0.284755
0.218481 0.000000 0.283073
0.278675 0.000000 0.281391
0.338868 0.000000 0.279709
0.399061 0.000000 0.278027
0.459254 0.000000 0.276346
0.519447 0.000000 0.274664
0.579640 0.000000 0.272982
0.639833 0.000000 0.271300
0.700026 0.000000 0.269618
0.760220 0.000000 0.267936
0.820413 0.000000 0.266254
0.880606 0.000000 0.264572
0.940799 0.000000 0.262891
0.000000 0.058798 0.285777
0.034417 0.057654 0.284633
0.094610 0.055972 0.282952
0.154803 0.054291 0.281270
0.214996 0.052609 0.279588
0.275189 0.050927 0.277906
0.335382 0.049245 0.276224
0.395576 0.047563 0.274542
0.455769 0.045881 0.272860
0.515962 0.044199 0.271178
0.576155 0.042517 0.269497
0.636348 0.040836 0.267815
0.696541 0.039154 0.266133
0.756734 0.037472 0.264451
0.816927 0.035790 0.262769
0.877121 0.034108 0.261087
0.937314 0.032426 0.259405
0.000000 0.120625 0.282292
0.030931 0.119481 0.281148
0.091125 0.117800 0.279466
0.151318 0.116118 0.277784
0.211511 0.114436 0.276102
0.271704 0.112754 0.274421
0.331897 0.111072 0.272739
0.392090 0.109390 0.271057
0.452283 0.107708 0.269375
0.512476 0.106026 0.267693
0.572670 0.104345 0.266011
0.632863 0.102663 0.264329
0.693056 0.100981 0.262647
0.753249 0.099299 0.260966
0.813442 0.097617 0.259284
0.873635 0.095935 0.257602
0.933828 0.094253 0.255920
0.000000 0.182452 0.278806
0.027446 0.181309 0.277663
0.087639 0.179627 0.275981
0.147832 0.177945 0.274299
0.208026 0.176263 0.272617
0.268219 0.174581 0.270935
0.328412 0.172899 0.269253
0.388605 0.171217 0.267572
0.448798 0.169536 0.265890
0.508991 0.167854 0.264208
0.569184 0.166172 0.262526
0.629377 0.164490 0.260844
0.689571 0.162808 0.259162
0.749764 0.161126 0.257480
0.809957 0.159444 0.255798
0.870150 0.157762 0.254117
0.930343 0.156081 0.252435
0.000000 0.244280 0.275321
0.023961 0.243136 0.274177
0.084154 0.241454 0.272496
0.144347 0.239772 0.270814
0.204540 0.238090 0.269132
0.264733 0.236408 0.267450
0.324926 0.234726 0.265768
0.385120 0.233045 0.264086
0.445313 0.231363 0.262404
0.505506 0.229681 0.260722
0.565699 0.227999 0.259041
0.625892 0.226317 0.257359
0.686085 0.224635 0.255677
0.746278 0.222953 0.253995
0.806471 0.221271 0.252313
0.866665 0.219590 0.250631
0.926858 0.217908 0.248949
0.000000 0.306107 0.271836
0.020476 0.304963 0.270692
0.080669 0.303281 0.269010
0.140862 0.301599 0.267328
0.201055 0.299917 0.265647
0.261248 0.298236 0.263965
0.321441 0.296554 0.262283
0.381634 0.294872 0.260601
0.441827 0.293190 0.258919
0.502021 0.291508 0.257237
0.562214 0.289826 0.255555
0.622407 0.288144 0.253873
0.682600 0.286462 0.252192
0.742793 0.284781 0.250510
0.802986 0.283099 0.248828
0.863179 0.281417 0.247146
0.923372 0.279735 0.245464
0.000000 0.367934 0.268351
0.016990 0.366790 0.267207
0.077183 0.365108 0.265525
0.137376 0.363426 0.263843
0.197570 0.361745 0.262161
0.257763 0.360063 0.260479
0.317956 0.358381 0.258797
0.378149 0.356699 0.257116
0.438342 0.355017 0.255434
0.498535 0.353335 0.253752
0.558728 0.351653 0.252070
0.618921 0.349971 0.250388
0.679115 0.348290 0.248706
0.739308 0.346608 0.247024
0.799501 0.344926 0.245342
0.859694 0.343244 0.243661
0.919887 0.341562 0.241979
0.000000 0.429761 0.264865
0.013505 0.428617 0.263722
0.073698 0.426936 0.262040
0.133891 0.425254 0.260358
0.194084 0.423572 0.258676
0.254277 0.421890 0.256994
0.314471 0.420208 0.255312
0.374664 0.418526 0.253630
0.434857 0.416844 0.251948
0.495050 0.415162 0.250267
0.555243 0.413481 0.248585
0.615436 0.411799 0.246903
0.675629 0.410117 0.245221
0.735822 0.408435 0.243539
0.796016 0.406753 0.241857
0.856209 0.405071 0.240175
0.916402 0.403389 0.238493
0.000000 0.491588 0.261380
0.010020 0.490445 0.260236
0.070213 0.488763 0.258554
0.130406 0.487081 0.256872
0.190599 0.485399 0.255191
0.250792 0.483717 0.253509
0.310985 0.482035 0.251827
0.371178 0.480353 0.250145
0.431371 0.478671 0.248463
0.491565 0.476990 0.246781
0.551758 0.475308 0.245099
0.611951 0.473626 0.243417
0.672144 0.471944 0.241736
0.732337 0.470262 0.240054
0.792530 0.468580 0.238372
0.852723 0.466898 0.236690
0.912916 0.465216 0.235008
0.000000 0.553415 0.257895
0.006534 0.552272 0.256751
0.066727 0.550590 0.255069
0.126921 0.548908 0.253387
0.187114 0.547226 0.251705
0.247307 0.545544 0.250023
0.307500 0.543862 0.248342
0.367693 0.542181 0.246660
0.427886 0.540499 0.244978
0.488079 0.538817 0.243296
0.548272 0.537135 0.241614
0.608466 0.535453 0.239932
0.668659 0.533771 0.238250
0.728852 0.532089 0.236568
0.789045 0.530407 0.234887
0.849238 0.528726 0.233205
0.909431 0.527044 0.231523
0.000000 0.615243 0.254409
0.003049 0.614099 0.253266
0.063242 0.612417 0.251584
0.123435 0.610735 0.249902
0.183628 0.609053 0.248220
0.243821 0.607371 0.246538
0.304015 0.605690 0.244856
0.364208 0.604008 0.243174
0.424401 0.602326 0.241492
0.484594 0.600644 0.239811
0.544787 0.598962 0.238129
0.604980 0.597280 0.236447
0.665173 0.595598 0.234765
0.725366 0.593916 0.233083
0.785560 0.592235 0.231401
0.845753 0.590553 0.229719
0.905946 0.588871 0.228037
0.000000 0.677070 0.250924
0.000000 0.675926 0.249780
0.059757 0.674244 0.248098
0.119950 0.672562 0.246417
0.180143 0.670881 0.244735
0.240336 0.669199 0.243053
0.300529 0.667517 0.241371
0.360722 0.665835 0.239689
0.420916 0.664153 0.238007
0.481109 0.662471 0.236325
0.541302 0.660789 0.234643
0.601495 0.659107 0.232962
0.661688 0.657426 0.231280
0.721881 0.655744 0.229598
0.782074 0.654062 0.227916
0.842267 0.652380 0.226234
0.902461 0.650698 0.224552
0.000000 0.738897 0.247439
0.000000 0.737753 0.246295
0.056271 0.736071 0.244613
0.116465 0.734390 0.242931
0.176658 0.732708 0.241249
0.236851 0.731026 0.239567
0.297044 0.729344 0.237886
0.357237 0.727662 0.236204
0.417430 0.725980 0.234522
0.477623 0.724298 0.232840
0.537816 0.722616 0.231158
0.598010 0.720935 0.229476
0.658203 0.719253 0.227794
0.718396 0.717571 0.226112
0.778589 0.715889 0.224431
0.838782 0.714207 0.222749
0.898975 0.712525 0.221067
0.000000 0.800724 0.243953
0.000000 0.799581 0.242810
0.052786 0.797899 0.241128
0.112979 0.796217 0.239446
0.173172 0.794535 0.237764
0.233366 0.792853 0.236082
0.293559 0.791171 0.234400
0.353752 0.789489 0.232718
0.413945 0.787807 0.231037
0.474138 0.786126 0.229355
0.534331 0.784444 0.227673
0.594524 0.782762 0.225991
0.654717 0.781080 0.224309
0.714911 0.779398 0.222627
0.775104 0.777716 0.220945
0.835297 0.776034 0.219263
0.895490 0.774352 0.217582
0.000000 0.862551 0.240468
0.000000 0.861408 0.239324
0.049301 0.859726 0.237642
0.109494 0.858044 0.235961
0.169687 0.856362 0.234279
0.229880 0.854680 0.232597
0.290073 0.852998 0.230915
0.350266 0.851316 0.229233
0.410460 0.849635 0.227551
0.470653 0.847953 0.225869
0.530846 0.846271 0.224187
0.591039 0.844589 0.222506
0.651232 0.842907 0.220824
0.711425 0.841225 0.219142
0.771618 0.839543 0.217460
0.831811 0.837861 0.215778
0.892005 0.836180 0.214096
0.000000 0.924379 0.236983
0.000000 0.923235 0.235839
0.045816 0.921553 0.234157
0.106009 0.919871 0.232475
0.166202 0.918189 0.230793
0.226395 0.916507 0.229112
0.286588 0.914826 0.227430
0.346781 0.913144 0.225748
0.406974 0.911462 0.224066
0.467167 0.909780 0.222384
0.527361 0.908098 0.220702
0.587554 0.906416 0.219020
0.647747 0.904734 0.217338
0.707940 0.903052 0.215657
0.768133 0.901371 0.213975
0.828326 0.899689 0.212293
0.888519 0.898007 0.210611
0.000000 0.986206 0.233497
0.000000 0.985062 0.232354
0.042330 0.983380 0.230672
0.102523 0.981698 0.228990
0.162716 0.980016 0.227308
0.222910 0.978335 0.225626
0.283103 0.976653 0.223944
0.343296 0.974971 0.222262
0.403489 0.973289 0.220581
0.463682 0.971607 0.218899
0.523875 0.969925 0.217217
0.584068 0.968243 0.215535
0.644261 0.966561 0.213853
0.704455 0.964880 0.212171
0.764648 0.963198 0.210489
0.824841 0.961516 0.208807
0.885034 0.959834 0.207126
0.000000 0.000000 0.365324
0.037106 0.000000 0.364180
0.097299 0.000000 0.362498
0.157492 0.000000 0.360816
0.217685 0.000000 0.359135
0.277878 0.000000 0.357453
0.338071 0.000000 0.355771
0.398264 0.000000 0.354089
0.458457 0.000000 0.352407
0.518651 0.000000 0.350725
0.578844 0.000000 0.349043
0.639037 0.000000 0.347361
0.699230 0.000000 0.345680
0.759423 0.000000 0.343998
0.819616 0.000000 0.342316
0.879809 0.000000 0.340634
0.940002 0.000000 0.338952
0.000000 0.058001 0.361839
