app/src/main/assets/luts/street_blue.cube
# ApexStudio filter: street_blue
LUT_3D_SIZE 9
DOMAIN_MIN 0.0 0.0 0.0
DOMAIN_MAX 1.0 1.0 1.0
0.000000 0.000000 0.133623
0.099725 0.000000 0.130797
0.220111 0.000000 0.127433
0.340498 0.000000 0.124070
0.460884 0.000000 0.120706
0.581270 0.000000 0.117342
0.701656 0.000000 0.113978
0.822043 0.000000 0.110615
0.942429 0.000000 0.107251
0.000000 0.122255 0.126652
0.092755 0.119430 0.123826
0.213141 0.116066 0.120463
0.333527 0.112702 0.117099
0.453913 0.109338 0.113735
0.574300 0.105975 0.110371
0.694686 0.102611 0.107008
0.815072 0.099247 0.103644
0.935458 0.095883 0.100280
0.000000 0.245909 0.119681
0.085784 0.243084 0.116856
0.206170 0.239720 0.113492
0.326556 0.236356 0.110128
0.446943 0.232993 0.106765
0.567329 0.229629 0.103401
0.687715 0.226265 0.100037
0.808101 0.222901 0.096673
0.928488 0.219538 0.093310
0.000000 0.369564 0.112711
0.078813 0.366738 0.109885
0.199200 0.363375 0.106521
0.319586 0.360011 0.103158
0.439972 0.356647 0.099794
0.560358 0.353283 0.096430
0.680745 0.349920 0.093066
0.801131 0.346556 0.089703
0.921517 0.343192 0.086339
0.000000 0.493218 0.105740
0.071843 0.490393 0.102915
0.192229 0.487029 0.099551
0.312615 0.483665 0.096187
0.433001 0.480301 0.092823
0.553388 0.476938 0.089460
0.673774 0.473574 0.086096
0.794160 0.470210 0.082732
0.914546 0.466846 0.079368
0.000000 0.616873 0.098770
0.064872 0.614047 0.095944
0.185258 0.610683 0.092580
0.305645 0.607320 0.089216
0.426031 0.603956 0.085853
0.546417 0.600592 0.082489
0.666803 0.597228 0.079125
0.787190 0.593865 0.075761
0.907576 0.590501 0.072398
0.000000 0.740527 0.091799
0.057901 0.737701 0.088973
0.178288 0.734338 0.085610
0.298674 0.730974 0.082246
0.419060 0.727610 0.078882
0.539446 0.724246 0.075518
0.659833 0.720883 0.072155
0.780219 0.717519 0.068791
0.900605 0.714155 0.065427
0.000000 0.864181 0.084828
0.050931 0.861356 0.082003
0.171317 0.857992 0.078639
0.291703 0.854628 0.075275
0.412090 0.851265 0.071911
0.532476 0.847901 0.068548
0.652862 0.844537 0.065184
0.773248 0.841173 0.061820
0.893635 0.837810 0.058456
0.000000 0.987836 0.077858
0.043960 0.985010 0.075032
0.164346 0.981646 0.071668
0.284733 0.978283 0.068305
0.405119 0.974919 0.064941
0.525505 0.971555 0.061577
0.645891 0.968191 0.058213
0.766278 0.964828 0.054850
0.886664 0.961464 0.051486
0.000000 0.000000 0.289262
0.098095 0.000000 0.286437
0.218481 0.000000 0.283073
0.338868 0.000000 0.279709
0.459254 0.000000 0.276346
0.579640 0.000000 0.272982
0.700026 0.000000 0.269618
0.820413 0.000000 0.266254
0.940799 0.000000 0.262891
0.000000 0.120625 0.282292
0.091125 0.117800 0.279466
0.211511 0.114436 0.276102
0.331897 0.111072 0.272739
0.452283 0.107708 0.269375
0.572670 0.104345 0.266011
0.693056 0.100981 0.262647
0.813442 0.097617 0.259284
0.933828 0.094253 0.255920
0.000000 0.244280 0.275321
0.084154 0.241454 0.272496
0.204540 0.238090 0.269132
0.324926 0.234726 0.265768
0.445313 0.231363 0.262404
0.565699 0.227999 0.259041
0.686085 0.224635 0.255677
0.806471 0.221271 0.252313
0.926858 0.217908 0.248949
0.000000 0.367934 0.268351
0.077183 0.365108 0.265525
0.197570 0.361745 0.262161
0.317956 0.358381 0.258797
0.438342 0.355017 0.255434
0.558728 0.351653 0.252070
0.679115 0.348290 0.248706
0.799501 0.344926 0.245342
0.919887 0.341562 0.241979
0.000000 0.491588 0.261380
0.070213 0.488763 0.258554
0.190599 0.485399 0.255191
0.310985 0.482035 0.251827
0.431371 0.478671 0.248463
0.551758 0.475308 0.245099
0.672144 0.471944 0.241736
0.792530 0.468580 0.238372
0.912916 0.465216 0.235008
0.000000 0.615243 0.254409
0.063242 0.612417 0.251584
0.183628 0.609053 0.248220
0.304015 0.605690 0.244856
0.424401 0.602326 0.241492
0.544787 0.598962 0.238129
0.665173 0.595598 0.234765
0.785560 0.592235 0.231401
0.905946 0.588871 0.228037
0.000000 0.738897 0.247439
0.056271 0.736071 0.244613
0.176658 0.732708 0.241249
0.297044 0.729344 0.237886
0.417430 0.725980 0.234522
0.537816 0.722616 0.231158
0.658203 0.719253 0.227794
0.778589 0.715889 0.224431
0.898975 0.712525 0.221067
0.000000 0.862551 0.240468
0.049301 0.859726 0.237642
0.169687 0.856362 0.234279
0.290073 0.852998 0.230915
0.410460 0.849635 0.227551
0.530846 0.846271 0.224187
0.651232 0.842907 0.220824
0.771618 0.839543 0.217460
0.892005 0.836180 0.214096
0.000000 0.986206 0.233497
0.042330 0.983380 0.230672
0.162716 0.980016 0.227308
0.283103 0.976653 0.223944
0.403489 0.973289 0.220581
0.523875 0.969925 0.217217
0.644261 0.966561 0.213853
0.764648 0.963198 0.210489
0.885034 0.959834 0.207126
0.000000 0.000000 0.440596
0.096510 0.000000 0.437770
0.216897 0.000000 0.434406
0.337283 0.000000 0.431042
0.457669 0.000000 0.427679
0.578055 0.000000 0.424315
0.698442 0.000000 0.420951
0.818828 0.000000 0.417587
0.939214 0.000000 0.414224
0.000000 0.119040 0.433625
0.089540 0.116215 0.430799
0.209926 0.112851 0.427436
0.330312 0.109487 0.424072
0.450699 0.106124 0.420708
0.571085 0.102760 0.417344
0.691471 0.099396 0.413981
0.811857 0.096032 0.410617
0.932244 0.092669 0.407253
0.000000 0.242695 0.426654
0.082569 0.239869 0.423829
0.202955 0.236505 0.420465
0.323342 0.233142 0.417101
0.443728 0.229778 0.413737
0.564114 0.226414 0.410374
0.684500 0.223050 0.407010
0.804887 0.219687 0.403646
0.925273 0.216323 0.400282
0.000000 0.366349 0.419684
0.075599 0.363524 0.416858
0.195985 0.360160 0.413494
0.316371 0.356796 0.410131
0.436757 0.353432 0.406767
0.557144 0.350069 0.403403
0.677530 0.346705 0.400039
0.797916 0.343341 0.396676
0.918302 0.339977 0.393312
0.000000 0.490004 0.412713
0.068628 0.487178 0.409887
0.189014 0.483814 0.406524
0.309400 0.480450 0.403160
0.429787 0.477087 0.399796
0.550173 0.473723 0.396432
0.670559 0.470359 0.393069
0.790945 0.466995 0.389705
0.911332 0.463632 0.386341
0.000000 0.613658 0.405742
0.061657 0.610832 0.402917
0.182044 0.607469 0.399553
0.302430 0.604105 0.396189
0.422816 0.600741 0.392826
0.543202 0.597377 0.389462
0.663589 0.594014 0.386098
0.783975 0.590650 0.382734
0.904361 0.587286 0.379371
0.000000 0.737312 0.398772
0.054687 0.734487 0.395946
0.175073 0.731123 0.392582
0.295459 0.727759 0.389219
0.415845 0.724395 0.385855
0.536232 0.721032 0.382491
0.656618 0.717668 0.379127
0.777004 0.714304 0.375764
0.897390 0.710940 0.372400
0.000000 0.860967 0.391801
0.047716 0.858141 0.388976
0.168102 0.854777 0.385612
0.288489 0.851414 0.382248
0.408875 0.848050 0.378884
0.529261 0.844686 0.375521
0.649647 0.841322 0.372157
0.770034 0.837959 0.368793
0.890420 0.834595 0.365429
0.000000 0.984621 0.384831
0.040745 0.981795 0.382005
0.161132 0.978432 0.378641
0.281518 0.975068 0.375277
0.401904 0.971704 0.371914
0.522290 0.968340 0.368550
0.642677 0.964977 0.365186
0.763063 0.961613 0.361822
0.883449 0.958249 0.358459
0.000000 0.000000 0.589319
0.094953 0.000000 0.586493
0.215339 0.000000 0.583129
0.335726 0.000000 0.579766
0.456112 0.000000 0.576402
0.576498 0.000000 0.573038
0.696884 0.000000 0.569674
0.817271 0.000000 0.566311
0.937657 0.000000 0.562947
0.000000 0.117483 0.582348
0.087982 0.114657 0.579522
0.208369 0.111294 0.576159
0.328755 0.107930 0.572795
0.449141 0.104566 0.569431
0.569527 0.101202 0.566067
0.689914 0.097839 0.562704
0.810300 0.094475 0.559340
0.930686 0.091111 0.555976
0.000000 0.241137 0.575377
0.081012 0.238312 0.572552
0.201398 0.234948 0.569188
0.321784 0.231584 0.565824
0.442171 0.228221 0.562461
0.562557 0.224857 0.559097
0.682943 0.221493 0.555733
0.803329 0.218129 0.552369
0.923716 0.214766 0.549006
0.000000 0.364792 0.568407
0.074041 0.361966 0.565581
0.194427 0.358602 0.562217
0.314814 0.355239 0.558854
0.435200 0.351875 0.555490
0.555586 0.348511 0.552126
0.675972 0.345147 0.548762
0.796359 0.341784 0.545399
0.916745 0.338420 0.542035
0.000000 0.488446 0.561436
0.067071 0.485621 0.558611
0.187457 0.482257 0.555247
0.307843 0.478893 0.551883
0.428229 0.475529 0.548519
0.548616 0.472166 0.545156
0.669002 0.468802 0.541792
0.789388 0.465438 0.538428
0.909774 0.462074 0.535064
0.000000 0.612100 0.554466
0.060100 0.609275 0.551640
0.180486 0.605911 0.548276
0.300872 0.602547 0.544912
0.421259 0.599184 0.541549
0.541645 0.595820 0.538185
0.662031 0.592456 0.534821
0.782417 0.589092 0.531457
0.902804 0.585729 0.528094
0.000000 0.735755 0.547495
0.053129 0.732929 0.544669
0.173516 0.729566 0.541306
0.293902 0.726202 0.537942
0.414288 0.722838 0.534578
0.534674 0.719474 0.531214
0.655061 0.716111 0.527851
0.775447 0.712747 0.524487
0.895833 0.709383 0.521123
0.000000 0.859409 0.540524
0.046159 0.856584 0.537699
0.166545 0.853220 0.534335
0.286931 0.849856 0.530971
0.407317 0.846492 0.527607
0.527704 0.843129 0.524244
0.648090 0.839765 0.520880
0.768476 0.836401 0.517516
0.888862 0.833037 0.514152
0.000000 0.983064 0.533554
0.039188 0.980238 0.530728
0.159574 0.976874 0.527364
0.279961 0.973511 0.524001
0.400347 0.970147 0.520637
0.520733 0.966783 0.517273
0.641119 0.963419 0.513909
0.761506 0.960056 0.510546
0.881892 0.956692 0.507182
0.000000 0.000000 0.736167
0.093415 0.000000 0.733342
0.213801 0.000000 0.729978
0.334188 0.000000 0.726614
0.454574 0.000000 0.723250
0.574960 0.000000 0.719887
0.695346 0.000000 0.716523
0.815733 0.000000 0.713159
0.936119 0.000000 0.709795
0.000000 0.115945 0.729197
0.086445 0.113120 0.726371
0.206831 0.109756 0.723007
0.327217 0.106392 0.719644
0.447603 0.103028 0.716280
0.567990 0.099665 0.712916
0.688376 0.096301 0.709552
0.808762 0.092937 0.706189
0.929148 0.089573 0.702825
0.000000 0.239599 0.722226
0.079474 0.236774 0.719400
0.199860 0.233410 0.716037
0.320246 0.230046 0.712673
0.440633 0.226683 0.709309
0.561019 0.223319 0.705945
0.681405 0.219955 0.702582
0.801791 0.216591 0.699218
0.922178 0.213228 0.695854
0.000000 0.363254 0.715255
0.072503 0.360428 0.712430
0.192890 0.357065 0.709066
0.313276 0.353701 0.705702
0.433662 0.350337 0.702339
0.554048 0.346973 0.698975
0.674435 0.343610 0.695611
0.794821 0.340246 0.692247
0.915207 0.336882 0.688884
0.000000 0.486908 0.708285
0.065533 0.484083 0.705459
0.185919 0.480719 0.702095
0.306305 0.477355 0.698732
0.426691 0.473991 0.695368
0.547078 0.470628 0.692004
0.667464 0.467264 0.688640
0.787850 0.463900 0.685277
0.908236 0.460536 0.681913
0.000000 0.610563 0.701314
0.058562 0.607737 0.698489
0.178948 0.604373 0.695125
0.299335 0.601010 0.691761
0.419721 0.597646 0.688397
0.540107 0.594282 0.685034
0.660493 0.590918 0.681670
0.780880 0.587555 0.678306
0.901266 0.584191 0.674942
0.000000 0.734217 0.694343
0.051591 0.731391 0.691518
0.171978 0.728028 0.688154
0.292364 0.724664 0.684790
0.412750 0.721300 0.681427
0.533136 0.717936 0.678063
0.653523 0.714573 0.674699
0.773909 0.711209 0.671335
0.894295 0.707845 0.667972
0.000000 0.857871 0.687373
0.044621 0.855046 0.684547
0.165007 0.851682 0.681184
0.285393 0.848318 0.677820
0.405780 0.844955 0.674456
0.526166 0.841591 0.671092
0.646552 0.838227 0.667729
0.766938 0.834863 0.664365
0.887325 0.831500 0.661001
0.000000 0.981526 0.680402
0.037650 0.978700 0.677577
0.158036 0.975336 0.674213
0.278423 0.971973 0.670849
0.398809 0.968609 0.667485
0.519195 0.965245 0.664122
0.639581 0.961881 0.660758
0.759968 0.958518 0.657394
0.880354 0.955154 0.654030
0.000000 0.000000 0.881555
0.091893 0.000000 0.878730
0.212279 0.000000 0.875366
0.332665 0.000000 0.872002
0.453051 0.000000 0.868639
0.573438 0.000000 0.865275
0.693824 0.000000 0.861911
0.814210 0.000000 0.858547
0.934596 0.000000 0.855184
0.000000 0.114423 0.874585
0.084922 0.111597 0.871759
0.205308 0.108233 0.868395
0.325695 0.104870 0.865032
0.446081 0.101506 0.861668
0.566467 0.098142 0.858304
0.686853 0.094778 0.854940
0.807240 0.091415 0.851577
0.927626 0.088051 0.848213
0.000000 0.238077 0.867614
0.077951 0.235251 0.864789
0.198338 0.231888 0.861425
0.318724 0.228524 0.858061
0.439110 0.225160 0.854697
0.559496 0.221796 0.851334
0.679883 0.218433 0.847970
0.800269 0.215069 0.844606
0.920655 0.211705 0.841242
0.000000 0.361731 0.860643
0.070981 0.358906 0.857818
0.191367 0.355542 0.854454
0.311753 0.352178 0.851090
0.432140 0.348815 0.847727
0.552526 0.345451 0.844363
0.672912 0.342087 0.840999
0.793298 0.338723 0.837635
0.913685 0.335360 0.834272
0.000000 0.485386 0.853673
0.064010 0.482560 0.850847
0.184396 0.479196 0.847484
0.304783 0.475833 0.844120
0.425169 0.472469 0.840756
0.545555 0.469105 0.837392
0.665941 0.465741 0.834029
0.786328 0.462378 0.830665
0.906714 0.459014 0.827301
0.000000 0.609040 0.846702
0.057040 0.606215 0.843877
0.177426 0.602851 0.840513
0.297812 0.599487 0.837149
0.418198 0.596123 0.833785
0.538585 0.592760 0.830422
0.658971 0.589396 0.827058
0.779357 0.586032 0.823694
0.899743 0.582668 0.820330
0.000000 0.732694 0.839732
0.050069 0.729869 0.836906
0.170455 0.726505 0.833542
0.290841 0.723141 0.830179
0.411228 0.719778 0.826815
0.531614 0.716414 0.823451
0.652000 0.713050 0.820087
0.772386 0.709686 0.816724
0.892773 0.706323 0.813360
0.000000 0.856349 0.832761
0.043098 0.853523 0.829935
0.163485 0.850160 0.826572
0.283871 0.846796 0.823208
0.404257 0.843432 0.819844
0.524643 0.840068 0.816480
0.645030 0.836705 0.813117
0.765416 0.833341 0.809753
0.885802 0.829977 0.806389
0.000000 0.980003 0.825790
0.036128 0.977178 0.822965
0.156514 0.973814 0.819601
0.276900 0.970450 0.816237
0.397286 0.967086 0.812874
0.517673 0.963723 0.809510
0.638059 0.960359 0.806146
0.758445 0.956995 0.802782
0.878831 0.953631 0.799419
0.000000 0.000000 1.000000
0.090383 0.000000 1.000000
0.210769 0.000000 1.000000
0.331155 0.000000 1.000000
0.451541 0.000000 1.000000
0.571928 0.000000 1.000000
0.692314 0.000000 1.000000
0.812700 0.000000 1.000000
0.933086 0.000000 0.999377
0.000000 0.112913 1.000000
0.083412 0.110087 1.000000
0.203798 0.106723 1.000000
0.324185 0.103360 1.000000
0.444571 0.099996 1.000000
0.564957 0.096632 1.000000
0.685343 0.093268 0.999134
0.805730 0.089905 0.995770
0.926116 0.086541 0.992406
0.000000 0.236567 1.000000
0.076441 0.233741 1.000000
0.196828 0.230378 1.000000
0.317214 0.227014 1.000000
0.437600 0.223650 0.998891
0.557986 0.220286 0.995527
0.678373 0.216923 0.992163
0.798759 0.213559 0.988799
0.919145 0.210195 0.985436
0.000000 0.360221 1.000000
0.069471 0.357396 1.000000
0.189857 0.354032 0.998647
0.310243 0.350668 0.995284
0.430630 0.347305 0.991920
0.551016 0.343941 0.988556
0.671402 0.340577 0.985192
0.791788 0.337213 0.981829
0.912175 0.333850 0.978465
0.000000 0.483876 0.997866
0.062500 0.481050 0.995041
0.182886 0.477686 0.991677
0.303273 0.474323 0.988313
0.423659 0.470959 0.984949
0.544045 0.467595 0.981586
0.664431 0.464231 0.978222
0.784818 0.460868 0.974858
0.905204 0.457504 0.971494
0.000000 0.607530 0.990896
0.055530 0.604705 0.988070
0.175916 0.601341 0.984706
0.296302 0.597977 0.981342
0.416688 0.594613 0.977979
0.537075 0.591250 0.974615
0.657461 0.587886 0.971251
0.777847 0.584522 0.967887
0.898233 0.581158 0.964524
0.000000 0.731184 0.983925
0.048559 0.728359 0.981099
0.168945 0.724995 0.977736
0.289331 0.721631 0.974372
0.409718 0.718268 0.971008
0.530104 0.714904 0.967644
0.650490 0.711540 0.964281
0.770876 0.708176 0.960917
0.891263 0.704813 0.957553
0.000000 0.854839 0.976954
0.041588 0.852013 0.974129
0.161975 0.848650 0.970765
0.282361 0.845286 0.967401
0.402747 0.841922 0.964037
0.523133 0.838558 0.960674
0.643520 0.835195 0.957310
0.763906 0.831831 0.953946
0.884292 0.828467 0.950582
0.000000 0.978493 0.969984
0.034618 0.975668 0.967158
0.155004 0.972304 0.963794
0.275390 0.968940 0.960431
0.395776 0.965576 0.957067
0.516163 0.962213 0.953703
0.636549 0.958849 0.950339
0.756935 0.955485 0.946976
0.877321 0.952121 0.943612
0.000000 0.000000 1.000000
0.089724 0.000000 1.000000
0.210111 0.000000 1.000000
0.330497 0.000000 1.000000
0.450883 0.000000 1.000000
0.571269 0.000000 1.000000
0.691656 0.000000 1.000000
0.812042 0.000000 1.000000
0.932428 0.000000 1.000000
0.000000 0.112254 1.000000
0.082754 0.109429 1.000000
0.203140 0.106065 1.000000
0.323526 0.102701 1.000000
0.443913 0.099338 1.000000
0.564299 0.095974 1.000000
0.684685 0.092610 1.000000
0.805071 0.089246 1.000000
0.925458 0.085883 1.000000
0.000000 0.235909 1.000000
0.075783 0.233083 1.000000
0.196169 0.229719 1.000000
0.316556 0.226356 1.000000
0.436942 0.222992 1.000000
0.557328 0.219628 1.000000
0.677714 0.216264 1.000000
0.798101 0.212901 1.000000
0.918487 0.209537 1.000000
0.000000 0.359563 1.000000
0.068813 0.356738 1.000000
0.189199 0.353374 1.000000
0.309585 0.350010 1.000000
0.429971 0.346646 1.000000
0.550358 0.343283 1.000000
0.670744 0.339919 1.000000
0.791130 0.336555 1.000000
0.911516 0.333191 1.000000
0.000000 0.483217 1.000000
0.061842 0.480392 1.000000
0.182228 0.477028 1.000000
0.302614 0.473664 1.000000
0.423001 0.470301 1.000000
0.543387 0.466937 1.000000
0.663773 0.463573 1.000000
0.784159 0.460209 1.000000
0.904546 0.456846 1.000000
0.000000 0.606872 1.000000
0.054871 0.604046 1.000000
0.175258 0.600683 1.000000
0.295644 0.597319 1.000000
0.416030 0.593955 1.000000
0.536416 0.590591 1.000000
0.656803 0.587228 1.000000
0.777189 0.583864 1.000000
0.897575 0.580500 1.000000
0.000000 0.730526 1.000000
0.047901 0.727701 1.000000
0.168287 0.724337 1.000000
0.288673 0.720973 1.000000
0.409059 0.717609 1.000000
0.529446 0.714246 1.000000
0.649832 0.710882 1.000000
0.770218 0.707518 1.000000
0.890604 0.704154 1.000000
0.000000 0.854181 1.000000
0.040930 0.851355 1.000000
0.161316 0.847991 1.000000
0.281703 0.844628 1.000000
0.402089 0.841264 1.000000
0.522475 0.837900 1.000000
0.642861 0.834536 1.000000
0.763248 0.831173 1.000000
0.883634 0.827809 1.000000
0.000000 0.977835 1.000000
0.033959 0.975009 1.000000
0.154346 0.971646 1.000000
0.274732 0.968282 1.000000
0.395118 0.964918 1.000000
0.515504 0.961554 1.000000
0.635891 0.958191 1.000000
0.756277 0.954827 1.000000
0.876663 0.951463 1.000000
0.000000 0.000000 1.000000
0.089724 0.000000 1.000000
0.210111 0.000000 1.000000
0.330497 0.000000 1.000000
0.450883 0.000000 1.000000
0.571269 0.000000 1.000000
0.691656 0.000000 1.000000
0.812042 0.000000 1.000000
0.932428 0.000000 1.000000
0.000000 0.112254 1.000000
0.082754 0.109429 1.000000
0.203140 0.106065 1.000000
0.323526 0.102701 1.000000
0.443913 0.099338 1.000000
0.564299 0.095974 1.000000
0.684685 0.092610 1.000000
0.805071 0.089246 1.000000
0.925458 0.085883 1.000000
0.000000 0.235909 1.000000
0.075783 0.233083 1.000000
0.196169 0.229719 1.000000
0.316556 0.226356 1.000000
0.436942 0.222992 1.000000
0.557328 0.219628 1.000000
0.677714 0.216264 1.000000
0.798101 0.212901 1.000000
0.918487 0.209537 1.000000
0.000000 0.359563 1.000000
0.068813 0.356738 1.000000
0.189199 0.353374 1.000000
0.309585 0.350010 1.000000
0.429971 0.346646 1.000000
0.550358 0.343283 1.000000
0.670744 0.339919 1.000000
0.791130 0.336555 1.000000
0.911516 0.333191 1.000000
0.000000 0.483217 1.000000
0.061842 0.480392 1.000000
0.182228 0.477028 1.000000
0.302614 0.473664 1.000000
0.423001 0.470301 1.000000
0.543387 0.466937 1.000000
0.663773 0.463573 1.000000
0.784159 0.460209 1.000000
0.904546 0.456846 1.000000
0.000000 0.606872 1.000000
0.054871 0.604046 1.000000
0.175258 0.600683 1.000000
0.295644 0.597319 1.000000
0.416030 0.593955 1.000000
0.536416 0.590591 1.000000
0.656803 0.587228 1.000000
0.777189 0.583864 1.000000
0.897575 0.580500 1.000000
0.000000 0.730526 1.000000
0.047901 0.727701 1.000000
0.168287 0.724337 1.000000
0.288673 0.720973 1.000000
0.409059 0.717609 1.000000
0.529446 0.714246 1.000000
0.649832 0.710882 1.000000
0.770218 0.707518 1.000000
0.890604 0.704154 1.000000
0.000000 0.854181 1.000000
0.040930 0.851355 1.000000
0.161316 0.847991 1.000000
0.281703 0.844628 1.000000
0.402089 0.841264 1.000000
0.522475 0.837900 1.000000
0.642861 0.834536 1.000000
0.763248 0.831173 1.000000
0.883634 0.827809 1.000000
0.000000 0.977835 1.000000
0.033959 0.975009 1.000000
0.154346 0.971646 1.000000
0.274732 0.968282 1.000000
0.395118 0.964918 1.000000
0.515504 0.961554 1.000000
0.635891 0.958191 1.000000
0.756277 0.954827 1.000000
0.876663 0.951463 1.000000
