app/src/main/assets/luts/street_blue.cube
# ApexStudio filter: street_blue
LUT_3D_SIZE 5
DOMAIN_MIN 0.0 0.0 0.0
DOMAIN_MAX 1.0 1.0 1.0
0.000000 0.000000 0.133623
0.220111 0.000000 0.127433
0.460884 0.000000 0.120706
0.701656 0.000000 0.113978
0.942429 0.000000 0.107251
0.000000 0.245909 0.119681
0.206170 0.239720 0.113492
0.446943 0.232993 0.106765
0.687715 0.226265 0.100037
0.928488 0.219538 0.093310
0.000000 0.493218 0.105740
0.192229 0.487029 0.099551
0.433001 0.480301 0.092823
0.673774 0.473574 0.086096
0.914546 0.466846 0.079368
0.000000 0.740527 0.091799
0.178288 0.734338 0.085610
0.419060 0.727610 0.078882
0.659833 0.720883 0.072155
0.900605 0.714155 0.065427
0.000000 0.987836 0.077858
0.164346 0.981646 0.071668
0.405119 0.974919 0.064941
0.645891 0.968191 0.058213
0.886664 0.961464 0.051486
0.000000 0.000000 0.440596
0.216897 0.000000 0.434406
0.457669 0.000000 0.427679
0.698442 0.000000 0.420951
0.939214 0.000000 0.414224
0.000000 0.242695 0.426654
0.202955 0.236505 0.420465
0.443728 0.229778 0.413737
0.684500 0.223050 0.407010
0.925273 0.216323 0.400282
0.000000 0.490004 0.412713
0.189014 0.483814 0.406524
0.429787 0.477087 0.399796
0.670559 0.470359 0.393069
0.911332 0.463632 0.386341
0.000000 0.737312 0.398772
0.175073 0.731123 0.392582
0.415845 0.724395 0.385855
0.656618 0.717668 0.379127
0.897390 0.710940 0.372400
0.000000 0.984621 0.384831
0.161132 0.978432 0.378641
0.401904 0.971704 0.371914
0.642677 0.964977 0.365186
0.883449 0.958249 0.358459
0.000000 0.000000 0.736167
0.213801 0.000000 0.729978
0.454574 0.000000 0.723250
0.695346 0.000000 0.716523
0.936119 0.000000 0.709795
0.000000 0.239599 0.722226
0.199860 0.233410 0.716037
0.440633 0.226683 0.709309
0.681405 0.219955 0.702582
0.922178 0.213228 0.695854
0.000000 0.486908 0.708285
0.185919 0.480719 0.702095
0.426691 0.473991 0.695368
0.667464 0.467264 0.688640
0.908236 0.460536 0.681913
0.000000 0.734217 0.694343
0.171978 0.728028 0.688154
0.412750 0.721300 0.681427
0.653523 0.714573 0.674699
0.894295 0.707845 0.667972
0.000000 0.981526 0.680402
0.158036 0.975336 0.674213
0.398809 0.968609 0.667485
0.639581 0.961881 0.660758
0.880354 0.955154 0.654030
0.000000 0.000000 1.000000
0.210769 0.000000 1.000000
0.451541 0.000000 1.000000
0.692314 0.000000 1.000000
0.933086 0.000000 0.999377
0.000000 0.236567 1.000000
0.196828 0.230378 1.000000
0.437600 0.223650 0.998891
0.678373 0.216923 0.992163
0.919145 0.210195 0.985436
0.000000 0.483876 0.997866
0.182886 0.477686 0.991677
0.423659 0.470959 0.984949
0.664431 0.464231 0.978222
0.905204 0.457504 0.971494
0.000000 0.731184 0.983925
0.168945 0.724995 0.977736
0.409718 0.718268 0.971008
0.650490 0.711540 0.964281
0.891263 0.704813 0.957553
0.000000 0.978493 0.969984
0.155004 0.972304 0.963794
0.395776 0.965576 0.957067
0.636549 0.958849 0.950339
0.877321 0.952121 0.943612
0.000000 0.000000 1.000000
0.210111 0.000000 1.000000
0.450883 0.000000 1.000000
0.691656 0.000000 1.000000
0.932428 0.000000 1.000000
0.000000 0.235909 1.000000
0.196169 0.229719 1.000000
0.436942 0.222992 1.000000
0.677714 0.216264 1.000000
0.918487 0.209537 1.000000
0.000000 0.483217 1.000000
0.182228 0.477028 1.000000
0.423001 0.470301 1.000000
0.663773 0.463573 1.000000
0.904546 0.456846 1.000000
0.000000 0.730526 1.000000
0.168287 0.724337 1.000000
0.409059 0.717609 1.000000
0.649832 0.710882 1.000000
0.890604 0.704154 1.000000
0.000000 0.977835 1.000000
0.154346 0.971646 1.000000
0.395118 0.964918 1.000000
0.635891 0.958191 1.000000
0.876663 0.951463 1.000000
