app/src/main/assets/luts/studio_glow.cube
# ApexStudio filter: studio_glow
LUT_3D_SIZE 5
DOMAIN_MIN 0.0 0.0 0.0
DOMAIN_MAX 1.0 1.0 1.0
0.017092 0.016278 0.040571
0.264621 0.016278 0.040571
0.527528 0.016278 0.040571
0.797454 0.016278 0.040571
1.000000 0.016278 0.040571
0.017092 0.252020 0.040571
0.264621 0.252020 0.040571
0.527528 0.252020 0.040571
0.797454 0.252020 0.040571
1.000000 0.252020 0.040571
0.017092 0.502408 0.040571
0.264621 0.502408 0.040571
0.527528 0.502408 0.040571
0.797454 0.502408 0.040571
1.000000 0.502408 0.040571
0.017092 0.759480 0.040571
0.264621 0.759480 0.040571
0.527528 0.759480 0.040571
0.797454 0.759480 0.040571
1.000000 0.759480 0.040571
0.017092 1.000000 0.040571
0.264621 1.000000 0.040571
0.527528 1.000000 0.040571
0.797454 1.000000 0.040571
1.000000 1.000000 0.040571
0.017092 0.016278 0.267501
0.264621 0.016278 0.267501
0.527528 0.016278 0.267501
0.797454 0.016278 0.267501
1.000000 0.016278 0.267501
0.017092 0.252020 0.267501
0.264621 0.252020 0.267501
0.527528 0.252020 0.267501
0.797454 0.252020 0.267501
1.000000 0.252020 0.267501
0.017092 0.502408 0.267501
0.264621 0.502408 0.267501
0.527528 0.502408 0.267501
0.797454 0.502408 0.267501
1.000000 0.502408 0.267501
0.017092 0.759480 0.267501
0.264621 0.759480 0.267501
0.527528 0.759480 0.267501
0.797454 0.759480 0.267501
1.000000 0.759480 0.267501
0.017092 1.000000 0.267501
0.264621 1.000000 0.267501
0.527528 1.000000 0.267501
0.797454 1.000000 0.267501
1.000000 1.000000 0.267501
0.017092 0.016278 0.506315
0.264621 0.016278 0.506315
0.527528 0.016278 0.506315
0.797454 0.016278 0.506315
1.000000 0.016278 0.506315
0.017092 0.252020 0.506315
0.264621 0.252020 0.506315
0.527528 0.252020 0.506315
0.797454 0.252020 0.506315
1.000000 0.252020 0.506315
0.017092 0.502408 0.506315
0.264621 0.502408 0.506315
0.527528 0.502408 0.506315
0.797454 0.502408 0.506315
1.000000 0.502408 0.506315
0.017092 0.759480 0.506315
0.264621 0.759480 0.506315
0.527528 0.759480 0.506315
0.797454 0.759480 0.506315
1.000000 0.759480 0.506315
0.017092 1.000000 0.506315
0.264621 1.000000 0.506315
0.527528 1.000000 0.506315
0.797454 1.000000 0.506315
1.000000 1.000000 0.506315
0.017092 0.016278 0.751126
0.264621 0.016278 0.751126
0.527528 0.016278 0.751126
0.797454 0.016278 0.751126
1.000000 0.016278 0.751126
0.017092 0.252020 0.751126
0.264621 0.252020 0.751126
0.527528 0.252020 0.751126
0.797454 0.252020 0.751126
1.000000 0.252020 0.751126
0.017092 0.502408 0.751126
0.264621 0.502408 0.751126
0.527528 0.502408 0.751126
0.797454 0.502408 0.751126
1.000000 0.502408 0.751126
0.017092 0.759480 0.751126
0.264621 0.759480 0.751126
0.527528 0.759480 0.751126
0.797454 0.759480 0.751126
1.000000 0.759480 0.751126
0.017092 1.000000 0.751126
0.264621 1.000000 0.751126
0.527528 1.000000 0.751126
0.797454 1.000000 0.751126
1.000000 1.000000 0.751126
0.017092 0.016278 1.000000
0.264621 0.016278 1.000000
0.527528 0.016278 1.000000
0.797454 0.016278 1.000000
1.000000 0.016278 1.000000
0.017092 0.252020 1.000000
0.264621 0.252020 1.000000
0.527528 0.252020 1.000000
0.797454 0.252020 1.000000
1.000000 0.252020 1.000000
0.017092 0.502408 1.000000
0.264621 0.502408 1.000000
0.527528 0.502408 1.000000
0.797454 0.502408 1.000000
1.000000 0.502408 1.000000
0.017092 0.759480 1.000000
0.264621 0.759480 1.000000
0.527528 0.759480 1.000000
0.797454 0.759480 1.000000
1.000000 0.759480 1.000000
0.017092 1.000000 1.000000
0.264621 1.000000 1.000000
0.527528 1.000000 1.000000
0.797454 1.000000 1.000000
1.000000 1.000000 1.000000
