app/src/main/assets/luts/studio_glow.cube
# ApexStudio filter: studio_glow
LUT_3D_SIZE 17
DOMAIN_MIN 0.0 0.0 0.0
DOMAIN_MAX 1.0 1.0 1.0
0.017092 0.016278 0.040571
0.075965 0.016278 0.040571
0.137537 0.016278 0.040571
0.200568 0.016278 0.040571
0.264621 0.016278 0.040571
0.329467 0.016278 0.040571
0.394961 0.016278 0.040571
0.461006 0.016278 0.040571
0.527528 0.016278 0.040571
0.594473 0.016278 0.040571
0.661799 0.016278 0.040571
0.729469 0.016278 0.040571
0.797454 0.016278 0.040571
0.865732 0.016278 0.040571
0.934279 0.016278 0.040571
1.000000 0.016278 0.040571
1.000000 0.016278 0.040571
0.017092 0.072348 0.040571
0.075965 0.072348 0.040571
0.137537 0.072348 0.040571
0.200568 0.072348 0.040571
0.264621 0.072348 0.040571
0.329467 0.072348 0.040571
0.394961 0.072348 0.040571
0.461006 0.072348 0.040571
0.527528 0.072348 0.040571
0.594473 0.072348 0.040571
0.661799 0.072348 0.040571
0.729469 0.072348 0.040571
0.797454 0.072348 0.040571
0.865732 0.072348 0.040571
0.934279 0.072348 0.040571
1.000000 0.072348 0.040571
1.000000 0.072348 0.040571
0.017092 0.130987 0.040571
0.075965 0.130987 0.040571
0.137537 0.130987 0.040571
0.200568 0.130987 0.040571
0.264621 0.130987 0.040571
0.329467 0.130987 0.040571
0.394961 0.130987 0.040571
0.461006 0.130987 0.040571
0.527528 0.130987 0.040571
0.594473 0.130987 0.040571
0.661799 0.130987 0.040571
0.729469 0.130987 0.040571
0.797454 0.130987 0.040571
0.865732 0.130987 0.040571
0.934279 0.130987 0.040571
1.000000 0.130987 0.040571
1.000000 0.130987 0.040571
0.017092 0.191017 0.040571
0.075965 0.191017 0.040571
0.137537 0.191017 0.040571
0.200568 0.191017 0.040571
0.264621 0.191017 0.040571
0.329467 0.191017 0.040571
0.394961 0.191017 0.040571
0.461006 0.191017 0.040571
0.527528 0.191017 0.040571
0.594473 0.191017 0.040571
0.661799 0.191017 0.040571
0.729469 0.191017 0.040571
0.797454 0.191017 0.040571
0.865732 0.191017 0.040571
0.934279 0.191017 0.040571
1.000000 0.191017 0.040571
1.000000 0.191017 0.040571
0.017092 0.252020 0.040571
0.075965 0.252020 0.040571
0.137537 0.252020 0.040571
0.200568 0.252020 0.040571
0.264621 0.252020 0.040571
0.329467 0.252020 0.040571
0.394961 0.252020 0.040571
0.461006 0.252020 0.040571
0.527528 0.252020 0.040571
0.594473 0.252020 0.040571
0.661799 0.252020 0.040571
0.729469 0.252020 0.040571
0.797454 0.252020 0.040571
0.865732 0.252020 0.040571
0.934279 0.252020 0.040571
1.000000 0.252020 0.040571
1.000000 0.252020 0.040571
0.017092 0.313778 0.040571
0.075965 0.313778 0.040571
0.137537 0.313778 0.040571
0.200568 0.313778 0.040571
0.264621 0.313778 0.040571
0.329467 0.313778 0.040571
0.394961 0.313778 0.040571
0.461006 0.313778 0.040571
0.527528 0.313778 0.040571
0.594473 0.313778 0.040571
0.661799 0.313778 0.040571
0.729469 0.313778 0.040571
0.797454 0.313778 0.040571
0.865732 0.313778 0.040571
0.934279 0.313778 0.040571
1.000000 0.313778 0.040571
1.000000 0.313778 0.040571
0.017092 0.376154 0.040571
0.075965 0.376154 0.040571
0.137537 0.376154 0.040571
0.200568 0.376154 0.040571
0.264621 0.376154 0.040571
0.329467 0.376154 0.040571
0.394961 0.376154 0.040571
0.461006 0.376154 0.040571
0.527528 0.376154 0.040571
0.594473 0.376154 0.040571
0.661799 0.376154 0.040571
0.729469 0.376154 0.040571
0.797454 0.376154 0.040571
0.865732 0.376154 0.040571
0.934279 0.376154 0.040571
1.000000 0.376154 0.040571
1.000000 0.376154 0.040571
0.017092 0.439053 0.040571
0.075965 0.439053 0.040571
0.137537 0.439053 0.040571
0.200568 0.439053 0.040571
0.264621 0.439053 0.040571
0.329467 0.439053 0.040571
0.394961 0.439053 0.040571
0.461006 0.439053 0.040571
0.527528 0.439053 0.040571
0.594473 0.439053 0.040571
0.661799 0.439053 0.040571
0.729469 0.439053 0.040571
0.797454 0.439053 0.040571
0.865732 0.439053 0.040571
0.934279 0.439053 0.040571
1.000000 0.439053 0.040571
1.000000 0.439053 0.040571
0.017092 0.502408 0.040571
0.075965 0.502408 0.040571
0.137537 0.502408 0.040571
0.200568 0.502408 0.040571
0.264621 0.502408 0.040571
0.329467 0.502408 0.040571
0.394961 0.502408 0.040571
0.461006 0.502408 0.040571
0.527528 0.502408 0.040571
0.594473 0.502408 0.040571
0.661799 0.502408 0.040571
0.729469 0.502408 0.040571
0.797454 0.502408 0.040571
0.865732 0.502408 0.040571
0.934279 0.502408 0.040571
1.000000 0.502408 0.040571
1.000000 0.502408 0.040571
0.017092 0.566165 0.040571
0.075965 0.566165 0.040571
0.137537 0.566165 0.040571
0.200568 0.566165 0.040571
0.264621 0.566165 0.040571
0.329467 0.566165 0.040571
0.394961 0.566165 0.040571
0.461006 0.566165 0.040571
0.527528 0.566165 0.040571
0.594473 0.566165 0.040571
0.661799 0.566165 0.040571
0.729469 0.566165 0.040571
0.797454 0.566165 0.040571
0.865732 0.566165 0.040571
0.934279 0.566165 0.040571
1.000000 0.566165 0.040571
1.000000 0.566165 0.040571
0.017092 0.630284 0.040571
0.075965 0.630284 0.040571
0.137537 0.630284 0.040571
0.200568 0.630284 0.040571
0.264621 0.630284 0.040571
0.329467 0.630284 0.040571
0.394961 0.630284 0.040571
0.461006 0.630284 0.040571
0.527528 0.630284 0.040571
0.594473 0.630284 0.040571
0.661799 0.630284 0.040571
0.729469 0.630284 0.040571
0.797454 0.630284 0.040571
0.865732 0.630284 0.040571
0.934279 0.630284 0.040571
1.000000 0.630284 0.040571
1.000000 0.630284 0.040571
0.017092 0.694732 0.040571
0.075965 0.694732 0.040571
0.137537 0.694732 0.040571
0.200568 0.694732 0.040571
0.264621 0.694732 0.040571
0.329467 0.694732 0.040571
0.394961 0.694732 0.040571
0.461006 0.694732 0.040571
0.527528 0.694732 0.040571
0.594473 0.694732 0.040571
0.661799 0.694732 0.040571
0.729469 0.694732 0.040571
0.797454 0.694732 0.040571
0.865732 0.694732 0.040571
0.934279 0.694732 0.040571
1.000000 0.694732 0.040571
1.000000 0.694732 0.040571
0.017092 0.759480 0.040571
0.075965 0.759480 0.040571
0.137537 0.759480 0.040571
0.200568 0.759480 0.040571
0.264621 0.759480 0.040571
0.329467 0.759480 0.040571
0.394961 0.759480 0.040571
0.461006 0.759480 0.040571
0.527528 0.759480 0.040571
0.594473 0.759480 0.040571
0.661799 0.759480 0.040571
0.729469 0.759480 0.040571
0.797454 0.759480 0.040571
0.865732 0.759480 0.040571
0.934279 0.759480 0.040571
1.000000 0.759480 0.040571
1.000000 0.759480 0.040571
0.017092 0.824506 0.040571
0.075965 0.824506 0.040571
0.137537 0.824506 0.040571
0.200568 0.824506 0.040571
0.264621 0.824506 0.040571
0.329467 0.824506 0.040571
0.394961 0.824506 0.040571
0.461006 0.824506 0.040571
0.527528 0.824506 0.040571
0.594473 0.824506 0.040571
0.661799 0.824506 0.040571
0.729469 0.824506 0.040571
0.797454 0.824506 0.040571
0.865732 0.824506 0.040571
0.934279 0.824506 0.040571
1.000000 0.824506 0.040571
1.000000 0.824506 0.040571
0.017092 0.889790 0.040571
0.075965 0.889790 0.040571
0.137537 0.889790 0.040571
0.200568 0.889790 0.040571
0.264621 0.889790 0.040571
0.329467 0.889790 0.040571
0.394961 0.889790 0.040571
0.461006 0.889790 0.040571
0.527528 0.889790 0.040571
0.594473 0.889790 0.040571
0.661799 0.889790 0.040571
0.729469 0.889790 0.040571
0.797454 0.889790 0.040571
0.865732 0.889790 0.040571
0.934279 0.889790 0.040571
1.000000 0.889790 0.040571
1.000000 0.889790 0.040571
0.017092 0.955314 0.040571
0.075965 0.955314 0.040571
0.137537 0.955314 0.040571
0.200568 0.955314 0.040571
0.264621 0.955314 0.040571
0.329467 0.955314 0.040571
0.394961 0.955314 0.040571
0.461006 0.955314 0.040571
0.527528 0.955314 0.040571
0.594473 0.955314 0.040571
0.661799 0.955314 0.040571
0.729469 0.955314 0.040571
0.797454 0.955314 0.040571
0.865732 0.955314 0.040571
0.934279 0.955314 0.040571
1.000000 0.955314 0.040571
1.000000 0.955314 0.040571
0.017092 1.000000 0.040571
0.075965 1.000000 0.040571
0.137537 1.000000 0.040571
0.200568 1.000000 0.040571
0.264621 1.000000 0.040571
0.329467 1.000000 0.040571
0.394961 1.000000 0.040571
0.461006 1.000000 0.040571
0.527528 1.000000 0.040571
0.594473 1.000000 0.040571
0.661799 1.000000 0.040571
0.729469 1.000000 0.040571
0.797454 1.000000 0.040571
0.865732 1.000000 0.040571
0.934279 1.000000 0.040571
1.000000 1.000000 0.040571
1.000000 1.000000 0.040571
0.017092 0.016278 0.095266
0.075965 0.016278 0.095266
0.137537 0.016278 0.095266
0.200568 0.016278 0.095266
0.264621 0.016278 0.095266
0.329467 0.016278 0.095266
0.394961 0.016278 0.095266
0.461006 0.016278 0.095266
0.527528 0.016278 0.095266
0.594473 0.016278 0.095266
0.661799 0.016278 0.095266
0.729469 0.016278 0.095266
0.797454 0.016278 0.095266
0.865732 0.016278 0.095266
0.934279 0.016278 0.095266
1.000000 0.016278 0.095266
1.000000 0.016278 0.095266
0.017092 0.072348 0.095266
0.075965 0.072348 0.095266
0.137537 0.072348 0.095266
0.200568 0.072348 0.095266
0.264621 0.072348 0.095266
0.329467 0.072348 0.095266
0.394961 0.072348 0.095266
0.461006 0.072348 0.095266
0.527528 0.072348 0.095266
0.594473 0.072348 0.095266
0.661799 0.072348 0.095266
0.729469 0.072348 0.095266
0.797454 0.072348 0.095266
0.865732 0.072348 0.095266
0.934279 0.072348 0.095266
1.000000 0.072348 0.095266
1.000000 0.072348 0.095266
0.017092 0.130987 0.095266
0.075965 0.130987 0.095266
0.137537 0.130987 0.095266
0.200568 0.130987 0.095266
0.264621 0.130987 0.095266
0.329467 0.130987 0.095266
0.394961 0.130987 0.095266
0.461006 0.130987 0.095266
0.527528 0.130987 0.095266
0.594473 0.130987 0.095266
0.661799 0.130987 0.095266
0.729469 0.130987 0.095266
0.797454 0.130987 0.095266
0.865732 0.130987 0.095266
0.934279 0.130987 0.095266
1.000000 0.130987 0.095266
1.000000 0.130987 0.095266
0.017092 0.191017 0.095266
0.075965 0.191017 0.095266
0.137537 0.191017 0.095266
0.200568 0.191017 0.095266
0.264621 0.191017 0.095266
0.329467 0.191017 0.095266
0.394961 0.191017 0.095266
0.461006 0.191017 0.095266
0.527528 0.191017 0.095266
0.594473 0.191017 0.095266
0.661799 0.191017 0.095266
0.729469 0.191017 0.095266
0.797454 0.191017 0.095266
0.865732 0.191017 0.095266
0.934279 0.191017 0.095266
1.000000 0.191017 0.095266
1.000000 0.191017 0.095266
0.017092 0.252020 0.095266
0.075965 0.252020 0.095266
0.137537 0.252020 0.095266
0.200568 0.252020 0.095266
0.264621 0.252020 0.095266
0.329467 0.252020 0.095266
0.394961 0.252020 0.095266
0.461006 0.252020 0.095266
0.527528 0.252020 0.095266
0.594473 0.252020 0.095266
0.661799 0.252020 0.095266
0.729469 0.252020 0.095266
0.797454 0.252020 0.095266
0.865732 0.252020 0.095266
0.934279 0.252020 0.095266
1.000000 0.252020 0.095266
1.000000 0.252020 0.095266
0.017092 0.313778 0.095266
0.075965 0.313778 0.095266
0.137537 0.313778 0.095266
0.200568 0.313778 0.095266
0.264621 0.313778 0.095266
0.329467 0.313778 0.095266
0.394961 0.313778 0.095266
0.461006 0.313778 0.095266
0.527528 0.313778 0.095266
0.594473 0.313778 0.095266
0.661799 0.313778 0.095266
0.729469 0.313778 0.095266
0.797454 0.313778 0.095266
0.865732 0.313778 0.095266
0.934279 0.313778 0.095266
1.000000 0.313778 0.095266
1.000000 0.313778 0.095266
0.017092 0.376154 0.095266
0.075965 0.376154 0.095266
0.137537 0.376154 0.095266
0.200568 0.376154 0.095266
0.264621 0.376154 0.095266
0.329467 0.376154 0.095266
0.394961 0.376154 0.095266
0.461006 0.376154 0.095266
0.527528 0.376154 0.095266
0.594473 0.376154 0.095266
0.661799 0.376154 0.095266
0.729469 0.376154 0.095266
0.797454 0.376154 0.095266
0.865732 0.376154 0.095266
0.934279 0.376154 0.095266
1.000000 0.376154 0.095266
1.000000 0.376154 0.095266
0.017092 0.439053 0.095266
0.075965 0.439053 0.095266
0.137537 0.439053 0.095266
0.200568 0.439053 0.095266
0.264621 0.439053 0.095266
0.329467 0.439053 0.095266
0.394961 0.439053 0.095266
0.461006 0.439053 0.095266
0.527528 0.439053 0.095266
0.594473 0.439053 0.095266
0.661799 0.439053 0.095266
0.729469 0.439053 0.095266
0.797454 0.439053 0.095266
0.865732 0.439053 0.095266
0.934279 0.439053 0.095266
1.000000 0.439053 0.095266
1.000000 0.439053 0.095266
0.017092 0.502408 0.095266
0.075965 0.502408 0.095266
0.137537 0.502408 0.095266
0.200568 0.502408 0.095266
0.264621 0.502408 0.095266
0.329467 0.502408 0.095266
0.394961 0.502408 0.095266
0.461006 0.502408 0.095266
0.527528 0.502408 0.095266
0.594473 0.502408 0.095266
0.661799 0.502408 0.095266
0.729469 0.502408 0.095266
0.797454 0.502408 0.095266
0.865732 0.502408 0.095266
0.934279 0.502408 0.095266
1.000000 0.502408 0.095266
1.000000 0.502408 0.095266
0.017092 0.566165 0.095266
0.075965 0.566165 0.095266
0.137537 0.566165 0.095266
0.200568 0.566165 0.095266
0.264621 0.566165 0.095266
0.329467 0.566165 0.095266
0.394961 0.566165 0.095266
0.461006 0.566165 0.095266
0.527528 0.566165 0.095266
0.594473 0.566165 0.095266
0.661799 0.566165 0.095266
0.729469 0.566165 0.095266
0.797454 0.566165 0.095266
0.865732 0.566165 0.095266
0.934279 0.566165 0.095266
1.000000 0.566165 0.095266
1.000000 0.566165 0.095266
0.017092 0.630284 0.095266
0.075965 0.630284 0.095266
0.137537 0.630284 0.095266
0.200568 0.630284 0.095266
0.264621 0.630284 0.095266
0.329467 0.630284 0.095266
0.394961 0.630284 0.095266
0.461006 0.630284 0.095266
0.527528 0.630284 0.095266
0.594473 0.630284 0.095266
0.661799 0.630284 0.095266
0.729469 0.630284 0.095266
0.797454 0.630284 0.095266
0.865732 0.630284 0.095266
0.934279 0.630284 0.095266
1.000000 0.630284 0.095266
1.000000 0.630284 0.095266
0.017092 0.694732 0.095266
0.075965 0.694732 0.095266
0.137537 0.694732 0.095266
0.200568 0.694732 0.095266
0.264621 0.694732 0.095266
0.329467 0.694732 0.095266
0.394961 0.694732 0.095266
0.461006 0.694732 0.095266
0.527528 0.694732 0.095266
0.594473 0.694732 0.095266
0.661799 0.694732 0.095266
0.729469 0.694732 0.095266
0.797454 0.694732 0.095266
0.865732 0.694732 0.095266
0.934279 0.694732 0.095266
1.000000 0.694732 0.095266
1.000000 0.694732 0.095266
0.017092 0.759480 0.095266
0.075965 0.759480 0.095266
0.137537 0.759480 0.095266
0.200568 0.759480 0.095266
0.264621 0.759480 0.095266
0.329467 0.759480 0.095266
0.394961 0.759480 0.095266
0.461006 0.759480 0.095266
0.527528 0.759480 0.095266
0.594473 0.759480 0.095266
0.661799 0.759480 0.095266
0.729469 0.759480 0.095266
0.797454 0.759480 0.095266
0.865732 0.759480 0.095266
0.934279 0.759480 0.095266
1.000000 0.759480 0.095266
1.000000 0.759480 0.095266
0.017092 0.824506 0.095266
0.075965 0.824506 0.095266
0.137537 0.824506 0.095266
0.200568 0.824506 0.095266
0.264621 0.824506 0.095266
0.329467 0.824506 0.095266
0.394961 0.824506 0.095266
0.461006 0.824506 0.095266
0.527528 0.824506 0.095266
0.594473 0.824506 0.095266
0.661799 0.824506 0.095266
0.729469 0.824506 0.095266
0.797454 0.824506 0.095266
0.865732 0.824506 0.095266
0.934279 0.824506 0.095266
1.000000 0.824506 0.095266
1.000000 0.824506 0.095266
0.017092 0.889790 0.095266
0.075965 0.889790 0.095266
0.137537 0.889790 0.095266
0.200568 0.889790 0.095266
0.264621 0.889790 0.095266
0.329467 0.889790 0.095266
0.394961 0.889790 0.095266
0.461006 0.889790 0.095266
0.527528 0.889790 0.095266
0.594473 0.889790 0.095266
0.661799 0.889790 0.095266
0.729469 0.889790 0.095266
0.797454 0.889790 0.095266
0.865732 0.889790 0.095266
0.934279 0.889790 0.095266
1.000000 0.889790 0.095266
1.000000 0.889790 0.095266
0.017092 0.955314 0.095266
0.075965 0.955314 0.095266
0.137537 0.955314 0.095266
0.200568 0.955314 0.095266
0.264621 0.955314 0.095266
0.329467 0.955314 0.095266
0.394961 0.955314 0.095266
0.461006 0.955314 0.095266
0.527528 0.955314 0.095266
0.594473 0.955314 0.095266
0.661799 0.955314 0.095266
0.729469 0.955314 0.095266
0.797454 0.955314 0.095266
0.865732 0.955314 0.095266
0.934279 0.955314 0.095266
1.000000 0.955314 0.095266
1.000000 0.955314 0.095266
0.017092 1.000000 0.095266
0.075965 1.000000 0.095266
0.137537 1.000000 0.095266
0.200568 1.000000 0.095266
0.264621 1.000000 0.095266
0.329467 1.000000 0.095266
0.394961 1.000000 0.095266
0.461006 1.000000 0.095266
0.527528 1.000000 0.095266
0.594473 1.000000 0.095266
0.661799 1.000000 0.095266
0.729469 1.000000 0.095266
0.797454 1.000000 0.095266
0.865732 1.000000 0.095266
0.934279 1.000000 0.095266
1.000000 1.000000 0.095266
1.000000 1.000000 0.095266
0.017092 0.016278 0.151678
0.075965 0.016278 0.151678
0.137537 0.016278 0.151678
0.200568 0.016278 0.151678
0.264621 0.016278 0.151678
0.329467 0.016278 0.151678
0.394961 0.016278 0.151678
0.461006 0.016278 0.151678
0.527528 0.016278 0.151678
0.594473 0.016278 0.151678
0.661799 0.016278 0.151678
0.729469 0.016278 0.151678
0.797454 0.016278 0.151678
0.865732 0.016278 0.151678
0.934279 0.016278 0.151678
1.000000 0.016278 0.151678
1.000000 0.016278 0.151678
0.017092 0.072348 0.151678
0.075965 0.072348 0.151678
0.137537 0.072348 0.151678
0.200568 0.072348 0.151678
0.264621 0.072348 0.151678
0.329467 0.072348 0.151678
0.394961 0.072348 0.151678
0.461006 0.072348 0.151678
0.527528 0.072348 0.151678
0.594473 0.072348 0.151678
0.661799 0.072348 0.151678
0.729469 0.072348 0.151678
0.797454 0.072348 0.151678
0.865732 0.072348 0.151678
0.934279 0.072348 0.151678
1.000000 0.072348 0.151678
1.000000 0.072348 0.151678
0.017092 0.130987 0.151678
0.075965 0.130987 0.151678
0.137537 0.130987 0.151678
0.200568 0.130987 0.151678
0.264621 0.130987 0.151678
0.329467 0.130987 0.151678
0.394961 0.130987 0.151678
0.461006 0.130987 0.151678
0.527528 0.130987 0.151678
0.594473 0.130987 0.151678
0.661799 0.130987 0.151678
0.729469 0.130987 0.151678
0.797454 0.130987 0.151678
0.865732 0.130987 0.151678
0.934279 0.130987 0.151678
1.000000 0.130987 0.151678
1.000000 0.130987 0.151678
0.017092 0.191017 0.151678
0.075965 0.191017 0.151678
0.137537 0.191017 0.151678
0.200568 0.191017 0.151678
0.264621 0.191017 0.151678
0.329467 0.191017 0.151678
0.394961 0.191017 0.151678
0.461006 0.191017 0.151678
0.527528 0.191017 0.151678
0.594473 0.191017 0.151678
0.661799 0.191017 0.151678
0.729469 0.191017 0.151678
0.797454 0.191017 0.151678
0.865732 0.191017 0.151678
0.934279 0.191017 0.151678
1.000000 0.191017 0.151678
1.000000 0.191017 0.151678
0.017092 0.252020 0.151678
0.075965 0.252020 0.151678
0.137537 0.252020 0.151678
0.200568 0.252020 0.151678
0.264621 0.252020 0.151678
0.329467 0.252020 0.151678
0.394961 0.252020 0.151678
0.461006 0.252020 0.151678
0.527528 0.252020 0.151678
0.594473 0.252020 0.151678
0.661799 0.252020 0.151678
0.729469 0.252020 0.151678
0.797454 0.252020 0.151678
0.865732 0.252020 0.151678
0.934279 0.252020 0.151678
1.000000 0.252020 0.151678
1.000000 0.252020 0.151678
0.017092 0.313778 0.151678
0.075965 0.313778 0.151678
0.137537 0.313778 0.151678
0.200568 0.313778 0.151678
0.264621 0.313778 0.151678
0.329467 0.313778 0.151678
0.394961 0.313778 0.151678
0.461006 0.313778 0.151678
0.527528 0.313778 0.151678
0.594473 0.313778 0.151678
0.661799 0.313778 0.151678
0.729469 0.313778 0.151678
0.797454 0.313778 0.151678
0.865732 0.313778 0.151678
0.934279 0.313778 0.151678
1.000000 0.313778 0.151678
1.000000 0.313778 0.151678
0.017092 0.376154 0.151678
0.075965 0.376154 0.151678
0.137537 0.376154 0.151678
0.200568 0.376154 0.151678
0.264621 0.376154 0.151678
0.329467 0.376154 0.151678
0.394961 0.376154 0.151678
0.461006 0.376154 0.151678
0.527528 0.376154 0.151678
0.594473 0.376154 0.151678
0.661799 0.376154 0.151678
0.729469 0.376154 0.151678
0.797454 0.376154 0.151678
0.865732 0.376154 0.151678
0.934279 0.376154 0.151678
1.000000 0.376154 0.151678
1.000000 0.376154 0.151678
0.017092 0.439053 0.151678
0.075965 0.439053 0.151678
0.137537 0.439053 0.151678
0.200568 0.439053 0.151678
0.264621 0.439053 0.151678
0.329467 0.439053 0.151678
0.394961 0.439053 0.151678
0.461006 0.439053 0.151678
0.527528 0.439053 0.151678
0.594473 0.439053 0.151678
0.661799 0.439053 0.151678
0.729469 0.439053 0.151678
0.797454 0.439053 0.151678
0.865732 0.439053 0.151678
0.934279 0.439053 0.151678
1.000000 0.439053 0.151678
1.000000 0.439053 0.151678
0.017092 0.502408 0.151678
0.075965 0.502408 0.151678
0.137537 0.502408 0.151678
0.200568 0.502408 0.151678
0.264621 0.502408 0.151678
0.329467 0.502408 0.151678
0.394961 0.502408 0.151678
0.461006 0.502408 0.151678
0.527528 0.502408 0.151678
0.594473 0.502408 0.151678
0.661799 0.502408 0.151678
0.729469 0.502408 0.151678
0.797454 0.502408 0.151678
0.865732 0.502408 0.151678
0.934279 0.502408 0.151678
1.000000 0.502408 0.151678
1.000000 0.502408 0.151678
0.017092 0.566165 0.151678
0.075965 0.566165 0.151678
0.137537 0.566165 0.151678
0.200568 0.566165 0.151678
0.264621 0.566165 0.151678
0.329467 0.566165 0.151678
0.394961 0.566165 0.151678
0.461006 0.566165 0.151678
0.527528 0.566165 0.151678
0.594473 0.566165 0.151678
0.661799 0.566165 0.151678
0.729469 0.566165 0.151678
0.797454 0.566165 0.151678
0.865732 0.566165 0.151678
0.934279 0.566165 0.151678
1.000000 0.566165 0.151678
1.000000 0.566165 0.151678
0.017092 0.630284 0.151678
0.075965 0.630284 0.151678
0.137537 0.630284 0.151678
0.200568 0.630284 0.151678
0.264621 0.630284 0.151678
0.329467 0.630284 0.151678
0.394961 0.630284 0.151678
0.461006 0.630284 0.151678
0.527528 0.630284 0.151678
0.594473 0.630284 0.151678
0.661799 0.630284 0.151678
0.729469 0.630284 0.151678
0.797454 0.630284 0.151678
0.865732 0.630284 0.151678
0.934279 0.630284 0.151678
1.000000 0.630284 0.151678
1.000000 0.630284 0.151678
0.017092 0.694732 0.151678
0.075965 0.694732 0.151678
0.137537 0.694732 0.151678
0.200568 0.694732 0.151678
0.264621 0.694732 0.151678
0.329467 0.694732 0.151678
0.394961 0.694732 0.151678
0.461006 0.694732 0.151678
0.527528 0.694732 0.151678
0.594473 0.694732 0.151678
0.661799 0.694732 0.151678
0.729469 0.694732 0.151678
0.797454 0.694732 0.151678
0.865732 0.694732 0.151678
0.934279 0.694732 0.151678
1.000000 0.694732 0.151678
1.000000 0.694732 0.151678
0.017092 0.759480 0.151678
0.075965 0.759480 0.151678
0.137537 0.759480 0.151678
0.200568 0.759480 0.151678
0.264621 0.759480 0.151678
0.329467 0.759480 0.151678
0.394961 0.759480 0.151678
0.461006 0.759480 0.151678
0.527528 0.759480 0.151678
0.594473 0.759480 0.151678
0.661799 0.759480 0.151678
0.729469 0.759480 0.151678
0.797454 0.759480 0.151678
0.865732 0.759480 0.151678
0.934279 0.759480 0.151678
1.000000 0.759480 0.151678
1.000000 0.759480 0.151678
0.017092 0.824506 0.151678
0.075965 0.824506 0.151678
0.137537 0.824506 0.151678
0.200568 0.824506 0.151678
0.264621 0.824506 0.151678
0.329467 0.824506 0.151678
0.394961 0.824506 0.151678
0.461006 0.824506 0.151678
0.527528 0.824506 0.151678
0.594473 0.824506 0.151678
0.661799 0.824506 0.151678
0.729469 0.824506 0.151678
0.797454 0.824506 0.151678
0.865732 0.824506 0.151678
0.934279 0.824506 0.151678
1.000000 0.824506 0.151678
1.000000 0.824506 0.151678
0.017092 0.889790 0.151678
0.075965 0.889790 0.151678
0.137537 0.889790 0.151678
0.200568 0.889790 0.151678
0.264621 0.889790 0.151678
0.329467 0.889790 0.151678
0.394961 0.889790 0.151678
0.461006 0.889790 0.151678
0.527528 0.889790 0.151678
0.594473 0.889790 0.151678
0.661799 0.889790 0.151678
0.729469 0.889790 0.151678
0.797454 0.889790 0.151678
0.865732 0.889790 0.151678
0.934279 0.889790 0.151678
1.000000 0.889790 0.151678
1.000000 0.889790 0.151678
0.017092 0.955314 0.151678
0.075965 0.955314 0.151678
0.137537 0.955314 0.151678
0.200568 0.955314 0.151678
0.264621 0.955314 0.151678
0.329467 0.955314 0.151678
0.394961 0.955314 0.151678
0.461006 0.955314 0.151678
0.527528 0.955314 0.151678
0.594473 0.955314 0.151678
0.661799 0.955314 0.151678
0.729469 0.955314 0.151678
0.797454 0.955314 0.151678
0.865732 0.955314 0.151678
0.934279 0.955314 0.151678
1.000000 0.955314 0.151678
1.000000 0.955314 0.151678
0.017092 1.000000 0.151678
0.075965 1.000000 0.151678
0.137537 1.000000 0.151678
0.200568 1.000000 0.151678
0.264621 1.000000 0.151678
0.329467 1.000000 0.151678
0.394961 1.000000 0.151678
0.461006 1.000000 0.151678
0.527528 1.000000 0.151678
0.594473 1.000000 0.151678
0.661799 1.000000 0.151678
0.729469 1.000000 0.151678
0.797454 1.000000 0.151678
0.865732 1.000000 0.151678
0.934279 1.000000 0.151678
1.000000 1.000000 0.151678
1.000000 1.000000 0.151678
0.017092 0.016278 0.209183
0.075965 0.016278 0.209183
0.137537 0.016278 0.209183
0.200568 0.016278 0.209183
0.264621 0.016278 0.209183
0.329467 0.016278 0.209183
0.394961 0.016278 0.209183
0.461006 0.016278 0.209183
0.527528 0.016278 0.209183
0.594473 0.016278 0.209183
0.661799 0.016278 0.209183
0.729469 0.016278 0.209183
0.797454 0.016278 0.209183
0.865732 0.016278 0.209183
0.934279 0.016278 0.209183
1.000000 0.016278 0.209183
1.000000 0.016278 0.209183
0.017092 0.072348 0.209183
