app/src/main/assets/luts/studio_glow.cube
# ApexStudio filter: studio_glow
LUT_3D_SIZE 9
DOMAIN_MIN 0.0 0.0 0.0
DOMAIN_MAX 1.0 1.0 1.0
0.017092 0.016278 0.040571
0.137537 0.016278 0.040571
0.264621 0.016278 0.040571
0.394961 0.016278 0.040571
0.527528 0.016278 0.040571
0.661799 0.016278 0.040571
0.797454 0.016278 0.040571
0.934279 0.016278 0.040571
1.000000 0.016278 0.040571
0.017092 0.130987 0.040571
0.137537 0.130987 0.040571
0.264621 0.130987 0.040571
0.394961 0.130987 0.040571
0.527528 0.130987 0.040571
0.661799 0.130987 0.040571
0.797454 0.130987 0.040571
0.934279 0.130987 0.040571
1.000000 0.130987 0.040571
0.017092 0.252020 0.040571
0.137537 0.252020 0.040571
0.264621 0.252020 0.040571
0.394961 0.252020 0.040571
0.527528 0.252020 0.040571
0.661799 0.252020 0.040571
0.797454 0.252020 0.040571
0.934279 0.252020 0.040571
1.000000 0.252020 0.040571
0.017092 0.376154 0.040571
0.137537 0.376154 0.040571
0.264621 0.376154 0.040571
0.394961 0.376154 0.040571
0.527528 0.376154 0.040571
0.661799 0.376154 0.040571
0.797454 0.376154 0.040571
0.934279 0.376154 0.040571
1.000000 0.376154 0.040571
0.017092 0.502408 0.040571
0.137537 0.502408 0.040571
0.264621 0.502408 0.040571
0.394961 0.502408 0.040571
0.527528 0.502408 0.040571
0.661799 0.502408 0.040571
0.797454 0.502408 0.040571
0.934279 0.502408 0.040571
1.000000 0.502408 0.040571
0.017092 0.630284 0.040571
0.137537 0.630284 0.040571
0.264621 0.630284 0.040571
0.394961 0.630284 0.040571
0.527528 0.630284 0.040571
0.661799 0.630284 0.040571
0.797454 0.630284 0.040571
0.934279 0.630284 0.040571
1.000000 0.630284 0.040571
0.017092 0.759480 0.040571
0.137537 0.759480 0.040571
0.264621 0.759480 0.040571
0.394961 0.759480 0.040571
0.527528 0.759480 0.040571
0.661799 0.759480 0.040571
0.797454 0.759480 0.040571
0.934279 0.759480 0.040571
1.000000 0.759480 0.040571
0.017092 0.889790 0.040571
0.137537 0.889790 0.040571
0.264621 0.889790 0.040571
0.394961 0.889790 0.040571
0.527528 0.889790 0.040571
0.661799 0.889790 0.040571
0.797454 0.889790 0.040571
0.934279 0.889790 0.040571
1.000000 0.889790 0.040571
0.017092 1.000000 0.040571
0.137537 1.000000 0.040571
0.264621 1.000000 0.040571
0.394961 1.000000 0.040571
0.527528 1.000000 0.040571
0.661799 1.000000 0.040571
0.797454 1.000000 0.040571
0.934279 1.000000 0.040571
1.000000 1.000000 0.040571
0.017092 0.016278 0.151678
0.137537 0.016278 0.151678
0.264621 0.016278 0.151678
0.394961 0.016278 0.151678
0.527528 0.016278 0.151678
0.661799 0.016278 0.151678
0.797454 0.016278 0.151678
0.934279 0.016278 0.151678
1.000000 0.016278 0.151678
0.017092 0.130987 0.151678
0.137537 0.130987 0.151678
0.264621 0.130987 0.151678
0.394961 0.130987 0.151678
0.527528 0.130987 0.151678
0.661799 0.130987 0.151678
0.797454 0.130987 0.151678
0.934279 0.130987 0.151678
1.000000 0.130987 0.151678
0.017092 0.252020 0.151678
0.137537 0.252020 0.151678
0.264621 0.252020 0.151678
0.394961 0.252020 0.151678
0.527528 0.252020 0.151678
0.661799 0.252020 0.151678
0.797454 0.252020 0.151678
0.934279 0.252020 0.151678
1.000000 0.252020 0.151678
0.017092 0.376154 0.151678
0.137537 0.376154 0.151678
0.264621 0.376154 0.151678
0.394961 0.376154 0.151678
0.527528 0.376154 0.151678
0.661799 0.376154 0.151678
0.797454 0.376154 0.151678
0.934279 0.376154 0.151678
1.000000 0.376154 0.151678
0.017092 0.502408 0.151678
0.137537 0.502408 0.151678
0.264621 0.502408 0.151678
0.394961 0.502408 0.151678
0.527528 0.502408 0.151678
0.661799 0.502408 0.151678
0.797454 0.502408 0.151678
0.934279 0.502408 0.151678
1.000000 0.502408 0.151678
0.017092 0.630284 0.151678
0.137537 0.630284 0.151678
0.264621 0.630284 0.151678
0.394961 0.630284 0.151678
0.527528 0.630284 0.151678
0.661799 0.630284 0.151678
0.797454 0.630284 0.151678
0.934279 0.630284 0.151678
1.000000 0.630284 0.151678
0.017092 0.759480 0.151678
0.137537 0.759480 0.151678
0.264621 0.759480 0.151678
0.394961 0.759480 0.151678
0.527528 0.759480 0.151678
0.661799 0.759480 0.151678
0.797454 0.759480 0.151678
0.934279 0.759480 0.151678
1.000000 0.759480 0.151678
0.017092 0.889790 0.151678
0.137537 0.889790 0.151678
0.264621 0.889790 0.151678
0.394961 0.889790 0.151678
0.527528 0.889790 0.151678
0.661799 0.889790 0.151678
0.797454 0.889790 0.151678
0.934279 0.889790 0.151678
1.000000 0.889790 0.151678
0.017092 1.000000 0.151678
0.137537 1.000000 0.151678
0.264621 1.000000 0.151678
0.394961 1.000000 0.151678
0.527528 1.000000 0.151678
0.661799 1.000000 0.151678
0.797454 1.000000 0.151678
0.934279 1.000000 0.151678
1.000000 1.000000 0.151678
0.017092 0.016278 0.267501
0.137537 0.016278 0.267501
0.264621 0.016278 0.267501
0.394961 0.016278 0.267501
0.527528 0.016278 0.267501
0.661799 0.016278 0.267501
0.797454 0.016278 0.267501
0.934279 0.016278 0.267501
1.000000 0.016278 0.267501
0.017092 0.130987 0.267501
0.137537 0.130987 0.267501
0.264621 0.130987 0.267501
0.394961 0.130987 0.267501
0.527528 0.130987 0.267501
0.661799 0.130987 0.267501
0.797454 0.130987 0.267501
0.934279 0.130987 0.267501
1.000000 0.130987 0.267501
0.017092 0.252020 0.267501
0.137537 0.252020 0.267501
0.264621 0.252020 0.267501
0.394961 0.252020 0.267501
0.527528 0.252020 0.267501
0.661799 0.252020 0.267501
0.797454 0.252020 0.267501
0.934279 0.252020 0.267501
1.000000 0.252020 0.267501
0.017092 0.376154 0.267501
0.137537 0.376154 0.267501
0.264621 0.376154 0.267501
0.394961 0.376154 0.267501
0.527528 0.376154 0.267501
0.661799 0.376154 0.267501
0.797454 0.376154 0.267501
0.934279 0.376154 0.267501
1.000000 0.376154 0.267501
0.017092 0.502408 0.267501
0.137537 0.502408 0.267501
0.264621 0.502408 0.267501
0.394961 0.502408 0.267501
0.527528 0.502408 0.267501
0.661799 0.502408 0.267501
0.797454 0.502408 0.267501
0.934279 0.502408 0.267501
1.000000 0.502408 0.267501
0.017092 0.630284 0.267501
0.137537 0.630284 0.267501
0.264621 0.630284 0.267501
0.394961 0.630284 0.267501
0.527528 0.630284 0.267501
0.661799 0.630284 0.267501
0.797454 0.630284 0.267501
0.934279 0.630284 0.267501
1.000000 0.630284 0.267501
0.017092 0.759480 0.267501
0.137537 0.759480 0.267501
0.264621 0.759480 0.267501
0.394961 0.759480 0.267501
0.527528 0.759480 0.267501
0.661799 0.759480 0.267501
0.797454 0.759480 0.267501
0.934279 0.759480 0.267501
1.000000 0.759480 0.267501
0.017092 0.889790 0.267501
0.137537 0.889790 0.267501
0.264621 0.889790 0.267501
0.394961 0.889790 0.267501
0.527528 0.889790 0.267501
0.661799 0.889790 0.267501
0.797454 0.889790 0.267501
0.934279 0.889790 0.267501
1.000000 0.889790 0.267501
0.017092 1.000000 0.267501
0.137537 1.000000 0.267501
0.264621 1.000000 0.267501
0.394961 1.000000 0.267501
0.527528 1.000000 0.267501
0.661799 1.000000 0.267501
0.797454 1.000000 0.267501
0.934279 1.000000 0.267501
1.000000 1.000000 0.267501
0.017092 0.016278 0.385970
0.137537 0.016278 0.385970
0.264621 0.016278 0.385970
0.394961 0.016278 0.385970
0.527528 0.016278 0.385970
0.661799 0.016278 0.385970
0.797454 0.016278 0.385970
0.934279 0.016278 0.385970
1.000000 0.016278 0.385970
0.017092 0.130987 0.385970
0.137537 0.130987 0.385970
0.264621 0.130987 0.385970
0.394961 0.130987 0.385970
0.527528 0.130987 0.385970
0.661799 0.130987 0.385970
0.797454 0.130987 0.385970
0.934279 0.130987 0.385970
1.000000 0.130987 0.385970
0.017092 0.252020 0.385970
0.137537 0.252020 0.385970
0.264621 0.252020 0.385970
0.394961 0.252020 0.385970
0.527528 0.252020 0.385970
0.661799 0.252020 0.385970
0.797454 0.252020 0.385970
0.934279 0.252020 0.385970
1.000000 0.252020 0.385970
0.017092 0.376154 0.385970
0.137537 0.376154 0.385970
0.264621 0.376154 0.385970
0.394961 0.376154 0.385970
0.527528 0.376154 0.385970
0.661799 0.376154 0.385970
0.797454 0.376154 0.385970
0.934279 0.376154 0.385970
1.000000 0.376154 0.385970
0.017092 0.502408 0.385970
0.137537 0.502408 0.385970
0.264621 0.502408 0.385970
0.394961 0.502408 0.385970
0.527528 0.502408 0.385970
0.661799 0.502408 0.385970
0.797454 0.502408 0.385970
0.934279 0.502408 0.385970
1.000000 0.502408 0.385970
0.017092 0.630284 0.385970
0.137537 0.630284 0.385970
0.264621 0.630284 0.385970
0.394961 0.630284 0.385970
0.527528 0.630284 0.385970
0.661799 0.630284 0.385970
0.797454 0.630284 0.385970
0.934279 0.630284 0.385970
1.000000 0.630284 0.385970
0.017092 0.759480 0.385970
0.137537 0.759480 0.385970
0.264621 0.759480 0.385970
0.394961 0.759480 0.385970
0.527528 0.759480 0.385970
0.661799 0.759480 0.385970
0.797454 0.759480 0.385970
0.934279 0.759480 0.385970
1.000000 0.759480 0.385970
0.017092 0.889790 0.385970
0.137537 0.889790 0.385970
0.264621 0.889790 0.385970
0.394961 0.889790 0.385970
0.527528 0.889790 0.385970
0.661799 0.889790 0.385970
0.797454 0.889790 0.385970
0.934279 0.889790 0.385970
1.000000 0.889790 0.385970
0.017092 1.000000 0.385970
0.137537 1.000000 0.385970
0.264621 1.000000 0.385970
0.394961 1.000000 0.385970
0.527528 1.000000 0.385970
0.661799 1.000000 0.385970
0.797454 1.000000 0.385970
0.934279 1.000000 0.385970
1.000000 1.000000 0.385970
0.017092 0.016278 0.506315
0.137537 0.016278 0.506315
0.264621 0.016278 0.506315
0.394961 0.016278 0.506315
0.527528 0.016278 0.506315
0.661799 0.016278 0.506315
0.797454 0.016278 0.506315
0.934279 0.016278 0.506315
1.000000 0.016278 0.506315
0.017092 0.130987 0.506315
0.137537 0.130987 0.506315
0.264621 0.130987 0.506315
0.394961 0.130987 0.506315
0.527528 0.130987 0.506315
0.661799 0.130987 0.506315
0.797454 0.130987 0.506315
0.934279 0.130987 0.506315
1.000000 0.130987 0.506315
0.017092 0.252020 0.506315
0.137537 0.252020 0.506315
0.264621 0.252020 0.506315
0.394961 0.252020 0.506315
0.527528 0.252020 0.506315
0.661799 0.252020 0.506315
0.797454 0.252020 0.506315
0.934279 0.252020 0.506315
1.000000 0.252020 0.506315
0.017092 0.376154 0.506315
0.137537 0.376154 0.506315
0.264621 0.376154 0.506315
0.394961 0.376154 0.506315
0.527528 0.376154 0.506315
0.661799 0.376154 0.506315
0.797454 0.376154 0.506315
0.934279 0.376154 0.506315
1.000000 0.376154 0.506315
0.017092 0.502408 0.506315
0.137537 0.502408 0.506315
0.264621 0.502408 0.506315
0.394961 0.502408 0.506315
0.527528 0.502408 0.506315
0.661799 0.502408 0.506315
0.797454 0.502408 0.506315
0.934279 0.502408 0.506315
1.000000 0.502408 0.506315
0.017092 0.630284 0.506315
0.137537 0.630284 0.506315
0.264621 0.630284 0.506315
0.394961 0.630284 0.506315
0.527528 0.630284 0.506315
0.661799 0.630284 0.506315
0.797454 0.630284 0.506315
0.934279 0.630284 0.506315
1.000000 0.630284 0.506315
0.017092 0.759480 0.506315
0.137537 0.759480 0.506315
0.264621 0.759480 0.506315
0.394961 0.759480 0.506315
0.527528 0.759480 0.506315
0.661799 0.759480 0.506315
0.797454 0.759480 0.506315
0.934279 0.759480 0.506315
1.000000 0.759480 0.506315
0.017092 0.889790 0.506315
0.137537 0.889790 0.506315
0.264621 0.889790 0.506315
0.394961 0.889790 0.506315
0.527528 0.889790 0.506315
0.661799 0.889790 0.506315
0.797454 0.889790 0.506315
0.934279 0.889790 0.506315
1.000000 0.889790 0.506315
0.017092 1.000000 0.506315
0.137537 1.000000 0.506315
0.264621 1.000000 0.506315
0.394961 1.000000 0.506315
0.527528 1.000000 0.506315
0.661799 1.000000 0.506315
0.797454 1.000000 0.506315
0.934279 1.000000 0.506315
1.000000 1.000000 0.506315
0.017092 0.016278 0.628121
0.137537 0.016278 0.628121
0.264621 0.016278 0.628121
0.394961 0.016278 0.628121
0.527528 0.016278 0.628121
0.661799 0.016278 0.628121
0.797454 0.016278 0.628121
0.934279 0.016278 0.628121
1.000000 0.016278 0.628121
0.017092 0.130987 0.628121
0.137537 0.130987 0.628121
0.264621 0.130987 0.628121
0.394961 0.130987 0.628121
0.527528 0.130987 0.628121
0.661799 0.130987 0.628121
0.797454 0.130987 0.628121
0.934279 0.130987 0.628121
1.000000 0.130987 0.628121
0.017092 0.252020 0.628121
0.137537 0.252020 0.628121
0.264621 0.252020 0.628121
0.394961 0.252020 0.628121
0.527528 0.252020 0.628121
0.661799 0.252020 0.628121
0.797454 0.252020 0.628121
0.934279 0.252020 0.628121
1.000000 0.252020 0.628121
0.017092 0.376154 0.628121
0.137537 0.376154 0.628121
0.264621 0.376154 0.628121
0.394961 0.376154 0.628121
0.527528 0.376154 0.628121
0.661799 0.376154 0.628121
0.797454 0.376154 0.628121
0.934279 0.376154 0.628121
1.000000 0.376154 0.628121
0.017092 0.502408 0.628121
0.137537 0.502408 0.628121
0.264621 0.502408 0.628121
0.394961 0.502408 0.628121
0.527528 0.502408 0.628121
0.661799 0.502408 0.628121
0.797454 0.502408 0.628121
0.934279 0.502408 0.628121
1.000000 0.502408 0.628121
0.017092 0.630284 0.628121
0.137537 0.630284 0.628121
0.264621 0.630284 0.628121
0.394961 0.630284 0.628121
0.527528 0.630284 0.628121
0.661799 0.630284 0.628121
0.797454 0.630284 0.628121
0.934279 0.630284 0.628121
1.000000 0.630284 0.628121
0.017092 0.759480 0.628121
0.137537 0.759480 0.628121
0.264621 0.759480 0.628121
0.394961 0.759480 0.628121
0.527528 0.759480 0.628121
0.661799 0.759480 0.628121
0.797454 0.759480 0.628121
0.934279 0.759480 0.628121
1.000000 0.759480 0.628121
0.017092 0.889790 0.628121
0.137537 0.889790 0.628121
0.264621 0.889790 0.628121
0.394961 0.889790 0.628121
0.527528 0.889790 0.628121
0.661799 0.889790 0.628121
0.797454 0.889790 0.628121
0.934279 0.889790 0.628121
1.000000 0.889790 0.628121
0.017092 1.000000 0.628121
0.137537 1.000000 0.628121
0.264621 1.000000 0.628121
0.394961 1.000000 0.628121
0.527528 1.000000 0.628121
0.661799 1.000000 0.628121
0.797454 1.000000 0.628121
0.934279 1.000000 0.628121
1.000000 1.000000 0.628121
0.017092 0.016278 0.751126
0.137537 0.016278 0.751126
0.264621 0.016278 0.751126
0.394961 0.016278 0.751126
0.527528 0.016278 0.751126
0.661799 0.016278 0.751126
0.797454 0.016278 0.751126
0.934279 0.016278 0.751126
1.000000 0.016278 0.751126
0.017092 0.130987 0.751126
0.137537 0.130987 0.751126
0.264621 0.130987 0.751126
0.394961 0.130987 0.751126
0.527528 0.130987 0.751126
0.661799 0.130987 0.751126
0.797454 0.130987 0.751126
0.934279 0.130987 0.751126
1.000000 0.130987 0.751126
0.017092 0.252020 0.751126
0.137537 0.252020 0.751126
0.264621 0.252020 0.751126
0.394961 0.252020 0.751126
0.527528 0.252020 0.751126
0.661799 0.252020 0.751126
0.797454 0.252020 0.751126
0.934279 0.252020 0.751126
1.000000 0.252020 0.751126
0.017092 0.376154 0.751126
0.137537 0.376154 0.751126
0.264621 0.376154 0.751126
0.394961 0.376154 0.751126
0.527528 0.376154 0.751126
0.661799 0.376154 0.751126
0.797454 0.376154 0.751126
0.934279 0.376154 0.751126
1.000000 0.376154 0.751126
0.017092 0.502408 0.751126
0.137537 0.502408 0.751126
0.264621 0.502408 0.751126
0.394961 0.502408 0.751126
0.527528 0.502408 0.751126
0.661799 0.502408 0.751126
0.797454 0.502408 0.751126
0.934279 0.502408 0.751126
1.000000 0.502408 0.751126
0.017092 0.630284 0.751126
0.137537 0.630284 0.751126
0.264621 0.630284 0.751126
0.394961 0.630284 0.751126
0.527528 0.630284 0.751126
0.661799 0.630284 0.751126
0.797454 0.630284 0.751126
0.934279 0.630284 0.751126
1.000000 0.630284 0.751126
0.017092 0.759480 0.751126
0.137537 0.759480 0.751126
0.264621 0.759480 0.751126
0.394961 0.759480 0.751126
0.527528 0.759480 0.751126
0.661799 0.759480 0.751126
0.797454 0.759480 0.751126
0.934279 0.759480 0.751126
1.000000 0.759480 0.751126
0.017092 0.889790 0.751126
0.137537 0.889790 0.751126
0.264621 0.889790 0.751126
0.394961 0.889790 0.751126
0.527528 0.889790 0.751126
0.661799 0.889790 0.751126
0.797454 0.889790 0.751126
0.934279 0.889790 0.751126
1.000000 0.889790 0.751126
0.017092 1.000000 0.751126
0.137537 1.000000 0.751126
0.264621 1.000000 0.751126
0.394961 1.000000 0.751126
0.527528 1.000000 0.751126
0.661799 1.000000 0.751126
0.797454 1.000000 0.751126
0.934279 1.000000 0.751126
1.000000 1.000000 0.751126
0.017092 0.016278 0.875152
0.137537 0.016278 0.875152
0.264621 0.016278 0.875152
0.394961 0.016278 0.875152
0.527528 0.016278 0.875152
0.661799 0.016278 0.875152
0.797454 0.016278 0.875152
0.934279 0.016278 0.875152
1.000000 0.016278 0.875152
0.017092 0.130987 0.875152
0.137537 0.130987 0.875152
0.264621 0.130987 0.875152
0.394961 0.130987 0.875152
0.527528 0.130987 0.875152
0.661799 0.130987 0.875152
0.797454 0.130987 0.875152
0.934279 0.130987 0.875152
1.000000 0.130987 0.875152
0.017092 0.252020 0.875152
0.137537 0.252020 0.875152
0.264621 0.252020 0.875152
0.394961 0.252020 0.875152
0.527528 0.252020 0.875152
0.661799 0.252020 0.875152
0.797454 0.252020 0.875152
0.934279 0.252020 0.875152
1.000000 0.252020 0.875152
0.017092 0.376154 0.875152
0.137537 0.376154 0.875152
0.264621 0.376154 0.875152
0.394961 0.376154 0.875152
0.527528 0.376154 0.875152
0.661799 0.376154 0.875152
0.797454 0.376154 0.875152
0.934279 0.376154 0.875152
1.000000 0.376154 0.875152
0.017092 0.502408 0.875152
0.137537 0.502408 0.875152
0.264621 0.502408 0.875152
0.394961 0.502408 0.875152
0.527528 0.502408 0.875152
0.661799 0.502408 0.875152
0.797454 0.502408 0.875152
0.934279 0.502408 0.875152
1.000000 0.502408 0.875152
0.017092 0.630284 0.875152
0.137537 0.630284 0.875152
0.264621 0.630284 0.875152
0.394961 0.630284 0.875152
0.527528 0.630284 0.875152
0.661799 0.630284 0.875152
0.797454 0.630284 0.875152
0.934279 0.630284 0.875152
1.000000 0.630284 0.875152
0.017092 0.759480 0.875152
0.137537 0.759480 0.875152
0.264621 0.759480 0.875152
0.394961 0.759480 0.875152
0.527528 0.759480 0.875152
0.661799 0.759480 0.875152
0.797454 0.759480 0.875152
0.934279 0.759480 0.875152
1.000000 0.759480 0.875152
0.017092 0.889790 0.875152
0.137537 0.889790 0.875152
0.264621 0.889790 0.875152
0.394961 0.889790 0.875152
0.527528 0.889790 0.875152
0.661799 0.889790 0.875152
0.797454 0.889790 0.875152
0.934279 0.889790 0.875152
1.000000 0.889790 0.875152
0.017092 1.000000 0.875152
0.137537 1.000000 0.875152
0.264621 1.000000 0.875152
0.394961 1.000000 0.875152
0.527528 1.000000 0.875152
0.661799 1.000000 0.875152
0.797454 1.000000 0.875152
0.934279 1.000000 0.875152
1.000000 1.000000 0.875152
0.017092 0.016278 1.000000
0.137537 0.016278 1.000000
0.264621 0.016278 1.000000
0.394961 0.016278 1.000000
0.527528 0.016278 1.000000
0.661799 0.016278 1.000000
0.797454 0.016278 1.000000
0.934279 0.016278 1.000000
1.000000 0.016278 1.000000
0.017092 0.130987 1.000000
0.137537 0.130987 1.000000
0.264621 0.130987 1.000000
0.394961 0.130987 1.000000
0.527528 0.130987 1.000000
0.661799 0.130987 1.000000
0.797454 0.130987 1.000000
0.934279 0.130987 1.000000
1.000000 0.130987 1.000000
0.017092 0.252020 1.000000
0.137537 0.252020 1.000000
0.264621 0.252020 1.000000
0.394961 0.252020 1.000000
0.527528 0.252020 1.000000
0.661799 0.252020 1.000000
0.797454 0.252020 1.000000
0.934279 0.252020 1.000000
1.000000 0.252020 1.000000
0.017092 0.376154 1.000000
0.137537 0.376154 1.000000
0.264621 0.376154 1.000000
0.394961 0.376154 1.000000
0.527528 0.376154 1.000000
0.661799 0.376154 1.000000
0.797454 0.376154 1.000000
0.934279 0.376154 1.000000
1.000000 0.376154 1.000000
0.017092 0.502408 1.000000
0.137537 0.502408 1.000000
0.264621 0.502408 1.000000
0.394961 0.502408 1.000000
0.527528 0.502408 1.000000
0.661799 0.502408 1.000000
0.797454 0.502408 1.000000
0.934279 0.502408 1.000000
1.000000 0.502408 1.000000
0.017092 0.630284 1.000000
0.137537 0.630284 1.000000
0.264621 0.630284 1.000000
0.394961 0.630284 1.000000
0.527528 0.630284 1.000000
0.661799 0.630284 1.000000
0.797454 0.630284 1.000000
0.934279 0.630284 1.000000
1.000000 0.630284 1.000000
0.017092 0.759480 1.000000
0.137537 0.759480 1.000000
0.264621 0.759480 1.000000
0.394961 0.759480 1.000000
0.527528 0.759480 1.000000
0.661799 0.759480 1.000000
0.797454 0.759480 1.000000
0.934279 0.759480 1.000000
1.000000 0.759480 1.000000
0.017092 0.889790 1.000000
0.137537 0.889790 1.000000
0.264621 0.889790 1.000000
0.394961 0.889790 1.000000
0.527528 0.889790 1.000000
0.661799 0.889790 1.000000
0.797454 0.889790 1.000000
0.934279 0.889790 1.000000
1.000000 0.889790 1.000000
0.017092 1.000000 1.000000
0.137537 1.000000 1.000000
0.264621 1.000000 1.000000
0.394961 1.000000 1.000000
0.527528 1.000000 1.000000
0.661799 1.000000 1.000000
0.797454 1.000000 1.000000
0.934279 1.000000 1.000000
1.000000 1.000000 1.000000
