app/src/main/assets/luts/subway_light.cube
# ApexStudio filter: subway_light
LUT_3D_SIZE 17
DOMAIN_MIN 0.0 0.0 0.0
DOMAIN_MAX 1.0 1.0 1.0
0.007500 0.000000 0.000000
0.070000 0.000000 0.000000
0.132500 0.000000 0.000000
0.195000 0.000000 0.000000
0.257500 0.000000 0.000000
0.320000 0.000000 0.000000
0.382500 0.000000 0.000000
0.445000 0.000000 0.000000
0.507500 0.000000 0.000000
0.570000 0.000000 0.000000
0.632500 0.000000 0.000000
0.695000 0.000000 0.000000
0.757500 0.000000 0.000000
0.820000 0.000000 0.000000
0.882500 0.000000 0.000000
0.945000 0.000000 0.000000
1.000000 0.000000 0.000000
0.007500 0.060000 0.000000
0.070000 0.060000 0.000000
0.132500 0.060000 0.000000
0.195000 0.060000 0.000000
0.257500 0.060000 0.000000
0.320000 0.060000 0.000000
0.382500 0.060000 0.000000
0.445000 0.060000 0.000000
0.507500 0.060000 0.000000
0.570000 0.060000 0.000000
0.632500 0.060000 0.000000
0.695000 0.060000 0.000000
0.757500 0.060000 0.000000
0.820000 0.060000 0.000000
0.882500 0.060000 0.000000
0.945000 0.060000 0.000000
1.000000 0.060000 0.000000
0.007500 0.122500 0.000000
0.070000 0.122500 0.000000
0.132500 0.122500 0.000000
0.195000 0.122500 0.000000
0.257500 0.122500 0.000000
0.320000 0.122500 0.000000
0.382500 0.122500 0.000000
0.445000 0.122500 0.000000
0.507500 0.122500 0.000000
0.570000 0.122500 0.000000
0.632500 0.122500 0.000000
0.695000 0.122500 0.000000
0.757500 0.122500 0.000000
0.820000 0.122500 0.000000
0.882500 0.122500 0.000000
0.945000 0.122500 0.000000
1.000000 0.122500 0.000000
0.007500 0.185000 0.000000
0.070000 0.185000 0.000000
0.132500 0.185000 0.000000
0.195000 0.185000 0.000000
0.257500 0.185000 0.000000
0.320000 0.185000 0.000000
0.382500 0.185000 0.000000
0.445000 0.185000 0.000000
0.507500 0.185000 0.000000
0.570000 0.185000 0.000000
0.632500 0.185000 0.000000
0.695000 0.185000 0.000000
0.757500 0.185000 0.000000
0.820000 0.185000 0.000000
0.882500 0.185000 0.000000
0.945000 0.185000 0.000000
1.000000 0.185000 0.000000
0.007500 0.247500 0.000000
0.070000 0.247500 0.000000
0.132500 0.247500 0.000000
0.195000 0.247500 0.000000
0.257500 0.247500 0.000000
0.320000 0.247500 0.000000
0.382500 0.247500 0.000000
0.445000 0.247500 0.000000
0.507500 0.247500 0.000000
0.570000 0.247500 0.000000
0.632500 0.247500 0.000000
0.695000 0.247500 0.000000
0.757500 0.247500 0.000000
0.820000 0.247500 0.000000
0.882500 0.247500 0.000000
0.945000 0.247500 0.000000
1.000000 0.247500 0.000000
0.007500 0.310000 0.000000
0.070000 0.310000 0.000000
0.132500 0.310000 0.000000
0.195000 0.310000 0.000000
0.257500 0.310000 0.000000
0.320000 0.310000 0.000000
0.382500 0.310000 0.000000
0.445000 0.310000 0.000000
0.507500 0.310000 0.000000
0.570000 0.310000 0.000000
0.632500 0.310000 0.000000
0.695000 0.310000 0.000000
0.757500 0.310000 0.000000
0.820000 0.310000 0.000000
0.882500 0.310000 0.000000
0.945000 0.310000 0.000000
1.000000 0.310000 0.000000
0.007500 0.372500 0.000000
0.070000 0.372500 0.000000
0.132500 0.372500 0.000000
0.195000 0.372500 0.000000
0.257500 0.372500 0.000000
0.320000 0.372500 0.000000
0.382500 0.372500 0.000000
0.445000 0.372500 0.000000
0.507500 0.372500 0.000000
0.570000 0.372500 0.000000
0.632500 0.372500 0.000000
0.695000 0.372500 0.000000
0.757500 0.372500 0.000000
0.820000 0.372500 0.000000
0.882500 0.372500 0.000000
0.945000 0.372500 0.000000
1.000000 0.372500 0.000000
0.007500 0.435000 0.000000
0.070000 0.435000 0.000000
0.132500 0.435000 0.000000
0.195000 0.435000 0.000000
0.257500 0.435000 0.000000
0.320000 0.435000 0.000000
0.382500 0.435000 0.000000
0.445000 0.435000 0.000000
0.507500 0.435000 0.000000
0.570000 0.435000 0.000000
0.632500 0.435000 0.000000
0.695000 0.435000 0.000000
0.757500 0.435000 0.000000
0.820000 0.435000 0.000000
0.882500 0.435000 0.000000
0.945000 0.435000 0.000000
1.000000 0.435000 0.000000
0.007500 0.497500 0.000000
0.070000 0.497500 0.000000
0.132500 0.497500 0.000000
0.195000 0.497500 0.000000
0.257500 0.497500 0.000000
0.320000 0.497500 0.000000
0.382500 0.497500 0.000000
0.445000 0.497500 0.000000
0.507500 0.497500 0.000000
0.570000 0.497500 0.000000
0.632500 0.497500 0.000000
0.695000 0.497500 0.000000
0.757500 0.497500 0.000000
0.820000 0.497500 0.000000
0.882500 0.497500 0.000000
0.945000 0.497500 0.000000
1.000000 0.497500 0.000000
0.007500 0.560000 0.000000
0.070000 0.560000 0.000000
0.132500 0.560000 0.000000
0.195000 0.560000 0.000000
0.257500 0.560000 0.000000
0.320000 0.560000 0.000000
0.382500 0.560000 0.000000
0.445000 0.560000 0.000000
0.507500 0.560000 0.000000
0.570000 0.560000 0.000000
0.632500 0.560000 0.000000
0.695000 0.560000 0.000000
0.757500 0.560000 0.000000
0.820000 0.560000 0.000000
0.882500 0.560000 0.000000
0.945000 0.560000 0.000000
1.000000 0.560000 0.000000
0.007500 0.622500 0.000000
0.070000 0.622500 0.000000
0.132500 0.622500 0.000000
0.195000 0.622500 0.000000
0.257500 0.622500 0.000000
0.320000 0.622500 0.000000
0.382500 0.622500 0.000000
0.445000 0.622500 0.000000
0.507500 0.622500 0.000000
0.570000 0.622500 0.000000
0.632500 0.622500 0.000000
0.695000 0.622500 0.000000
0.757500 0.622500 0.000000
0.820000 0.622500 0.000000
0.882500 0.622500 0.000000
0.945000 0.622500 0.000000
1.000000 0.622500 0.000000
0.007500 0.685000 0.000000
0.070000 0.685000 0.000000
0.132500 0.685000 0.000000
0.195000 0.685000 0.000000
0.257500 0.685000 0.000000
0.320000 0.685000 0.000000
0.382500 0.685000 0.000000
0.445000 0.685000 0.000000
0.507500 0.685000 0.000000
0.570000 0.685000 0.000000
0.632500 0.685000 0.000000
0.695000 0.685000 0.000000
0.757500 0.685000 0.000000
0.820000 0.685000 0.000000
0.882500 0.685000 0.000000
0.945000 0.685000 0.000000
1.000000 0.685000 0.000000
0.007500 0.747500 0.000000
0.070000 0.747500 0.000000
0.132500 0.747500 0.000000
0.195000 0.747500 0.000000
0.257500 0.747500 0.000000
0.320000 0.747500 0.000000
0.382500 0.747500 0.000000
0.445000 0.747500 0.000000
0.507500 0.747500 0.000000
0.570000 0.747500 0.000000
0.632500 0.747500 0.000000
0.695000 0.747500 0.000000
0.757500 0.747500 0.000000
0.820000 0.747500 0.000000
0.882500 0.747500 0.000000
0.945000 0.747500 0.000000
1.000000 0.747500 0.000000
0.007500 0.810000 0.000000
0.070000 0.810000 0.000000
0.132500 0.810000 0.000000
0.195000 0.810000 0.000000
0.257500 0.810000 0.000000
0.320000 0.810000 0.000000
0.382500 0.810000 0.000000
0.445000 0.810000 0.000000
0.507500 0.810000 0.000000
0.570000 0.810000 0.000000
0.632500 0.810000 0.000000
0.695000 0.810000 0.000000
0.757500 0.810000 0.000000
0.820000 0.810000 0.000000
0.882500 0.810000 0.000000
0.945000 0.810000 0.000000
1.000000 0.810000 0.000000
0.007500 0.872500 0.000000
0.070000 0.872500 0.000000
0.132500 0.872500 0.000000
0.195000 0.872500 0.000000
0.257500 0.872500 0.000000
0.320000 0.872500 0.000000
0.382500 0.872500 0.000000
0.445000 0.872500 0.000000
0.507500 0.872500 0.000000
0.570000 0.872500 0.000000
0.632500 0.872500 0.000000
0.695000 0.872500 0.000000
0.757500 0.872500 0.000000
0.820000 0.872500 0.000000
0.882500 0.872500 0.000000
0.945000 0.872500 0.000000
1.000000 0.872500 0.000000
0.007500 0.935000 0.000000
0.070000 0.935000 0.000000
0.132500 0.935000 0.000000
0.195000 0.935000 0.000000
0.257500 0.935000 0.000000
0.320000 0.935000 0.000000
0.382500 0.935000 0.000000
0.445000 0.935000 0.000000
0.507500 0.935000 0.000000
0.570000 0.935000 0.000000
0.632500 0.935000 0.000000
0.695000 0.935000 0.000000
0.757500 0.935000 0.000000
0.820000 0.935000 0.000000
0.882500 0.935000 0.000000
0.945000 0.935000 0.000000
1.000000 0.935000 0.000000
0.007500 0.997500 0.000000
0.070000 0.997500 0.000000
0.132500 0.997500 0.000000
0.195000 0.997500 0.000000
0.257500 0.997500 0.000000
0.320000 0.997500 0.000000
0.382500 0.997500 0.000000
0.445000 0.997500 0.000000
0.507500 0.997500 0.000000
0.570000 0.997500 0.000000
0.632500 0.997500 0.000000
0.695000 0.997500 0.000000
0.757500 0.997500 0.000000
0.820000 0.997500 0.000000
0.882500 0.997500 0.000000
0.945000 0.997500 0.000000
1.000000 0.997500 0.000000
0.007500 0.000000 0.055000
0.070000 0.000000 0.055000
0.132500 0.000000 0.055000
0.195000 0.000000 0.055000
0.257500 0.000000 0.055000
0.320000 0.000000 0.055000
0.382500 0.000000 0.055000
0.445000 0.000000 0.055000
0.507500 0.000000 0.055000
0.570000 0.000000 0.055000
0.632500 0.000000 0.055000
0.695000 0.000000 0.055000
0.757500 0.000000 0.055000
0.820000 0.000000 0.055000
0.882500 0.000000 0.055000
0.945000 0.000000 0.055000
1.000000 0.000000 0.055000
0.007500 0.060000 0.055000
0.070000 0.060000 0.055000
0.132500 0.060000 0.055000
0.195000 0.060000 0.055000
0.257500 0.060000 0.055000
0.320000 0.060000 0.055000
0.382500 0.060000 0.055000
0.445000 0.060000 0.055000
0.507500 0.060000 0.055000
0.570000 0.060000 0.055000
0.632500 0.060000 0.055000
0.695000 0.060000 0.055000
0.757500 0.060000 0.055000
0.820000 0.060000 0.055000
0.882500 0.060000 0.055000
0.945000 0.060000 0.055000
1.000000 0.060000 0.055000
0.007500 0.122500 0.055000
0.070000 0.122500 0.055000
0.132500 0.122500 0.055000
0.195000 0.122500 0.055000
0.257500 0.122500 0.055000
0.320000 0.122500 0.055000
0.382500 0.122500 0.055000
0.445000 0.122500 0.055000
0.507500 0.122500 0.055000
0.570000 0.122500 0.055000
0.632500 0.122500 0.055000
0.695000 0.122500 0.055000
0.757500 0.122500 0.055000
0.820000 0.122500 0.055000
0.882500 0.122500 0.055000
0.945000 0.122500 0.055000
1.000000 0.122500 0.055000
0.007500 0.185000 0.055000
0.070000 0.185000 0.055000
0.132500 0.185000 0.055000
0.195000 0.185000 0.055000
0.257500 0.185000 0.055000
0.320000 0.185000 0.055000
0.382500 0.185000 0.055000
0.445000 0.185000 0.055000
0.507500 0.185000 0.055000
0.570000 0.185000 0.055000
0.632500 0.185000 0.055000
0.695000 0.185000 0.055000
0.757500 0.185000 0.055000
0.820000 0.185000 0.055000
0.882500 0.185000 0.055000
0.945000 0.185000 0.055000
1.000000 0.185000 0.055000
0.007500 0.247500 0.055000
0.070000 0.247500 0.055000
0.132500 0.247500 0.055000
0.195000 0.247500 0.055000
0.257500 0.247500 0.055000
0.320000 0.247500 0.055000
0.382500 0.247500 0.055000
0.445000 0.247500 0.055000
0.507500 0.247500 0.055000
0.570000 0.247500 0.055000
0.632500 0.247500 0.055000
0.695000 0.247500 0.055000
0.757500 0.247500 0.055000
0.820000 0.247500 0.055000
0.882500 0.247500 0.055000
0.945000 0.247500 0.055000
1.000000 0.247500 0.055000
0.007500 0.310000 0.055000
0.070000 0.310000 0.055000
0.132500 0.310000 0.055000
0.195000 0.310000 0.055000
0.257500 0.310000 0.055000
0.320000 0.310000 0.055000
0.382500 0.310000 0.055000
0.445000 0.310000 0.055000
0.507500 0.310000 0.055000
0.570000 0.310000 0.055000
0.632500 0.310000 0.055000
0.695000 0.310000 0.055000
0.757500 0.310000 0.055000
0.820000 0.310000 0.055000
0.882500 0.310000 0.055000
0.945000 0.310000 0.055000
1.000000 0.310000 0.055000
0.007500 0.372500 0.055000
0.070000 0.372500 0.055000
0.132500 0.372500 0.055000
0.195000 0.372500 0.055000
0.257500 0.372500 0.055000
0.320000 0.372500 0.055000
0.382500 0.372500 0.055000
0.445000 0.372500 0.055000
0.507500 0.372500 0.055000
0.570000 0.372500 0.055000
0.632500 0.372500 0.055000
0.695000 0.372500 0.055000
0.757500 0.372500 0.055000
0.820000 0.372500 0.055000
0.882500 0.372500 0.055000
0.945000 0.372500 0.055000
1.000000 0.372500 0.055000
0.007500 0.435000 0.055000
0.070000 0.435000 0.055000
0.132500 0.435000 0.055000
0.195000 0.435000 0.055000
0.257500 0.435000 0.055000
0.320000 0.435000 0.055000
0.382500 0.435000 0.055000
0.445000 0.435000 0.055000
0.507500 0.435000 0.055000
0.570000 0.435000 0.055000
0.632500 0.435000 0.055000
0.695000 0.435000 0.055000
0.757500 0.435000 0.055000
0.820000 0.435000 0.055000
0.882500 0.435000 0.055000
0.945000 0.435000 0.055000
1.000000 0.435000 0.055000
0.007500 0.497500 0.055000
0.070000 0.497500 0.055000
0.132500 0.497500 0.055000
0.195000 0.497500 0.055000
0.257500 0.497500 0.055000
0.320000 0.497500 0.055000
0.382500 0.497500 0.055000
0.445000 0.497500 0.055000
0.507500 0.497500 0.055000
0.570000 0.497500 0.055000
0.632500 0.497500 0.055000
0.695000 0.497500 0.055000
0.757500 0.497500 0.055000
0.820000 0.497500 0.055000
0.882500 0.497500 0.055000
0.945000 0.497500 0.055000
1.000000 0.497500 0.055000
0.007500 0.560000 0.055000
0.070000 0.560000 0.055000
0.132500 0.560000 0.055000
0.195000 0.560000 0.055000
0.257500 0.560000 0.055000
0.320000 0.560000 0.055000
0.382500 0.560000 0.055000
0.445000 0.560000 0.055000
0.507500 0.560000 0.055000
0.570000 0.560000 0.055000
0.632500 0.560000 0.055000
0.695000 0.560000 0.055000
0.757500 0.560000 0.055000
0.820000 0.560000 0.055000
0.882500 0.560000 0.055000
0.945000 0.560000 0.055000
1.000000 0.560000 0.055000
0.007500 0.622500 0.055000
0.070000 0.622500 0.055000
0.132500 0.622500 0.055000
0.195000 0.622500 0.055000
0.257500 0.622500 0.055000
0.320000 0.622500 0.055000
0.382500 0.622500 0.055000
0.445000 0.622500 0.055000
0.507500 0.622500 0.055000
0.570000 0.622500 0.055000
0.632500 0.622500 0.055000
0.695000 0.622500 0.055000
0.757500 0.622500 0.055000
0.820000 0.622500 0.055000
0.882500 0.622500 0.055000
0.945000 0.622500 0.055000
1.000000 0.622500 0.055000
0.007500 0.685000 0.055000
0.070000 0.685000 0.055000
0.132500 0.685000 0.055000
0.195000 0.685000 0.055000
0.257500 0.685000 0.055000
0.320000 0.685000 0.055000
0.382500 0.685000 0.055000
0.445000 0.685000 0.055000
0.507500 0.685000 0.055000
0.570000 0.685000 0.055000
0.632500 0.685000 0.055000
0.695000 0.685000 0.055000
0.757500 0.685000 0.055000
0.820000 0.685000 0.055000
0.882500 0.685000 0.055000
0.945000 0.685000 0.055000
1.000000 0.685000 0.055000
0.007500 0.747500 0.055000
0.070000 0.747500 0.055000
0.132500 0.747500 0.055000
0.195000 0.747500 0.055000
0.257500 0.747500 0.055000
0.320000 0.747500 0.055000
0.382500 0.747500 0.055000
0.445000 0.747500 0.055000
0.507500 0.747500 0.055000
0.570000 0.747500 0.055000
0.632500 0.747500 0.055000
0.695000 0.747500 0.055000
0.757500 0.747500 0.055000
0.820000 0.747500 0.055000
0.882500 0.747500 0.055000
0.945000 0.747500 0.055000
1.000000 0.747500 0.055000
0.007500 0.810000 0.055000
0.070000 0.810000 0.055000
0.132500 0.810000 0.055000
0.195000 0.810000 0.055000
0.257500 0.810000 0.055000
0.320000 0.810000 0.055000
0.382500 0.810000 0.055000
0.445000 0.810000 0.055000
0.507500 0.810000 0.055000
0.570000 0.810000 0.055000
0.632500 0.810000 0.055000
0.695000 0.810000 0.055000
0.757500 0.810000 0.055000
0.820000 0.810000 0.055000
0.882500 0.810000 0.055000
0.945000 0.810000 0.055000
1.000000 0.810000 0.055000
0.007500 0.872500 0.055000
0.070000 0.872500 0.055000
0.132500 0.872500 0.055000
0.195000 0.872500 0.055000
0.257500 0.872500 0.055000
0.320000 0.872500 0.055000
0.382500 0.872500 0.055000
0.445000 0.872500 0.055000
0.507500 0.872500 0.055000
0.570000 0.872500 0.055000
0.632500 0.872500 0.055000
0.695000 0.872500 0.055000
0.757500 0.872500 0.055000
0.820000 0.872500 0.055000
0.882500 0.872500 0.055000
0.945000 0.872500 0.055000
1.000000 0.872500 0.055000
0.007500 0.935000 0.055000
0.070000 0.935000 0.055000
0.132500 0.935000 0.055000
0.195000 0.935000 0.055000
0.257500 0.935000 0.055000
0.320000 0.935000 0.055000
0.382500 0.935000 0.055000
0.445000 0.935000 0.055000
0.507500 0.935000 0.055000
0.570000 0.935000 0.055000
0.632500 0.935000 0.055000
0.695000 0.935000 0.055000
0.757500 0.935000 0.055000
0.820000 0.935000 0.055000
0.882500 0.935000 0.055000
0.945000 0.935000 0.055000
1.000000 0.935000 0.055000
0.007500 0.997500 0.055000
0.070000 0.997500 0.055000
0.132500 0.997500 0.055000
0.195000 0.997500 0.055000
0.257500 0.997500 0.055000
0.320000 0.997500 0.055000
0.382500 0.997500 0.055000
0.445000 0.997500 0.055000
0.507500 0.997500 0.055000
0.570000 0.997500 0.055000
0.632500 0.997500 0.055000
0.695000 0.997500 0.055000
0.757500 0.997500 0.055000
0.820000 0.997500 0.055000
0.882500 0.997500 0.055000
0.945000 0.997500 0.055000
1.000000 0.997500 0.055000
0.007500 0.000000 0.117500
0.070000 0.000000 0.117500
0.132500 0.000000 0.117500
0.195000 0.000000 0.117500
0.257500 0.000000 0.117500
0.320000 0.000000 0.117500
0.382500 0.000000 0.117500
0.445000 0.000000 0.117500
0.507500 0.000000 0.117500
0.570000 0.000000 0.117500
0.632500 0.000000 0.117500
0.695000 0.000000 0.117500
0.757500 0.000000 0.117500
0.820000 0.000000 0.117500
0.882500 0.000000 0.117500
0.945000 0.000000 0.117500
1.000000 0.000000 0.117500
0.007500 0.060000 0.117500
0.070000 0.060000 0.117500
0.132500 0.060000 0.117500
0.195000 0.060000 0.117500
0.257500 0.060000 0.117500
0.320000 0.060000 0.117500
0.382500 0.060000 0.117500
0.445000 0.060000 0.117500
0.507500 0.060000 0.117500
0.570000 0.060000 0.117500
0.632500 0.060000 0.117500
0.695000 0.060000 0.117500
0.757500 0.060000 0.117500
0.820000 0.060000 0.117500
0.882500 0.060000 0.117500
0.945000 0.060000 0.117500
1.000000 0.060000 0.117500
0.007500 0.122500 0.117500
0.070000 0.122500 0.117500
0.132500 0.122500 0.117500
0.195000 0.122500 0.117500
0.257500 0.122500 0.117500
0.320000 0.122500 0.117500
0.382500 0.122500 0.117500
0.445000 0.122500 0.117500
0.507500 0.122500 0.117500
0.570000 0.122500 0.117500
0.632500 0.122500 0.117500
0.695000 0.122500 0.117500
0.757500 0.122500 0.117500
0.820000 0.122500 0.117500
0.882500 0.122500 0.117500
0.945000 0.122500 0.117500
1.000000 0.122500 0.117500
0.007500 0.185000 0.117500
0.070000 0.185000 0.117500
0.132500 0.185000 0.117500
0.195000 0.185000 0.117500
0.257500 0.185000 0.117500
0.320000 0.185000 0.117500
0.382500 0.185000 0.117500
0.445000 0.185000 0.117500
0.507500 0.185000 0.117500
0.570000 0.185000 0.117500
0.632500 0.185000 0.117500
0.695000 0.185000 0.117500
0.757500 0.185000 0.117500
0.820000 0.185000 0.117500
0.882500 0.185000 0.117500
0.945000 0.185000 0.117500
1.000000 0.185000 0.117500
0.007500 0.247500 0.117500
0.070000 0.247500 0.117500
0.132500 0.247500 0.117500
0.195000 0.247500 0.117500
0.257500 0.247500 0.117500
0.320000 0.247500 0.117500
0.382500 0.247500 0.117500
0.445000 0.247500 0.117500
0.507500 0.247500 0.117500
0.570000 0.247500 0.117500
0.632500 0.247500 0.117500
0.695000 0.247500 0.117500
0.757500 0.247500 0.117500
0.820000 0.247500 0.117500
0.882500 0.247500 0.117500
0.945000 0.247500 0.117500
1.000000 0.247500 0.117500
0.007500 0.310000 0.117500
0.070000 0.310000 0.117500
0.132500 0.310000 0.117500
0.195000 0.310000 0.117500
0.257500 0.310000 0.117500
0.320000 0.310000 0.117500
0.382500 0.310000 0.117500
0.445000 0.310000 0.117500
0.507500 0.310000 0.117500
0.570000 0.310000 0.117500
0.632500 0.310000 0.117500
0.695000 0.310000 0.117500
0.757500 0.310000 0.117500
0.820000 0.310000 0.117500
0.882500 0.310000 0.117500
0.945000 0.310000 0.117500
1.000000 0.310000 0.117500
0.007500 0.372500 0.117500
0.070000 0.372500 0.117500
0.132500 0.372500 0.117500
0.195000 0.372500 0.117500
0.257500 0.372500 0.117500
0.320000 0.372500 0.117500
0.382500 0.372500 0.117500
0.445000 0.372500 0.117500
0.507500 0.372500 0.117500
0.570000 0.372500 0.117500
0.632500 0.372500 0.117500
0.695000 0.372500 0.117500
0.757500 0.372500 0.117500
0.820000 0.372500 0.117500
0.882500 0.372500 0.117500
0.945000 0.372500 0.117500
1.000000 0.372500 0.117500
0.007500 0.435000 0.117500
0.070000 0.435000 0.117500
0.132500 0.435000 0.117500
0.195000 0.435000 0.117500
0.257500 0.435000 0.117500
0.320000 0.435000 0.117500
0.382500 0.435000 0.117500
0.445000 0.435000 0.117500
0.507500 0.435000 0.117500
0.570000 0.435000 0.117500
0.632500 0.435000 0.117500
0.695000 0.435000 0.117500
0.757500 0.435000 0.117500
0.820000 0.435000 0.117500
0.882500 0.435000 0.117500
0.945000 0.435000 0.117500
1.000000 0.435000 0.117500
0.007500 0.497500 0.117500
0.070000 0.497500 0.117500
0.132500 0.497500 0.117500
0.195000 0.497500 0.117500
0.257500 0.497500 0.117500
0.320000 0.497500 0.117500
0.382500 0.497500 0.117500
0.445000 0.497500 0.117500
0.507500 0.497500 0.117500
0.570000 0.497500 0.117500
0.632500 0.497500 0.117500
0.695000 0.497500 0.117500
0.757500 0.497500 0.117500
0.820000 0.497500 0.117500
0.882500 0.497500 0.117500
0.945000 0.497500 0.117500
1.000000 0.497500 0.117500
0.007500 0.560000 0.117500
0.070000 0.560000 0.117500
0.132500 0.560000 0.117500
0.195000 0.560000 0.117500
0.257500 0.560000 0.117500
0.320000 0.560000 0.117500
0.382500 0.560000 0.117500
0.445000 0.560000 0.117500
0.507500 0.560000 0.117500
0.570000 0.560000 0.117500
0.632500 0.560000 0.117500
0.695000 0.560000 0.117500
0.757500 0.560000 0.117500
0.820000 0.560000 0.117500
0.882500 0.560000 0.117500
0.945000 0.560000 0.117500
1.000000 0.560000 0.117500
0.007500 0.622500 0.117500
0.070000 0.622500 0.117500
0.132500 0.622500 0.117500
0.195000 0.622500 0.117500
0.257500 0.622500 0.117500
0.320000 0.622500 0.117500
0.382500 0.622500 0.117500
0.445000 0.622500 0.117500
0.507500 0.622500 0.117500
0.570000 0.622500 0.117500
0.632500 0.622500 0.117500
0.695000 0.622500 0.117500
0.757500 0.622500 0.117500
0.820000 0.622500 0.117500
0.882500 0.622500 0.117500
0.945000 0.622500 0.117500
1.000000 0.622500 0.117500
0.007500 0.685000 0.117500
0.070000 0.685000 0.117500
0.132500 0.685000 0.117500
0.195000 0.685000 0.117500
0.257500 0.685000 0.117500
0.320000 0.685000 0.117500
0.382500 0.685000 0.117500
0.445000 0.685000 0.117500
0.507500 0.685000 0.117500
0.570000 0.685000 0.117500
0.632500 0.685000 0.117500
0.695000 0.685000 0.117500
0.757500 0.685000 0.117500
0.820000 0.685000 0.117500
0.882500 0.685000 0.117500
0.945000 0.685000 0.117500
1.000000 0.685000 0.117500
0.007500 0.747500 0.117500
0.070000 0.747500 0.117500
0.132500 0.747500 0.117500
0.195000 0.747500 0.117500
0.257500 0.747500 0.117500
0.320000 0.747500 0.117500
0.382500 0.747500 0.117500
0.445000 0.747500 0.117500
0.507500 0.747500 0.117500
0.570000 0.747500 0.117500
0.632500 0.747500 0.117500
0.695000 0.747500 0.117500
0.757500 0.747500 0.117500
0.820000 0.747500 0.117500
0.882500 0.747500 0.117500
0.945000 0.747500 0.117500
1.000000 0.747500 0.117500
0.007500 0.810000 0.117500
0.070000 0.810000 0.117500
0.132500 0.810000 0.117500
0.195000 0.810000 0.117500
0.257500 0.810000 0.117500
0.320000 0.810000 0.117500
0.382500 0.810000 0.117500
0.445000 0.810000 0.117500
0.507500 0.810000 0.117500
0.570000 0.810000 0.117500
0.632500 0.810000 0.117500
0.695000 0.810000 0.117500
0.757500 0.810000 0.117500
0.820000 0.810000 0.117500
0.882500 0.810000 0.117500
0.945000 0.810000 0.117500
1.000000 0.810000 0.117500
0.007500 0.872500 0.117500
0.070000 0.872500 0.117500
0.132500 0.872500 0.117500
0.195000 0.872500 0.117500
0.257500 0.872500 0.117500
0.320000 0.872500 0.117500
0.382500 0.872500 0.117500
0.445000 0.872500 0.117500
0.507500 0.872500 0.117500
0.570000 0.872500 0.117500
0.632500 0.872500 0.117500
0.695000 0.872500 0.117500
0.757500 0.872500 0.117500
0.820000 0.872500 0.117500
0.882500 0.872500 0.117500
0.945000 0.872500 0.117500
1.000000 0.872500 0.117500
0.007500 0.935000 0.117500
0.070000 0.935000 0.117500
0.132500 0.935000 0.117500
0.195000 0.935000 0.117500
0.257500 0.935000 0.117500
0.320000 0.935000 0.117500
0.382500 0.935000 0.117500
0.445000 0.935000 0.117500
0.507500 0.935000 0.117500
0.570000 0.935000 0.117500
0.632500 0.935000 0.117500
0.695000 0.935000 0.117500
0.757500 0.935000 0.117500
0.820000 0.935000 0.117500
0.882500 0.935000 0.117500
0.945000 0.935000 0.117500
1.000000 0.935000 0.117500
0.007500 0.997500 0.117500
0.070000 0.997500 0.117500
0.132500 0.997500 0.117500
0.195000 0.997500 0.117500
0.257500 0.997500 0.117500
0.320000 0.997500 0.117500
0.382500 0.997500 0.117500
0.445000 0.997500 0.117500
0.507500 0.997500 0.117500
0.570000 0.997500 0.117500
0.632500 0.997500 0.117500
0.695000 0.997500 0.117500
0.757500 0.997500 0.117500
0.820000 0.997500 0.117500
0.882500 0.997500 0.117500
0.945000 0.997500 0.117500
1.000000 0.997500 0.117500
0.007500 0.000000 0.180000
0.070000 0.000000 0.180000
0.132500 0.000000 0.180000
0.195000 0.000000 0.180000
0.257500 0.000000 0.180000
0.320000 0.000000 0.180000
0.382500 0.000000 0.180000
0.445000 0.000000 0.180000
0.507500 0.000000 0.180000
0.570000 0.000000 0.180000
0.632500 0.000000 0.180000
0.695000 0.000000 0.180000
0.757500 0.000000 0.180000
0.820000 0.000000 0.180000
0.882500 0.000000 0.180000
0.945000 0.000000 0.180000
1.000000 0.000000 0.180000
0.007500 0.060000 0.180000
