app/src/main/assets/luts/subway_light.cube
# ApexStudio filter: subway_light
LUT_3D_SIZE 9
DOMAIN_MIN 0.0 0.0 0.0
DOMAIN_MAX 1.0 1.0 1.0
0.007500 0.000000 0.000000
0.132500 0.000000 0.000000
0.257500 0.000000 0.000000
0.382500 0.000000 0.000000
0.507500 0.000000 0.000000
0.632500 0.000000 0.000000
0.757500 0.000000 0.000000
0.882500 0.000000 0.000000
1.000000 0.000000 0.000000
0.007500 0.122500 0.000000
0.132500 0.122500 0.000000
0.257500 0.122500 0.000000
0.382500 0.122500 0.000000
0.507500 0.122500 0.000000
0.632500 0.122500 0.000000
0.757500 0.122500 0.000000
0.882500 0.122500 0.000000
1.000000 0.122500 0.000000
0.007500 0.247500 0.000000
0.132500 0.247500 0.000000
0.257500 0.247500 0.000000
0.382500 0.247500 0.000000
0.507500 0.247500 0.000000
0.632500 0.247500 0.000000
0.757500 0.247500 0.000000
0.882500 0.247500 0.000000
1.000000 0.247500 0.000000
0.007500 0.372500 0.000000
0.132500 0.372500 0.000000
0.257500 0.372500 0.000000
0.382500 0.372500 0.000000
0.507500 0.372500 0.000000
0.632500 0.372500 0.000000
0.757500 0.372500 0.000000
0.882500 0.372500 0.000000
1.000000 0.372500 0.000000
0.007500 0.497500 0.000000
0.132500 0.497500 0.000000
0.257500 0.497500 0.000000
0.382500 0.497500 0.000000
0.507500 0.497500 0.000000
0.632500 0.497500 0.000000
0.757500 0.497500 0.000000
0.882500 0.497500 0.000000
1.000000 0.497500 0.000000
0.007500 0.622500 0.000000
0.132500 0.622500 0.000000
0.257500 0.622500 0.000000
0.382500 0.622500 0.000000
0.507500 0.622500 0.000000
0.632500 0.622500 0.000000
0.757500 0.622500 0.000000
0.882500 0.622500 0.000000
1.000000 0.622500 0.000000
0.007500 0.747500 0.000000
0.132500 0.747500 0.000000
0.257500 0.747500 0.000000
0.382500 0.747500 0.000000
0.507500 0.747500 0.000000
0.632500 0.747500 0.000000
0.757500 0.747500 0.000000
0.882500 0.747500 0.000000
1.000000 0.747500 0.000000
0.007500 0.872500 0.000000
0.132500 0.872500 0.000000
0.257500 0.872500 0.000000
0.382500 0.872500 0.000000
0.507500 0.872500 0.000000
0.632500 0.872500 0.000000
0.757500 0.872500 0.000000
0.882500 0.872500 0.000000
1.000000 0.872500 0.000000
0.007500 0.997500 0.000000
0.132500 0.997500 0.000000
0.257500 0.997500 0.000000
0.382500 0.997500 0.000000
0.507500 0.997500 0.000000
0.632500 0.997500 0.000000
0.757500 0.997500 0.000000
0.882500 0.997500 0.000000
1.000000 0.997500 0.000000
0.007500 0.000000 0.117500
0.132500 0.000000 0.117500
0.257500 0.000000 0.117500
0.382500 0.000000 0.117500
0.507500 0.000000 0.117500
0.632500 0.000000 0.117500
0.757500 0.000000 0.117500
0.882500 0.000000 0.117500
1.000000 0.000000 0.117500
0.007500 0.122500 0.117500
0.132500 0.122500 0.117500
0.257500 0.122500 0.117500
0.382500 0.122500 0.117500
0.507500 0.122500 0.117500
0.632500 0.122500 0.117500
0.757500 0.122500 0.117500
0.882500 0.122500 0.117500
1.000000 0.122500 0.117500
0.007500 0.247500 0.117500
0.132500 0.247500 0.117500
0.257500 0.247500 0.117500
0.382500 0.247500 0.117500
0.507500 0.247500 0.117500
0.632500 0.247500 0.117500
0.757500 0.247500 0.117500
0.882500 0.247500 0.117500
1.000000 0.247500 0.117500
0.007500 0.372500 0.117500
0.132500 0.372500 0.117500
0.257500 0.372500 0.117500
0.382500 0.372500 0.117500
0.507500 0.372500 0.117500
0.632500 0.372500 0.117500
0.757500 0.372500 0.117500
0.882500 0.372500 0.117500
1.000000 0.372500 0.117500
0.007500 0.497500 0.117500
0.132500 0.497500 0.117500
0.257500 0.497500 0.117500
0.382500 0.497500 0.117500
0.507500 0.497500 0.117500
0.632500 0.497500 0.117500
0.757500 0.497500 0.117500
0.882500 0.497500 0.117500
1.000000 0.497500 0.117500
0.007500 0.622500 0.117500
0.132500 0.622500 0.117500
0.257500 0.622500 0.117500
0.382500 0.622500 0.117500
0.507500 0.622500 0.117500
0.632500 0.622500 0.117500
0.757500 0.622500 0.117500
0.882500 0.622500 0.117500
1.000000 0.622500 0.117500
0.007500 0.747500 0.117500
0.132500 0.747500 0.117500
0.257500 0.747500 0.117500
0.382500 0.747500 0.117500
0.507500 0.747500 0.117500
0.632500 0.747500 0.117500
0.757500 0.747500 0.117500
0.882500 0.747500 0.117500
1.000000 0.747500 0.117500
0.007500 0.872500 0.117500
0.132500 0.872500 0.117500
0.257500 0.872500 0.117500
0.382500 0.872500 0.117500
0.507500 0.872500 0.117500
0.632500 0.872500 0.117500
0.757500 0.872500 0.117500
0.882500 0.872500 0.117500
1.000000 0.872500 0.117500
0.007500 0.997500 0.117500
0.132500 0.997500 0.117500
0.257500 0.997500 0.117500
0.382500 0.997500 0.117500
0.507500 0.997500 0.117500
0.632500 0.997500 0.117500
0.757500 0.997500 0.117500
0.882500 0.997500 0.117500
1.000000 0.997500 0.117500
0.007500 0.000000 0.242500
0.132500 0.000000 0.242500
0.257500 0.000000 0.242500
0.382500 0.000000 0.242500
0.507500 0.000000 0.242500
0.632500 0.000000 0.242500
0.757500 0.000000 0.242500
0.882500 0.000000 0.242500
1.000000 0.000000 0.242500
0.007500 0.122500 0.242500
0.132500 0.122500 0.242500
0.257500 0.122500 0.242500
0.382500 0.122500 0.242500
0.507500 0.122500 0.242500
0.632500 0.122500 0.242500
0.757500 0.122500 0.242500
0.882500 0.122500 0.242500
1.000000 0.122500 0.242500
0.007500 0.247500 0.242500
0.132500 0.247500 0.242500
0.257500 0.247500 0.242500
0.382500 0.247500 0.242500
0.507500 0.247500 0.242500
0.632500 0.247500 0.242500
0.757500 0.247500 0.242500
0.882500 0.247500 0.242500
1.000000 0.247500 0.242500
0.007500 0.372500 0.242500
0.132500 0.372500 0.242500
0.257500 0.372500 0.242500
0.382500 0.372500 0.242500
0.507500 0.372500 0.242500
0.632500 0.372500 0.242500
0.757500 0.372500 0.242500
0.882500 0.372500 0.242500
1.000000 0.372500 0.242500
0.007500 0.497500 0.242500
0.132500 0.497500 0.242500
0.257500 0.497500 0.242500
0.382500 0.497500 0.242500
0.507500 0.497500 0.242500
0.632500 0.497500 0.242500
0.757500 0.497500 0.242500
0.882500 0.497500 0.242500
1.000000 0.497500 0.242500
0.007500 0.622500 0.242500
0.132500 0.622500 0.242500
0.257500 0.622500 0.242500
0.382500 0.622500 0.242500
0.507500 0.622500 0.242500
0.632500 0.622500 0.242500
0.757500 0.622500 0.242500
0.882500 0.622500 0.242500
1.000000 0.622500 0.242500
0.007500 0.747500 0.242500
0.132500 0.747500 0.242500
0.257500 0.747500 0.242500
0.382500 0.747500 0.242500
0.507500 0.747500 0.242500
0.632500 0.747500 0.242500
0.757500 0.747500 0.242500
0.882500 0.747500 0.242500
1.000000 0.747500 0.242500
0.007500 0.872500 0.242500
0.132500 0.872500 0.242500
0.257500 0.872500 0.242500
0.382500 0.872500 0.242500
0.507500 0.872500 0.242500
0.632500 0.872500 0.242500
0.757500 0.872500 0.242500
0.882500 0.872500 0.242500
1.000000 0.872500 0.242500
0.007500 0.997500 0.242500
0.132500 0.997500 0.242500
0.257500 0.997500 0.242500
0.382500 0.997500 0.242500
0.507500 0.997500 0.242500
0.632500 0.997500 0.242500
0.757500 0.997500 0.242500
0.882500 0.997500 0.242500
1.000000 0.997500 0.242500
0.007500 0.000000 0.367500
0.132500 0.000000 0.367500
0.257500 0.000000 0.367500
0.382500 0.000000 0.367500
0.507500 0.000000 0.367500
0.632500 0.000000 0.367500
0.757500 0.000000 0.367500
0.882500 0.000000 0.367500
1.000000 0.000000 0.367500
0.007500 0.122500 0.367500
0.132500 0.122500 0.367500
0.257500 0.122500 0.367500
0.382500 0.122500 0.367500
0.507500 0.122500 0.367500
0.632500 0.122500 0.367500
0.757500 0.122500 0.367500
0.882500 0.122500 0.367500
1.000000 0.122500 0.367500
0.007500 0.247500 0.367500
0.132500 0.247500 0.367500
0.257500 0.247500 0.367500
0.382500 0.247500 0.367500
0.507500 0.247500 0.367500
0.632500 0.247500 0.367500
0.757500 0.247500 0.367500
0.882500 0.247500 0.367500
1.000000 0.247500 0.367500
0.007500 0.372500 0.367500
0.132500 0.372500 0.367500
0.257500 0.372500 0.367500
0.382500 0.372500 0.367500
0.507500 0.372500 0.367500
0.632500 0.372500 0.367500
0.757500 0.372500 0.367500
0.882500 0.372500 0.367500
1.000000 0.372500 0.367500
0.007500 0.497500 0.367500
0.132500 0.497500 0.367500
0.257500 0.497500 0.367500
0.382500 0.497500 0.367500
0.507500 0.497500 0.367500
0.632500 0.497500 0.367500
0.757500 0.497500 0.367500
0.882500 0.497500 0.367500
1.000000 0.497500 0.367500
0.007500 0.622500 0.367500
0.132500 0.622500 0.367500
0.257500 0.622500 0.367500
0.382500 0.622500 0.367500
0.507500 0.622500 0.367500
0.632500 0.622500 0.367500
0.757500 0.622500 0.367500
0.882500 0.622500 0.367500
1.000000 0.622500 0.367500
0.007500 0.747500 0.367500
0.132500 0.747500 0.367500
0.257500 0.747500 0.367500
0.382500 0.747500 0.367500
0.507500 0.747500 0.367500
0.632500 0.747500 0.367500
0.757500 0.747500 0.367500
0.882500 0.747500 0.367500
1.000000 0.747500 0.367500
0.007500 0.872500 0.367500
0.132500 0.872500 0.367500
0.257500 0.872500 0.367500
0.382500 0.872500 0.367500
0.507500 0.872500 0.367500
0.632500 0.872500 0.367500
0.757500 0.872500 0.367500
0.882500 0.872500 0.367500
1.000000 0.872500 0.367500
0.007500 0.997500 0.367500
0.132500 0.997500 0.367500
0.257500 0.997500 0.367500
0.382500 0.997500 0.367500
0.507500 0.997500 0.367500
0.632500 0.997500 0.367500
0.757500 0.997500 0.367500
0.882500 0.997500 0.367500
1.000000 0.997500 0.367500
0.007500 0.000000 0.492500
0.132500 0.000000 0.492500
0.257500 0.000000 0.492500
0.382500 0.000000 0.492500
0.507500 0.000000 0.492500
0.632500 0.000000 0.492500
0.757500 0.000000 0.492500
0.882500 0.000000 0.492500
1.000000 0.000000 0.492500
0.007500 0.122500 0.492500
0.132500 0.122500 0.492500
0.257500 0.122500 0.492500
0.382500 0.122500 0.492500
0.507500 0.122500 0.492500
0.632500 0.122500 0.492500
0.757500 0.122500 0.492500
0.882500 0.122500 0.492500
1.000000 0.122500 0.492500
0.007500 0.247500 0.492500
0.132500 0.247500 0.492500
0.257500 0.247500 0.492500
0.382500 0.247500 0.492500
0.507500 0.247500 0.492500
0.632500 0.247500 0.492500
0.757500 0.247500 0.492500
0.882500 0.247500 0.492500
1.000000 0.247500 0.492500
0.007500 0.372500 0.492500
0.132500 0.372500 0.492500
0.257500 0.372500 0.492500
0.382500 0.372500 0.492500
0.507500 0.372500 0.492500
0.632500 0.372500 0.492500
0.757500 0.372500 0.492500
0.882500 0.372500 0.492500
1.000000 0.372500 0.492500
0.007500 0.497500 0.492500
0.132500 0.497500 0.492500
0.257500 0.497500 0.492500
0.382500 0.497500 0.492500
0.507500 0.497500 0.492500
0.632500 0.497500 0.492500
0.757500 0.497500 0.492500
0.882500 0.497500 0.492500
1.000000 0.497500 0.492500
0.007500 0.622500 0.492500
0.132500 0.622500 0.492500
0.257500 0.622500 0.492500
0.382500 0.622500 0.492500
0.507500 0.622500 0.492500
0.632500 0.622500 0.492500
0.757500 0.622500 0.492500
0.882500 0.622500 0.492500
1.000000 0.622500 0.492500
0.007500 0.747500 0.492500
0.132500 0.747500 0.492500
0.257500 0.747500 0.492500
0.382500 0.747500 0.492500
0.507500 0.747500 0.492500
0.632500 0.747500 0.492500
0.757500 0.747500 0.492500
0.882500 0.747500 0.492500
1.000000 0.747500 0.492500
0.007500 0.872500 0.492500
0.132500 0.872500 0.492500
0.257500 0.872500 0.492500
0.382500 0.872500 0.492500
0.507500 0.872500 0.492500
0.632500 0.872500 0.492500
0.757500 0.872500 0.492500
0.882500 0.872500 0.492500
1.000000 0.872500 0.492500
0.007500 0.997500 0.492500
0.132500 0.997500 0.492500
0.257500 0.997500 0.492500
0.382500 0.997500 0.492500
0.507500 0.997500 0.492500
0.632500 0.997500 0.492500
0.757500 0.997500 0.492500
0.882500 0.997500 0.492500
1.000000 0.997500 0.492500
0.007500 0.000000 0.617500
0.132500 0.000000 0.617500
0.257500 0.000000 0.617500
0.382500 0.000000 0.617500
0.507500 0.000000 0.617500
0.632500 0.000000 0.617500
0.757500 0.000000 0.617500
0.882500 0.000000 0.617500
1.000000 0.000000 0.617500
0.007500 0.122500 0.617500
0.132500 0.122500 0.617500
0.257500 0.122500 0.617500
0.382500 0.122500 0.617500
0.507500 0.122500 0.617500
0.632500 0.122500 0.617500
0.757500 0.122500 0.617500
0.882500 0.122500 0.617500
1.000000 0.122500 0.617500
0.007500 0.247500 0.617500
0.132500 0.247500 0.617500
0.257500 0.247500 0.617500
0.382500 0.247500 0.617500
0.507500 0.247500 0.617500
0.632500 0.247500 0.617500
0.757500 0.247500 0.617500
0.882500 0.247500 0.617500
1.000000 0.247500 0.617500
0.007500 0.372500 0.617500
0.132500 0.372500 0.617500
0.257500 0.372500 0.617500
0.382500 0.372500 0.617500
0.507500 0.372500 0.617500
0.632500 0.372500 0.617500
0.757500 0.372500 0.617500
0.882500 0.372500 0.617500
1.000000 0.372500 0.617500
0.007500 0.497500 0.617500
0.132500 0.497500 0.617500
0.257500 0.497500 0.617500
0.382500 0.497500 0.617500
0.507500 0.497500 0.617500
0.632500 0.497500 0.617500
0.757500 0.497500 0.617500
0.882500 0.497500 0.617500
1.000000 0.497500 0.617500
0.007500 0.622500 0.617500
0.132500 0.622500 0.617500
0.257500 0.622500 0.617500
0.382500 0.622500 0.617500
0.507500 0.622500 0.617500
0.632500 0.622500 0.617500
0.757500 0.622500 0.617500
0.882500 0.622500 0.617500
1.000000 0.622500 0.617500
0.007500 0.747500 0.617500
0.132500 0.747500 0.617500
0.257500 0.747500 0.617500
0.382500 0.747500 0.617500
0.507500 0.747500 0.617500
0.632500 0.747500 0.617500
0.757500 0.747500 0.617500
0.882500 0.747500 0.617500
1.000000 0.747500 0.617500
0.007500 0.872500 0.617500
0.132500 0.872500 0.617500
0.257500 0.872500 0.617500
0.382500 0.872500 0.617500
0.507500 0.872500 0.617500
0.632500 0.872500 0.617500
0.757500 0.872500 0.617500
0.882500 0.872500 0.617500
1.000000 0.872500 0.617500
0.007500 0.997500 0.617500
0.132500 0.997500 0.617500
0.257500 0.997500 0.617500
0.382500 0.997500 0.617500
0.507500 0.997500 0.617500
0.632500 0.997500 0.617500
0.757500 0.997500 0.617500
0.882500 0.997500 0.617500
1.000000 0.997500 0.617500
0.007500 0.000000 0.742500
0.132500 0.000000 0.742500
0.257500 0.000000 0.742500
0.382500 0.000000 0.742500
0.507500 0.000000 0.742500
0.632500 0.000000 0.742500
0.757500 0.000000 0.742500
0.882500 0.000000 0.742500
1.000000 0.000000 0.742500
0.007500 0.122500 0.742500
0.132500 0.122500 0.742500
0.257500 0.122500 0.742500
0.382500 0.122500 0.742500
0.507500 0.122500 0.742500
0.632500 0.122500 0.742500
0.757500 0.122500 0.742500
0.882500 0.122500 0.742500
1.000000 0.122500 0.742500
0.007500 0.247500 0.742500
0.132500 0.247500 0.742500
0.257500 0.247500 0.742500
0.382500 0.247500 0.742500
0.507500 0.247500 0.742500
0.632500 0.247500 0.742500
0.757500 0.247500 0.742500
0.882500 0.247500 0.742500
1.000000 0.247500 0.742500
0.007500 0.372500 0.742500
0.132500 0.372500 0.742500
0.257500 0.372500 0.742500
0.382500 0.372500 0.742500
0.507500 0.372500 0.742500
0.632500 0.372500 0.742500
0.757500 0.372500 0.742500
0.882500 0.372500 0.742500
1.000000 0.372500 0.742500
0.007500 0.497500 0.742500
0.132500 0.497500 0.742500
0.257500 0.497500 0.742500
0.382500 0.497500 0.742500
0.507500 0.497500 0.742500
0.632500 0.497500 0.742500
0.757500 0.497500 0.742500
0.882500 0.497500 0.742500
1.000000 0.497500 0.742500
0.007500 0.622500 0.742500
0.132500 0.622500 0.742500
0.257500 0.622500 0.742500
0.382500 0.622500 0.742500
0.507500 0.622500 0.742500
0.632500 0.622500 0.742500
0.757500 0.622500 0.742500
0.882500 0.622500 0.742500
1.000000 0.622500 0.742500
0.007500 0.747500 0.742500
0.132500 0.747500 0.742500
0.257500 0.747500 0.742500
0.382500 0.747500 0.742500
0.507500 0.747500 0.742500
0.632500 0.747500 0.742500
0.757500 0.747500 0.742500
0.882500 0.747500 0.742500
1.000000 0.747500 0.742500
0.007500 0.872500 0.742500
0.132500 0.872500 0.742500
0.257500 0.872500 0.742500
0.382500 0.872500 0.742500
0.507500 0.872500 0.742500
0.632500 0.872500 0.742500
0.757500 0.872500 0.742500
0.882500 0.872500 0.742500
1.000000 0.872500 0.742500
0.007500 0.997500 0.742500
0.132500 0.997500 0.742500
0.257500 0.997500 0.742500
0.382500 0.997500 0.742500
0.507500 0.997500 0.742500
0.632500 0.997500 0.742500
0.757500 0.997500 0.742500
0.882500 0.997500 0.742500
1.000000 0.997500 0.742500
0.007500 0.000000 0.867500
0.132500 0.000000 0.867500
0.257500 0.000000 0.867500
0.382500 0.000000 0.867500
0.507500 0.000000 0.867500
0.632500 0.000000 0.867500
0.757500 0.000000 0.867500
0.882500 0.000000 0.867500
1.000000 0.000000 0.867500
0.007500 0.122500 0.867500
0.132500 0.122500 0.867500
0.257500 0.122500 0.867500
0.382500 0.122500 0.867500
0.507500 0.122500 0.867500
0.632500 0.122500 0.867500
0.757500 0.122500 0.867500
0.882500 0.122500 0.867500
1.000000 0.122500 0.867500
0.007500 0.247500 0.867500
0.132500 0.247500 0.867500
0.257500 0.247500 0.867500
0.382500 0.247500 0.867500
0.507500 0.247500 0.867500
0.632500 0.247500 0.867500
0.757500 0.247500 0.867500
0.882500 0.247500 0.867500
1.000000 0.247500 0.867500
0.007500 0.372500 0.867500
0.132500 0.372500 0.867500
0.257500 0.372500 0.867500
0.382500 0.372500 0.867500
0.507500 0.372500 0.867500
0.632500 0.372500 0.867500
0.757500 0.372500 0.867500
0.882500 0.372500 0.867500
1.000000 0.372500 0.867500
0.007500 0.497500 0.867500
0.132500 0.497500 0.867500
0.257500 0.497500 0.867500
0.382500 0.497500 0.867500
0.507500 0.497500 0.867500
0.632500 0.497500 0.867500
0.757500 0.497500 0.867500
0.882500 0.497500 0.867500
1.000000 0.497500 0.867500
0.007500 0.622500 0.867500
0.132500 0.622500 0.867500
0.257500 0.622500 0.867500
0.382500 0.622500 0.867500
0.507500 0.622500 0.867500
0.632500 0.622500 0.867500
0.757500 0.622500 0.867500
0.882500 0.622500 0.867500
1.000000 0.622500 0.867500
0.007500 0.747500 0.867500
0.132500 0.747500 0.867500
0.257500 0.747500 0.867500
0.382500 0.747500 0.867500
0.507500 0.747500 0.867500
0.632500 0.747500 0.867500
0.757500 0.747500 0.867500
0.882500 0.747500 0.867500
1.000000 0.747500 0.867500
0.007500 0.872500 0.867500
0.132500 0.872500 0.867500
0.257500 0.872500 0.867500
0.382500 0.872500 0.867500
0.507500 0.872500 0.867500
0.632500 0.872500 0.867500
0.757500 0.872500 0.867500
0.882500 0.872500 0.867500
1.000000 0.872500 0.867500
0.007500 0.997500 0.867500
0.132500 0.997500 0.867500
0.257500 0.997500 0.867500
0.382500 0.997500 0.867500
0.507500 0.997500 0.867500
0.632500 0.997500 0.867500
0.757500 0.997500 0.867500
0.882500 0.997500 0.867500
1.000000 0.997500 0.867500
0.007500 0.000000 0.992500
0.132500 0.000000 0.992500
0.257500 0.000000 0.992500
0.382500 0.000000 0.992500
0.507500 0.000000 0.992500
0.632500 0.000000 0.992500
0.757500 0.000000 0.992500
0.882500 0.000000 0.992500
1.000000 0.000000 0.992500
0.007500 0.122500 0.992500
0.132500 0.122500 0.992500
0.257500 0.122500 0.992500
0.382500 0.122500 0.992500
0.507500 0.122500 0.992500
0.632500 0.122500 0.992500
0.757500 0.122500 0.992500
0.882500 0.122500 0.992500
1.000000 0.122500 0.992500
0.007500 0.247500 0.992500
0.132500 0.247500 0.992500
0.257500 0.247500 0.992500
0.382500 0.247500 0.992500
0.507500 0.247500 0.992500
0.632500 0.247500 0.992500
0.757500 0.247500 0.992500
0.882500 0.247500 0.992500
1.000000 0.247500 0.992500
0.007500 0.372500 0.992500
0.132500 0.372500 0.992500
0.257500 0.372500 0.992500
0.382500 0.372500 0.992500
0.507500 0.372500 0.992500
0.632500 0.372500 0.992500
0.757500 0.372500 0.992500
0.882500 0.372500 0.992500
1.000000 0.372500 0.992500
0.007500 0.497500 0.992500
0.132500 0.497500 0.992500
0.257500 0.497500 0.992500
0.382500 0.497500 0.992500
0.507500 0.497500 0.992500
0.632500 0.497500 0.992500
0.757500 0.497500 0.992500
0.882500 0.497500 0.992500
1.000000 0.497500 0.992500
0.007500 0.622500 0.992500
0.132500 0.622500 0.992500
0.257500 0.622500 0.992500
0.382500 0.622500 0.992500
0.507500 0.622500 0.992500
0.632500 0.622500 0.992500
0.757500 0.622500 0.992500
0.882500 0.622500 0.992500
1.000000 0.622500 0.992500
0.007500 0.747500 0.992500
0.132500 0.747500 0.992500
0.257500 0.747500 0.992500
0.382500 0.747500 0.992500
0.507500 0.747500 0.992500
0.632500 0.747500 0.992500
0.757500 0.747500 0.992500
0.882500 0.747500 0.992500
1.000000 0.747500 0.992500
0.007500 0.872500 0.992500
0.132500 0.872500 0.992500
0.257500 0.872500 0.992500
0.382500 0.872500 0.992500
0.507500 0.872500 0.992500
0.632500 0.872500 0.992500
0.757500 0.872500 0.992500
0.882500 0.872500 0.992500
1.000000 0.872500 0.992500
0.007500 0.997500 0.992500
0.132500 0.997500 0.992500
0.257500 0.997500 0.992500
0.382500 0.997500 0.992500
0.507500 0.997500 0.992500
0.632500 0.997500 0.992500
0.757500 0.997500 0.992500
0.882500 0.997500 0.992500
1.000000 0.997500 0.992500
