app/src/main/assets/luts/sunlit_meadow.cube
# ApexStudio filter: sunlit_meadow
LUT_3D_SIZE 5
DOMAIN_MIN 0.0 0.0 0.0
DOMAIN_MAX 1.0 1.0 1.0
0.050000 0.100000 0.000000
0.337500 0.100000 0.000000
0.625000 0.100000 0.000000
0.912500 0.100000 0.000000
1.000000 0.100000 0.000000
0.050000 0.412500 0.000000
0.337500 0.412500 0.000000
0.625000 0.412500 0.000000
0.912500 0.412500 0.000000
1.000000 0.412500 0.000000
0.050000 0.725000 0.000000
0.337500 0.725000 0.000000
0.625000 0.725000 0.000000
0.912500 0.725000 0.000000
1.000000 0.725000 0.000000
0.050000 1.000000 0.000000
0.337500 1.000000 0.000000
0.625000 1.000000 0.000000
0.912500 1.000000 0.000000
1.000000 1.000000 0.000000
0.050000 1.000000 0.000000
0.337500 1.000000 0.000000
0.625000 1.000000 0.000000
0.912500 1.000000 0.000000
1.000000 1.000000 0.000000
0.050000 0.100000 0.132500
0.337500 0.100000 0.132500
0.625000 0.100000 0.132500
0.912500 0.100000 0.132500
1.000000 0.100000 0.132500
0.050000 0.412500 0.132500
0.337500 0.412500 0.132500
0.625000 0.412500 0.132500
0.912500 0.412500 0.132500
1.000000 0.412500 0.132500
0.050000 0.725000 0.132500
0.337500 0.725000 0.132500
0.625000 0.725000 0.132500
0.912500 0.725000 0.132500
1.000000 0.725000 0.132500
0.050000 1.000000 0.132500
0.337500 1.000000 0.132500
0.625000 1.000000 0.132500
0.912500 1.000000 0.132500
1.000000 1.000000 0.132500
0.050000 1.000000 0.132500
0.337500 1.000000 0.132500
0.625000 1.000000 0.132500
0.912500 1.000000 0.132500
1.000000 1.000000 0.132500
0.050000 0.100000 0.345000
0.337500 0.100000 0.345000
0.625000 0.100000 0.345000
0.912500 0.100000 0.345000
1.000000 0.100000 0.345000
0.050000 0.412500 0.345000
0.337500 0.412500 0.345000
0.625000 0.412500 0.345000
0.912500 0.412500 0.345000
1.000000 0.412500 0.345000
0.050000 0.725000 0.345000
0.337500 0.725000 0.345000
0.625000 0.725000 0.345000
0.912500 0.725000 0.345000
1.000000 0.725000 0.345000
0.050000 1.000000 0.345000
0.337500 1.000000 0.345000
0.625000 1.000000 0.345000
0.912500 1.000000 0.345000
1.000000 1.000000 0.345000
0.050000 1.000000 0.345000
0.337500 1.000000 0.345000
0.625000 1.000000 0.345000
0.912500 1.000000 0.345000
1.000000 1.000000 0.345000
0.050000 0.100000 0.557500
0.337500 0.100000 0.557500
0.625000 0.100000 0.557500
0.912500 0.100000 0.557500
1.000000 0.100000 0.557500
0.050000 0.412500 0.557500
0.337500 0.412500 0.557500
0.625000 0.412500 0.557500
0.912500 0.412500 0.557500
1.000000 0.412500 0.557500
0.050000 0.725000 0.557500
0.337500 0.725000 0.557500
0.625000 0.725000 0.557500
0.912500 0.725000 0.557500
1.000000 0.725000 0.557500
0.050000 1.000000 0.557500
0.337500 1.000000 0.557500
0.625000 1.000000 0.557500
0.912500 1.000000 0.557500
1.000000 1.000000 0.557500
0.050000 1.000000 0.557500
0.337500 1.000000 0.557500
0.625000 1.000000 0.557500
0.912500 1.000000 0.557500
1.000000 1.000000 0.557500
0.050000 0.100000 0.770000
0.337500 0.100000 0.770000
0.625000 0.100000 0.770000
0.912500 0.100000 0.770000
1.000000 0.100000 0.770000
0.050000 0.412500 0.770000
0.337500 0.412500 0.770000
0.625000 0.412500 0.770000
0.912500 0.412500 0.770000
1.000000 0.412500 0.770000
0.050000 0.725000 0.770000
0.337500 0.725000 0.770000
0.625000 0.725000 0.770000
0.912500 0.725000 0.770000
1.000000 0.725000 0.770000
0.050000 1.000000 0.770000
0.337500 1.000000 0.770000
0.625000 1.000000 0.770000
0.912500 1.000000 0.770000
1.000000 1.000000 0.770000
0.050000 1.000000 0.770000
0.337500 1.000000 0.770000
0.625000 1.000000 0.770000
0.912500 1.000000 0.770000
1.000000 1.000000 0.770000
