app/src/main/assets/luts/sunlit_meadow.cube
# ApexStudio filter: sunlit_meadow
LUT_3D_SIZE 17
DOMAIN_MIN 0.0 0.0 0.0
DOMAIN_MAX 1.0 1.0 1.0
0.050000 0.100000 0.000000
0.121875 0.100000 0.000000
0.193750 0.100000 0.000000
0.265625 0.100000 0.000000
0.337500 0.100000 0.000000
0.409375 0.100000 0.000000
0.481250 0.100000 0.000000
0.553125 0.100000 0.000000
0.625000 0.100000 0.000000
0.696875 0.100000 0.000000
0.768750 0.100000 0.000000
0.840625 0.100000 0.000000
0.912500 0.100000 0.000000
0.984375 0.100000 0.000000
1.000000 0.100000 0.000000
1.000000 0.100000 0.000000
1.000000 0.100000 0.000000
0.050000 0.178125 0.000000
0.121875 0.178125 0.000000
0.193750 0.178125 0.000000
0.265625 0.178125 0.000000
0.337500 0.178125 0.000000
0.409375 0.178125 0.000000
0.481250 0.178125 0.000000
0.553125 0.178125 0.000000
0.625000 0.178125 0.000000
0.696875 0.178125 0.000000
0.768750 0.178125 0.000000
0.840625 0.178125 0.000000
0.912500 0.178125 0.000000
0.984375 0.178125 0.000000
1.000000 0.178125 0.000000
1.000000 0.178125 0.000000
1.000000 0.178125 0.000000
0.050000 0.256250 0.000000
0.121875 0.256250 0.000000
0.193750 0.256250 0.000000
0.265625 0.256250 0.000000
0.337500 0.256250 0.000000
0.409375 0.256250 0.000000
0.481250 0.256250 0.000000
0.553125 0.256250 0.000000
0.625000 0.256250 0.000000
0.696875 0.256250 0.000000
0.768750 0.256250 0.000000
0.840625 0.256250 0.000000
0.912500 0.256250 0.000000
0.984375 0.256250 0.000000
1.000000 0.256250 0.000000
1.000000 0.256250 0.000000
1.000000 0.256250 0.000000
0.050000 0.334375 0.000000
0.121875 0.334375 0.000000
0.193750 0.334375 0.000000
0.265625 0.334375 0.000000
0.337500 0.334375 0.000000
0.409375 0.334375 0.000000
0.481250 0.334375 0.000000
0.553125 0.334375 0.000000
0.625000 0.334375 0.000000
0.696875 0.334375 0.000000
0.768750 0.334375 0.000000
0.840625 0.334375 0.000000
0.912500 0.334375 0.000000
0.984375 0.334375 0.000000
1.000000 0.334375 0.000000
1.000000 0.334375 0.000000
1.000000 0.334375 0.000000
0.050000 0.412500 0.000000
0.121875 0.412500 0.000000
0.193750 0.412500 0.000000
0.265625 0.412500 0.000000
0.337500 0.412500 0.000000
0.409375 0.412500 0.000000
0.481250 0.412500 0.000000
0.553125 0.412500 0.000000
0.625000 0.412500 0.000000
0.696875 0.412500 0.000000
0.768750 0.412500 0.000000
0.840625 0.412500 0.000000
0.912500 0.412500 0.000000
0.984375 0.412500 0.000000
1.000000 0.412500 0.000000
1.000000 0.412500 0.000000
1.000000 0.412500 0.000000
0.050000 0.490625 0.000000
0.121875 0.490625 0.000000
0.193750 0.490625 0.000000
0.265625 0.490625 0.000000
0.337500 0.490625 0.000000
0.409375 0.490625 0.000000
0.481250 0.490625 0.000000
0.553125 0.490625 0.000000
0.625000 0.490625 0.000000
0.696875 0.490625 0.000000
0.768750 0.490625 0.000000
0.840625 0.490625 0.000000
0.912500 0.490625 0.000000
0.984375 0.490625 0.000000
1.000000 0.490625 0.000000
1.000000 0.490625 0.000000
1.000000 0.490625 0.000000
0.050000 0.568750 0.000000
0.121875 0.568750 0.000000
0.193750 0.568750 0.000000
0.265625 0.568750 0.000000
0.337500 0.568750 0.000000
0.409375 0.568750 0.000000
0.481250 0.568750 0.000000
0.553125 0.568750 0.000000
0.625000 0.568750 0.000000
0.696875 0.568750 0.000000
0.768750 0.568750 0.000000
0.840625 0.568750 0.000000
0.912500 0.568750 0.000000
0.984375 0.568750 0.000000
1.000000 0.568750 0.000000
1.000000 0.568750 0.000000
1.000000 0.568750 0.000000
0.050000 0.646875 0.000000
0.121875 0.646875 0.000000
0.193750 0.646875 0.000000
0.265625 0.646875 0.000000
0.337500 0.646875 0.000000
0.409375 0.646875 0.000000
0.481250 0.646875 0.000000
0.553125 0.646875 0.000000
0.625000 0.646875 0.000000
0.696875 0.646875 0.000000
0.768750 0.646875 0.000000
0.840625 0.646875 0.000000
0.912500 0.646875 0.000000
0.984375 0.646875 0.000000
1.000000 0.646875 0.000000
1.000000 0.646875 0.000000
1.000000 0.646875 0.000000
0.050000 0.725000 0.000000
0.121875 0.725000 0.000000
0.193750 0.725000 0.000000
0.265625 0.725000 0.000000
0.337500 0.725000 0.000000
0.409375 0.725000 0.000000
0.481250 0.725000 0.000000
0.553125 0.725000 0.000000
0.625000 0.725000 0.000000
0.696875 0.725000 0.000000
0.768750 0.725000 0.000000
0.840625 0.725000 0.000000
0.912500 0.725000 0.000000
0.984375 0.725000 0.000000
1.000000 0.725000 0.000000
1.000000 0.725000 0.000000
1.000000 0.725000 0.000000
0.050000 0.803125 0.000000
0.121875 0.803125 0.000000
0.193750 0.803125 0.000000
0.265625 0.803125 0.000000
0.337500 0.803125 0.000000
0.409375 0.803125 0.000000
0.481250 0.803125 0.000000
0.553125 0.803125 0.000000
0.625000 0.803125 0.000000
0.696875 0.803125 0.000000
0.768750 0.803125 0.000000
0.840625 0.803125 0.000000
0.912500 0.803125 0.000000
0.984375 0.803125 0.000000
1.000000 0.803125 0.000000
1.000000 0.803125 0.000000
1.000000 0.803125 0.000000
0.050000 0.881250 0.000000
0.121875 0.881250 0.000000
0.193750 0.881250 0.000000
0.265625 0.881250 0.000000
0.337500 0.881250 0.000000
0.409375 0.881250 0.000000
0.481250 0.881250 0.000000
0.553125 0.881250 0.000000
0.625000 0.881250 0.000000
0.696875 0.881250 0.000000
0.768750 0.881250 0.000000
0.840625 0.881250 0.000000
0.912500 0.881250 0.000000
0.984375 0.881250 0.000000
1.000000 0.881250 0.000000
1.000000 0.881250 0.000000
1.000000 0.881250 0.000000
0.050000 0.959375 0.000000
0.121875 0.959375 0.000000
0.193750 0.959375 0.000000
0.265625 0.959375 0.000000
0.337500 0.959375 0.000000
0.409375 0.959375 0.000000
0.481250 0.959375 0.000000
0.553125 0.959375 0.000000
0.625000 0.959375 0.000000
0.696875 0.959375 0.000000
0.768750 0.959375 0.000000
0.840625 0.959375 0.000000
0.912500 0.959375 0.000000
0.984375 0.959375 0.000000
1.000000 0.959375 0.000000
1.000000 0.959375 0.000000
1.000000 0.959375 0.000000
0.050000 1.000000 0.000000
0.121875 1.000000 0.000000
0.193750 1.000000 0.000000
0.265625 1.000000 0.000000
0.337500 1.000000 0.000000
0.409375 1.000000 0.000000
0.481250 1.000000 0.000000
0.553125 1.000000 0.000000
0.625000 1.000000 0.000000
0.696875 1.000000 0.000000
0.768750 1.000000 0.000000
0.840625 1.000000 0.000000
0.912500 1.000000 0.000000
0.984375 1.000000 0.000000
1.000000 1.000000 0.000000
1.000000 1.000000 0.000000
1.000000 1.000000 0.000000
0.050000 1.000000 0.000000
0.121875 1.000000 0.000000
0.193750 1.000000 0.000000
0.265625 1.000000 0.000000
0.337500 1.000000 0.000000
0.409375 1.000000 0.000000
0.481250 1.000000 0.000000
0.553125 1.000000 0.000000
0.625000 1.000000 0.000000
0.696875 1.000000 0.000000
0.768750 1.000000 0.000000
0.840625 1.000000 0.000000
0.912500 1.000000 0.000000
0.984375 1.000000 0.000000
1.000000 1.000000 0.000000
1.000000 1.000000 0.000000
1.000000 1.000000 0.000000
0.050000 1.000000 0.000000
0.121875 1.000000 0.000000
0.193750 1.000000 0.000000
0.265625 1.000000 0.000000
0.337500 1.000000 0.000000
0.409375 1.000000 0.000000
0.481250 1.000000 0.000000
0.553125 1.000000 0.000000
0.625000 1.000000 0.000000
0.696875 1.000000 0.000000
0.768750 1.000000 0.000000
0.840625 1.000000 0.000000
0.912500 1.000000 0.000000
0.984375 1.000000 0.000000
1.000000 1.000000 0.000000
1.000000 1.000000 0.000000
1.000000 1.000000 0.000000
0.050000 1.000000 0.000000
0.121875 1.000000 0.000000
0.193750 1.000000 0.000000
0.265625 1.000000 0.000000
0.337500 1.000000 0.000000
0.409375 1.000000 0.000000
0.481250 1.000000 0.000000
0.553125 1.000000 0.000000
0.625000 1.000000 0.000000
0.696875 1.000000 0.000000
0.768750 1.000000 0.000000
0.840625 1.000000 0.000000
0.912500 1.000000 0.000000
0.984375 1.000000 0.000000
1.000000 1.000000 0.000000
1.000000 1.000000 0.000000
1.000000 1.000000 0.000000
0.050000 1.000000 0.000000
0.121875 1.000000 0.000000
0.193750 1.000000 0.000000
0.265625 1.000000 0.000000
0.337500 1.000000 0.000000
0.409375 1.000000 0.000000
0.481250 1.000000 0.000000
0.553125 1.000000 0.000000
0.625000 1.000000 0.000000
0.696875 1.000000 0.000000
0.768750 1.000000 0.000000
0.840625 1.000000 0.000000
0.912500 1.000000 0.000000
0.984375 1.000000 0.000000
1.000000 1.000000 0.000000
1.000000 1.000000 0.000000
1.000000 1.000000 0.000000
0.050000 0.100000 0.000000
0.121875 0.100000 0.000000
0.193750 0.100000 0.000000
0.265625 0.100000 0.000000
0.337500 0.100000 0.000000
0.409375 0.100000 0.000000
0.481250 0.100000 0.000000
0.553125 0.100000 0.000000
0.625000 0.100000 0.000000
0.696875 0.100000 0.000000
0.768750 0.100000 0.000000
0.840625 0.100000 0.000000
0.912500 0.100000 0.000000
0.984375 0.100000 0.000000
1.000000 0.100000 0.000000
1.000000 0.100000 0.000000
1.000000 0.100000 0.000000
0.050000 0.178125 0.000000
0.121875 0.178125 0.000000
0.193750 0.178125 0.000000
0.265625 0.178125 0.000000
0.337500 0.178125 0.000000
0.409375 0.178125 0.000000
0.481250 0.178125 0.000000
0.553125 0.178125 0.000000
0.625000 0.178125 0.000000
0.696875 0.178125 0.000000
0.768750 0.178125 0.000000
0.840625 0.178125 0.000000
0.912500 0.178125 0.000000
0.984375 0.178125 0.000000
1.000000 0.178125 0.000000
1.000000 0.178125 0.000000
1.000000 0.178125 0.000000
0.050000 0.256250 0.000000
0.121875 0.256250 0.000000
0.193750 0.256250 0.000000
0.265625 0.256250 0.000000
0.337500 0.256250 0.000000
0.409375 0.256250 0.000000
0.481250 0.256250 0.000000
0.553125 0.256250 0.000000
0.625000 0.256250 0.000000
0.696875 0.256250 0.000000
0.768750 0.256250 0.000000
0.840625 0.256250 0.000000
0.912500 0.256250 0.000000
0.984375 0.256250 0.000000
1.000000 0.256250 0.000000
1.000000 0.256250 0.000000
1.000000 0.256250 0.000000
0.050000 0.334375 0.000000
0.121875 0.334375 0.000000
0.193750 0.334375 0.000000
0.265625 0.334375 0.000000
0.337500 0.334375 0.000000
0.409375 0.334375 0.000000
0.481250 0.334375 0.000000
0.553125 0.334375 0.000000
0.625000 0.334375 0.000000
0.696875 0.334375 0.000000
0.768750 0.334375 0.000000
0.840625 0.334375 0.000000
0.912500 0.334375 0.000000
0.984375 0.334375 0.000000
1.000000 0.334375 0.000000
1.000000 0.334375 0.000000
1.000000 0.334375 0.000000
0.050000 0.412500 0.000000
0.121875 0.412500 0.000000
0.193750 0.412500 0.000000
0.265625 0.412500 0.000000
0.337500 0.412500 0.000000
0.409375 0.412500 0.000000
0.481250 0.412500 0.000000
0.553125 0.412500 0.000000
0.625000 0.412500 0.000000
0.696875 0.412500 0.000000
0.768750 0.412500 0.000000
0.840625 0.412500 0.000000
0.912500 0.412500 0.000000
0.984375 0.412500 0.000000
1.000000 0.412500 0.000000
1.000000 0.412500 0.000000
1.000000 0.412500 0.000000
0.050000 0.490625 0.000000
0.121875 0.490625 0.000000
0.193750 0.490625 0.000000
0.265625 0.490625 0.000000
0.337500 0.490625 0.000000
0.409375 0.490625 0.000000
0.481250 0.490625 0.000000
0.553125 0.490625 0.000000
0.625000 0.490625 0.000000
0.696875 0.490625 0.000000
0.768750 0.490625 0.000000
0.840625 0.490625 0.000000
0.912500 0.490625 0.000000
0.984375 0.490625 0.000000
1.000000 0.490625 0.000000
1.000000 0.490625 0.000000
1.000000 0.490625 0.000000
0.050000 0.568750 0.000000
0.121875 0.568750 0.000000
0.193750 0.568750 0.000000
0.265625 0.568750 0.000000
0.337500 0.568750 0.000000
0.409375 0.568750 0.000000
0.481250 0.568750 0.000000
0.553125 0.568750 0.000000
0.625000 0.568750 0.000000
0.696875 0.568750 0.000000
0.768750 0.568750 0.000000
0.840625 0.568750 0.000000
0.912500 0.568750 0.000000
0.984375 0.568750 0.000000
1.000000 0.568750 0.000000
1.000000 0.568750 0.000000
1.000000 0.568750 0.000000
0.050000 0.646875 0.000000
0.121875 0.646875 0.000000
0.193750 0.646875 0.000000
0.265625 0.646875 0.000000
0.337500 0.646875 0.000000
0.409375 0.646875 0.000000
0.481250 0.646875 0.000000
0.553125 0.646875 0.000000
0.625000 0.646875 0.000000
0.696875 0.646875 0.000000
0.768750 0.646875 0.000000
0.840625 0.646875 0.000000
0.912500 0.646875 0.000000
0.984375 0.646875 0.000000
1.000000 0.646875 0.000000
1.000000 0.646875 0.000000
1.000000 0.646875 0.000000
0.050000 0.725000 0.000000
0.121875 0.725000 0.000000
0.193750 0.725000 0.000000
0.265625 0.725000 0.000000
0.337500 0.725000 0.000000
0.409375 0.725000 0.000000
0.481250 0.725000 0.000000
0.553125 0.725000 0.000000
0.625000 0.725000 0.000000
0.696875 0.725000 0.000000
0.768750 0.725000 0.000000
0.840625 0.725000 0.000000
0.912500 0.725000 0.000000
0.984375 0.725000 0.000000
1.000000 0.725000 0.000000
1.000000 0.725000 0.000000
1.000000 0.725000 0.000000
0.050000 0.803125 0.000000
0.121875 0.803125 0.000000
0.193750 0.803125 0.000000
0.265625 0.803125 0.000000
0.337500 0.803125 0.000000
0.409375 0.803125 0.000000
0.481250 0.803125 0.000000
0.553125 0.803125 0.000000
0.625000 0.803125 0.000000
0.696875 0.803125 0.000000
0.768750 0.803125 0.000000
0.840625 0.803125 0.000000
0.912500 0.803125 0.000000
0.984375 0.803125 0.000000
1.000000 0.803125 0.000000
1.000000 0.803125 0.000000
1.000000 0.803125 0.000000
0.050000 0.881250 0.000000
0.121875 0.881250 0.000000
0.193750 0.881250 0.000000
0.265625 0.881250 0.000000
0.337500 0.881250 0.000000
0.409375 0.881250 0.000000
0.481250 0.881250 0.000000
0.553125 0.881250 0.000000
0.625000 0.881250 0.000000
0.696875 0.881250 0.000000
0.768750 0.881250 0.000000
0.840625 0.881250 0.000000
0.912500 0.881250 0.000000
0.984375 0.881250 0.000000
1.000000 0.881250 0.000000
1.000000 0.881250 0.000000
1.000000 0.881250 0.000000
0.050000 0.959375 0.000000
0.121875 0.959375 0.000000
0.193750 0.959375 0.000000
0.265625 0.959375 0.000000
0.337500 0.959375 0.000000
0.409375 0.959375 0.000000
0.481250 0.959375 0.000000
0.553125 0.959375 0.000000
0.625000 0.959375 0.000000
0.696875 0.959375 0.000000
0.768750 0.959375 0.000000
0.840625 0.959375 0.000000
0.912500 0.959375 0.000000
0.984375 0.959375 0.000000
1.000000 0.959375 0.000000
1.000000 0.959375 0.000000
1.000000 0.959375 0.000000
0.050000 1.000000 0.000000
0.121875 1.000000 0.000000
0.193750 1.000000 0.000000
0.265625 1.000000 0.000000
0.337500 1.000000 0.000000
0.409375 1.000000 0.000000
0.481250 1.000000 0.000000
0.553125 1.000000 0.000000
0.625000 1.000000 0.000000
0.696875 1.000000 0.000000
0.768750 1.000000 0.000000
0.840625 1.000000 0.000000
0.912500 1.000000 0.000000
0.984375 1.000000 0.000000
1.000000 1.000000 0.000000
1.000000 1.000000 0.000000
1.000000 1.000000 0.000000
0.050000 1.000000 0.000000
0.121875 1.000000 0.000000
0.193750 1.000000 0.000000
0.265625 1.000000 0.000000
0.337500 1.000000 0.000000
0.409375 1.000000 0.000000
0.481250 1.000000 0.000000
0.553125 1.000000 0.000000
0.625000 1.000000 0.000000
0.696875 1.000000 0.000000
0.768750 1.000000 0.000000
0.840625 1.000000 0.000000
0.912500 1.000000 0.000000
0.984375 1.000000 0.000000
1.000000 1.000000 0.000000
1.000000 1.000000 0.000000
1.000000 1.000000 0.000000
0.050000 1.000000 0.000000
0.121875 1.000000 0.000000
0.193750 1.000000 0.000000
0.265625 1.000000 0.000000
0.337500 1.000000 0.000000
0.409375 1.000000 0.000000
0.481250 1.000000 0.000000
0.553125 1.000000 0.000000
0.625000 1.000000 0.000000
0.696875 1.000000 0.000000
0.768750 1.000000 0.000000
0.840625 1.000000 0.000000
0.912500 1.000000 0.000000
0.984375 1.000000 0.000000
1.000000 1.000000 0.000000
1.000000 1.000000 0.000000
1.000000 1.000000 0.000000
0.050000 1.000000 0.000000
0.121875 1.000000 0.000000
0.193750 1.000000 0.000000
0.265625 1.000000 0.000000
0.337500 1.000000 0.000000
0.409375 1.000000 0.000000
0.481250 1.000000 0.000000
0.553125 1.000000 0.000000
0.625000 1.000000 0.000000
0.696875 1.000000 0.000000
0.768750 1.000000 0.000000
0.840625 1.000000 0.000000
0.912500 1.000000 0.000000
0.984375 1.000000 0.000000
1.000000 1.000000 0.000000
1.000000 1.000000 0.000000
1.000000 1.000000 0.000000
0.050000 1.000000 0.000000
0.121875 1.000000 0.000000
0.193750 1.000000 0.000000
0.265625 1.000000 0.000000
0.337500 1.000000 0.000000
0.409375 1.000000 0.000000
0.481250 1.000000 0.000000
0.553125 1.000000 0.000000
0.625000 1.000000 0.000000
0.696875 1.000000 0.000000
0.768750 1.000000 0.000000
0.840625 1.000000 0.000000
0.912500 1.000000 0.000000
0.984375 1.000000 0.000000
1.000000 1.000000 0.000000
1.000000 1.000000 0.000000
1.000000 1.000000 0.000000
0.050000 0.100000 0.026250
0.121875 0.100000 0.026250
0.193750 0.100000 0.026250
0.265625 0.100000 0.026250
0.337500 0.100000 0.026250
0.409375 0.100000 0.026250
0.481250 0.100000 0.026250
0.553125 0.100000 0.026250
0.625000 0.100000 0.026250
0.696875 0.100000 0.026250
0.768750 0.100000 0.026250
0.840625 0.100000 0.026250
0.912500 0.100000 0.026250
0.984375 0.100000 0.026250
1.000000 0.100000 0.026250
1.000000 0.100000 0.026250
1.000000 0.100000 0.026250
0.050000 0.178125 0.026250
0.121875 0.178125 0.026250
0.193750 0.178125 0.026250
0.265625 0.178125 0.026250
0.337500 0.178125 0.026250
0.409375 0.178125 0.026250
0.481250 0.178125 0.026250
0.553125 0.178125 0.026250
0.625000 0.178125 0.026250
0.696875 0.178125 0.026250
0.768750 0.178125 0.026250
0.840625 0.178125 0.026250
0.912500 0.178125 0.026250
0.984375 0.178125 0.026250
1.000000 0.178125 0.026250
1.000000 0.178125 0.026250
1.000000 0.178125 0.026250
0.050000 0.256250 0.026250
0.121875 0.256250 0.026250
0.193750 0.256250 0.026250
0.265625 0.256250 0.026250
0.337500 0.256250 0.026250
0.409375 0.256250 0.026250
0.481250 0.256250 0.026250
0.553125 0.256250 0.026250
0.625000 0.256250 0.026250
0.696875 0.256250 0.026250
0.768750 0.256250 0.026250
0.840625 0.256250 0.026250
0.912500 0.256250 0.026250
0.984375 0.256250 0.026250
1.000000 0.256250 0.026250
1.000000 0.256250 0.026250
1.000000 0.256250 0.026250
0.050000 0.334375 0.026250
0.121875 0.334375 0.026250
0.193750 0.334375 0.026250
0.265625 0.334375 0.026250
0.337500 0.334375 0.026250
0.409375 0.334375 0.026250
0.481250 0.334375 0.026250
0.553125 0.334375 0.026250
0.625000 0.334375 0.026250
0.696875 0.334375 0.026250
0.768750 0.334375 0.026250
0.840625 0.334375 0.026250
0.912500 0.334375 0.026250
0.984375 0.334375 0.026250
1.000000 0.334375 0.026250
1.000000 0.334375 0.026250
1.000000 0.334375 0.026250
0.050000 0.412500 0.026250
0.121875 0.412500 0.026250
0.193750 0.412500 0.026250
0.265625 0.412500 0.026250
0.337500 0.412500 0.026250
0.409375 0.412500 0.026250
0.481250 0.412500 0.026250
0.553125 0.412500 0.026250
0.625000 0.412500 0.026250
0.696875 0.412500 0.026250
0.768750 0.412500 0.026250
0.840625 0.412500 0.026250
0.912500 0.412500 0.026250
0.984375 0.412500 0.026250
1.000000 0.412500 0.026250
1.000000 0.412500 0.026250
1.000000 0.412500 0.026250
0.050000 0.490625 0.026250
0.121875 0.490625 0.026250
0.193750 0.490625 0.026250
0.265625 0.490625 0.026250
0.337500 0.490625 0.026250
0.409375 0.490625 0.026250
0.481250 0.490625 0.026250
0.553125 0.490625 0.026250
0.625000 0.490625 0.026250
0.696875 0.490625 0.026250
0.768750 0.490625 0.026250
0.840625 0.490625 0.026250
0.912500 0.490625 0.026250
0.984375 0.490625 0.026250
1.000000 0.490625 0.026250
1.000000 0.490625 0.026250
1.000000 0.490625 0.026250
0.050000 0.568750 0.026250
0.121875 0.568750 0.026250
0.193750 0.568750 0.026250
0.265625 0.568750 0.026250
0.337500 0.568750 0.026250
0.409375 0.568750 0.026250
0.481250 0.568750 0.026250
0.553125 0.568750 0.026250
0.625000 0.568750 0.026250
0.696875 0.568750 0.026250
0.768750 0.568750 0.026250
0.840625 0.568750 0.026250
0.912500 0.568750 0.026250
0.984375 0.568750 0.026250
1.000000 0.568750 0.026250
1.000000 0.568750 0.026250
1.000000 0.568750 0.026250
0.050000 0.646875 0.026250
0.121875 0.646875 0.026250
0.193750 0.646875 0.026250
0.265625 0.646875 0.026250
0.337500 0.646875 0.026250
0.409375 0.646875 0.026250
0.481250 0.646875 0.026250
0.553125 0.646875 0.026250
0.625000 0.646875 0.026250
0.696875 0.646875 0.026250
0.768750 0.646875 0.026250
0.840625 0.646875 0.026250
0.912500 0.646875 0.026250
0.984375 0.646875 0.026250
1.000000 0.646875 0.026250
1.000000 0.646875 0.026250
1.000000 0.646875 0.026250
0.050000 0.725000 0.026250
0.121875 0.725000 0.026250
0.193750 0.725000 0.026250
0.265625 0.725000 0.026250
0.337500 0.725000 0.026250
0.409375 0.725000 0.026250
0.481250 0.725000 0.026250
0.553125 0.725000 0.026250
0.625000 0.725000 0.026250
0.696875 0.725000 0.026250
0.768750 0.725000 0.026250
0.840625 0.725000 0.026250
0.912500 0.725000 0.026250
0.984375 0.725000 0.026250
1.000000 0.725000 0.026250
1.000000 0.725000 0.026250
1.000000 0.725000 0.026250
0.050000 0.803125 0.026250
0.121875 0.803125 0.026250
0.193750 0.803125 0.026250
0.265625 0.803125 0.026250
0.337500 0.803125 0.026250
0.409375 0.803125 0.026250
0.481250 0.803125 0.026250
0.553125 0.803125 0.026250
0.625000 0.803125 0.026250
0.696875 0.803125 0.026250
0.768750 0.803125 0.026250
0.840625 0.803125 0.026250
0.912500 0.803125 0.026250
0.984375 0.803125 0.026250
1.000000 0.803125 0.026250
1.000000 0.803125 0.026250
1.000000 0.803125 0.026250
0.050000 0.881250 0.026250
0.121875 0.881250 0.026250
0.193750 0.881250 0.026250
0.265625 0.881250 0.026250
0.337500 0.881250 0.026250
0.409375 0.881250 0.026250
0.481250 0.881250 0.026250
0.553125 0.881250 0.026250
0.625000 0.881250 0.026250
0.696875 0.881250 0.026250
0.768750 0.881250 0.026250
0.840625 0.881250 0.026250
0.912500 0.881250 0.026250
0.984375 0.881250 0.026250
1.000000 0.881250 0.026250
1.000000 0.881250 0.026250
1.000000 0.881250 0.026250
0.050000 0.959375 0.026250
0.121875 0.959375 0.026250
0.193750 0.959375 0.026250
0.265625 0.959375 0.026250
0.337500 0.959375 0.026250
0.409375 0.959375 0.026250
0.481250 0.959375 0.026250
0.553125 0.959375 0.026250
0.625000 0.959375 0.026250
0.696875 0.959375 0.026250
0.768750 0.959375 0.026250
0.840625 0.959375 0.026250
0.912500 0.959375 0.026250
0.984375 0.959375 0.026250
1.000000 0.959375 0.026250
1.000000 0.959375 0.026250
1.000000 0.959375 0.026250
0.050000 1.000000 0.026250
0.121875 1.000000 0.026250
0.193750 1.000000 0.026250
0.265625 1.000000 0.026250
0.337500 1.000000 0.026250
0.409375 1.000000 0.026250
0.481250 1.000000 0.026250
0.553125 1.000000 0.026250
0.625000 1.000000 0.026250
0.696875 1.000000 0.026250
0.768750 1.000000 0.026250
0.840625 1.000000 0.026250
0.912500 1.000000 0.026250
0.984375 1.000000 0.026250
1.000000 1.000000 0.026250
1.000000 1.000000 0.026250
1.000000 1.000000 0.026250
0.050000 1.000000 0.026250
0.121875 1.000000 0.026250
0.193750 1.000000 0.026250
0.265625 1.000000 0.026250
0.337500 1.000000 0.026250
0.409375 1.000000 0.026250
0.481250 1.000000 0.026250
0.553125 1.000000 0.026250
0.625000 1.000000 0.026250
0.696875 1.000000 0.026250
0.768750 1.000000 0.026250
0.840625 1.000000 0.026250
0.912500 1.000000 0.026250
0.984375 1.000000 0.026250
1.000000 1.000000 0.026250
1.000000 1.000000 0.026250
1.000000 1.000000 0.026250
0.050000 1.000000 0.026250
0.121875 1.000000 0.026250
0.193750 1.000000 0.026250
0.265625 1.000000 0.026250
0.337500 1.000000 0.026250
0.409375 1.000000 0.026250
0.481250 1.000000 0.026250
0.553125 1.000000 0.026250
0.625000 1.000000 0.026250
0.696875 1.000000 0.026250
0.768750 1.000000 0.026250
0.840625 1.000000 0.026250
0.912500 1.000000 0.026250
0.984375 1.000000 0.026250
1.000000 1.000000 0.026250
1.000000 1.000000 0.026250
1.000000 1.000000 0.026250
0.050000 1.000000 0.026250
0.121875 1.000000 0.026250
0.193750 1.000000 0.026250
0.265625 1.000000 0.026250
0.337500 1.000000 0.026250
0.409375 1.000000 0.026250
0.481250 1.000000 0.026250
0.553125 1.000000 0.026250
0.625000 1.000000 0.026250
0.696875 1.000000 0.026250
0.768750 1.000000 0.026250
0.840625 1.000000 0.026250
0.912500 1.000000 0.026250
0.984375 1.000000 0.026250
1.000000 1.000000 0.026250
1.000000 1.000000 0.026250
1.000000 1.000000 0.026250
0.050000 1.000000 0.026250
0.121875 1.000000 0.026250
0.193750 1.000000 0.026250
0.265625 1.000000 0.026250
0.337500 1.000000 0.026250
0.409375 1.000000 0.026250
0.481250 1.000000 0.026250
0.553125 1.000000 0.026250
0.625000 1.000000 0.026250
0.696875 1.000000 0.026250
0.768750 1.000000 0.026250
0.840625 1.000000 0.026250
0.912500 1.000000 0.026250
0.984375 1.000000 0.026250
1.000000 1.000000 0.026250
1.000000 1.000000 0.026250
1.000000 1.000000 0.026250
0.050000 0.100000 0.079375
0.121875 0.100000 0.079375
0.193750 0.100000 0.079375
0.265625 0.100000 0.079375
0.337500 0.100000 0.079375
0.409375 0.100000 0.079375
0.481250 0.100000 0.079375
0.553125 0.100000 0.079375
0.625000 0.100000 0.079375
0.696875 0.100000 0.079375
0.768750 0.100000 0.079375
0.840625 0.100000 0.079375
0.912500 0.100000 0.079375
0.984375 0.100000 0.079375
1.000000 0.100000 0.079375
1.000000 0.100000 0.079375
1.000000 0.100000 0.079375
0.050000 0.178125 0.079375
