app/src/main/assets/luts/sunlit_meadow.cube
# ApexStudio filter: sunlit_meadow
LUT_3D_SIZE 9
DOMAIN_MIN 0.0 0.0 0.0
DOMAIN_MAX 1.0 1.0 1.0
0.050000 0.100000 0.000000
0.193750 0.100000 0.000000
0.337500 0.100000 0.000000
0.481250 0.100000 0.000000
0.625000 0.100000 0.000000
0.768750 0.100000 0.000000
0.912500 0.100000 0.000000
1.000000 0.100000 0.000000
1.000000 0.100000 0.000000
0.050000 0.256250 0.000000
0.193750 0.256250 0.000000
0.337500 0.256250 0.000000
0.481250 0.256250 0.000000
0.625000 0.256250 0.000000
0.768750 0.256250 0.000000
0.912500 0.256250 0.000000
1.000000 0.256250 0.000000
1.000000 0.256250 0.000000
0.050000 0.412500 0.000000
0.193750 0.412500 0.000000
0.337500 0.412500 0.000000
0.481250 0.412500 0.000000
0.625000 0.412500 0.000000
0.768750 0.412500 0.000000
0.912500 0.412500 0.000000
1.000000 0.412500 0.000000
1.000000 0.412500 0.000000
0.050000 0.568750 0.000000
0.193750 0.568750 0.000000
0.337500 0.568750 0.000000
0.481250 0.568750 0.000000
0.625000 0.568750 0.000000
0.768750 0.568750 0.000000
0.912500 0.568750 0.000000
1.000000 0.568750 0.000000
1.000000 0.568750 0.000000
0.050000 0.725000 0.000000
0.193750 0.725000 0.000000
0.337500 0.725000 0.000000
0.481250 0.725000 0.000000
0.625000 0.725000 0.000000
0.768750 0.725000 0.000000
0.912500 0.725000 0.000000
1.000000 0.725000 0.000000
1.000000 0.725000 0.000000
0.050000 0.881250 0.000000
0.193750 0.881250 0.000000
0.337500 0.881250 0.000000
0.481250 0.881250 0.000000
0.625000 0.881250 0.000000
0.768750 0.881250 0.000000
0.912500 0.881250 0.000000
1.000000 0.881250 0.000000
1.000000 0.881250 0.000000
0.050000 1.000000 0.000000
0.193750 1.000000 0.000000
0.337500 1.000000 0.000000
0.481250 1.000000 0.000000
0.625000 1.000000 0.000000
0.768750 1.000000 0.000000
0.912500 1.000000 0.000000
1.000000 1.000000 0.000000
1.000000 1.000000 0.000000
0.050000 1.000000 0.000000
0.193750 1.000000 0.000000
0.337500 1.000000 0.000000
0.481250 1.000000 0.000000
0.625000 1.000000 0.000000
0.768750 1.000000 0.000000
0.912500 1.000000 0.000000
1.000000 1.000000 0.000000
1.000000 1.000000 0.000000
0.050000 1.000000 0.000000
0.193750 1.000000 0.000000
0.337500 1.000000 0.000000
0.481250 1.000000 0.000000
0.625000 1.000000 0.000000
0.768750 1.000000 0.000000
0.912500 1.000000 0.000000
1.000000 1.000000 0.000000
1.000000 1.000000 0.000000
0.050000 0.100000 0.026250
0.193750 0.100000 0.026250
0.337500 0.100000 0.026250
0.481250 0.100000 0.026250
0.625000 0.100000 0.026250
0.768750 0.100000 0.026250
0.912500 0.100000 0.026250
1.000000 0.100000 0.026250
1.000000 0.100000 0.026250
0.050000 0.256250 0.026250
0.193750 0.256250 0.026250
0.337500 0.256250 0.026250
0.481250 0.256250 0.026250
0.625000 0.256250 0.026250
0.768750 0.256250 0.026250
0.912500 0.256250 0.026250
1.000000 0.256250 0.026250
1.000000 0.256250 0.026250
0.050000 0.412500 0.026250
0.193750 0.412500 0.026250
0.337500 0.412500 0.026250
0.481250 0.412500 0.026250
0.625000 0.412500 0.026250
0.768750 0.412500 0.026250
0.912500 0.412500 0.026250
1.000000 0.412500 0.026250
1.000000 0.412500 0.026250
0.050000 0.568750 0.026250
0.193750 0.568750 0.026250
0.337500 0.568750 0.026250
0.481250 0.568750 0.026250
0.625000 0.568750 0.026250
0.768750 0.568750 0.026250
0.912500 0.568750 0.026250
1.000000 0.568750 0.026250
1.000000 0.568750 0.026250
0.050000 0.725000 0.026250
0.193750 0.725000 0.026250
0.337500 0.725000 0.026250
0.481250 0.725000 0.026250
0.625000 0.725000 0.026250
0.768750 0.725000 0.026250
0.912500 0.725000 0.026250
1.000000 0.725000 0.026250
1.000000 0.725000 0.026250
0.050000 0.881250 0.026250
0.193750 0.881250 0.026250
0.337500 0.881250 0.026250
0.481250 0.881250 0.026250
0.625000 0.881250 0.026250
0.768750 0.881250 0.026250
0.912500 0.881250 0.026250
1.000000 0.881250 0.026250
1.000000 0.881250 0.026250
0.050000 1.000000 0.026250
0.193750 1.000000 0.026250
0.337500 1.000000 0.026250
0.481250 1.000000 0.026250
0.625000 1.000000 0.026250
0.768750 1.000000 0.026250
0.912500 1.000000 0.026250
1.000000 1.000000 0.026250
1.000000 1.000000 0.026250
0.050000 1.000000 0.026250
0.193750 1.000000 0.026250
0.337500 1.000000 0.026250
0.481250 1.000000 0.026250
0.625000 1.000000 0.026250
0.768750 1.000000 0.026250
0.912500 1.000000 0.026250
1.000000 1.000000 0.026250
1.000000 1.000000 0.026250
0.050000 1.000000 0.026250
0.193750 1.000000 0.026250
0.337500 1.000000 0.026250
0.481250 1.000000 0.026250
0.625000 1.000000 0.026250
0.768750 1.000000 0.026250
0.912500 1.000000 0.026250
1.000000 1.000000 0.026250
1.000000 1.000000 0.026250
0.050000 0.100000 0.132500
0.193750 0.100000 0.132500
0.337500 0.100000 0.132500
0.481250 0.100000 0.132500
0.625000 0.100000 0.132500
0.768750 0.100000 0.132500
0.912500 0.100000 0.132500
1.000000 0.100000 0.132500
1.000000 0.100000 0.132500
0.050000 0.256250 0.132500
0.193750 0.256250 0.132500
0.337500 0.256250 0.132500
0.481250 0.256250 0.132500
0.625000 0.256250 0.132500
0.768750 0.256250 0.132500
0.912500 0.256250 0.132500
1.000000 0.256250 0.132500
1.000000 0.256250 0.132500
0.050000 0.412500 0.132500
0.193750 0.412500 0.132500
0.337500 0.412500 0.132500
0.481250 0.412500 0.132500
0.625000 0.412500 0.132500
0.768750 0.412500 0.132500
0.912500 0.412500 0.132500
1.000000 0.412500 0.132500
1.000000 0.412500 0.132500
0.050000 0.568750 0.132500
0.193750 0.568750 0.132500
0.337500 0.568750 0.132500
0.481250 0.568750 0.132500
0.625000 0.568750 0.132500
0.768750 0.568750 0.132500
0.912500 0.568750 0.132500
1.000000 0.568750 0.132500
1.000000 0.568750 0.132500
0.050000 0.725000 0.132500
0.193750 0.725000 0.132500
0.337500 0.725000 0.132500
0.481250 0.725000 0.132500
0.625000 0.725000 0.132500
0.768750 0.725000 0.132500
0.912500 0.725000 0.132500
1.000000 0.725000 0.132500
1.000000 0.725000 0.132500
0.050000 0.881250 0.132500
0.193750 0.881250 0.132500
0.337500 0.881250 0.132500
0.481250 0.881250 0.132500
0.625000 0.881250 0.132500
0.768750 0.881250 0.132500
0.912500 0.881250 0.132500
1.000000 0.881250 0.132500
1.000000 0.881250 0.132500
0.050000 1.000000 0.132500
0.193750 1.000000 0.132500
0.337500 1.000000 0.132500
0.481250 1.000000 0.132500
0.625000 1.000000 0.132500
0.768750 1.000000 0.132500
0.912500 1.000000 0.132500
1.000000 1.000000 0.132500
1.000000 1.000000 0.132500
0.050000 1.000000 0.132500
0.193750 1.000000 0.132500
0.337500 1.000000 0.132500
0.481250 1.000000 0.132500
0.625000 1.000000 0.132500
0.768750 1.000000 0.132500
0.912500 1.000000 0.132500
1.000000 1.000000 0.132500
1.000000 1.000000 0.132500
0.050000 1.000000 0.132500
0.193750 1.000000 0.132500
0.337500 1.000000 0.132500
0.481250 1.000000 0.132500
0.625000 1.000000 0.132500
0.768750 1.000000 0.132500
0.912500 1.000000 0.132500
1.000000 1.000000 0.132500
1.000000 1.000000 0.132500
0.050000 0.100000 0.238750
0.193750 0.100000 0.238750
0.337500 0.100000 0.238750
0.481250 0.100000 0.238750
0.625000 0.100000 0.238750
0.768750 0.100000 0.238750
0.912500 0.100000 0.238750
1.000000 0.100000 0.238750
1.000000 0.100000 0.238750
0.050000 0.256250 0.238750
0.193750 0.256250 0.238750
0.337500 0.256250 0.238750
0.481250 0.256250 0.238750
0.625000 0.256250 0.238750
0.768750 0.256250 0.238750
0.912500 0.256250 0.238750
1.000000 0.256250 0.238750
1.000000 0.256250 0.238750
0.050000 0.412500 0.238750
0.193750 0.412500 0.238750
0.337500 0.412500 0.238750
0.481250 0.412500 0.238750
0.625000 0.412500 0.238750
0.768750 0.412500 0.238750
0.912500 0.412500 0.238750
1.000000 0.412500 0.238750
1.000000 0.412500 0.238750
0.050000 0.568750 0.238750
0.193750 0.568750 0.238750
0.337500 0.568750 0.238750
0.481250 0.568750 0.238750
0.625000 0.568750 0.238750
0.768750 0.568750 0.238750
0.912500 0.568750 0.238750
1.000000 0.568750 0.238750
1.000000 0.568750 0.238750
0.050000 0.725000 0.238750
0.193750 0.725000 0.238750
0.337500 0.725000 0.238750
0.481250 0.725000 0.238750
0.625000 0.725000 0.238750
0.768750 0.725000 0.238750
0.912500 0.725000 0.238750
1.000000 0.725000 0.238750
1.000000 0.725000 0.238750
0.050000 0.881250 0.238750
0.193750 0.881250 0.238750
0.337500 0.881250 0.238750
0.481250 0.881250 0.238750
0.625000 0.881250 0.238750
0.768750 0.881250 0.238750
0.912500 0.881250 0.238750
1.000000 0.881250 0.238750
1.000000 0.881250 0.238750
0.050000 1.000000 0.238750
0.193750 1.000000 0.238750
0.337500 1.000000 0.238750
0.481250 1.000000 0.238750
0.625000 1.000000 0.238750
0.768750 1.000000 0.238750
0.912500 1.000000 0.238750
1.000000 1.000000 0.238750
1.000000 1.000000 0.238750
0.050000 1.000000 0.238750
0.193750 1.000000 0.238750
0.337500 1.000000 0.238750
0.481250 1.000000 0.238750
0.625000 1.000000 0.238750
0.768750 1.000000 0.238750
0.912500 1.000000 0.238750
1.000000 1.000000 0.238750
1.000000 1.000000 0.238750
0.050000 1.000000 0.238750
0.193750 1.000000 0.238750
0.337500 1.000000 0.238750
0.481250 1.000000 0.238750
0.625000 1.000000 0.238750
0.768750 1.000000 0.238750
0.912500 1.000000 0.238750
1.000000 1.000000 0.238750
1.000000 1.000000 0.238750
0.050000 0.100000 0.345000
0.193750 0.100000 0.345000
0.337500 0.100000 0.345000
0.481250 0.100000 0.345000
0.625000 0.100000 0.345000
0.768750 0.100000 0.345000
0.912500 0.100000 0.345000
1.000000 0.100000 0.345000
1.000000 0.100000 0.345000
0.050000 0.256250 0.345000
0.193750 0.256250 0.345000
0.337500 0.256250 0.345000
0.481250 0.256250 0.345000
0.625000 0.256250 0.345000
0.768750 0.256250 0.345000
0.912500 0.256250 0.345000
1.000000 0.256250 0.345000
1.000000 0.256250 0.345000
0.050000 0.412500 0.345000
0.193750 0.412500 0.345000
0.337500 0.412500 0.345000
0.481250 0.412500 0.345000
0.625000 0.412500 0.345000
0.768750 0.412500 0.345000
0.912500 0.412500 0.345000
1.000000 0.412500 0.345000
1.000000 0.412500 0.345000
0.050000 0.568750 0.345000
0.193750 0.568750 0.345000
0.337500 0.568750 0.345000
0.481250 0.568750 0.345000
0.625000 0.568750 0.345000
0.768750 0.568750 0.345000
0.912500 0.568750 0.345000
1.000000 0.568750 0.345000
1.000000 0.568750 0.345000
0.050000 0.725000 0.345000
0.193750 0.725000 0.345000
0.337500 0.725000 0.345000
0.481250 0.725000 0.345000
0.625000 0.725000 0.345000
0.768750 0.725000 0.345000
0.912500 0.725000 0.345000
1.000000 0.725000 0.345000
1.000000 0.725000 0.345000
0.050000 0.881250 0.345000
0.193750 0.881250 0.345000
0.337500 0.881250 0.345000
0.481250 0.881250 0.345000
0.625000 0.881250 0.345000
0.768750 0.881250 0.345000
0.912500 0.881250 0.345000
1.000000 0.881250 0.345000
1.000000 0.881250 0.345000
0.050000 1.000000 0.345000
0.193750 1.000000 0.345000
0.337500 1.000000 0.345000
0.481250 1.000000 0.345000
0.625000 1.000000 0.345000
0.768750 1.000000 0.345000
0.912500 1.000000 0.345000
1.000000 1.000000 0.345000
1.000000 1.000000 0.345000
0.050000 1.000000 0.345000
0.193750 1.000000 0.345000
0.337500 1.000000 0.345000
0.481250 1.000000 0.345000
0.625000 1.000000 0.345000
0.768750 1.000000 0.345000
0.912500 1.000000 0.345000
1.000000 1.000000 0.345000
1.000000 1.000000 0.345000
0.050000 1.000000 0.345000
0.193750 1.000000 0.345000
0.337500 1.000000 0.345000
0.481250 1.000000 0.345000
0.625000 1.000000 0.345000
0.768750 1.000000 0.345000
0.912500 1.000000 0.345000
1.000000 1.000000 0.345000
1.000000 1.000000 0.345000
0.050000 0.100000 0.451250
0.193750 0.100000 0.451250
0.337500 0.100000 0.451250
0.481250 0.100000 0.451250
0.625000 0.100000 0.451250
0.768750 0.100000 0.451250
0.912500 0.100000 0.451250
1.000000 0.100000 0.451250
1.000000 0.100000 0.451250
0.050000 0.256250 0.451250
0.193750 0.256250 0.451250
0.337500 0.256250 0.451250
0.481250 0.256250 0.451250
0.625000 0.256250 0.451250
0.768750 0.256250 0.451250
0.912500 0.256250 0.451250
1.000000 0.256250 0.451250
1.000000 0.256250 0.451250
0.050000 0.412500 0.451250
0.193750 0.412500 0.451250
0.337500 0.412500 0.451250
0.481250 0.412500 0.451250
0.625000 0.412500 0.451250
0.768750 0.412500 0.451250
0.912500 0.412500 0.451250
1.000000 0.412500 0.451250
1.000000 0.412500 0.451250
0.050000 0.568750 0.451250
0.193750 0.568750 0.451250
0.337500 0.568750 0.451250
0.481250 0.568750 0.451250
0.625000 0.568750 0.451250
0.768750 0.568750 0.451250
0.912500 0.568750 0.451250
1.000000 0.568750 0.451250
1.000000 0.568750 0.451250
0.050000 0.725000 0.451250
0.193750 0.725000 0.451250
0.337500 0.725000 0.451250
0.481250 0.725000 0.451250
0.625000 0.725000 0.451250
0.768750 0.725000 0.451250
0.912500 0.725000 0.451250
1.000000 0.725000 0.451250
1.000000 0.725000 0.451250
0.050000 0.881250 0.451250
0.193750 0.881250 0.451250
0.337500 0.881250 0.451250
0.481250 0.881250 0.451250
0.625000 0.881250 0.451250
0.768750 0.881250 0.451250
0.912500 0.881250 0.451250
1.000000 0.881250 0.451250
1.000000 0.881250 0.451250
0.050000 1.000000 0.451250
0.193750 1.000000 0.451250
0.337500 1.000000 0.451250
0.481250 1.000000 0.451250
0.625000 1.000000 0.451250
0.768750 1.000000 0.451250
0.912500 1.000000 0.451250
1.000000 1.000000 0.451250
1.000000 1.000000 0.451250
0.050000 1.000000 0.451250
0.193750 1.000000 0.451250
0.337500 1.000000 0.451250
0.481250 1.000000 0.451250
0.625000 1.000000 0.451250
0.768750 1.000000 0.451250
0.912500 1.000000 0.451250
1.000000 1.000000 0.451250
1.000000 1.000000 0.451250
0.050000 1.000000 0.451250
0.193750 1.000000 0.451250
0.337500 1.000000 0.451250
0.481250 1.000000 0.451250
0.625000 1.000000 0.451250
0.768750 1.000000 0.451250
0.912500 1.000000 0.451250
1.000000 1.000000 0.451250
1.000000 1.000000 0.451250
0.050000 0.100000 0.557500
0.193750 0.100000 0.557500
0.337500 0.100000 0.557500
0.481250 0.100000 0.557500
0.625000 0.100000 0.557500
0.768750 0.100000 0.557500
0.912500 0.100000 0.557500
1.000000 0.100000 0.557500
1.000000 0.100000 0.557500
0.050000 0.256250 0.557500
0.193750 0.256250 0.557500
0.337500 0.256250 0.557500
0.481250 0.256250 0.557500
0.625000 0.256250 0.557500
0.768750 0.256250 0.557500
0.912500 0.256250 0.557500
1.000000 0.256250 0.557500
1.000000 0.256250 0.557500
0.050000 0.412500 0.557500
0.193750 0.412500 0.557500
0.337500 0.412500 0.557500
0.481250 0.412500 0.557500
0.625000 0.412500 0.557500
0.768750 0.412500 0.557500
0.912500 0.412500 0.557500
1.000000 0.412500 0.557500
1.000000 0.412500 0.557500
0.050000 0.568750 0.557500
0.193750 0.568750 0.557500
0.337500 0.568750 0.557500
0.481250 0.568750 0.557500
0.625000 0.568750 0.557500
0.768750 0.568750 0.557500
0.912500 0.568750 0.557500
1.000000 0.568750 0.557500
1.000000 0.568750 0.557500
0.050000 0.725000 0.557500
0.193750 0.725000 0.557500
0.337500 0.725000 0.557500
0.481250 0.725000 0.557500
0.625000 0.725000 0.557500
0.768750 0.725000 0.557500
0.912500 0.725000 0.557500
1.000000 0.725000 0.557500
1.000000 0.725000 0.557500
0.050000 0.881250 0.557500
0.193750 0.881250 0.557500
0.337500 0.881250 0.557500
0.481250 0.881250 0.557500
0.625000 0.881250 0.557500
0.768750 0.881250 0.557500
0.912500 0.881250 0.557500
1.000000 0.881250 0.557500
1.000000 0.881250 0.557500
0.050000 1.000000 0.557500
0.193750 1.000000 0.557500
0.337500 1.000000 0.557500
0.481250 1.000000 0.557500
0.625000 1.000000 0.557500
0.768750 1.000000 0.557500
0.912500 1.000000 0.557500
1.000000 1.000000 0.557500
1.000000 1.000000 0.557500
0.050000 1.000000 0.557500
0.193750 1.000000 0.557500
0.337500 1.000000 0.557500
0.481250 1.000000 0.557500
0.625000 1.000000 0.557500
0.768750 1.000000 0.557500
0.912500 1.000000 0.557500
1.000000 1.000000 0.557500
1.000000 1.000000 0.557500
0.050000 1.000000 0.557500
0.193750 1.000000 0.557500
0.337500 1.000000 0.557500
0.481250 1.000000 0.557500
0.625000 1.000000 0.557500
0.768750 1.000000 0.557500
0.912500 1.000000 0.557500
1.000000 1.000000 0.557500
1.000000 1.000000 0.557500
0.050000 0.100000 0.663750
0.193750 0.100000 0.663750
0.337500 0.100000 0.663750
0.481250 0.100000 0.663750
0.625000 0.100000 0.663750
0.768750 0.100000 0.663750
0.912500 0.100000 0.663750
1.000000 0.100000 0.663750
1.000000 0.100000 0.663750
0.050000 0.256250 0.663750
0.193750 0.256250 0.663750
0.337500 0.256250 0.663750
0.481250 0.256250 0.663750
0.625000 0.256250 0.663750
0.768750 0.256250 0.663750
0.912500 0.256250 0.663750
1.000000 0.256250 0.663750
1.000000 0.256250 0.663750
0.050000 0.412500 0.663750
0.193750 0.412500 0.663750
0.337500 0.412500 0.663750
0.481250 0.412500 0.663750
0.625000 0.412500 0.663750
0.768750 0.412500 0.663750
0.912500 0.412500 0.663750
1.000000 0.412500 0.663750
1.000000 0.412500 0.663750
0.050000 0.568750 0.663750
0.193750 0.568750 0.663750
0.337500 0.568750 0.663750
0.481250 0.568750 0.663750
0.625000 0.568750 0.663750
0.768750 0.568750 0.663750
0.912500 0.568750 0.663750
1.000000 0.568750 0.663750
1.000000 0.568750 0.663750
0.050000 0.725000 0.663750
0.193750 0.725000 0.663750
0.337500 0.725000 0.663750
0.481250 0.725000 0.663750
0.625000 0.725000 0.663750
0.768750 0.725000 0.663750
0.912500 0.725000 0.663750
1.000000 0.725000 0.663750
1.000000 0.725000 0.663750
0.050000 0.881250 0.663750
0.193750 0.881250 0.663750
0.337500 0.881250 0.663750
0.481250 0.881250 0.663750
0.625000 0.881250 0.663750
0.768750 0.881250 0.663750
0.912500 0.881250 0.663750
1.000000 0.881250 0.663750
1.000000 0.881250 0.663750
0.050000 1.000000 0.663750
0.193750 1.000000 0.663750
0.337500 1.000000 0.663750
0.481250 1.000000 0.663750
0.625000 1.000000 0.663750
0.768750 1.000000 0.663750
0.912500 1.000000 0.663750
1.000000 1.000000 0.663750
1.000000 1.000000 0.663750
0.050000 1.000000 0.663750
0.193750 1.000000 0.663750
0.337500 1.000000 0.663750
0.481250 1.000000 0.663750
0.625000 1.000000 0.663750
0.768750 1.000000 0.663750
0.912500 1.000000 0.663750
1.000000 1.000000 0.663750
1.000000 1.000000 0.663750
0.050000 1.000000 0.663750
0.193750 1.000000 0.663750
0.337500 1.000000 0.663750
0.481250 1.000000 0.663750
0.625000 1.000000 0.663750
0.768750 1.000000 0.663750
0.912500 1.000000 0.663750
1.000000 1.000000 0.663750
1.000000 1.000000 0.663750
0.050000 0.100000 0.770000
0.193750 0.100000 0.770000
0.337500 0.100000 0.770000
0.481250 0.100000 0.770000
0.625000 0.100000 0.770000
0.768750 0.100000 0.770000
0.912500 0.100000 0.770000
1.000000 0.100000 0.770000
1.000000 0.100000 0.770000
0.050000 0.256250 0.770000
0.193750 0.256250 0.770000
0.337500 0.256250 0.770000
0.481250 0.256250 0.770000
0.625000 0.256250 0.770000
0.768750 0.256250 0.770000
0.912500 0.256250 0.770000
1.000000 0.256250 0.770000
1.000000 0.256250 0.770000
0.050000 0.412500 0.770000
0.193750 0.412500 0.770000
0.337500 0.412500 0.770000
0.481250 0.412500 0.770000
0.625000 0.412500 0.770000
0.768750 0.412500 0.770000
0.912500 0.412500 0.770000
1.000000 0.412500 0.770000
1.000000 0.412500 0.770000
0.050000 0.568750 0.770000
0.193750 0.568750 0.770000
0.337500 0.568750 0.770000
0.481250 0.568750 0.770000
0.625000 0.568750 0.770000
0.768750 0.568750 0.770000
0.912500 0.568750 0.770000
1.000000 0.568750 0.770000
1.000000 0.568750 0.770000
0.050000 0.725000 0.770000
0.193750 0.725000 0.770000
0.337500 0.725000 0.770000
0.481250 0.725000 0.770000
0.625000 0.725000 0.770000
0.768750 0.725000 0.770000
0.912500 0.725000 0.770000
1.000000 0.725000 0.770000
1.000000 0.725000 0.770000
0.050000 0.881250 0.770000
0.193750 0.881250 0.770000
0.337500 0.881250 0.770000
0.481250 0.881250 0.770000
0.625000 0.881250 0.770000
0.768750 0.881250 0.770000
0.912500 0.881250 0.770000
1.000000 0.881250 0.770000
1.000000 0.881250 0.770000
0.050000 1.000000 0.770000
0.193750 1.000000 0.770000
0.337500 1.000000 0.770000
0.481250 1.000000 0.770000
0.625000 1.000000 0.770000
0.768750 1.000000 0.770000
0.912500 1.000000 0.770000
1.000000 1.000000 0.770000
1.000000 1.000000 0.770000
0.050000 1.000000 0.770000
0.193750 1.000000 0.770000
0.337500 1.000000 0.770000
0.481250 1.000000 0.770000
0.625000 1.000000 0.770000
0.768750 1.000000 0.770000
0.912500 1.000000 0.770000
1.000000 1.000000 0.770000
1.000000 1.000000 0.770000
0.050000 1.000000 0.770000
0.193750 1.000000 0.770000
0.337500 1.000000 0.770000
0.481250 1.000000 0.770000
0.625000 1.000000 0.770000
0.768750 1.000000 0.770000
0.912500 1.000000 0.770000
1.000000 1.000000 0.770000
1.000000 1.000000 0.770000
