app/src/main/assets/luts/sunset_gold.cube
# ApexStudio filter: sunset_gold
LUT_3D_SIZE 17
DOMAIN_MIN 0.0 0.0 0.0
DOMAIN_MAX 1.0 1.0 1.0
0.075000 0.000000 0.000000
0.137500 0.000000 0.000000
0.200000 0.000000 0.000000
0.262500 0.000000 0.000000
0.325000 0.000000 0.000000
0.387500 0.000000 0.000000
0.450000 0.000000 0.000000
0.512500 0.000000 0.000000
0.575000 0.000000 0.000000
0.637500 0.000000 0.000000
0.700000 0.000000 0.000000
0.762500 0.000000 0.000000
0.825000 0.000000 0.000000
0.887500 0.000000 0.000000
0.950000 0.000000 0.000000
1.000000 0.000000 0.000000
1.000000 0.000000 0.000000
0.075000 0.037500 0.000000
0.137500 0.037500 0.000000
0.200000 0.037500 0.000000
0.262500 0.037500 0.000000
0.325000 0.037500 0.000000
0.387500 0.037500 0.000000
0.450000 0.037500 0.000000
0.512500 0.037500 0.000000
0.575000 0.037500 0.000000
0.637500 0.037500 0.000000
0.700000 0.037500 0.000000
0.762500 0.037500 0.000000
0.825000 0.037500 0.000000
0.887500 0.037500 0.000000
0.950000 0.037500 0.000000
1.000000 0.037500 0.000000
1.000000 0.037500 0.000000
0.075000 0.100000 0.000000
0.137500 0.100000 0.000000
0.200000 0.100000 0.000000
0.262500 0.100000 0.000000
0.325000 0.100000 0.000000
0.387500 0.100000 0.000000
0.450000 0.100000 0.000000
0.512500 0.100000 0.000000
0.575000 0.100000 0.000000
0.637500 0.100000 0.000000
0.700000 0.100000 0.000000
0.762500 0.100000 0.000000
0.825000 0.100000 0.000000
0.887500 0.100000 0.000000
0.950000 0.100000 0.000000
1.000000 0.100000 0.000000
1.000000 0.100000 0.000000
0.075000 0.162500 0.000000
0.137500 0.162500 0.000000
0.200000 0.162500 0.000000
0.262500 0.162500 0.000000
0.325000 0.162500 0.000000
0.387500 0.162500 0.000000
0.450000 0.162500 0.000000
0.512500 0.162500 0.000000
0.575000 0.162500 0.000000
0.637500 0.162500 0.000000
0.700000 0.162500 0.000000
0.762500 0.162500 0.000000
0.825000 0.162500 0.000000
0.887500 0.162500 0.000000
0.950000 0.162500 0.000000
1.000000 0.162500 0.000000
1.000000 0.162500 0.000000
0.075000 0.225000 0.000000
0.137500 0.225000 0.000000
0.200000 0.225000 0.000000
0.262500 0.225000 0.000000
0.325000 0.225000 0.000000
0.387500 0.225000 0.000000
0.450000 0.225000 0.000000
0.512500 0.225000 0.000000
0.575000 0.225000 0.000000
0.637500 0.225000 0.000000
0.700000 0.225000 0.000000
0.762500 0.225000 0.000000
0.825000 0.225000 0.000000
0.887500 0.225000 0.000000
0.950000 0.225000 0.000000
1.000000 0.225000 0.000000
1.000000 0.225000 0.000000
0.075000 0.287500 0.000000
0.137500 0.287500 0.000000
0.200000 0.287500 0.000000
0.262500 0.287500 0.000000
0.325000 0.287500 0.000000
0.387500 0.287500 0.000000
0.450000 0.287500 0.000000
0.512500 0.287500 0.000000
0.575000 0.287500 0.000000
0.637500 0.287500 0.000000
0.700000 0.287500 0.000000
0.762500 0.287500 0.000000
0.825000 0.287500 0.000000
0.887500 0.287500 0.000000
0.950000 0.287500 0.000000
1.000000 0.287500 0.000000
1.000000 0.287500 0.000000
0.075000 0.350000 0.000000
0.137500 0.350000 0.000000
0.200000 0.350000 0.000000
0.262500 0.350000 0.000000
0.325000 0.350000 0.000000
0.387500 0.350000 0.000000
0.450000 0.350000 0.000000
0.512500 0.350000 0.000000
0.575000 0.350000 0.000000
0.637500 0.350000 0.000000
0.700000 0.350000 0.000000
0.762500 0.350000 0.000000
0.825000 0.350000 0.000000
0.887500 0.350000 0.000000
0.950000 0.350000 0.000000
1.000000 0.350000 0.000000
1.000000 0.350000 0.000000
0.075000 0.412500 0.000000
0.137500 0.412500 0.000000
0.200000 0.412500 0.000000
0.262500 0.412500 0.000000
0.325000 0.412500 0.000000
0.387500 0.412500 0.000000
0.450000 0.412500 0.000000
0.512500 0.412500 0.000000
0.575000 0.412500 0.000000
0.637500 0.412500 0.000000
0.700000 0.412500 0.000000
0.762500 0.412500 0.000000
0.825000 0.412500 0.000000
0.887500 0.412500 0.000000
0.950000 0.412500 0.000000
1.000000 0.412500 0.000000
1.000000 0.412500 0.000000
0.075000 0.475000 0.000000
0.137500 0.475000 0.000000
0.200000 0.475000 0.000000
0.262500 0.475000 0.000000
0.325000 0.475000 0.000000
0.387500 0.475000 0.000000
0.450000 0.475000 0.000000
0.512500 0.475000 0.000000
0.575000 0.475000 0.000000
0.637500 0.475000 0.000000
0.700000 0.475000 0.000000
0.762500 0.475000 0.000000
0.825000 0.475000 0.000000
0.887500 0.475000 0.000000
0.950000 0.475000 0.000000
1.000000 0.475000 0.000000
1.000000 0.475000 0.000000
0.075000 0.537500 0.000000
0.137500 0.537500 0.000000
0.200000 0.537500 0.000000
0.262500 0.537500 0.000000
0.325000 0.537500 0.000000
0.387500 0.537500 0.000000
0.450000 0.537500 0.000000
0.512500 0.537500 0.000000
0.575000 0.537500 0.000000
0.637500 0.537500 0.000000
0.700000 0.537500 0.000000
0.762500 0.537500 0.000000
0.825000 0.537500 0.000000
0.887500 0.537500 0.000000
0.950000 0.537500 0.000000
1.000000 0.537500 0.000000
1.000000 0.537500 0.000000
0.075000 0.600000 0.000000
0.137500 0.600000 0.000000
0.200000 0.600000 0.000000
0.262500 0.600000 0.000000
0.325000 0.600000 0.000000
0.387500 0.600000 0.000000
0.450000 0.600000 0.000000
0.512500 0.600000 0.000000
0.575000 0.600000 0.000000
0.637500 0.600000 0.000000
0.700000 0.600000 0.000000
0.762500 0.600000 0.000000
0.825000 0.600000 0.000000
0.887500 0.600000 0.000000
0.950000 0.600000 0.000000
1.000000 0.600000 0.000000
1.000000 0.600000 0.000000
0.075000 0.662500 0.000000
0.137500 0.662500 0.000000
0.200000 0.662500 0.000000
0.262500 0.662500 0.000000
0.325000 0.662500 0.000000
0.387500 0.662500 0.000000
0.450000 0.662500 0.000000
0.512500 0.662500 0.000000
0.575000 0.662500 0.000000
0.637500 0.662500 0.000000
0.700000 0.662500 0.000000
0.762500 0.662500 0.000000
0.825000 0.662500 0.000000
0.887500 0.662500 0.000000
0.950000 0.662500 0.000000
1.000000 0.662500 0.000000
1.000000 0.662500 0.000000
0.075000 0.725000 0.000000
0.137500 0.725000 0.000000
0.200000 0.725000 0.000000
0.262500 0.725000 0.000000
0.325000 0.725000 0.000000
0.387500 0.725000 0.000000
0.450000 0.725000 0.000000
0.512500 0.725000 0.000000
0.575000 0.725000 0.000000
0.637500 0.725000 0.000000
0.700000 0.725000 0.000000
0.762500 0.725000 0.000000
0.825000 0.725000 0.000000
0.887500 0.725000 0.000000
0.950000 0.725000 0.000000
1.000000 0.725000 0.000000
1.000000 0.725000 0.000000
0.075000 0.787500 0.000000
0.137500 0.787500 0.000000
0.200000 0.787500 0.000000
0.262500 0.787500 0.000000
0.325000 0.787500 0.000000
0.387500 0.787500 0.000000
0.450000 0.787500 0.000000
0.512500 0.787500 0.000000
0.575000 0.787500 0.000000
0.637500 0.787500 0.000000
0.700000 0.787500 0.000000
0.762500 0.787500 0.000000
0.825000 0.787500 0.000000
0.887500 0.787500 0.000000
0.950000 0.787500 0.000000
1.000000 0.787500 0.000000
1.000000 0.787500 0.000000
0.075000 0.850000 0.000000
0.137500 0.850000 0.000000
0.200000 0.850000 0.000000
0.262500 0.850000 0.000000
0.325000 0.850000 0.000000
0.387500 0.850000 0.000000
0.450000 0.850000 0.000000
0.512500 0.850000 0.000000
0.575000 0.850000 0.000000
0.637500 0.850000 0.000000
0.700000 0.850000 0.000000
0.762500 0.850000 0.000000
0.825000 0.850000 0.000000
0.887500 0.850000 0.000000
0.950000 0.850000 0.000000
1.000000 0.850000 0.000000
1.000000 0.850000 0.000000
0.075000 0.912500 0.000000
0.137500 0.912500 0.000000
0.200000 0.912500 0.000000
0.262500 0.912500 0.000000
0.325000 0.912500 0.000000
0.387500 0.912500 0.000000
0.450000 0.912500 0.000000
0.512500 0.912500 0.000000
0.575000 0.912500 0.000000
0.637500 0.912500 0.000000
0.700000 0.912500 0.000000
0.762500 0.912500 0.000000
0.825000 0.912500 0.000000
0.887500 0.912500 0.000000
0.950000 0.912500 0.000000
1.000000 0.912500 0.000000
1.000000 0.912500 0.000000
0.075000 0.975000 0.000000
0.137500 0.975000 0.000000
0.200000 0.975000 0.000000
0.262500 0.975000 0.000000
0.325000 0.975000 0.000000
0.387500 0.975000 0.000000
0.450000 0.975000 0.000000
0.512500 0.975000 0.000000
0.575000 0.975000 0.000000
0.637500 0.975000 0.000000
0.700000 0.975000 0.000000
0.762500 0.975000 0.000000
0.825000 0.975000 0.000000
0.887500 0.975000 0.000000
0.950000 0.975000 0.000000
1.000000 0.975000 0.000000
1.000000 0.975000 0.000000
0.075000 0.000000 0.000000
0.137500 0.000000 0.000000
0.200000 0.000000 0.000000
0.262500 0.000000 0.000000
0.325000 0.000000 0.000000
0.387500 0.000000 0.000000
0.450000 0.000000 0.000000
0.512500 0.000000 0.000000
0.575000 0.000000 0.000000
0.637500 0.000000 0.000000
0.700000 0.000000 0.000000
0.762500 0.000000 0.000000
0.825000 0.000000 0.000000
0.887500 0.000000 0.000000
0.950000 0.000000 0.000000
1.000000 0.000000 0.000000
1.000000 0.000000 0.000000
0.075000 0.037500 0.000000
0.137500 0.037500 0.000000
0.200000 0.037500 0.000000
0.262500 0.037500 0.000000
0.325000 0.037500 0.000000
0.387500 0.037500 0.000000
0.450000 0.037500 0.000000
0.512500 0.037500 0.000000
0.575000 0.037500 0.000000
0.637500 0.037500 0.000000
0.700000 0.037500 0.000000
0.762500 0.037500 0.000000
0.825000 0.037500 0.000000
0.887500 0.037500 0.000000
0.950000 0.037500 0.000000
1.000000 0.037500 0.000000
1.000000 0.037500 0.000000
0.075000 0.100000 0.000000
0.137500 0.100000 0.000000
0.200000 0.100000 0.000000
0.262500 0.100000 0.000000
0.325000 0.100000 0.000000
0.387500 0.100000 0.000000
0.450000 0.100000 0.000000
0.512500 0.100000 0.000000
0.575000 0.100000 0.000000
0.637500 0.100000 0.000000
0.700000 0.100000 0.000000
0.762500 0.100000 0.000000
0.825000 0.100000 0.000000
0.887500 0.100000 0.000000
0.950000 0.100000 0.000000
1.000000 0.100000 0.000000
1.000000 0.100000 0.000000
0.075000 0.162500 0.000000
0.137500 0.162500 0.000000
0.200000 0.162500 0.000000
0.262500 0.162500 0.000000
0.325000 0.162500 0.000000
0.387500 0.162500 0.000000
0.450000 0.162500 0.000000
0.512500 0.162500 0.000000
0.575000 0.162500 0.000000
0.637500 0.162500 0.000000
0.700000 0.162500 0.000000
0.762500 0.162500 0.000000
0.825000 0.162500 0.000000
0.887500 0.162500 0.000000
0.950000 0.162500 0.000000
1.000000 0.162500 0.000000
1.000000 0.162500 0.000000
0.075000 0.225000 0.000000
0.137500 0.225000 0.000000
0.200000 0.225000 0.000000
0.262500 0.225000 0.000000
0.325000 0.225000 0.000000
0.387500 0.225000 0.000000
0.450000 0.225000 0.000000
0.512500 0.225000 0.000000
0.575000 0.225000 0.000000
0.637500 0.225000 0.000000
0.700000 0.225000 0.000000
0.762500 0.225000 0.000000
0.825000 0.225000 0.000000
0.887500 0.225000 0.000000
0.950000 0.225000 0.000000
1.000000 0.225000 0.000000
1.000000 0.225000 0.000000
0.075000 0.287500 0.000000
0.137500 0.287500 0.000000
0.200000 0.287500 0.000000
0.262500 0.287500 0.000000
0.325000 0.287500 0.000000
0.387500 0.287500 0.000000
0.450000 0.287500 0.000000
0.512500 0.287500 0.000000
0.575000 0.287500 0.000000
0.637500 0.287500 0.000000
0.700000 0.287500 0.000000
0.762500 0.287500 0.000000
0.825000 0.287500 0.000000
0.887500 0.287500 0.000000
0.950000 0.287500 0.000000
1.000000 0.287500 0.000000
1.000000 0.287500 0.000000
0.075000 0.350000 0.000000
0.137500 0.350000 0.000000
0.200000 0.350000 0.000000
0.262500 0.350000 0.000000
0.325000 0.350000 0.000000
0.387500 0.350000 0.000000
0.450000 0.350000 0.000000
0.512500 0.350000 0.000000
0.575000 0.350000 0.000000
0.637500 0.350000 0.000000
0.700000 0.350000 0.000000
0.762500 0.350000 0.000000
0.825000 0.350000 0.000000
0.887500 0.350000 0.000000
0.950000 0.350000 0.000000
1.000000 0.350000 0.000000
1.000000 0.350000 0.000000
0.075000 0.412500 0.000000
0.137500 0.412500 0.000000
0.200000 0.412500 0.000000
0.262500 0.412500 0.000000
0.325000 0.412500 0.000000
0.387500 0.412500 0.000000
0.450000 0.412500 0.000000
0.512500 0.412500 0.000000
0.575000 0.412500 0.000000
0.637500 0.412500 0.000000
0.700000 0.412500 0.000000
0.762500 0.412500 0.000000
0.825000 0.412500 0.000000
0.887500 0.412500 0.000000
0.950000 0.412500 0.000000
1.000000 0.412500 0.000000
1.000000 0.412500 0.000000
0.075000 0.475000 0.000000
0.137500 0.475000 0.000000
0.200000 0.475000 0.000000
0.262500 0.475000 0.000000
0.325000 0.475000 0.000000
0.387500 0.475000 0.000000
0.450000 0.475000 0.000000
0.512500 0.475000 0.000000
0.575000 0.475000 0.000000
0.637500 0.475000 0.000000
0.700000 0.475000 0.000000
0.762500 0.475000 0.000000
0.825000 0.475000 0.000000
0.887500 0.475000 0.000000
0.950000 0.475000 0.000000
1.000000 0.475000 0.000000
1.000000 0.475000 0.000000
0.075000 0.537500 0.000000
0.137500 0.537500 0.000000
0.200000 0.537500 0.000000
0.262500 0.537500 0.000000
0.325000 0.537500 0.000000
0.387500 0.537500 0.000000
0.450000 0.537500 0.000000
0.512500 0.537500 0.000000
0.575000 0.537500 0.000000
0.637500 0.537500 0.000000
0.700000 0.537500 0.000000
0.762500 0.537500 0.000000
0.825000 0.537500 0.000000
0.887500 0.537500 0.000000
0.950000 0.537500 0.000000
1.000000 0.537500 0.000000
1.000000 0.537500 0.000000
0.075000 0.600000 0.000000
0.137500 0.600000 0.000000
0.200000 0.600000 0.000000
0.262500 0.600000 0.000000
0.325000 0.600000 0.000000
0.387500 0.600000 0.000000
0.450000 0.600000 0.000000
0.512500 0.600000 0.000000
0.575000 0.600000 0.000000
0.637500 0.600000 0.000000
0.700000 0.600000 0.000000
0.762500 0.600000 0.000000
0.825000 0.600000 0.000000
0.887500 0.600000 0.000000
0.950000 0.600000 0.000000
1.000000 0.600000 0.000000
1.000000 0.600000 0.000000
0.075000 0.662500 0.000000
0.137500 0.662500 0.000000
0.200000 0.662500 0.000000
0.262500 0.662500 0.000000
0.325000 0.662500 0.000000
0.387500 0.662500 0.000000
0.450000 0.662500 0.000000
0.512500 0.662500 0.000000
0.575000 0.662500 0.000000
0.637500 0.662500 0.000000
0.700000 0.662500 0.000000
0.762500 0.662500 0.000000
0.825000 0.662500 0.000000
0.887500 0.662500 0.000000
0.950000 0.662500 0.000000
1.000000 0.662500 0.000000
1.000000 0.662500 0.000000
0.075000 0.725000 0.000000
0.137500 0.725000 0.000000
0.200000 0.725000 0.000000
0.262500 0.725000 0.000000
0.325000 0.725000 0.000000
0.387500 0.725000 0.000000
0.450000 0.725000 0.000000
0.512500 0.725000 0.000000
0.575000 0.725000 0.000000
0.637500 0.725000 0.000000
0.700000 0.725000 0.000000
0.762500 0.725000 0.000000
0.825000 0.725000 0.000000
0.887500 0.725000 0.000000
0.950000 0.725000 0.000000
1.000000 0.725000 0.000000
1.000000 0.725000 0.000000
0.075000 0.787500 0.000000
0.137500 0.787500 0.000000
0.200000 0.787500 0.000000
0.262500 0.787500 0.000000
0.325000 0.787500 0.000000
0.387500 0.787500 0.000000
0.450000 0.787500 0.000000
0.512500 0.787500 0.000000
0.575000 0.787500 0.000000
0.637500 0.787500 0.000000
0.700000 0.787500 0.000000
0.762500 0.787500 0.000000
0.825000 0.787500 0.000000
0.887500 0.787500 0.000000
0.950000 0.787500 0.000000
1.000000 0.787500 0.000000
1.000000 0.787500 0.000000
0.075000 0.850000 0.000000
0.137500 0.850000 0.000000
0.200000 0.850000 0.000000
0.262500 0.850000 0.000000
0.325000 0.850000 0.000000
0.387500 0.850000 0.000000
0.450000 0.850000 0.000000
0.512500 0.850000 0.000000
0.575000 0.850000 0.000000
0.637500 0.850000 0.000000
0.700000 0.850000 0.000000
0.762500 0.850000 0.000000
0.825000 0.850000 0.000000
0.887500 0.850000 0.000000
0.950000 0.850000 0.000000
1.000000 0.850000 0.000000
1.000000 0.850000 0.000000
0.075000 0.912500 0.000000
0.137500 0.912500 0.000000
0.200000 0.912500 0.000000
0.262500 0.912500 0.000000
0.325000 0.912500 0.000000
0.387500 0.912500 0.000000
0.450000 0.912500 0.000000
0.512500 0.912500 0.000000
0.575000 0.912500 0.000000
0.637500 0.912500 0.000000
0.700000 0.912500 0.000000
0.762500 0.912500 0.000000
0.825000 0.912500 0.000000
0.887500 0.912500 0.000000
0.950000 0.912500 0.000000
1.000000 0.912500 0.000000
1.000000 0.912500 0.000000
0.075000 0.975000 0.000000
0.137500 0.975000 0.000000
0.200000 0.975000 0.000000
0.262500 0.975000 0.000000
0.325000 0.975000 0.000000
0.387500 0.975000 0.000000
0.450000 0.975000 0.000000
0.512500 0.975000 0.000000
0.575000 0.975000 0.000000
0.637500 0.975000 0.000000
0.700000 0.975000 0.000000
0.762500 0.975000 0.000000
0.825000 0.975000 0.000000
0.887500 0.975000 0.000000
0.950000 0.975000 0.000000
1.000000 0.975000 0.000000
1.000000 0.975000 0.000000
0.075000 0.000000 0.050000
0.137500 0.000000 0.050000
0.200000 0.000000 0.050000
0.262500 0.000000 0.050000
0.325000 0.000000 0.050000
0.387500 0.000000 0.050000
0.450000 0.000000 0.050000
0.512500 0.000000 0.050000
0.575000 0.000000 0.050000
0.637500 0.000000 0.050000
0.700000 0.000000 0.050000
0.762500 0.000000 0.050000
0.825000 0.000000 0.050000
0.887500 0.000000 0.050000
0.950000 0.000000 0.050000
1.000000 0.000000 0.050000
1.000000 0.000000 0.050000
0.075000 0.037500 0.050000
0.137500 0.037500 0.050000
0.200000 0.037500 0.050000
0.262500 0.037500 0.050000
0.325000 0.037500 0.050000
0.387500 0.037500 0.050000
0.450000 0.037500 0.050000
0.512500 0.037500 0.050000
0.575000 0.037500 0.050000
0.637500 0.037500 0.050000
0.700000 0.037500 0.050000
0.762500 0.037500 0.050000
0.825000 0.037500 0.050000
0.887500 0.037500 0.050000
0.950000 0.037500 0.050000
1.000000 0.037500 0.050000
1.000000 0.037500 0.050000
0.075000 0.100000 0.050000
0.137500 0.100000 0.050000
0.200000 0.100000 0.050000
0.262500 0.100000 0.050000
0.325000 0.100000 0.050000
0.387500 0.100000 0.050000
0.450000 0.100000 0.050000
0.512500 0.100000 0.050000
0.575000 0.100000 0.050000
0.637500 0.100000 0.050000
0.700000 0.100000 0.050000
0.762500 0.100000 0.050000
0.825000 0.100000 0.050000
0.887500 0.100000 0.050000
0.950000 0.100000 0.050000
1.000000 0.100000 0.050000
1.000000 0.100000 0.050000
0.075000 0.162500 0.050000
0.137500 0.162500 0.050000
0.200000 0.162500 0.050000
0.262500 0.162500 0.050000
0.325000 0.162500 0.050000
0.387500 0.162500 0.050000
0.450000 0.162500 0.050000
0.512500 0.162500 0.050000
0.575000 0.162500 0.050000
0.637500 0.162500 0.050000
0.700000 0.162500 0.050000
0.762500 0.162500 0.050000
0.825000 0.162500 0.050000
0.887500 0.162500 0.050000
0.950000 0.162500 0.050000
1.000000 0.162500 0.050000
1.000000 0.162500 0.050000
0.075000 0.225000 0.050000
0.137500 0.225000 0.050000
0.200000 0.225000 0.050000
0.262500 0.225000 0.050000
0.325000 0.225000 0.050000
0.387500 0.225000 0.050000
0.450000 0.225000 0.050000
0.512500 0.225000 0.050000
0.575000 0.225000 0.050000
0.637500 0.225000 0.050000
0.700000 0.225000 0.050000
0.762500 0.225000 0.050000
0.825000 0.225000 0.050000
0.887500 0.225000 0.050000
0.950000 0.225000 0.050000
1.000000 0.225000 0.050000
1.000000 0.225000 0.050000
0.075000 0.287500 0.050000
0.137500 0.287500 0.050000
0.200000 0.287500 0.050000
0.262500 0.287500 0.050000
0.325000 0.287500 0.050000
0.387500 0.287500 0.050000
0.450000 0.287500 0.050000
0.512500 0.287500 0.050000
0.575000 0.287500 0.050000
0.637500 0.287500 0.050000
0.700000 0.287500 0.050000
0.762500 0.287500 0.050000
0.825000 0.287500 0.050000
0.887500 0.287500 0.050000
0.950000 0.287500 0.050000
1.000000 0.287500 0.050000
1.000000 0.287500 0.050000
0.075000 0.350000 0.050000
0.137500 0.350000 0.050000
0.200000 0.350000 0.050000
0.262500 0.350000 0.050000
0.325000 0.350000 0.050000
0.387500 0.350000 0.050000
0.450000 0.350000 0.050000
0.512500 0.350000 0.050000
0.575000 0.350000 0.050000
0.637500 0.350000 0.050000
0.700000 0.350000 0.050000
0.762500 0.350000 0.050000
0.825000 0.350000 0.050000
0.887500 0.350000 0.050000
0.950000 0.350000 0.050000
1.000000 0.350000 0.050000
1.000000 0.350000 0.050000
0.075000 0.412500 0.050000
0.137500 0.412500 0.050000
0.200000 0.412500 0.050000
0.262500 0.412500 0.050000
0.325000 0.412500 0.050000
0.387500 0.412500 0.050000
0.450000 0.412500 0.050000
0.512500 0.412500 0.050000
0.575000 0.412500 0.050000
0.637500 0.412500 0.050000
0.700000 0.412500 0.050000
0.762500 0.412500 0.050000
0.825000 0.412500 0.050000
0.887500 0.412500 0.050000
0.950000 0.412500 0.050000
1.000000 0.412500 0.050000
1.000000 0.412500 0.050000
0.075000 0.475000 0.050000
0.137500 0.475000 0.050000
0.200000 0.475000 0.050000
0.262500 0.475000 0.050000
0.325000 0.475000 0.050000
0.387500 0.475000 0.050000
0.450000 0.475000 0.050000
0.512500 0.475000 0.050000
0.575000 0.475000 0.050000
0.637500 0.475000 0.050000
0.700000 0.475000 0.050000
0.762500 0.475000 0.050000
0.825000 0.475000 0.050000
0.887500 0.475000 0.050000
0.950000 0.475000 0.050000
1.000000 0.475000 0.050000
1.000000 0.475000 0.050000
0.075000 0.537500 0.050000
0.137500 0.537500 0.050000
0.200000 0.537500 0.050000
0.262500 0.537500 0.050000
0.325000 0.537500 0.050000
0.387500 0.537500 0.050000
0.450000 0.537500 0.050000
0.512500 0.537500 0.050000
0.575000 0.537500 0.050000
0.637500 0.537500 0.050000
0.700000 0.537500 0.050000
0.762500 0.537500 0.050000
0.825000 0.537500 0.050000
0.887500 0.537500 0.050000
0.950000 0.537500 0.050000
1.000000 0.537500 0.050000
1.000000 0.537500 0.050000
0.075000 0.600000 0.050000
0.137500 0.600000 0.050000
0.200000 0.600000 0.050000
0.262500 0.600000 0.050000
0.325000 0.600000 0.050000
0.387500 0.600000 0.050000
0.450000 0.600000 0.050000
0.512500 0.600000 0.050000
0.575000 0.600000 0.050000
0.637500 0.600000 0.050000
0.700000 0.600000 0.050000
0.762500 0.600000 0.050000
0.825000 0.600000 0.050000
0.887500 0.600000 0.050000
0.950000 0.600000 0.050000
1.000000 0.600000 0.050000
1.000000 0.600000 0.050000
0.075000 0.662500 0.050000
0.137500 0.662500 0.050000
0.200000 0.662500 0.050000
0.262500 0.662500 0.050000
0.325000 0.662500 0.050000
0.387500 0.662500 0.050000
0.450000 0.662500 0.050000
0.512500 0.662500 0.050000
0.575000 0.662500 0.050000
0.637500 0.662500 0.050000
0.700000 0.662500 0.050000
0.762500 0.662500 0.050000
0.825000 0.662500 0.050000
0.887500 0.662500 0.050000
0.950000 0.662500 0.050000
1.000000 0.662500 0.050000
1.000000 0.662500 0.050000
0.075000 0.725000 0.050000
0.137500 0.725000 0.050000
0.200000 0.725000 0.050000
0.262500 0.725000 0.050000
0.325000 0.725000 0.050000
0.387500 0.725000 0.050000
0.450000 0.725000 0.050000
0.512500 0.725000 0.050000
0.575000 0.725000 0.050000
0.637500 0.725000 0.050000
0.700000 0.725000 0.050000
0.762500 0.725000 0.050000
0.825000 0.725000 0.050000
0.887500 0.725000 0.050000
0.950000 0.725000 0.050000
1.000000 0.725000 0.050000
1.000000 0.725000 0.050000
0.075000 0.787500 0.050000
0.137500 0.787500 0.050000
0.200000 0.787500 0.050000
0.262500 0.787500 0.050000
0.325000 0.787500 0.050000
0.387500 0.787500 0.050000
0.450000 0.787500 0.050000
0.512500 0.787500 0.050000
0.575000 0.787500 0.050000
0.637500 0.787500 0.050000
0.700000 0.787500 0.050000
0.762500 0.787500 0.050000
0.825000 0.787500 0.050000
0.887500 0.787500 0.050000
0.950000 0.787500 0.050000
1.000000 0.787500 0.050000
1.000000 0.787500 0.050000
0.075000 0.850000 0.050000
0.137500 0.850000 0.050000
0.200000 0.850000 0.050000
0.262500 0.850000 0.050000
0.325000 0.850000 0.050000
0.387500 0.850000 0.050000
0.450000 0.850000 0.050000
0.512500 0.850000 0.050000
0.575000 0.850000 0.050000
0.637500 0.850000 0.050000
0.700000 0.850000 0.050000
0.762500 0.850000 0.050000
0.825000 0.850000 0.050000
0.887500 0.850000 0.050000
0.950000 0.850000 0.050000
1.000000 0.850000 0.050000
1.000000 0.850000 0.050000
0.075000 0.912500 0.050000
0.137500 0.912500 0.050000
0.200000 0.912500 0.050000
0.262500 0.912500 0.050000
0.325000 0.912500 0.050000
0.387500 0.912500 0.050000
0.450000 0.912500 0.050000
0.512500 0.912500 0.050000
0.575000 0.912500 0.050000
0.637500 0.912500 0.050000
0.700000 0.912500 0.050000
0.762500 0.912500 0.050000
0.825000 0.912500 0.050000
0.887500 0.912500 0.050000
0.950000 0.912500 0.050000
1.000000 0.912500 0.050000
1.000000 0.912500 0.050000
0.075000 0.975000 0.050000
0.137500 0.975000 0.050000
0.200000 0.975000 0.050000
0.262500 0.975000 0.050000
0.325000 0.975000 0.050000
0.387500 0.975000 0.050000
0.450000 0.975000 0.050000
0.512500 0.975000 0.050000
0.575000 0.975000 0.050000
0.637500 0.975000 0.050000
0.700000 0.975000 0.050000
0.762500 0.975000 0.050000
0.825000 0.975000 0.050000
0.887500 0.975000 0.050000
0.950000 0.975000 0.050000
1.000000 0.975000 0.050000
1.000000 0.975000 0.050000
0.075000 0.000000 0.112500
0.137500 0.000000 0.112500
0.200000 0.000000 0.112500
0.262500 0.000000 0.112500
0.325000 0.000000 0.112500
0.387500 0.000000 0.112500
0.450000 0.000000 0.112500
0.512500 0.000000 0.112500
0.575000 0.000000 0.112500
0.637500 0.000000 0.112500
0.700000 0.000000 0.112500
0.762500 0.000000 0.112500
0.825000 0.000000 0.112500
0.887500 0.000000 0.112500
0.950000 0.000000 0.112500
1.000000 0.000000 0.112500
1.000000 0.000000 0.112500
0.075000 0.037500 0.112500
