app/src/main/assets/luts/synthwave_pink.cube
# ApexStudio filter: synthwave_pink
LUT_3D_SIZE 5
DOMAIN_MIN 0.0 0.0 0.0
DOMAIN_MAX 1.0 1.0 1.0
0.150000 0.000000 0.100000
0.400000 0.000000 0.100000
0.650000 0.000000 0.100000
0.900000 0.000000 0.100000
1.000000 0.000000 0.100000
0.150000 0.200000 0.100000
0.400000 0.200000 0.100000
0.650000 0.200000 0.100000
0.900000 0.200000 0.100000
1.000000 0.200000 0.100000
0.150000 0.450000 0.100000
0.400000 0.450000 0.100000
0.650000 0.450000 0.100000
0.900000 0.450000 0.100000
1.000000 0.450000 0.100000
0.150000 0.700000 0.100000
0.400000 0.700000 0.100000
0.650000 0.700000 0.100000
0.900000 0.700000 0.100000
1.000000 0.700000 0.100000
0.150000 0.950000 0.100000
0.400000 0.950000 0.100000
0.650000 0.950000 0.100000
0.900000 0.950000 0.100000
1.000000 0.950000 0.100000
0.150000 0.000000 0.350000
0.400000 0.000000 0.350000
0.650000 0.000000 0.350000
0.900000 0.000000 0.350000
1.000000 0.000000 0.350000
0.150000 0.200000 0.350000
0.400000 0.200000 0.350000
0.650000 0.200000 0.350000
0.900000 0.200000 0.350000
1.000000 0.200000 0.350000
0.150000 0.450000 0.350000
0.400000 0.450000 0.350000
0.650000 0.450000 0.350000
0.900000 0.450000 0.350000
1.000000 0.450000 0.350000
0.150000 0.700000 0.350000
0.400000 0.700000 0.350000
0.650000 0.700000 0.350000
0.900000 0.700000 0.350000
1.000000 0.700000 0.350000
0.150000 0.950000 0.350000
0.400000 0.950000 0.350000
0.650000 0.950000 0.350000
0.900000 0.950000 0.350000
1.000000 0.950000 0.350000
0.150000 0.000000 0.600000
0.400000 0.000000 0.600000
0.650000 0.000000 0.600000
0.900000 0.000000 0.600000
1.000000 0.000000 0.600000
0.150000 0.200000 0.600000
0.400000 0.200000 0.600000
0.650000 0.200000 0.600000
0.900000 0.200000 0.600000
1.000000 0.200000 0.600000
0.150000 0.450000 0.600000
0.400000 0.450000 0.600000
0.650000 0.450000 0.600000
0.900000 0.450000 0.600000
1.000000 0.450000 0.600000
0.150000 0.700000 0.600000
0.400000 0.700000 0.600000
0.650000 0.700000 0.600000
0.900000 0.700000 0.600000
1.000000 0.700000 0.600000
0.150000 0.950000 0.600000
0.400000 0.950000 0.600000
0.650000 0.950000 0.600000
0.900000 0.950000 0.600000
1.000000 0.950000 0.600000
0.150000 0.000000 0.850000
0.400000 0.000000 0.850000
0.650000 0.000000 0.850000
0.900000 0.000000 0.850000
1.000000 0.000000 0.850000
0.150000 0.200000 0.850000
0.400000 0.200000 0.850000
0.650000 0.200000 0.850000
0.900000 0.200000 0.850000
1.000000 0.200000 0.850000
0.150000 0.450000 0.850000
0.400000 0.450000 0.850000
0.650000 0.450000 0.850000
0.900000 0.450000 0.850000
1.000000 0.450000 0.850000
0.150000 0.700000 0.850000
0.400000 0.700000 0.850000
0.650000 0.700000 0.850000
0.900000 0.700000 0.850000
1.000000 0.700000 0.850000
0.150000 0.950000 0.850000
0.400000 0.950000 0.850000
0.650000 0.950000 0.850000
0.900000 0.950000 0.850000
1.000000 0.950000 0.850000
0.150000 0.000000 1.000000
0.400000 0.000000 1.000000
0.650000 0.000000 1.000000
0.900000 0.000000 1.000000
1.000000 0.000000 1.000000
0.150000 0.200000 1.000000
0.400000 0.200000 1.000000
0.650000 0.200000 1.000000
0.900000 0.200000 1.000000
1.000000 0.200000 1.000000
0.150000 0.450000 1.000000
0.400000 0.450000 1.000000
0.650000 0.450000 1.000000
0.900000 0.450000 1.000000
1.000000 0.450000 1.000000
0.150000 0.700000 1.000000
0.400000 0.700000 1.000000
0.650000 0.700000 1.000000
0.900000 0.700000 1.000000
1.000000 0.700000 1.000000
0.150000 0.950000 1.000000
0.400000 0.950000 1.000000
0.650000 0.950000 1.000000
0.900000 0.950000 1.000000
1.000000 0.950000 1.000000
