app/src/main/assets/luts/synthwave_pink.cube
# ApexStudio filter: synthwave_pink
LUT_3D_SIZE 9
DOMAIN_MIN 0.0 0.0 0.0
DOMAIN_MAX 1.0 1.0 1.0
0.150000 0.000000 0.100000
0.275000 0.000000 0.100000
0.400000 0.000000 0.100000
0.525000 0.000000 0.100000
0.650000 0.000000 0.100000
0.775000 0.000000 0.100000
0.900000 0.000000 0.100000
1.000000 0.000000 0.100000
1.000000 0.000000 0.100000
0.150000 0.075000 0.100000
0.275000 0.075000 0.100000
0.400000 0.075000 0.100000
0.525000 0.075000 0.100000
0.650000 0.075000 0.100000
0.775000 0.075000 0.100000
0.900000 0.075000 0.100000
1.000000 0.075000 0.100000
1.000000 0.075000 0.100000
0.150000 0.200000 0.100000
0.275000 0.200000 0.100000
0.400000 0.200000 0.100000
0.525000 0.200000 0.100000
0.650000 0.200000 0.100000
0.775000 0.200000 0.100000
0.900000 0.200000 0.100000
1.000000 0.200000 0.100000
1.000000 0.200000 0.100000
0.150000 0.325000 0.100000
0.275000 0.325000 0.100000
0.400000 0.325000 0.100000
0.525000 0.325000 0.100000
0.650000 0.325000 0.100000
0.775000 0.325000 0.100000
0.900000 0.325000 0.100000
1.000000 0.325000 0.100000
1.000000 0.325000 0.100000
0.150000 0.450000 0.100000
0.275000 0.450000 0.100000
0.400000 0.450000 0.100000
0.525000 0.450000 0.100000
0.650000 0.450000 0.100000
0.775000 0.450000 0.100000
0.900000 0.450000 0.100000
1.000000 0.450000 0.100000
1.000000 0.450000 0.100000
0.150000 0.575000 0.100000
0.275000 0.575000 0.100000
0.400000 0.575000 0.100000
0.525000 0.575000 0.100000
0.650000 0.575000 0.100000
0.775000 0.575000 0.100000
0.900000 0.575000 0.100000
1.000000 0.575000 0.100000
1.000000 0.575000 0.100000
0.150000 0.700000 0.100000
0.275000 0.700000 0.100000
0.400000 0.700000 0.100000
0.525000 0.700000 0.100000
0.650000 0.700000 0.100000
0.775000 0.700000 0.100000
0.900000 0.700000 0.100000
1.000000 0.700000 0.100000
1.000000 0.700000 0.100000
0.150000 0.825000 0.100000
0.275000 0.825000 0.100000
0.400000 0.825000 0.100000
0.525000 0.825000 0.100000
0.650000 0.825000 0.100000
0.775000 0.825000 0.100000
0.900000 0.825000 0.100000
1.000000 0.825000 0.100000
1.000000 0.825000 0.100000
0.150000 0.950000 0.100000
0.275000 0.950000 0.100000
0.400000 0.950000 0.100000
0.525000 0.950000 0.100000
0.650000 0.950000 0.100000
0.775000 0.950000 0.100000
0.900000 0.950000 0.100000
1.000000 0.950000 0.100000
1.000000 0.950000 0.100000
0.150000 0.000000 0.225000
0.275000 0.000000 0.225000
0.400000 0.000000 0.225000
0.525000 0.000000 0.225000
0.650000 0.000000 0.225000
0.775000 0.000000 0.225000
0.900000 0.000000 0.225000
1.000000 0.000000 0.225000
1.000000 0.000000 0.225000
0.150000 0.075000 0.225000
0.275000 0.075000 0.225000
0.400000 0.075000 0.225000
0.525000 0.075000 0.225000
0.650000 0.075000 0.225000
0.775000 0.075000 0.225000
0.900000 0.075000 0.225000
1.000000 0.075000 0.225000
1.000000 0.075000 0.225000
0.150000 0.200000 0.225000
0.275000 0.200000 0.225000
0.400000 0.200000 0.225000
0.525000 0.200000 0.225000
0.650000 0.200000 0.225000
0.775000 0.200000 0.225000
0.900000 0.200000 0.225000
1.000000 0.200000 0.225000
1.000000 0.200000 0.225000
0.150000 0.325000 0.225000
0.275000 0.325000 0.225000
0.400000 0.325000 0.225000
0.525000 0.325000 0.225000
0.650000 0.325000 0.225000
0.775000 0.325000 0.225000
0.900000 0.325000 0.225000
1.000000 0.325000 0.225000
1.000000 0.325000 0.225000
0.150000 0.450000 0.225000
0.275000 0.450000 0.225000
0.400000 0.450000 0.225000
0.525000 0.450000 0.225000
0.650000 0.450000 0.225000
0.775000 0.450000 0.225000
0.900000 0.450000 0.225000
1.000000 0.450000 0.225000
1.000000 0.450000 0.225000
0.150000 0.575000 0.225000
0.275000 0.575000 0.225000
0.400000 0.575000 0.225000
0.525000 0.575000 0.225000
0.650000 0.575000 0.225000
0.775000 0.575000 0.225000
0.900000 0.575000 0.225000
1.000000 0.575000 0.225000
1.000000 0.575000 0.225000
0.150000 0.700000 0.225000
0.275000 0.700000 0.225000
0.400000 0.700000 0.225000
0.525000 0.700000 0.225000
0.650000 0.700000 0.225000
0.775000 0.700000 0.225000
0.900000 0.700000 0.225000
1.000000 0.700000 0.225000
1.000000 0.700000 0.225000
0.150000 0.825000 0.225000
0.275000 0.825000 0.225000
0.400000 0.825000 0.225000
0.525000 0.825000 0.225000
0.650000 0.825000 0.225000
0.775000 0.825000 0.225000
0.900000 0.825000 0.225000
1.000000 0.825000 0.225000
1.000000 0.825000 0.225000
0.150000 0.950000 0.225000
0.275000 0.950000 0.225000
0.400000 0.950000 0.225000
0.525000 0.950000 0.225000
0.650000 0.950000 0.225000
0.775000 0.950000 0.225000
0.900000 0.950000 0.225000
1.000000 0.950000 0.225000
1.000000 0.950000 0.225000
0.150000 0.000000 0.350000
0.275000 0.000000 0.350000
0.400000 0.000000 0.350000
0.525000 0.000000 0.350000
0.650000 0.000000 0.350000
0.775000 0.000000 0.350000
0.900000 0.000000 0.350000
1.000000 0.000000 0.350000
1.000000 0.000000 0.350000
0.150000 0.075000 0.350000
0.275000 0.075000 0.350000
0.400000 0.075000 0.350000
0.525000 0.075000 0.350000
0.650000 0.075000 0.350000
0.775000 0.075000 0.350000
0.900000 0.075000 0.350000
1.000000 0.075000 0.350000
1.000000 0.075000 0.350000
0.150000 0.200000 0.350000
0.275000 0.200000 0.350000
0.400000 0.200000 0.350000
0.525000 0.200000 0.350000
0.650000 0.200000 0.350000
0.775000 0.200000 0.350000
0.900000 0.200000 0.350000
1.000000 0.200000 0.350000
1.000000 0.200000 0.350000
0.150000 0.325000 0.350000
0.275000 0.325000 0.350000
0.400000 0.325000 0.350000
0.525000 0.325000 0.350000
0.650000 0.325000 0.350000
0.775000 0.325000 0.350000
0.900000 0.325000 0.350000
1.000000 0.325000 0.350000
1.000000 0.325000 0.350000
0.150000 0.450000 0.350000
0.275000 0.450000 0.350000
0.400000 0.450000 0.350000
0.525000 0.450000 0.350000
0.650000 0.450000 0.350000
0.775000 0.450000 0.350000
0.900000 0.450000 0.350000
1.000000 0.450000 0.350000
1.000000 0.450000 0.350000
0.150000 0.575000 0.350000
0.275000 0.575000 0.350000
0.400000 0.575000 0.350000
0.525000 0.575000 0.350000
0.650000 0.575000 0.350000
0.775000 0.575000 0.350000
0.900000 0.575000 0.350000
1.000000 0.575000 0.350000
1.000000 0.575000 0.350000
0.150000 0.700000 0.350000
0.275000 0.700000 0.350000
0.400000 0.700000 0.350000
0.525000 0.700000 0.350000
0.650000 0.700000 0.350000
0.775000 0.700000 0.350000
0.900000 0.700000 0.350000
1.000000 0.700000 0.350000
1.000000 0.700000 0.350000
0.150000 0.825000 0.350000
0.275000 0.825000 0.350000
0.400000 0.825000 0.350000
0.525000 0.825000 0.350000
0.650000 0.825000 0.350000
0.775000 0.825000 0.350000
0.900000 0.825000 0.350000
1.000000 0.825000 0.350000
1.000000 0.825000 0.350000
0.150000 0.950000 0.350000
0.275000 0.950000 0.350000
0.400000 0.950000 0.350000
0.525000 0.950000 0.350000
0.650000 0.950000 0.350000
0.775000 0.950000 0.350000
0.900000 0.950000 0.350000
1.000000 0.950000 0.350000
1.000000 0.950000 0.350000
0.150000 0.000000 0.475000
0.275000 0.000000 0.475000
0.400000 0.000000 0.475000
0.525000 0.000000 0.475000
0.650000 0.000000 0.475000
0.775000 0.000000 0.475000
0.900000 0.000000 0.475000
1.000000 0.000000 0.475000
1.000000 0.000000 0.475000
0.150000 0.075000 0.475000
0.275000 0.075000 0.475000
0.400000 0.075000 0.475000
0.525000 0.075000 0.475000
0.650000 0.075000 0.475000
0.775000 0.075000 0.475000
0.900000 0.075000 0.475000
1.000000 0.075000 0.475000
1.000000 0.075000 0.475000
0.150000 0.200000 0.475000
0.275000 0.200000 0.475000
0.400000 0.200000 0.475000
0.525000 0.200000 0.475000
0.650000 0.200000 0.475000
0.775000 0.200000 0.475000
0.900000 0.200000 0.475000
1.000000 0.200000 0.475000
1.000000 0.200000 0.475000
0.150000 0.325000 0.475000
0.275000 0.325000 0.475000
0.400000 0.325000 0.475000
0.525000 0.325000 0.475000
0.650000 0.325000 0.475000
0.775000 0.325000 0.475000
0.900000 0.325000 0.475000
1.000000 0.325000 0.475000
1.000000 0.325000 0.475000
0.150000 0.450000 0.475000
0.275000 0.450000 0.475000
0.400000 0.450000 0.475000
0.525000 0.450000 0.475000
0.650000 0.450000 0.475000
0.775000 0.450000 0.475000
0.900000 0.450000 0.475000
1.000000 0.450000 0.475000
1.000000 0.450000 0.475000
0.150000 0.575000 0.475000
0.275000 0.575000 0.475000
0.400000 0.575000 0.475000
0.525000 0.575000 0.475000
0.650000 0.575000 0.475000
0.775000 0.575000 0.475000
0.900000 0.575000 0.475000
1.000000 0.575000 0.475000
1.000000 0.575000 0.475000
0.150000 0.700000 0.475000
0.275000 0.700000 0.475000
0.400000 0.700000 0.475000
0.525000 0.700000 0.475000
0.650000 0.700000 0.475000
0.775000 0.700000 0.475000
0.900000 0.700000 0.475000
1.000000 0.700000 0.475000
1.000000 0.700000 0.475000
0.150000 0.825000 0.475000
0.275000 0.825000 0.475000
0.400000 0.825000 0.475000
0.525000 0.825000 0.475000
0.650000 0.825000 0.475000
0.775000 0.825000 0.475000
0.900000 0.825000 0.475000
1.000000 0.825000 0.475000
1.000000 0.825000 0.475000
0.150000 0.950000 0.475000
0.275000 0.950000 0.475000
0.400000 0.950000 0.475000
0.525000 0.950000 0.475000
0.650000 0.950000 0.475000
0.775000 0.950000 0.475000
0.900000 0.950000 0.475000
1.000000 0.950000 0.475000
1.000000 0.950000 0.475000
0.150000 0.000000 0.600000
0.275000 0.000000 0.600000
0.400000 0.000000 0.600000
0.525000 0.000000 0.600000
0.650000 0.000000 0.600000
0.775000 0.000000 0.600000
0.900000 0.000000 0.600000
1.000000 0.000000 0.600000
1.000000 0.000000 0.600000
0.150000 0.075000 0.600000
0.275000 0.075000 0.600000
0.400000 0.075000 0.600000
0.525000 0.075000 0.600000
0.650000 0.075000 0.600000
0.775000 0.075000 0.600000
0.900000 0.075000 0.600000
1.000000 0.075000 0.600000
1.000000 0.075000 0.600000
0.150000 0.200000 0.600000
0.275000 0.200000 0.600000
0.400000 0.200000 0.600000
0.525000 0.200000 0.600000
0.650000 0.200000 0.600000
0.775000 0.200000 0.600000
0.900000 0.200000 0.600000
1.000000 0.200000 0.600000
1.000000 0.200000 0.600000
0.150000 0.325000 0.600000
0.275000 0.325000 0.600000
0.400000 0.325000 0.600000
0.525000 0.325000 0.600000
0.650000 0.325000 0.600000
0.775000 0.325000 0.600000
0.900000 0.325000 0.600000
1.000000 0.325000 0.600000
1.000000 0.325000 0.600000
0.150000 0.450000 0.600000
0.275000 0.450000 0.600000
0.400000 0.450000 0.600000
0.525000 0.450000 0.600000
0.650000 0.450000 0.600000
0.775000 0.450000 0.600000
0.900000 0.450000 0.600000
1.000000 0.450000 0.600000
1.000000 0.450000 0.600000
0.150000 0.575000 0.600000
0.275000 0.575000 0.600000
0.400000 0.575000 0.600000
0.525000 0.575000 0.600000
0.650000 0.575000 0.600000
0.775000 0.575000 0.600000
0.900000 0.575000 0.600000
1.000000 0.575000 0.600000
1.000000 0.575000 0.600000
0.150000 0.700000 0.600000
0.275000 0.700000 0.600000
0.400000 0.700000 0.600000
0.525000 0.700000 0.600000
0.650000 0.700000 0.600000
0.775000 0.700000 0.600000
0.900000 0.700000 0.600000
1.000000 0.700000 0.600000
1.000000 0.700000 0.600000
0.150000 0.825000 0.600000
0.275000 0.825000 0.600000
0.400000 0.825000 0.600000
0.525000 0.825000 0.600000
0.650000 0.825000 0.600000
0.775000 0.825000 0.600000
0.900000 0.825000 0.600000
1.000000 0.825000 0.600000
1.000000 0.825000 0.600000
0.150000 0.950000 0.600000
0.275000 0.950000 0.600000
0.400000 0.950000 0.600000
0.525000 0.950000 0.600000
0.650000 0.950000 0.600000
0.775000 0.950000 0.600000
0.900000 0.950000 0.600000
1.000000 0.950000 0.600000
1.000000 0.950000 0.600000
0.150000 0.000000 0.725000
0.275000 0.000000 0.725000
0.400000 0.000000 0.725000
0.525000 0.000000 0.725000
0.650000 0.000000 0.725000
0.775000 0.000000 0.725000
0.900000 0.000000 0.725000
1.000000 0.000000 0.725000
1.000000 0.000000 0.725000
0.150000 0.075000 0.725000
0.275000 0.075000 0.725000
0.400000 0.075000 0.725000
0.525000 0.075000 0.725000
0.650000 0.075000 0.725000
0.775000 0.075000 0.725000
0.900000 0.075000 0.725000
1.000000 0.075000 0.725000
1.000000 0.075000 0.725000
0.150000 0.200000 0.725000
0.275000 0.200000 0.725000
0.400000 0.200000 0.725000
0.525000 0.200000 0.725000
0.650000 0.200000 0.725000
0.775000 0.200000 0.725000
0.900000 0.200000 0.725000
1.000000 0.200000 0.725000
1.000000 0.200000 0.725000
0.150000 0.325000 0.725000
0.275000 0.325000 0.725000
0.400000 0.325000 0.725000
0.525000 0.325000 0.725000
0.650000 0.325000 0.725000
0.775000 0.325000 0.725000
0.900000 0.325000 0.725000
1.000000 0.325000 0.725000
1.000000 0.325000 0.725000
0.150000 0.450000 0.725000
0.275000 0.450000 0.725000
0.400000 0.450000 0.725000
0.525000 0.450000 0.725000
0.650000 0.450000 0.725000
0.775000 0.450000 0.725000
0.900000 0.450000 0.725000
1.000000 0.450000 0.725000
1.000000 0.450000 0.725000
0.150000 0.575000 0.725000
0.275000 0.575000 0.725000
0.400000 0.575000 0.725000
0.525000 0.575000 0.725000
0.650000 0.575000 0.725000
0.775000 0.575000 0.725000
0.900000 0.575000 0.725000
1.000000 0.575000 0.725000
1.000000 0.575000 0.725000
0.150000 0.700000 0.725000
0.275000 0.700000 0.725000
0.400000 0.700000 0.725000
0.525000 0.700000 0.725000
0.650000 0.700000 0.725000
0.775000 0.700000 0.725000
0.900000 0.700000 0.725000
1.000000 0.700000 0.725000
1.000000 0.700000 0.725000
0.150000 0.825000 0.725000
0.275000 0.825000 0.725000
0.400000 0.825000 0.725000
0.525000 0.825000 0.725000
0.650000 0.825000 0.725000
0.775000 0.825000 0.725000
0.900000 0.825000 0.725000
1.000000 0.825000 0.725000
1.000000 0.825000 0.725000
0.150000 0.950000 0.725000
0.275000 0.950000 0.725000
0.400000 0.950000 0.725000
0.525000 0.950000 0.725000
0.650000 0.950000 0.725000
0.775000 0.950000 0.725000
0.900000 0.950000 0.725000
1.000000 0.950000 0.725000
1.000000 0.950000 0.725000
0.150000 0.000000 0.850000
0.275000 0.000000 0.850000
0.400000 0.000000 0.850000
0.525000 0.000000 0.850000
0.650000 0.000000 0.850000
0.775000 0.000000 0.850000
0.900000 0.000000 0.850000
1.000000 0.000000 0.850000
1.000000 0.000000 0.850000
0.150000 0.075000 0.850000
0.275000 0.075000 0.850000
0.400000 0.075000 0.850000
0.525000 0.075000 0.850000
0.650000 0.075000 0.850000
0.775000 0.075000 0.850000
0.900000 0.075000 0.850000
1.000000 0.075000 0.850000
1.000000 0.075000 0.850000
0.150000 0.200000 0.850000
0.275000 0.200000 0.850000
0.400000 0.200000 0.850000
0.525000 0.200000 0.850000
0.650000 0.200000 0.850000
0.775000 0.200000 0.850000
0.900000 0.200000 0.850000
1.000000 0.200000 0.850000
1.000000 0.200000 0.850000
0.150000 0.325000 0.850000
0.275000 0.325000 0.850000
0.400000 0.325000 0.850000
0.525000 0.325000 0.850000
0.650000 0.325000 0.850000
0.775000 0.325000 0.850000
0.900000 0.325000 0.850000
1.000000 0.325000 0.850000
1.000000 0.325000 0.850000
0.150000 0.450000 0.850000
0.275000 0.450000 0.850000
0.400000 0.450000 0.850000
0.525000 0.450000 0.850000
0.650000 0.450000 0.850000
0.775000 0.450000 0.850000
0.900000 0.450000 0.850000
1.000000 0.450000 0.850000
1.000000 0.450000 0.850000
0.150000 0.575000 0.850000
0.275000 0.575000 0.850000
0.400000 0.575000 0.850000
0.525000 0.575000 0.850000
0.650000 0.575000 0.850000
0.775000 0.575000 0.850000
0.900000 0.575000 0.850000
1.000000 0.575000 0.850000
1.000000 0.575000 0.850000
0.150000 0.700000 0.850000
0.275000 0.700000 0.850000
0.400000 0.700000 0.850000
0.525000 0.700000 0.850000
0.650000 0.700000 0.850000
0.775000 0.700000 0.850000
0.900000 0.700000 0.850000
1.000000 0.700000 0.850000
1.000000 0.700000 0.850000
0.150000 0.825000 0.850000
0.275000 0.825000 0.850000
0.400000 0.825000 0.850000
0.525000 0.825000 0.850000
0.650000 0.825000 0.850000
0.775000 0.825000 0.850000
0.900000 0.825000 0.850000
1.000000 0.825000 0.850000
1.000000 0.825000 0.850000
0.150000 0.950000 0.850000
0.275000 0.950000 0.850000
0.400000 0.950000 0.850000
0.525000 0.950000 0.850000
0.650000 0.950000 0.850000
0.775000 0.950000 0.850000
0.900000 0.950000 0.850000
1.000000 0.950000 0.850000
1.000000 0.950000 0.850000
0.150000 0.000000 0.975000
0.275000 0.000000 0.975000
0.400000 0.000000 0.975000
0.525000 0.000000 0.975000
0.650000 0.000000 0.975000
0.775000 0.000000 0.975000
0.900000 0.000000 0.975000
1.000000 0.000000 0.975000
1.000000 0.000000 0.975000
0.150000 0.075000 0.975000
0.275000 0.075000 0.975000
0.400000 0.075000 0.975000
0.525000 0.075000 0.975000
0.650000 0.075000 0.975000
0.775000 0.075000 0.975000
0.900000 0.075000 0.975000
1.000000 0.075000 0.975000
1.000000 0.075000 0.975000
0.150000 0.200000 0.975000
0.275000 0.200000 0.975000
0.400000 0.200000 0.975000
0.525000 0.200000 0.975000
0.650000 0.200000 0.975000
0.775000 0.200000 0.975000
0.900000 0.200000 0.975000
1.000000 0.200000 0.975000
1.000000 0.200000 0.975000
0.150000 0.325000 0.975000
0.275000 0.325000 0.975000
0.400000 0.325000 0.975000
0.525000 0.325000 0.975000
0.650000 0.325000 0.975000
0.775000 0.325000 0.975000
0.900000 0.325000 0.975000
1.000000 0.325000 0.975000
1.000000 0.325000 0.975000
0.150000 0.450000 0.975000
0.275000 0.450000 0.975000
0.400000 0.450000 0.975000
0.525000 0.450000 0.975000
0.650000 0.450000 0.975000
0.775000 0.450000 0.975000
0.900000 0.450000 0.975000
1.000000 0.450000 0.975000
1.000000 0.450000 0.975000
0.150000 0.575000 0.975000
0.275000 0.575000 0.975000
0.400000 0.575000 0.975000
0.525000 0.575000 0.975000
0.650000 0.575000 0.975000
0.775000 0.575000 0.975000
0.900000 0.575000 0.975000
1.000000 0.575000 0.975000
1.000000 0.575000 0.975000
0.150000 0.700000 0.975000
0.275000 0.700000 0.975000
0.400000 0.700000 0.975000
0.525000 0.700000 0.975000
0.650000 0.700000 0.975000
0.775000 0.700000 0.975000
0.900000 0.700000 0.975000
1.000000 0.700000 0.975000
1.000000 0.700000 0.975000
0.150000 0.825000 0.975000
0.275000 0.825000 0.975000
0.400000 0.825000 0.975000
0.525000 0.825000 0.975000
0.650000 0.825000 0.975000
0.775000 0.825000 0.975000
0.900000 0.825000 0.975000
1.000000 0.825000 0.975000
1.000000 0.825000 0.975000
0.150000 0.950000 0.975000
0.275000 0.950000 0.975000
0.400000 0.950000 0.975000
0.525000 0.950000 0.975000
0.650000 0.950000 0.975000
0.775000 0.950000 0.975000
0.900000 0.950000 0.975000
1.000000 0.950000 0.975000
1.000000 0.950000 0.975000
0.150000 0.000000 1.000000
0.275000 0.000000 1.000000
0.400000 0.000000 1.000000
0.525000 0.000000 1.000000
0.650000 0.000000 1.000000
0.775000 0.000000 1.000000
0.900000 0.000000 1.000000
1.000000 0.000000 1.000000
1.000000 0.000000 1.000000
0.150000 0.075000 1.000000
0.275000 0.075000 1.000000
0.400000 0.075000 1.000000
0.525000 0.075000 1.000000
0.650000 0.075000 1.000000
0.775000 0.075000 1.000000
0.900000 0.075000 1.000000
1.000000 0.075000 1.000000
1.000000 0.075000 1.000000
0.150000 0.200000 1.000000
0.275000 0.200000 1.000000
0.400000 0.200000 1.000000
0.525000 0.200000 1.000000
0.650000 0.200000 1.000000
0.775000 0.200000 1.000000
0.900000 0.200000 1.000000
1.000000 0.200000 1.000000
1.000000 0.200000 1.000000
0.150000 0.325000 1.000000
0.275000 0.325000 1.000000
0.400000 0.325000 1.000000
0.525000 0.325000 1.000000
0.650000 0.325000 1.000000
0.775000 0.325000 1.000000
0.900000 0.325000 1.000000
1.000000 0.325000 1.000000
1.000000 0.325000 1.000000
0.150000 0.450000 1.000000
0.275000 0.450000 1.000000
0.400000 0.450000 1.000000
0.525000 0.450000 1.000000
0.650000 0.450000 1.000000
0.775000 0.450000 1.000000
0.900000 0.450000 1.000000
1.000000 0.450000 1.000000
1.000000 0.450000 1.000000
0.150000 0.575000 1.000000
0.275000 0.575000 1.000000
0.400000 0.575000 1.000000
0.525000 0.575000 1.000000
0.650000 0.575000 1.000000
0.775000 0.575000 1.000000
0.900000 0.575000 1.000000
1.000000 0.575000 1.000000
1.000000 0.575000 1.000000
0.150000 0.700000 1.000000
0.275000 0.700000 1.000000
0.400000 0.700000 1.000000
0.525000 0.700000 1.000000
0.650000 0.700000 1.000000
0.775000 0.700000 1.000000
0.900000 0.700000 1.000000
1.000000 0.700000 1.000000
1.000000 0.700000 1.000000
0.150000 0.825000 1.000000
0.275000 0.825000 1.000000
0.400000 0.825000 1.000000
0.525000 0.825000 1.000000
0.650000 0.825000 1.000000
0.775000 0.825000 1.000000
0.900000 0.825000 1.000000
1.000000 0.825000 1.000000
1.000000 0.825000 1.000000
0.150000 0.950000 1.000000
0.275000 0.950000 1.000000
0.400000 0.950000 1.000000
0.525000 0.950000 1.000000
0.650000 0.950000 1.000000
0.775000 0.950000 1.000000
0.900000 0.950000 1.000000
1.000000 0.950000 1.000000
1.000000 0.950000 1.000000
