app/src/main/assets/luts/synthwave_pink.cube
# ApexStudio filter: synthwave_pink
LUT_3D_SIZE 17
DOMAIN_MIN 0.0 0.0 0.0
DOMAIN_MAX 1.0 1.0 1.0
0.150000 0.000000 0.100000
0.212500 0.000000 0.100000
0.275000 0.000000 0.100000
0.337500 0.000000 0.100000
0.400000 0.000000 0.100000
0.462500 0.000000 0.100000
0.525000 0.000000 0.100000
0.587500 0.000000 0.100000
0.650000 0.000000 0.100000
0.712500 0.000000 0.100000
0.775000 0.000000 0.100000
0.837500 0.000000 0.100000
0.900000 0.000000 0.100000
0.962500 0.000000 0.100000
1.000000 0.000000 0.100000
1.000000 0.000000 0.100000
1.000000 0.000000 0.100000
0.150000 0.012500 0.100000
0.212500 0.012500 0.100000
0.275000 0.012500 0.100000
0.337500 0.012500 0.100000
0.400000 0.012500 0.100000
0.462500 0.012500 0.100000
0.525000 0.012500 0.100000
0.587500 0.012500 0.100000
0.650000 0.012500 0.100000
0.712500 0.012500 0.100000
0.775000 0.012500 0.100000
0.837500 0.012500 0.100000
0.900000 0.012500 0.100000
0.962500 0.012500 0.100000
1.000000 0.012500 0.100000
1.000000 0.012500 0.100000
1.000000 0.012500 0.100000
0.150000 0.075000 0.100000
0.212500 0.075000 0.100000
0.275000 0.075000 0.100000
0.337500 0.075000 0.100000
0.400000 0.075000 0.100000
0.462500 0.075000 0.100000
0.525000 0.075000 0.100000
0.587500 0.075000 0.100000
0.650000 0.075000 0.100000
0.712500 0.075000 0.100000
0.775000 0.075000 0.100000
0.837500 0.075000 0.100000
0.900000 0.075000 0.100000
0.962500 0.075000 0.100000
1.000000 0.075000 0.100000
1.000000 0.075000 0.100000
1.000000 0.075000 0.100000
0.150000 0.137500 0.100000
0.212500 0.137500 0.100000
0.275000 0.137500 0.100000
0.337500 0.137500 0.100000
0.400000 0.137500 0.100000
0.462500 0.137500 0.100000
0.525000 0.137500 0.100000
0.587500 0.137500 0.100000
0.650000 0.137500 0.100000
0.712500 0.137500 0.100000
0.775000 0.137500 0.100000
0.837500 0.137500 0.100000
0.900000 0.137500 0.100000
0.962500 0.137500 0.100000
1.000000 0.137500 0.100000
1.000000 0.137500 0.100000
1.000000 0.137500 0.100000
0.150000 0.200000 0.100000
0.212500 0.200000 0.100000
0.275000 0.200000 0.100000
0.337500 0.200000 0.100000
0.400000 0.200000 0.100000
0.462500 0.200000 0.100000
0.525000 0.200000 0.100000
0.587500 0.200000 0.100000
0.650000 0.200000 0.100000
0.712500 0.200000 0.100000
0.775000 0.200000 0.100000
0.837500 0.200000 0.100000
0.900000 0.200000 0.100000
0.962500 0.200000 0.100000
1.000000 0.200000 0.100000
1.000000 0.200000 0.100000
1.000000 0.200000 0.100000
0.150000 0.262500 0.100000
0.212500 0.262500 0.100000
0.275000 0.262500 0.100000
0.337500 0.262500 0.100000
0.400000 0.262500 0.100000
0.462500 0.262500 0.100000
0.525000 0.262500 0.100000
0.587500 0.262500 0.100000
0.650000 0.262500 0.100000
0.712500 0.262500 0.100000
0.775000 0.262500 0.100000
0.837500 0.262500 0.100000
0.900000 0.262500 0.100000
0.962500 0.262500 0.100000
1.000000 0.262500 0.100000
1.000000 0.262500 0.100000
1.000000 0.262500 0.100000
0.150000 0.325000 0.100000
0.212500 0.325000 0.100000
0.275000 0.325000 0.100000
0.337500 0.325000 0.100000
0.400000 0.325000 0.100000
0.462500 0.325000 0.100000
0.525000 0.325000 0.100000
0.587500 0.325000 0.100000
0.650000 0.325000 0.100000
0.712500 0.325000 0.100000
0.775000 0.325000 0.100000
0.837500 0.325000 0.100000
0.900000 0.325000 0.100000
0.962500 0.325000 0.100000
1.000000 0.325000 0.100000
1.000000 0.325000 0.100000
1.000000 0.325000 0.100000
0.150000 0.387500 0.100000
0.212500 0.387500 0.100000
0.275000 0.387500 0.100000
0.337500 0.387500 0.100000
0.400000 0.387500 0.100000
0.462500 0.387500 0.100000
0.525000 0.387500 0.100000
0.587500 0.387500 0.100000
0.650000 0.387500 0.100000
0.712500 0.387500 0.100000
0.775000 0.387500 0.100000
0.837500 0.387500 0.100000
0.900000 0.387500 0.100000
0.962500 0.387500 0.100000
1.000000 0.387500 0.100000
1.000000 0.387500 0.100000
1.000000 0.387500 0.100000
0.150000 0.450000 0.100000
0.212500 0.450000 0.100000
0.275000 0.450000 0.100000
0.337500 0.450000 0.100000
0.400000 0.450000 0.100000
0.462500 0.450000 0.100000
0.525000 0.450000 0.100000
0.587500 0.450000 0.100000
0.650000 0.450000 0.100000
0.712500 0.450000 0.100000
0.775000 0.450000 0.100000
0.837500 0.450000 0.100000
0.900000 0.450000 0.100000
0.962500 0.450000 0.100000
1.000000 0.450000 0.100000
1.000000 0.450000 0.100000
1.000000 0.450000 0.100000
0.150000 0.512500 0.100000
0.212500 0.512500 0.100000
0.275000 0.512500 0.100000
0.337500 0.512500 0.100000
0.400000 0.512500 0.100000
0.462500 0.512500 0.100000
0.525000 0.512500 0.100000
0.587500 0.512500 0.100000
0.650000 0.512500 0.100000
0.712500 0.512500 0.100000
0.775000 0.512500 0.100000
0.837500 0.512500 0.100000
0.900000 0.512500 0.100000
0.962500 0.512500 0.100000
1.000000 0.512500 0.100000
1.000000 0.512500 0.100000
1.000000 0.512500 0.100000
0.150000 0.575000 0.100000
0.212500 0.575000 0.100000
0.275000 0.575000 0.100000
0.337500 0.575000 0.100000
0.400000 0.575000 0.100000
0.462500 0.575000 0.100000
0.525000 0.575000 0.100000
0.587500 0.575000 0.100000
0.650000 0.575000 0.100000
0.712500 0.575000 0.100000
0.775000 0.575000 0.100000
0.837500 0.575000 0.100000
0.900000 0.575000 0.100000
0.962500 0.575000 0.100000
1.000000 0.575000 0.100000
1.000000 0.575000 0.100000
1.000000 0.575000 0.100000
0.150000 0.637500 0.100000
0.212500 0.637500 0.100000
0.275000 0.637500 0.100000
0.337500 0.637500 0.100000
0.400000 0.637500 0.100000
0.462500 0.637500 0.100000
0.525000 0.637500 0.100000
0.587500 0.637500 0.100000
0.650000 0.637500 0.100000
0.712500 0.637500 0.100000
0.775000 0.637500 0.100000
0.837500 0.637500 0.100000
0.900000 0.637500 0.100000
0.962500 0.637500 0.100000
1.000000 0.637500 0.100000
1.000000 0.637500 0.100000
1.000000 0.637500 0.100000
0.150000 0.700000 0.100000
0.212500 0.700000 0.100000
0.275000 0.700000 0.100000
0.337500 0.700000 0.100000
0.400000 0.700000 0.100000
0.462500 0.700000 0.100000
0.525000 0.700000 0.100000
0.587500 0.700000 0.100000
0.650000 0.700000 0.100000
0.712500 0.700000 0.100000
0.775000 0.700000 0.100000
0.837500 0.700000 0.100000
0.900000 0.700000 0.100000
0.962500 0.700000 0.100000
1.000000 0.700000 0.100000
1.000000 0.700000 0.100000
1.000000 0.700000 0.100000
0.150000 0.762500 0.100000
0.212500 0.762500 0.100000
0.275000 0.762500 0.100000
0.337500 0.762500 0.100000
0.400000 0.762500 0.100000
0.462500 0.762500 0.100000
0.525000 0.762500 0.100000
0.587500 0.762500 0.100000
0.650000 0.762500 0.100000
0.712500 0.762500 0.100000
0.775000 0.762500 0.100000
0.837500 0.762500 0.100000
0.900000 0.762500 0.100000
0.962500 0.762500 0.100000
1.000000 0.762500 0.100000
1.000000 0.762500 0.100000
1.000000 0.762500 0.100000
0.150000 0.825000 0.100000
0.212500 0.825000 0.100000
0.275000 0.825000 0.100000
0.337500 0.825000 0.100000
0.400000 0.825000 0.100000
0.462500 0.825000 0.100000
0.525000 0.825000 0.100000
0.587500 0.825000 0.100000
0.650000 0.825000 0.100000
0.712500 0.825000 0.100000
0.775000 0.825000 0.100000
0.837500 0.825000 0.100000
0.900000 0.825000 0.100000
0.962500 0.825000 0.100000
1.000000 0.825000 0.100000
1.000000 0.825000 0.100000
1.000000 0.825000 0.100000
0.150000 0.887500 0.100000
0.212500 0.887500 0.100000
0.275000 0.887500 0.100000
0.337500 0.887500 0.100000
0.400000 0.887500 0.100000
0.462500 0.887500 0.100000
0.525000 0.887500 0.100000
0.587500 0.887500 0.100000
0.650000 0.887500 0.100000
0.712500 0.887500 0.100000
0.775000 0.887500 0.100000
0.837500 0.887500 0.100000
0.900000 0.887500 0.100000
0.962500 0.887500 0.100000
1.000000 0.887500 0.100000
1.000000 0.887500 0.100000
1.000000 0.887500 0.100000
0.150000 0.950000 0.100000
0.212500 0.950000 0.100000
0.275000 0.950000 0.100000
0.337500 0.950000 0.100000
0.400000 0.950000 0.100000
0.462500 0.950000 0.100000
0.525000 0.950000 0.100000
0.587500 0.950000 0.100000
0.650000 0.950000 0.100000
0.712500 0.950000 0.100000
0.775000 0.950000 0.100000
0.837500 0.950000 0.100000
0.900000 0.950000 0.100000
0.962500 0.950000 0.100000
1.000000 0.950000 0.100000
1.000000 0.950000 0.100000
1.000000 0.950000 0.100000
0.150000 0.000000 0.162500
0.212500 0.000000 0.162500
0.275000 0.000000 0.162500
0.337500 0.000000 0.162500
0.400000 0.000000 0.162500
0.462500 0.000000 0.162500
0.525000 0.000000 0.162500
0.587500 0.000000 0.162500
0.650000 0.000000 0.162500
0.712500 0.000000 0.162500
0.775000 0.000000 0.162500
0.837500 0.000000 0.162500
0.900000 0.000000 0.162500
0.962500 0.000000 0.162500
1.000000 0.000000 0.162500
1.000000 0.000000 0.162500
1.000000 0.000000 0.162500
0.150000 0.012500 0.162500
0.212500 0.012500 0.162500
0.275000 0.012500 0.162500
0.337500 0.012500 0.162500
0.400000 0.012500 0.162500
0.462500 0.012500 0.162500
0.525000 0.012500 0.162500
0.587500 0.012500 0.162500
0.650000 0.012500 0.162500
0.712500 0.012500 0.162500
0.775000 0.012500 0.162500
0.837500 0.012500 0.162500
0.900000 0.012500 0.162500
0.962500 0.012500 0.162500
1.000000 0.012500 0.162500
1.000000 0.012500 0.162500
1.000000 0.012500 0.162500
0.150000 0.075000 0.162500
0.212500 0.075000 0.162500
0.275000 0.075000 0.162500
0.337500 0.075000 0.162500
0.400000 0.075000 0.162500
0.462500 0.075000 0.162500
0.525000 0.075000 0.162500
0.587500 0.075000 0.162500
0.650000 0.075000 0.162500
0.712500 0.075000 0.162500
0.775000 0.075000 0.162500
0.837500 0.075000 0.162500
0.900000 0.075000 0.162500
0.962500 0.075000 0.162500
1.000000 0.075000 0.162500
1.000000 0.075000 0.162500
1.000000 0.075000 0.162500
0.150000 0.137500 0.162500
0.212500 0.137500 0.162500
0.275000 0.137500 0.162500
0.337500 0.137500 0.162500
0.400000 0.137500 0.162500
0.462500 0.137500 0.162500
0.525000 0.137500 0.162500
0.587500 0.137500 0.162500
0.650000 0.137500 0.162500
0.712500 0.137500 0.162500
0.775000 0.137500 0.162500
0.837500 0.137500 0.162500
0.900000 0.137500 0.162500
0.962500 0.137500 0.162500
1.000000 0.137500 0.162500
1.000000 0.137500 0.162500
1.000000 0.137500 0.162500
0.150000 0.200000 0.162500
0.212500 0.200000 0.162500
0.275000 0.200000 0.162500
0.337500 0.200000 0.162500
0.400000 0.200000 0.162500
0.462500 0.200000 0.162500
0.525000 0.200000 0.162500
0.587500 0.200000 0.162500
0.650000 0.200000 0.162500
0.712500 0.200000 0.162500
0.775000 0.200000 0.162500
0.837500 0.200000 0.162500
0.900000 0.200000 0.162500
0.962500 0.200000 0.162500
1.000000 0.200000 0.162500
1.000000 0.200000 0.162500
1.000000 0.200000 0.162500
0.150000 0.262500 0.162500
0.212500 0.262500 0.162500
0.275000 0.262500 0.162500
0.337500 0.262500 0.162500
0.400000 0.262500 0.162500
0.462500 0.262500 0.162500
0.525000 0.262500 0.162500
0.587500 0.262500 0.162500
0.650000 0.262500 0.162500
0.712500 0.262500 0.162500
0.775000 0.262500 0.162500
0.837500 0.262500 0.162500
0.900000 0.262500 0.162500
0.962500 0.262500 0.162500
1.000000 0.262500 0.162500
1.000000 0.262500 0.162500
1.000000 0.262500 0.162500
0.150000 0.325000 0.162500
0.212500 0.325000 0.162500
0.275000 0.325000 0.162500
0.337500 0.325000 0.162500
0.400000 0.325000 0.162500
0.462500 0.325000 0.162500
0.525000 0.325000 0.162500
0.587500 0.325000 0.162500
0.650000 0.325000 0.162500
0.712500 0.325000 0.162500
0.775000 0.325000 0.162500
0.837500 0.325000 0.162500
0.900000 0.325000 0.162500
0.962500 0.325000 0.162500
1.000000 0.325000 0.162500
1.000000 0.325000 0.162500
1.000000 0.325000 0.162500
0.150000 0.387500 0.162500
0.212500 0.387500 0.162500
0.275000 0.387500 0.162500
0.337500 0.387500 0.162500
0.400000 0.387500 0.162500
0.462500 0.387500 0.162500
0.525000 0.387500 0.162500
0.587500 0.387500 0.162500
0.650000 0.387500 0.162500
0.712500 0.387500 0.162500
0.775000 0.387500 0.162500
0.837500 0.387500 0.162500
0.900000 0.387500 0.162500
0.962500 0.387500 0.162500
1.000000 0.387500 0.162500
1.000000 0.387500 0.162500
1.000000 0.387500 0.162500
0.150000 0.450000 0.162500
0.212500 0.450000 0.162500
0.275000 0.450000 0.162500
0.337500 0.450000 0.162500
0.400000 0.450000 0.162500
0.462500 0.450000 0.162500
0.525000 0.450000 0.162500
0.587500 0.450000 0.162500
0.650000 0.450000 0.162500
0.712500 0.450000 0.162500
0.775000 0.450000 0.162500
0.837500 0.450000 0.162500
0.900000 0.450000 0.162500
0.962500 0.450000 0.162500
1.000000 0.450000 0.162500
1.000000 0.450000 0.162500
1.000000 0.450000 0.162500
0.150000 0.512500 0.162500
0.212500 0.512500 0.162500
0.275000 0.512500 0.162500
0.337500 0.512500 0.162500
0.400000 0.512500 0.162500
0.462500 0.512500 0.162500
0.525000 0.512500 0.162500
0.587500 0.512500 0.162500
0.650000 0.512500 0.162500
0.712500 0.512500 0.162500
0.775000 0.512500 0.162500
0.837500 0.512500 0.162500
0.900000 0.512500 0.162500
0.962500 0.512500 0.162500
1.000000 0.512500 0.162500
1.000000 0.512500 0.162500
1.000000 0.512500 0.162500
0.150000 0.575000 0.162500
0.212500 0.575000 0.162500
0.275000 0.575000 0.162500
0.337500 0.575000 0.162500
0.400000 0.575000 0.162500
0.462500 0.575000 0.162500
0.525000 0.575000 0.162500
0.587500 0.575000 0.162500
0.650000 0.575000 0.162500
0.712500 0.575000 0.162500
0.775000 0.575000 0.162500
0.837500 0.575000 0.162500
0.900000 0.575000 0.162500
0.962500 0.575000 0.162500
1.000000 0.575000 0.162500
1.000000 0.575000 0.162500
1.000000 0.575000 0.162500
0.150000 0.637500 0.162500
0.212500 0.637500 0.162500
0.275000 0.637500 0.162500
0.337500 0.637500 0.162500
0.400000 0.637500 0.162500
0.462500 0.637500 0.162500
0.525000 0.637500 0.162500
0.587500 0.637500 0.162500
0.650000 0.637500 0.162500
0.712500 0.637500 0.162500
0.775000 0.637500 0.162500
0.837500 0.637500 0.162500
0.900000 0.637500 0.162500
0.962500 0.637500 0.162500
1.000000 0.637500 0.162500
1.000000 0.637500 0.162500
1.000000 0.637500 0.162500
0.150000 0.700000 0.162500
0.212500 0.700000 0.162500
0.275000 0.700000 0.162500
0.337500 0.700000 0.162500
0.400000 0.700000 0.162500
0.462500 0.700000 0.162500
0.525000 0.700000 0.162500
0.587500 0.700000 0.162500
0.650000 0.700000 0.162500
0.712500 0.700000 0.162500
0.775000 0.700000 0.162500
0.837500 0.700000 0.162500
0.900000 0.700000 0.162500
0.962500 0.700000 0.162500
1.000000 0.700000 0.162500
1.000000 0.700000 0.162500
1.000000 0.700000 0.162500
0.150000 0.762500 0.162500
0.212500 0.762500 0.162500
0.275000 0.762500 0.162500
0.337500 0.762500 0.162500
0.400000 0.762500 0.162500
0.462500 0.762500 0.162500
0.525000 0.762500 0.162500
0.587500 0.762500 0.162500
0.650000 0.762500 0.162500
0.712500 0.762500 0.162500
0.775000 0.762500 0.162500
0.837500 0.762500 0.162500
0.900000 0.762500 0.162500
0.962500 0.762500 0.162500
1.000000 0.762500 0.162500
1.000000 0.762500 0.162500
1.000000 0.762500 0.162500
0.150000 0.825000 0.162500
0.212500 0.825000 0.162500
0.275000 0.825000 0.162500
0.337500 0.825000 0.162500
0.400000 0.825000 0.162500
0.462500 0.825000 0.162500
0.525000 0.825000 0.162500
0.587500 0.825000 0.162500
0.650000 0.825000 0.162500
0.712500 0.825000 0.162500
0.775000 0.825000 0.162500
0.837500 0.825000 0.162500
0.900000 0.825000 0.162500
0.962500 0.825000 0.162500
1.000000 0.825000 0.162500
1.000000 0.825000 0.162500
1.000000 0.825000 0.162500
0.150000 0.887500 0.162500
0.212500 0.887500 0.162500
0.275000 0.887500 0.162500
0.337500 0.887500 0.162500
0.400000 0.887500 0.162500
0.462500 0.887500 0.162500
0.525000 0.887500 0.162500
0.587500 0.887500 0.162500
0.650000 0.887500 0.162500
0.712500 0.887500 0.162500
0.775000 0.887500 0.162500
0.837500 0.887500 0.162500
0.900000 0.887500 0.162500
0.962500 0.887500 0.162500
1.000000 0.887500 0.162500
1.000000 0.887500 0.162500
1.000000 0.887500 0.162500
0.150000 0.950000 0.162500
0.212500 0.950000 0.162500
0.275000 0.950000 0.162500
0.337500 0.950000 0.162500
0.400000 0.950000 0.162500
0.462500 0.950000 0.162500
0.525000 0.950000 0.162500
0.587500 0.950000 0.162500
0.650000 0.950000 0.162500
0.712500 0.950000 0.162500
0.775000 0.950000 0.162500
0.837500 0.950000 0.162500
0.900000 0.950000 0.162500
0.962500 0.950000 0.162500
1.000000 0.950000 0.162500
1.000000 0.950000 0.162500
1.000000 0.950000 0.162500
0.150000 0.000000 0.225000
0.212500 0.000000 0.225000
0.275000 0.000000 0.225000
0.337500 0.000000 0.225000
0.400000 0.000000 0.225000
0.462500 0.000000 0.225000
0.525000 0.000000 0.225000
0.587500 0.000000 0.225000
0.650000 0.000000 0.225000
0.712500 0.000000 0.225000
0.775000 0.000000 0.225000
0.837500 0.000000 0.225000
0.900000 0.000000 0.225000
0.962500 0.000000 0.225000
1.000000 0.000000 0.225000
1.000000 0.000000 0.225000
1.000000 0.000000 0.225000
0.150000 0.012500 0.225000
0.212500 0.012500 0.225000
0.275000 0.012500 0.225000
0.337500 0.012500 0.225000
0.400000 0.012500 0.225000
0.462500 0.012500 0.225000
0.525000 0.012500 0.225000
0.587500 0.012500 0.225000
0.650000 0.012500 0.225000
0.712500 0.012500 0.225000
0.775000 0.012500 0.225000
0.837500 0.012500 0.225000
0.900000 0.012500 0.225000
0.962500 0.012500 0.225000
1.000000 0.012500 0.225000
1.000000 0.012500 0.225000
1.000000 0.012500 0.225000
0.150000 0.075000 0.225000
0.212500 0.075000 0.225000
0.275000 0.075000 0.225000
0.337500 0.075000 0.225000
0.400000 0.075000 0.225000
0.462500 0.075000 0.225000
0.525000 0.075000 0.225000
0.587500 0.075000 0.225000
0.650000 0.075000 0.225000
0.712500 0.075000 0.225000
0.775000 0.075000 0.225000
0.837500 0.075000 0.225000
0.900000 0.075000 0.225000
0.962500 0.075000 0.225000
1.000000 0.075000 0.225000
1.000000 0.075000 0.225000
1.000000 0.075000 0.225000
0.150000 0.137500 0.225000
0.212500 0.137500 0.225000
0.275000 0.137500 0.225000
0.337500 0.137500 0.225000
0.400000 0.137500 0.225000
0.462500 0.137500 0.225000
0.525000 0.137500 0.225000
0.587500 0.137500 0.225000
0.650000 0.137500 0.225000
0.712500 0.137500 0.225000
0.775000 0.137500 0.225000
0.837500 0.137500 0.225000
0.900000 0.137500 0.225000
0.962500 0.137500 0.225000
1.000000 0.137500 0.225000
1.000000 0.137500 0.225000
1.000000 0.137500 0.225000
0.150000 0.200000 0.225000
0.212500 0.200000 0.225000
0.275000 0.200000 0.225000
0.337500 0.200000 0.225000
0.400000 0.200000 0.225000
0.462500 0.200000 0.225000
0.525000 0.200000 0.225000
0.587500 0.200000 0.225000
0.650000 0.200000 0.225000
0.712500 0.200000 0.225000
0.775000 0.200000 0.225000
0.837500 0.200000 0.225000
0.900000 0.200000 0.225000
0.962500 0.200000 0.225000
1.000000 0.200000 0.225000
1.000000 0.200000 0.225000
1.000000 0.200000 0.225000
0.150000 0.262500 0.225000
0.212500 0.262500 0.225000
0.275000 0.262500 0.225000
0.337500 0.262500 0.225000
0.400000 0.262500 0.225000
0.462500 0.262500 0.225000
0.525000 0.262500 0.225000
0.587500 0.262500 0.225000
0.650000 0.262500 0.225000
0.712500 0.262500 0.225000
0.775000 0.262500 0.225000
0.837500 0.262500 0.225000
0.900000 0.262500 0.225000
0.962500 0.262500 0.225000
1.000000 0.262500 0.225000
1.000000 0.262500 0.225000
1.000000 0.262500 0.225000
0.150000 0.325000 0.225000
0.212500 0.325000 0.225000
0.275000 0.325000 0.225000
0.337500 0.325000 0.225000
0.400000 0.325000 0.225000
0.462500 0.325000 0.225000
0.525000 0.325000 0.225000
0.587500 0.325000 0.225000
0.650000 0.325000 0.225000
0.712500 0.325000 0.225000
0.775000 0.325000 0.225000
0.837500 0.325000 0.225000
0.900000 0.325000 0.225000
0.962500 0.325000 0.225000
1.000000 0.325000 0.225000
1.000000 0.325000 0.225000
1.000000 0.325000 0.225000
0.150000 0.387500 0.225000
0.212500 0.387500 0.225000
0.275000 0.387500 0.225000
0.337500 0.387500 0.225000
0.400000 0.387500 0.225000
0.462500 0.387500 0.225000
0.525000 0.387500 0.225000
0.587500 0.387500 0.225000
0.650000 0.387500 0.225000
0.712500 0.387500 0.225000
0.775000 0.387500 0.225000
0.837500 0.387500 0.225000
0.900000 0.387500 0.225000
0.962500 0.387500 0.225000
1.000000 0.387500 0.225000
1.000000 0.387500 0.225000
1.000000 0.387500 0.225000
0.150000 0.450000 0.225000
0.212500 0.450000 0.225000
0.275000 0.450000 0.225000
0.337500 0.450000 0.225000
0.400000 0.450000 0.225000
0.462500 0.450000 0.225000
0.525000 0.450000 0.225000
0.587500 0.450000 0.225000
0.650000 0.450000 0.225000
0.712500 0.450000 0.225000
0.775000 0.450000 0.225000
0.837500 0.450000 0.225000
0.900000 0.450000 0.225000
0.962500 0.450000 0.225000
1.000000 0.450000 0.225000
1.000000 0.450000 0.225000
1.000000 0.450000 0.225000
0.150000 0.512500 0.225000
0.212500 0.512500 0.225000
0.275000 0.512500 0.225000
0.337500 0.512500 0.225000
0.400000 0.512500 0.225000
0.462500 0.512500 0.225000
0.525000 0.512500 0.225000
0.587500 0.512500 0.225000
0.650000 0.512500 0.225000
0.712500 0.512500 0.225000
0.775000 0.512500 0.225000
0.837500 0.512500 0.225000
0.900000 0.512500 0.225000
0.962500 0.512500 0.225000
1.000000 0.512500 0.225000
1.000000 0.512500 0.225000
1.000000 0.512500 0.225000
0.150000 0.575000 0.225000
0.212500 0.575000 0.225000
0.275000 0.575000 0.225000
0.337500 0.575000 0.225000
0.400000 0.575000 0.225000
0.462500 0.575000 0.225000
0.525000 0.575000 0.225000
0.587500 0.575000 0.225000
0.650000 0.575000 0.225000
0.712500 0.575000 0.225000
0.775000 0.575000 0.225000
0.837500 0.575000 0.225000
0.900000 0.575000 0.225000
0.962500 0.575000 0.225000
1.000000 0.575000 0.225000
1.000000 0.575000 0.225000
1.000000 0.575000 0.225000
0.150000 0.637500 0.225000
0.212500 0.637500 0.225000
0.275000 0.637500 0.225000
0.337500 0.637500 0.225000
0.400000 0.637500 0.225000
0.462500 0.637500 0.225000
0.525000 0.637500 0.225000
0.587500 0.637500 0.225000
0.650000 0.637500 0.225000
0.712500 0.637500 0.225000
0.775000 0.637500 0.225000
0.837500 0.637500 0.225000
0.900000 0.637500 0.225000
0.962500 0.637500 0.225000
1.000000 0.637500 0.225000
1.000000 0.637500 0.225000
1.000000 0.637500 0.225000
0.150000 0.700000 0.225000
0.212500 0.700000 0.225000
0.275000 0.700000 0.225000
0.337500 0.700000 0.225000
0.400000 0.700000 0.225000
0.462500 0.700000 0.225000
0.525000 0.700000 0.225000
0.587500 0.700000 0.225000
0.650000 0.700000 0.225000
0.712500 0.700000 0.225000
0.775000 0.700000 0.225000
0.837500 0.700000 0.225000
0.900000 0.700000 0.225000
0.962500 0.700000 0.225000
1.000000 0.700000 0.225000
1.000000 0.700000 0.225000
1.000000 0.700000 0.225000
0.150000 0.762500 0.225000
0.212500 0.762500 0.225000
0.275000 0.762500 0.225000
0.337500 0.762500 0.225000
0.400000 0.762500 0.225000
0.462500 0.762500 0.225000
0.525000 0.762500 0.225000
0.587500 0.762500 0.225000
0.650000 0.762500 0.225000
0.712500 0.762500 0.225000
0.775000 0.762500 0.225000
0.837500 0.762500 0.225000
0.900000 0.762500 0.225000
0.962500 0.762500 0.225000
1.000000 0.762500 0.225000
1.000000 0.762500 0.225000
1.000000 0.762500 0.225000
0.150000 0.825000 0.225000
0.212500 0.825000 0.225000
0.275000 0.825000 0.225000
0.337500 0.825000 0.225000
0.400000 0.825000 0.225000
0.462500 0.825000 0.225000
0.525000 0.825000 0.225000
0.587500 0.825000 0.225000
0.650000 0.825000 0.225000
0.712500 0.825000 0.225000
0.775000 0.825000 0.225000
0.837500 0.825000 0.225000
0.900000 0.825000 0.225000
0.962500 0.825000 0.225000
1.000000 0.825000 0.225000
1.000000 0.825000 0.225000
1.000000 0.825000 0.225000
0.150000 0.887500 0.225000
0.212500 0.887500 0.225000
0.275000 0.887500 0.225000
0.337500 0.887500 0.225000
0.400000 0.887500 0.225000
0.462500 0.887500 0.225000
0.525000 0.887500 0.225000
0.587500 0.887500 0.225000
0.650000 0.887500 0.225000
0.712500 0.887500 0.225000
0.775000 0.887500 0.225000
0.837500 0.887500 0.225000
0.900000 0.887500 0.225000
0.962500 0.887500 0.225000
1.000000 0.887500 0.225000
1.000000 0.887500 0.225000
1.000000 0.887500 0.225000
0.150000 0.950000 0.225000
0.212500 0.950000 0.225000
0.275000 0.950000 0.225000
0.337500 0.950000 0.225000
0.400000 0.950000 0.225000
0.462500 0.950000 0.225000
0.525000 0.950000 0.225000
0.587500 0.950000 0.225000
0.650000 0.950000 0.225000
0.712500 0.950000 0.225000
0.775000 0.950000 0.225000
0.837500 0.950000 0.225000
0.900000 0.950000 0.225000
0.962500 0.950000 0.225000
1.000000 0.950000 0.225000
1.000000 0.950000 0.225000
1.000000 0.950000 0.225000
0.150000 0.000000 0.287500
0.212500 0.000000 0.287500
0.275000 0.000000 0.287500
0.337500 0.000000 0.287500
0.400000 0.000000 0.287500
0.462500 0.000000 0.287500
0.525000 0.000000 0.287500
0.587500 0.000000 0.287500
0.650000 0.000000 0.287500
0.712500 0.000000 0.287500
0.775000 0.000000 0.287500
0.837500 0.000000 0.287500
0.900000 0.000000 0.287500
0.962500 0.000000 0.287500
1.000000 0.000000 0.287500
1.000000 0.000000 0.287500
1.000000 0.000000 0.287500
0.150000 0.012500 0.287500
