app/src/main/assets/luts/teal_orange.cube
# ApexStudio filter: teal_orange
LUT_3D_SIZE 9
DOMAIN_MIN 0.0 0.0 0.0
DOMAIN_MAX 1.0 1.0 1.0
0.000000 0.157830 0.217830
0.121515 0.142097 0.198957
0.265200 0.126363 0.180084
0.408885 0.110630 0.161211
0.552570 0.094896 0.142338
0.696255 0.079163 0.123465
0.839940 0.063429 0.104592
0.983625 0.047696 0.085719
1.000000 0.031962 0.066846
0.000000 0.276942 0.180778
0.109117 0.261208 0.161905
0.252803 0.245475 0.143033
0.396488 0.229742 0.124160
0.540173 0.214008 0.105287
0.683858 0.198275 0.086414
0.827543 0.182541 0.067541
0.971228 0.166808 0.048668
1.000000 0.151074 0.029795
0.000000 0.396054 0.143727
0.096720 0.380320 0.124854
0.240405 0.364587 0.105981
0.384090 0.348853 0.087108
0.527775 0.333120 0.068235
0.671460 0.317387 0.049362
0.815145 0.301653 0.030489
0.958830 0.285920 0.011616
1.000000 0.270186 0.000000
0.000000 0.515166 0.106675
0.084322 0.499432 0.087802
0.228007 0.483699 0.068929
0.371692 0.467965 0.050056
0.515377 0.452232 0.031183
0.659062 0.436498 0.012310
0.802748 0.420765 0.000000
0.946433 0.405032 0.000000
1.000000 0.391877 0.000000
0.000000 0.634278 0.069624
0.071925 0.618544 0.050751
0.215610 0.602811 0.031878
0.359295 0.587077 0.013005
0.502980 0.571344 0.000000
0.646665 0.555610 0.000000
0.795725 0.542270 0.000000
0.950728 0.531575 0.000000
1.000000 0.520881 0.000000
0.000000 0.753390 0.032572
0.059527 0.737656 0.013699
0.203212 0.721923 0.000000
0.346897 0.706189 0.000000
0.495541 0.692663 0.000000
0.650544 0.681969 0.000000
0.805547 0.671274 0.000000
0.960550 0.660580 0.000000
1.000000 0.649885 0.000000
0.000000 0.872501 0.000000
0.047130 0.856768 0.000000
0.195357 0.843057 0.000000
0.350360 0.832362 0.000000
0.505363 0.821668 0.000000
0.660366 0.810973 0.000000
0.815369 0.800279 0.000000
0.970372 0.789584 0.000000
1.000000 0.784406 0.000000
0.000000 0.993450 0.000000
0.050176 0.982756 0.000000
0.205179 0.972061 0.000000
0.360182 0.961367 0.000000
0.515185 0.950672 0.000000
0.670188 0.939978 0.000000
0.824458 0.934495 0.000000
0.978301 0.932059 0.000000
1.000000 0.929623 0.000000
0.000000 1.000000 0.000000
0.059998 1.000000 0.000000
0.215001 1.000000 0.000000
0.370003 1.000000 0.000000
0.524317 1.000000 0.000000
0.678160 1.000000 0.000000
0.832003 1.000000 0.000000
0.985846 1.000000 0.000000
1.000000 1.000000 0.000000
0.000000 0.151831 0.360634
0.119107 0.136098 0.341761
0.262792 0.120364 0.322888
0.406477 0.104631 0.304015
0.550162 0.088897 0.285142
0.693848 0.073164 0.266270
0.837533 0.057431 0.247397
0.981218 0.041697 0.228524
1.000000 0.025964 0.209651
0.000000 0.270943 0.323583
0.106710 0.255210 0.304710
0.250395 0.239476 0.285837
0.394080 0.223743 0.266964
0.537765 0.208009 0.248091
0.681450 0.192276 0.229218
0.825135 0.176542 0.210345
0.968820 0.160809 0.191472
1.000000 0.145076 0.172599
0.000000 0.390055 0.286531
0.094312 0.374322 0.267658
0.237997 0.358588 0.248785
0.381682 0.342855 0.229912
0.525367 0.327121 0.211039
0.669052 0.311388 0.192166
0.812737 0.295654 0.173293
0.956422 0.279921 0.154420
1.000000 0.264187 0.135547
0.000000 0.509167 0.249480
0.081915 0.493434 0.230607
0.225600 0.477700 0.211734
0.369285 0.461967 0.192861
0.512970 0.446233 0.173988
0.656655 0.430500 0.155115
0.800340 0.414766 0.136242
0.944025 0.399033 0.117369
1.000000 0.387799 0.097389
0.000000 0.628279 0.212428
0.069517 0.612545 0.193555
0.213202 0.596812 0.174682
0.356887 0.581079 0.155809
0.500572 0.565345 0.136936
0.644257 0.549612 0.118063
0.797632 0.538192 0.098128
0.952635 0.527498 0.078015
1.000000 0.516803 0.057902
0.000000 0.747391 0.175376
0.057119 0.731657 0.156503
0.200804 0.715924 0.137630
0.344489 0.700190 0.118757
0.497448 0.688586 0.098868
0.652451 0.677891 0.078755
0.807454 0.667197 0.058642
0.962457 0.656502 0.038529
1.000000 0.645808 0.018416
0.000000 0.866503 0.138325
0.044722 0.850769 0.119452
0.197264 0.838979 0.099608
0.352267 0.828285 0.079495
0.507270 0.817590 0.059382
0.662273 0.806896 0.039269
0.817276 0.796201 0.019156
0.972222 0.785913 0.000000
1.000000 0.783477 0.000000
0.000000 0.989373 0.100348
0.052083 0.978678 0.080235
0.207086 0.967984 0.060122
0.362089 0.957289 0.040009
0.517092 0.946595 0.019896
0.672081 0.936003 0.000000
0.825923 0.933566 0.000000
0.979766 0.931130 0.000000
1.000000 0.928694 0.000000
0.000000 1.000000 0.060862
0.061905 1.000000 0.040749
0.216908 1.000000 0.020636
0.371911 1.000000 0.000523
0.525782 1.000000 0.000000
0.679625 1.000000 0.000000
0.833468 1.000000 0.000000
0.987311 1.000000 0.000000
1.000000 1.000000 0.000000
0.000000 0.145833 0.503439
0.116700 0.130099 0.484566
0.260385 0.114366 0.465693
0.404070 0.098632 0.446820
0.547755 0.082899 0.427947
0.691440 0.067165 0.409074
0.835125 0.051432 0.390201
0.978810 0.035698 0.371328
1.000000 0.019965 0.352455
0.000000 0.264944 0.466387
0.104302 0.249211 0.447514
0.247987 0.233478 0.428641
0.391672 0.217744 0.409768
0.535357 0.202011 0.390895
0.679042 0.186277 0.372022
0.822727 0.170544 0.353149
0.966412 0.154810 0.334276
1.000000 0.139077 0.315403
0.000000 0.384056 0.429335
0.091904 0.368323 0.410462
0.235590 0.352590 0.391589
0.379275 0.336856 0.372717
0.522960 0.321123 0.353844
0.666645 0.305389 0.334971
0.810330 0.289656 0.316098
0.954015 0.273922 0.297225
1.000000 0.258189 0.278352
0.000000 0.503168 0.392284
0.079507 0.487435 0.373411
0.223192 0.471701 0.354538
0.366877 0.455968 0.335665
0.510562 0.440235 0.316792
0.654247 0.424501 0.297919
0.797932 0.408768 0.279046
0.944721 0.394416 0.259833
1.000000 0.383721 0.239720
0.000000 0.622280 0.355232
0.067109 0.606547 0.336359
0.210794 0.590813 0.317486
0.354479 0.575080 0.298613
0.498164 0.559346 0.279740
0.644537 0.544809 0.260573
0.799540 0.534115 0.240460
0.954543 0.523420 0.220347
1.000000 0.512726 0.200234
0.000000 0.741392 0.318181
0.054712 0.725659 0.299308
0.198397 0.709925 0.280435
0.344353 0.695203 0.261313
0.499356 0.684508 0.241200
0.654359 0.673814 0.221087
0.809362 0.663119 0.200974
0.964365 0.652425 0.180861
1.000000 0.641730 0.160748
0.000000 0.860504 0.281129
0.044169 0.845596 0.262053
0.199172 0.834902 0.241940
0.354175 0.824207 0.221827
0.509178 0.813513 0.201714
0.664181 0.802818 0.181601
0.819184 0.792124 0.161488
0.973687 0.784984 0.146281
1.000000 0.782548 0.137566
0.000000 0.985295 0.242680
0.053991 0.974601 0.222567
0.208994 0.963906 0.202454
0.363997 0.953212 0.182341
0.519000 0.942517 0.162228
0.673546 0.935074 0.146602
0.827389 0.932638 0.137887
0.981232 0.930202 0.129172
1.000000 0.927765 0.120456
0.000000 1.000000 0.203194
0.063813 1.000000 0.183081
0.218815 1.000000 0.162967
0.373404 1.000000 0.146922
0.527247 1.000000 0.138207
0.681090 1.000000 0.129492
0.834933 1.000000 0.120777
0.988776 1.000000 0.112062
1.000000 1.000000 0.103347
0.000000 0.139834 0.646243
0.114292 0.124100 0.627370
0.257977 0.108367 0.608497
0.401662 0.092634 0.589624
0.545347 0.076900 0.570751
0.689032 0.061167 0.551878
0.832717 0.045433 0.533005
0.976402 0.029700 0.514132
1.000000 0.013966 0.495259
0.000000 0.258946 0.609191
0.101894 0.243212 0.590318
0.245579 0.227479 0.571445
0.389264 0.211745 0.552572
0.532949 0.196012 0.533699
0.676635 0.180279 0.514827
0.820320 0.164545 0.495954
0.964005 0.148812 0.477081
1.000000 0.133078 0.458208
0.000000 0.378058 0.572140
0.089497 0.362324 0.553267
0.233182 0.346591 0.534394
0.376867 0.330857 0.515521
0.520552 0.315124 0.496648
0.664237 0.299390 0.477775
0.807922 0.283657 0.458902
0.951607 0.267924 0.440029
1.000000 0.252190 0.421156
0.000000 0.497170 0.535088
0.077099 0.481436 0.516215
0.220784 0.465703 0.497342
0.364469 0.449969 0.478469
0.508154 0.434236 0.459596
0.651839 0.418502 0.440723
0.795524 0.402769 0.421850
0.946629 0.390339 0.402165
1.000000 0.379644 0.382051
0.000000 0.616282 0.498037
0.064702 0.600548 0.479164
0.208387 0.584815 0.460291
0.352072 0.569081 0.441418
0.495757 0.553348 0.422545
0.646444 0.540732 0.402904
0.801447 0.530037 0.382791
0.956450 0.519343 0.362678
1.000000 0.508648 0.342565
0.000000 0.735393 0.460985
0.052304 0.719660 0.442112
0.195989 0.703927 0.423239
0.346260 0.691125 0.403644
0.501263 0.680431 0.383531
0.656266 0.669736 0.363418
0.811269 0.659042 0.343305
0.966272 0.648347 0.323192
1.000000 0.637653 0.303079
0.000000 0.854505 0.423933
0.046076 0.841519 0.404384
0.201079 0.830824 0.384271
0.356082 0.820130 0.364158
0.511085 0.809435 0.344045
0.666088 0.798741 0.323932
0.821091 0.788046 0.303819
0.975152 0.784055 0.292958
1.000000 0.781619 0.284243
0.000000 0.981218 0.385011
0.055898 0.970523 0.364898
0.210901 0.959829 0.344785
0.365904 0.949134 0.324672
0.520907 0.938440 0.304559
0.675011 0.934145 0.293279
0.828854 0.931709 0.284564
0.982697 0.929273 0.275849
1.000000 0.926837 0.267134
0.000000 1.000000 0.345525
0.065720 1.000000 0.325412
0.220723 1.000000 0.305299
0.374870 1.000000 0.293600
0.528712 1.000000 0.284884
0.682555 1.000000 0.276169
0.836398 1.000000 0.267454
0.990241 1.000000 0.258739
1.000000 1.000000 0.250024
0.000000 0.133835 0.789047
0.111884 0.118102 0.770174
0.255569 0.102368 0.751301
0.399254 0.086635 0.732428
0.542939 0.070901 0.713555
0.686624 0.055168 0.694682
0.830309 0.039434 0.675809
0.973994 0.023701 0.656936
1.000000 0.007968 0.638064
0.000000 0.252947 0.751996
0.099487 0.237214 0.733123
0.243172 0.221480 0.714250
0.386857 0.205747 0.695377
0.530542 0.190013 0.676504
0.674227 0.174280 0.657631
0.817912 0.158546 0.638758
0.961597 0.142813 0.619885
1.000000 0.127079 0.601012
0.000000 0.372059 0.714944
0.087089 0.356326 0.696071
0.230774 0.340592 0.677198
0.374459 0.324859 0.658325
0.518144 0.309125 0.639452
0.661829 0.293392 0.620579
0.805514 0.277658 0.601706
0.949199 0.261925 0.582833
1.000000 0.246562 0.563869
0.000000 0.491171 0.677892
0.074691 0.475437 0.659019
0.218376 0.459704 0.640146
0.362062 0.443971 0.621274
0.505747 0.428237 0.602401
0.649432 0.412504 0.583528
0.793533 0.396956 0.564609
0.948536 0.386261 0.544496
1.000000 0.375566 0.524383
0.000000 0.610283 0.640841
0.062294 0.594549 0.621968
0.205979 0.578816 0.603095
0.349664 0.563082 0.584222
0.493349 0.547349 0.565349
0.648352 0.536654 0.545236
0.803355 0.525960 0.525123
0.958358 0.515265 0.505010
1.000000 0.504571 0.484897
0.000000 0.729395 0.603789
0.049896 0.713661 0.584916
0.193581 0.697928 0.566043
0.348168 0.687048 0.545976
0.503171 0.676353 0.525863
0.658174 0.665659 0.505750
0.813177 0.654964 0.485637
0.968180 0.644270 0.465524
1.000000 0.635473 0.448030
0.000000 0.848507 0.566738
0.047984 0.837441 0.546716
0.202987 0.826747 0.526603
0.357990 0.816052 0.506490
0.512993 0.805358 0.486377
0.667996 0.794663 0.466264
0.822775 0.785563 0.448351
0.976618 0.783127 0.439636
1.000000 0.780690 0.430920
0.000000 0.977140 0.527343
0.057806 0.966446 0.507230
0.212809 0.955751 0.487117
0.367812 0.945057 0.467004
0.522633 0.935652 0.448671
0.676476 0.933216 0.439956
0.830319 0.930780 0.431241
0.984162 0.928344 0.422526
1.000000 0.925908 0.413811
0.000000 1.000000 0.487857
0.067627 1.000000 0.467743
0.222492 1.000000 0.448992
0.376335 1.000000 0.440277
0.530178 1.000000 0.431562
0.684021 1.000000 0.422847
0.837863 1.000000 0.414131
0.991706 1.000000 0.405416
1.000000 1.000000 0.396701
0.000000 0.127836 0.931851
0.109477 0.112103 0.912979
0.253162 0.096370 0.894106
0.396847 0.080636 0.875233
0.540532 0.064903 0.856360
0.684217 0.049169 0.837487
0.827902 0.033436 0.818614
0.971587 0.017702 0.799741
1.000000 0.001969 0.780868
0.000000 0.246948 0.894800
0.097079 0.231215 0.875927
0.240764 0.215481 0.857054
0.384449 0.199748 0.838181
0.528134 0.184015 0.819308
0.671819 0.168281 0.800435
0.815504 0.152548 0.781562
0.959189 0.136814 0.762689
1.000000 0.121081 0.743816
0.000000 0.366060 0.857748
0.084681 0.350327 0.838875
0.228366 0.334593 0.820002
0.372051 0.318860 0.801129
0.515736 0.303126 0.782256
0.659422 0.287393 0.763384
0.803107 0.271660 0.744511
0.946792 0.255926 0.725638
1.000000 0.242485 0.706201
0.000000 0.485172 0.820697
0.072284 0.469439 0.801824
0.215969 0.453705 0.782951
0.359654 0.437972 0.764078
0.503339 0.422238 0.745205
0.647024 0.406505 0.726332
0.795441 0.392878 0.706941
0.950443 0.382183 0.686827
1.000000 0.371489 0.666714
0.000000 0.604284 0.783645
0.059886 0.588551 0.764772
0.203571 0.572817 0.745899
0.347256 0.557084 0.727026
0.495256 0.543271 0.707680
0.650259 0.532577 0.687567
0.805262 0.521882 0.667454
0.960265 0.511188 0.647341
1.000000 0.500493 0.627228
0.000000 0.723396 0.746594
0.047489 0.707663 0.727721
0.195072 0.693665 0.708420
0.350075 0.682970 0.688307
0.505078 0.672276 0.668194
0.660081 0.661581 0.648081
0.815084 0.650887 0.627968
0.970087 0.640192 0.607855
1.000000 0.634544 0.594707
0.000000 0.844058 0.709160
0.049891 0.833364 0.689047
0.204894 0.822669 0.668934
0.359897 0.811975 0.648821
0.514900 0.801280 0.628708
0.669903 0.790586 0.608595
0.824240 0.784634 0.595028
0.978083 0.782198 0.586313
1.000000 0.779762 0.577598
0.000000 0.973063 0.669674
0.059713 0.962368 0.649561
0.214716 0.951674 0.629448
0.369719 0.940979 0.609335
0.524098 0.934723 0.595348
0.677941 0.932287 0.586633
0.831784 0.929851 0.577918
0.985627 0.927415 0.569203
1.000000 0.924979 0.560488
0.000000 1.000000 0.630188
0.069535 1.000000 0.610075
0.223957 1.000000 0.595669
0.377800 1.000000 0.586954
0.531643 1.000000 0.578239
0.685486 1.000000 0.569524
0.839329 1.000000 0.560809
0.993172 1.000000 0.552094
1.000000 1.000000 0.543378
0.000000 0.121838 1.000000
0.107069 0.106104 1.000000
0.250754 0.090371 1.000000
0.394439 0.074637 1.000000
0.538124 0.058904 0.999164
0.681809 0.043170 0.980291
0.825494 0.027437 0.961418
0.969179 0.011704 0.942545
1.000000 0.000000 0.923672
0.000000 0.240950 1.000000
0.094671 0.225216 1.000000
0.238356 0.209483 0.999858
0.382041 0.193749 0.980985
0.525726 0.178016 0.962112
0.669411 0.162282 0.943239
0.813096 0.146549 0.924366
0.956781 0.130815 0.905493
1.000000 0.115082 0.886621
0.000000 0.360062 1.000000
0.082274 0.344328 0.981680
0.225959 0.328595 0.962807
0.369644 0.312861 0.943934
0.513329 0.297128 0.925061
0.657014 0.281394 0.906188
0.800699 0.265661 0.887315
0.944384 0.249927 0.868442
1.000000 0.238407 0.848532
0.000000 0.479173 0.963501
0.069876 0.463440 0.944628
0.213561 0.447707 0.925755
0.357246 0.431973 0.906882
0.500931 0.416240 0.888009
0.644616 0.400506 0.869136
0.797348 0.388801 0.849272
0.952351 0.378106 0.829159
1.000000 0.367411 0.809046
0.000000 0.598285 0.926449
0.057478 0.582552 0.907576
0.201163 0.566818 0.888703
0.344849 0.551085 0.869831
0.497164 0.539194 0.850012
0.652167 0.528499 0.829899
0.807170 0.517805 0.809786
0.962173 0.507110 0.789673
1.000000 0.496416 0.769560
0.000000 0.717397 0.889398
0.045081 0.701664 0.870525
0.196980 0.689587 0.850752
0.351983 0.678893 0.830639
0.506986 0.668198 0.810526
0.661989 0.657504 0.790413
0.816992 0.646809 0.770300
0.971995 0.636115 0.750187
1.000000 0.633615 0.741384
0.000000 0.839981 0.851492
0.051799 0.829286 0.831379
0.206802 0.818592 0.811266
0.361805 0.807897 0.791153
0.516808 0.797203 0.771040
0.671811 0.786508 0.750927
0.825705 0.783705 0.741705
0.979548 0.781269 0.732990
1.000000 0.778833 0.724275
0.000000 0.968985 0.812006
0.061621 0.958291 0.791893
0.216624 0.947596 0.771780
0.371627 0.936902 0.751667
0.525564 0.933795 0.742026
0.679407 0.931359 0.733311
0.833249 0.928922 0.724595
0.987092 0.926486 0.715880
1.000000 0.924050 0.707165
0.000000 1.000000 0.772520
0.071442 1.000000 0.752406
0.225422 1.000000 0.742346
0.379265 1.000000 0.733631
0.533108 1.000000 0.724916
0.686951 1.000000 0.716201
0.840794 1.000000 0.707486
0.994637 1.000000 0.698771
1.000000 1.000000 0.690056
0.000000 0.115839 1.000000
0.104661 0.100106 1.000000
0.248346 0.084372 1.000000
0.392031 0.068639 1.000000
0.535716 0.052905 1.000000
0.679401 0.037172 1.000000
0.823086 0.021438 1.000000
0.966771 0.005705 1.000000
1.000000 0.000000 1.000000
0.000000 0.234951 1.000000
0.092263 0.219217 1.000000
0.235949 0.203484 1.000000
0.379634 0.187751 1.000000
0.523319 0.172017 1.000000
0.667004 0.156284 1.000000
0.810689 0.140550 1.000000
0.954374 0.124817 1.000000
1.000000 0.109083 1.000000
0.000000 0.354063 1.000000
0.079866 0.338329 1.000000
0.223551 0.322596 1.000000
0.367236 0.306863 1.000000
0.510921 0.291129 1.000000
0.654606 0.275396 1.000000
0.798291 0.259662 1.000000
0.944437 0.245024 1.000000
1.000000 0.234330 0.990864
0.000000 0.473175 1.000000
0.067468 0.457441 1.000000
0.211153 0.441708 1.000000
0.354838 0.425974 1.000000
0.498523 0.410241 1.000000
0.644253 0.395418 1.000000
0.799255 0.384723 0.991603
0.954258 0.374028 0.971490
1.000000 0.363334 0.951377
0.000000 0.592287 1.000000
0.055071 0.576553 1.000000
0.198756 0.560820 1.000000
0.344068 0.545811 1.000000
0.499071 0.535116 0.992343
0.654074 0.524422 0.972230
0.809077 0.513727 0.952117
0.964080 0.503033 0.932004
1.000000 0.492338 0.911891
0.000000 0.711399 1.000000
0.043884 0.696204 1.000000
0.198887 0.685510 0.993083
0.353890 0.674815 0.972970
0.508893 0.664121 0.952857
0.663896 0.653426 0.932744
0.818899 0.642732 0.912631
0.973469 0.635123 0.896777
1.000000 0.632687 0.888062
0.000000 0.835903 0.993823
0.053706 0.825209 0.973710
0.208709 0.814514 0.953597
0.363712 0.803820 0.933484
0.518715 0.793125 0.913371
0.673327 0.785212 0.897097
0.827170 0.782776 0.888382
0.981013 0.780340 0.879667
1.000000 0.777904 0.870952
0.000000 0.964908 0.954337
0.063528 0.954213 0.934224
0.218531 0.943519 0.914111
0.373186 0.935302 0.897418
0.527029 0.932866 0.888703
0.680872 0.930430 0.879988
0.834715 0.927994 0.871273
0.988557 0.925558 0.862557
1.000000 0.923121 0.853842
0.000000 1.000000 0.914851
0.073045 1.000000 0.897739
0.226887 1.000000 0.889023
0.380730 1.000000 0.880308
0.534573 1.000000 0.871593
0.688416 1.000000 0.862878
0.842259 1.000000 0.854163
0.996102 1.000000 0.845448
1.000000 1.000000 0.836733
0.000000 0.109840 1.000000
0.102253 0.094107 1.000000
0.245938 0.078373 1.000000
0.389623 0.062640 1.000000
0.533309 0.046907 1.000000
0.676994 0.031173 1.000000
0.820679 0.015440 1.000000
0.964364 0.000000 1.000000
1.000000 0.000000 1.000000
0.000000 0.228952 1.000000
0.089856 0.213219 1.000000
0.233541 0.197485 1.000000
0.377226 0.181752 1.000000
0.520911 0.166018 1.000000
0.664596 0.150285 1.000000
0.808281 0.134552 1.000000
0.951966 0.118818 1.000000
1.000000 0.103085 1.000000
0.000000 0.348064 1.000000
0.077458 0.332331 1.000000
0.221143 0.316597 1.000000
0.364828 0.300864 1.000000
0.508513 0.285130 1.000000
0.652198 0.269397 1.000000
0.795883 0.253663 1.000000
0.946344 0.240947 1.000000
1.000000 0.230252 1.000000
0.000000 0.467176 1.000000
0.065061 0.451443 1.000000
0.208746 0.435709 1.000000
0.352431 0.419976 1.000000
0.496116 0.404242 1.000000
0.646160 0.391340 1.000000
0.801163 0.380645 1.000000
0.956166 0.369951 1.000000
1.000000 0.359256 1.000000
0.000000 0.586288 1.000000
0.052663 0.570555 1.000000
0.196348 0.554821 1.000000
0.345976 0.541733 1.000000
0.500979 0.531039 1.000000
0.655982 0.520344 1.000000
0.810985 0.509650 1.000000
0.965988 0.498955 1.000000
1.000000 0.488261 1.000000
0.000000 0.705400 1.000000
0.045792 0.692127 1.000000
0.200795 0.681432 1.000000
0.355798 0.670738 1.000000
0.510801 0.660043 1.000000
0.665804 0.649349 1.000000
0.820807 0.638654 1.000000
0.974934 0.634194 1.000000
1.000000 0.631758 1.000000
0.000000 0.831826 1.000000
0.055614 0.821131 1.000000
0.210617 0.810437 1.000000
0.365620 0.799742 1.000000
0.520623 0.789048 1.000000
0.674792 0.784283 1.000000
0.828635 0.781847 1.000000
0.982478 0.779411 1.000000
1.000000 0.776975 1.000000
0.000000 0.960830 1.000000
0.065436 0.950136 1.000000
0.220439 0.939441 1.000000
0.374651 0.934373 1.000000
0.528494 0.931937 1.000000
0.682337 0.929501 1.000000
0.836180 0.927065 1.000000
0.990023 0.924629 1.000000
1.000000 0.922193 1.000000
0.000000 1.000000 1.000000
0.074510 1.000000 1.000000
0.228353 1.000000 1.000000
0.382196 1.000000 1.000000
0.536038 1.000000 1.000000
0.689881 1.000000 1.000000
0.843724 1.000000 1.000000
0.997567 1.000000 0.992125
1.000000 1.000000 0.983410
