app/src/main/assets/luts/teal_orange.cube
# ApexStudio filter: teal_orange
LUT_3D_SIZE 17
DOMAIN_MIN 0.0 0.0 0.0
DOMAIN_MAX 1.0 1.0 1.0
0.000000 0.157830 0.217830
0.049673 0.149963 0.208394
0.121515 0.142097 0.198957
0.193358 0.134230 0.189521
0.265200 0.126363 0.180084
0.337043 0.118496 0.170648
0.408885 0.110630 0.161211
0.480728 0.102763 0.151775
0.552570 0.094896 0.142338
0.624413 0.087029 0.132902
0.696255 0.079163 0.123465
0.768098 0.071296 0.114029
0.839940 0.063429 0.104592
0.911783 0.055563 0.095156
0.983625 0.047696 0.085719
1.000000 0.039829 0.076283
1.000000 0.031962 0.066846
0.000000 0.217386 0.199304
0.043474 0.209519 0.189868
0.115316 0.201653 0.180431
0.187159 0.193786 0.170995
0.259001 0.185919 0.161558
0.330844 0.178052 0.152122
0.402686 0.170186 0.142685
0.474529 0.162319 0.133249
0.546371 0.154452 0.123812
0.618214 0.146585 0.114376
0.690056 0.138719 0.104939
0.761899 0.130852 0.095503
0.833741 0.122985 0.086066
0.905584 0.115119 0.076630
0.977427 0.107252 0.067194
1.000000 0.099385 0.057757
1.000000 0.091518 0.048321
0.000000 0.276942 0.180778
0.037275 0.269075 0.171342
0.109117 0.261208 0.161905
0.180960 0.253342 0.152469
0.252803 0.245475 0.143033
0.324645 0.237608 0.133596
0.396488 0.229742 0.124160
0.468330 0.221875 0.114723
0.540173 0.214008 0.105287
0.612015 0.206141 0.095850
0.683858 0.198275 0.086414
0.755700 0.190408 0.076977
0.827543 0.182541 0.067541
0.899385 0.174674 0.058104
0.971228 0.166808 0.048668
1.000000 0.158941 0.039231
1.000000 0.151074 0.029795
0.000000 0.336498 0.162253
0.031076 0.328631 0.152816
0.102919 0.320764 0.143380
0.174761 0.312898 0.133943
0.246604 0.305031 0.124507
0.318446 0.297164 0.115070
0.390289 0.289298 0.105634
0.462131 0.281431 0.096197
0.533974 0.273564 0.086761
0.605816 0.265697 0.077324
0.677659 0.257831 0.067888
0.749501 0.249964 0.058451
0.821344 0.242097 0.049015
0.893186 0.234230 0.039578
0.965029 0.226364 0.030142
1.000000 0.218497 0.020705
1.000000 0.210630 0.011269
0.000000 0.396054 0.143727
0.024877 0.388187 0.134290
0.096720 0.380320 0.124854
0.168562 0.372454 0.115417
0.240405 0.364587 0.105981
0.312247 0.356720 0.096544
0.384090 0.348853 0.087108
0.455932 0.340987 0.077671
0.527775 0.333120 0.068235
0.599618 0.325253 0.058799
0.671460 0.317387 0.049362
0.743303 0.309520 0.039926
0.815145 0.301653 0.030489
0.886988 0.293786 0.021053
0.958830 0.285920 0.011616
1.000000 0.278053 0.002180
1.000000 0.270186 0.000000
0.000000 0.455610 0.125201
0.018679 0.447743 0.115765
0.090521 0.439876 0.106328
0.162364 0.432010 0.096892
0.234206 0.424143 0.087455
0.306049 0.416276 0.078019
0.377891 0.408409 0.068582
0.449734 0.400543 0.059146
0.521576 0.392676 0.049709
0.593419 0.384809 0.040273
0.665261 0.376943 0.030836
0.737104 0.369076 0.021400
0.808946 0.361209 0.011963
0.880789 0.353342 0.002527
0.952631 0.345476 0.000000
1.000000 0.337609 0.000000
1.000000 0.329742 0.000000
0.000000 0.515166 0.106675
0.012480 0.507299 0.097239
0.084322 0.499432 0.087802
0.156165 0.491566 0.078366
0.228007 0.483699 0.068929
0.299850 0.475832 0.059493
0.371692 0.467965 0.050056
0.443535 0.460099 0.040620
0.515377 0.452232 0.031183
0.587220 0.444365 0.021747
0.659062 0.436498 0.012310
0.730905 0.428632 0.002874
0.802748 0.420765 0.000000
0.874590 0.412898 0.000000
0.946433 0.405032 0.000000
1.000000 0.397224 0.000000
1.000000 0.391877 0.000000
0.000000 0.574722 0.088149
0.006281 0.566855 0.078713
0.078123 0.558988 0.069276
0.149966 0.551122 0.059840
0.221809 0.543255 0.050404
0.293651 0.535388 0.040967
0.365494 0.527521 0.031531
0.437336 0.519655 0.022094
0.509179 0.511788 0.012658
0.581021 0.503921 0.003221
0.652864 0.496054 0.000000
0.724706 0.488188 0.000000
0.796549 0.480321 0.000000
0.868391 0.472454 0.000000
0.945817 0.467073 0.000000
1.000000 0.461726 0.000000
1.000000 0.456379 0.000000
0.000000 0.634278 0.069624
0.000082 0.626411 0.060187
0.071925 0.618544 0.050751
0.143767 0.610677 0.041314
0.215610 0.602811 0.031878
0.287452 0.594944 0.022441
0.359295 0.587077 0.013005
0.431137 0.579211 0.003568
0.502980 0.571344 0.000000
0.574822 0.563477 0.000000
0.646665 0.555610 0.000000
0.718507 0.547744 0.000000
0.795725 0.542270 0.000000
0.873226 0.536923 0.000000
0.950728 0.531575 0.000000
1.000000 0.526228 0.000000
1.000000 0.520881 0.000000
0.000000 0.693834 0.051098
0.000000 0.685967 0.041661
0.065726 0.678100 0.032225
0.137568 0.670233 0.022788
0.209411 0.662367 0.013352
0.281253 0.654500 0.003915
0.353096 0.646633 0.000000
0.424939 0.638767 0.000000
0.496781 0.630900 0.000000
0.568624 0.623033 0.000000
0.645633 0.617467 0.000000
0.723134 0.612119 0.000000
0.800636 0.606772 0.000000
0.878137 0.601425 0.000000
0.955639 0.596078 0.000000
1.000000 0.590730 0.000000
1.000000 0.585383 0.000000
0.000000 0.753390 0.032572
0.000000 0.745523 0.023136
0.059527 0.737656 0.013699
0.131370 0.729789 0.004263
0.203212 0.721923 0.000000
0.275055 0.714056 0.000000
0.346897 0.706189 0.000000
0.418740 0.698322 0.000000
0.495541 0.692663 0.000000
0.573042 0.687316 0.000000
0.650544 0.681969 0.000000
0.728045 0.676622 0.000000
0.805547 0.671274 0.000000
0.883048 0.665927 0.000000
0.960550 0.660580 0.000000
1.000000 0.655232 0.000000
1.000000 0.649885 0.000000
0.000000 0.812946 0.014046
0.000000 0.805079 0.004610
0.053328 0.797212 0.000000
0.125171 0.789345 0.000000
0.197013 0.781479 0.000000
0.268856 0.773612 0.000000
0.345449 0.767860 0.000000
0.422950 0.762513 0.000000
0.500452 0.757166 0.000000
0.577953 0.751818 0.000000
0.655455 0.746471 0.000000
0.732956 0.741124 0.000000
0.810458 0.735776 0.000000
0.887959 0.730429 0.000000
0.965461 0.725082 0.000000
1.000000 0.719735 0.000000
1.000000 0.714387 0.000000
0.000000 0.872501 0.000000
0.000000 0.864635 0.000000
0.047130 0.856768 0.000000
0.118972 0.848901 0.000000
0.195357 0.843057 0.000000
0.272858 0.837710 0.000000
0.350360 0.832362 0.000000
0.427861 0.827015 0.000000
0.505363 0.821668 0.000000
0.582864 0.816320 0.000000
0.660366 0.810973 0.000000
0.737867 0.805626 0.000000
0.815369 0.800279 0.000000
0.892870 0.794931 0.000000
0.970372 0.789584 0.000000
1.000000 0.785624 0.000000
1.000000 0.784406 0.000000
0.000000 0.932057 0.000000
0.000000 0.924191 0.000000
0.045265 0.918254 0.000000
0.122766 0.912906 0.000000
0.200268 0.907559 0.000000
0.277769 0.902212 0.000000
0.355271 0.896864 0.000000
0.432772 0.891517 0.000000
0.510274 0.886170 0.000000
0.587775 0.880823 0.000000
0.665277 0.875475 0.000000
0.742778 0.870128 0.000000
0.820280 0.864781 0.000000
0.897608 0.860669 0.000000
0.974529 0.859450 0.000000
1.000000 0.858232 0.000000
1.000000 0.857014 0.000000
0.000000 0.993450 0.000000
0.000000 0.988103 0.000000
0.050176 0.982756 0.000000
0.127677 0.977408 0.000000
0.205179 0.972061 0.000000
0.282680 0.966714 0.000000
0.360182 0.961367 0.000000
0.437683 0.956019 0.000000
0.515185 0.950672 0.000000
0.592686 0.945325 0.000000
0.670188 0.939978 0.000000
0.747537 0.935713 0.000000
0.824458 0.934495 0.000000
0.901380 0.933277 0.000000
0.978301 0.932059 0.000000
1.000000 0.930841 0.000000
1.000000 0.929623 0.000000
0.000000 1.000000 0.000000
0.000000 1.000000 0.000000
0.055087 1.000000 0.000000
0.132588 1.000000 0.000000
0.210090 1.000000 0.000000
0.287591 1.000000 0.000000
0.365093 1.000000 0.000000
0.442594 1.000000 0.000000
0.520096 1.000000 0.000000
0.597466 1.000000 0.000000
0.674388 1.000000 0.000000
0.751309 1.000000 0.000000
0.828231 1.000000 0.000000
0.905152 1.000000 0.000000
0.982073 1.000000 0.000000
1.000000 1.000000 0.000000
1.000000 1.000000 0.000000
0.000000 1.000000 0.000000
0.000000 1.000000 0.000000
0.059998 1.000000 0.000000
0.137499 1.000000 0.000000
0.215001 1.000000 0.000000
0.292502 1.000000 0.000000
0.370003 1.000000 0.000000
0.447395 1.000000 0.000000
0.524317 1.000000 0.000000
0.601238 1.000000 0.000000
0.678160 1.000000 0.000000
0.755081 1.000000 0.000000
0.832003 1.000000 0.000000
0.908924 1.000000 0.000000
0.985846 1.000000 0.000000
1.000000 1.000000 0.000000
1.000000 1.000000 0.000000
0.000000 0.154831 0.289232
0.048469 0.146964 0.279796
0.120311 0.139097 0.270359
0.192154 0.131230 0.260923
0.263996 0.123364 0.251486
0.335839 0.115497 0.242050
0.407681 0.107630 0.232613
0.479524 0.099764 0.223177
0.551366 0.091897 0.213740
0.623209 0.084030 0.204304
0.695051 0.076163 0.194867
0.766894 0.068297 0.185431
0.838736 0.060430 0.175994
0.910579 0.052563 0.166558
0.982421 0.044696 0.157121
1.000000 0.036830 0.147685
1.000000 0.028963 0.138249
0.000000 0.214387 0.270706
0.042270 0.206520 0.261270
0.114112 0.198653 0.251833
0.185955 0.190786 0.242397
0.257797 0.182920 0.232960
0.329640 0.175053 0.223524
0.401482 0.167186 0.214087
0.473325 0.159320 0.204651
0.545168 0.151453 0.195215
0.617010 0.143586 0.185778
0.688853 0.135719 0.176342
0.760695 0.127853 0.166905
0.832538 0.119986 0.157469
0.904380 0.112119 0.148032
0.976223 0.104252 0.138596
1.000000 0.096386 0.129159
1.000000 0.088519 0.119723
0.000000 0.273943 0.252181
0.036071 0.266076 0.242744
0.107914 0.258209 0.233308
0.179756 0.250342 0.223871
0.251599 0.242476 0.214435
0.323441 0.234609 0.204998
0.395284 0.226742 0.195562
0.467126 0.218875 0.186125
0.538969 0.211009 0.176689
0.610811 0.203142 0.167252
0.682654 0.195275 0.157816
0.754496 0.187409 0.148379
0.826339 0.179542 0.138943
0.898181 0.171675 0.129506
0.970024 0.163808 0.120070
1.000000 0.155942 0.110633
1.000000 0.148075 0.101197
0.000000 0.333499 0.233655
0.029872 0.325632 0.224218
0.101715 0.317765 0.214782
0.173557 0.309898 0.205345
0.245400 0.302032 0.195909
0.317242 0.294165 0.186472
0.389085 0.286298 0.177036
0.460927 0.278431 0.167599
0.532770 0.270565 0.158163
0.604612 0.262698 0.148726
0.676455 0.254831 0.139290
0.748298 0.246965 0.129854
0.820140 0.239098 0.120417
0.891983 0.231231 0.110981
0.963825 0.223364 0.101544
1.000000 0.215498 0.092108
1.000000 0.207631 0.082671
0.000000 0.393054 0.215129
0.023673 0.385188 0.205692
0.095516 0.377321 0.196256
0.167359 0.369454 0.186820
0.239201 0.361588 0.177383
0.311044 0.353721 0.167947
0.382886 0.345854 0.158510
0.454729 0.337987 0.149074
0.526571 0.330121 0.139637
0.598414 0.322254 0.130201
0.670256 0.314387 0.120764
0.742099 0.306520 0.111328
0.813941 0.298654 0.101891
0.885784 0.290787 0.092455
0.957626 0.282920 0.083018
1.000000 0.275054 0.073582
1.000000 0.267187 0.064145
0.000000 0.452610 0.196603
0.017475 0.444744 0.187167
0.089317 0.436877 0.177730
0.161160 0.429010 0.168294
0.233002 0.421144 0.158857
0.304845 0.413277 0.149421
0.376687 0.405410 0.139984
0.448530 0.397543 0.130548
0.520372 0.389677 0.121111
0.592215 0.381810 0.111675
0.664057 0.373943 0.102238
0.735900 0.366076 0.092802
0.807742 0.358210 0.083365
0.879585 0.350343 0.073929
0.951427 0.342476 0.064492
1.000000 0.334610 0.055056
1.000000 0.326743 0.045620
0.000000 0.512166 0.178077
0.011276 0.504300 0.168641
0.083118 0.496433 0.159204
0.154961 0.488566 0.149768
0.226803 0.480699 0.140331
0.298646 0.472833 0.130895
0.370489 0.464966 0.121459
0.442331 0.457099 0.112022
0.514174 0.449233 0.102586
0.586016 0.441366 0.093149
0.657859 0.433499 0.083713
0.729701 0.425632 0.074276
0.801544 0.417766 0.064840
0.873386 0.409899 0.055403
0.945229 0.402032 0.045967
1.000000 0.395185 0.036279
1.000000 0.389838 0.026223
0.000000 0.571722 0.159552
0.005077 0.563856 0.150115
0.076920 0.555989 0.140679
0.148762 0.548122 0.131242
0.220605 0.540255 0.121806
0.292447 0.532389 0.112369
0.364290 0.524522 0.102933
0.436132 0.516655 0.093496
0.507975 0.508789 0.084060
0.579817 0.500922 0.074623
0.651660 0.493055 0.065187
0.723502 0.485188 0.055750
0.795345 0.477322 0.046314
0.869269 0.470382 0.036649
0.946771 0.465034 0.026593
1.000000 0.459687 0.016536
1.000000 0.454340 0.006480
0.000000 0.631278 0.141026
0.000000 0.623412 0.131589
0.070721 0.615545 0.122153
0.142563 0.607678 0.112716
0.214406 0.599811 0.103280
0.286248 0.591945 0.093843
0.358091 0.584078 0.084407
0.429933 0.576211 0.074970
0.501776 0.568344 0.065534
0.573619 0.560478 0.056098
0.645461 0.552611 0.046661
0.719177 0.545578 0.037019
0.796679 0.540231 0.026963
0.874180 0.534884 0.016906
0.951682 0.529537 0.006850
1.000000 0.524189 0.000000
1.000000 0.518842 0.000000
0.000000 0.690834 0.122500
0.000000 0.682968 0.113064
0.064522 0.675101 0.103627
0.136365 0.667234 0.094191
0.208207 0.659367 0.084754
0.280050 0.651501 0.075318
0.351892 0.643634 0.065881
0.423735 0.635767 0.056445
0.495577 0.627900 0.047008
0.569085 0.620775 0.037389
0.646587 0.615428 0.027333
0.724088 0.610081 0.017276
0.801590 0.604733 0.007220
0.879091 0.599386 0.000000
0.956593 0.594039 0.000000
1.000000 0.588692 0.000000
1.000000 0.583344 0.000000
0.000000 0.750390 0.103974
0.000000 0.742523 0.094538
0.058323 0.734657 0.085101
0.130166 0.726790 0.075665
0.202008 0.718923 0.066228
0.273851 0.711057 0.056792
0.345693 0.703190 0.047355
0.418993 0.695972 0.037759
0.496495 0.690625 0.027703
0.573996 0.685277 0.017646
0.651498 0.679930 0.007590
0.728999 0.674583 0.000000
0.806501 0.669236 0.000000
0.884002 0.663888 0.000000
0.961503 0.658541 0.000000
1.000000 0.653194 0.000000
1.000000 0.647846 0.000000
0.000000 0.809946 0.085448
0.000000 0.802079 0.076012
0.052124 0.794213 0.066575
0.123967 0.786346 0.057139
0.195810 0.778479 0.047703
0.268901 0.771169 0.038129
0.346403 0.765821 0.028073
0.423904 0.760474 0.018016
0.501406 0.755127 0.007960
0.578907 0.749780 0.000000
0.656409 0.744432 0.000000
0.733910 0.739085 0.000000
0.811411 0.733738 0.000000
0.888913 0.728390 0.000000
0.966414 0.723043 0.000000
1.000000 0.717696 0.000000
1.000000 0.712349 0.000000
0.000000 0.869502 0.066923
0.000000 0.861635 0.057486
0.045926 0.853769 0.048050
0.118809 0.846365 0.038499
0.196311 0.841018 0.028443
0.273812 0.835671 0.018386
0.351314 0.830324 0.008330
0.428815 0.824976 0.000000
0.506316 0.819629 0.000000
0.583818 0.814282 0.000000
0.661319 0.808934 0.000000
0.738821 0.803587 0.000000
0.816322 0.798240 0.000000
0.893824 0.792893 0.000000
0.971325 0.787545 0.000000
1.000000 0.785159 0.000000
1.000000 0.783941 0.000000
0.000000 0.929058 0.048397
0.000000 0.921562 0.038869
0.046219 0.916215 0.028813
0.123720 0.910868 0.018756
0.201222 0.905520 0.008700
0.278723 0.900173 0.000000
0.356224 0.894826 0.000000
0.433726 0.889478 0.000000
0.511227 0.884131 0.000000
0.588729 0.878784 0.000000
0.666230 0.873437 0.000000
0.743732 0.868089 0.000000
0.821233 0.862742 0.000000
0.898340 0.860204 0.000000
0.975262 0.858986 0.000000
1.000000 0.857768 0.000000
1.000000 0.856550 0.000000
0.000000 0.991412 0.029183
0.000000 0.986064 0.019126
0.051129 0.980717 0.009069
0.128631 0.975370 0.000000
0.206132 0.970022 0.000000
0.283634 0.964675 0.000000
0.361135 0.959328 0.000000
0.438637 0.953981 0.000000
0.516138 0.948633 0.000000
0.593640 0.943286 0.000000
0.671141 0.937939 0.000000
0.748269 0.935249 0.000000
0.825191 0.934031 0.000000
0.902112 0.932813 0.000000
0.979034 0.931595 0.000000
1.000000 0.930377 0.000000
1.000000 0.929159 0.000000
0.000000 1.000000 0.009439
0.000000 1.000000 0.000000
0.056040 1.000000 0.000000
0.133542 1.000000 0.000000
0.211043 1.000000 0.000000
0.288545 1.000000 0.000000
0.366046 1.000000 0.000000
0.443548 1.000000 0.000000
0.521049 1.000000 0.000000
0.598199 1.000000 0.000000
0.675120 1.000000 0.000000
0.752042 1.000000 0.000000
0.828963 1.000000 0.000000
0.905885 1.000000 0.000000
0.982806 1.000000 0.000000
1.000000 1.000000 0.000000
1.000000 1.000000 0.000000
0.000000 1.000000 0.000000
0.000000 1.000000 0.000000
0.060951 1.000000 0.000000
0.138453 1.000000 0.000000
0.215954 1.000000 0.000000
0.293456 1.000000 0.000000
0.370957 1.000000 0.000000
0.448128 1.000000 0.000000
0.525050 1.000000 0.000000
0.601971 1.000000 0.000000
0.678892 1.000000 0.000000
0.755814 1.000000 0.000000
0.832735 1.000000 0.000000
0.909657 1.000000 0.000000
0.986578 1.000000 0.000000
1.000000 1.000000 0.000000
1.000000 1.000000 0.000000
0.000000 0.151831 0.360634
0.047265 0.143965 0.351198
0.119107 0.136098 0.341761
0.190950 0.128231 0.332325
0.262792 0.120364 0.322888
0.334635 0.112498 0.313452
0.406477 0.104631 0.304015
0.478320 0.096764 0.294579
0.550162 0.088897 0.285142
0.622005 0.081031 0.275706
0.693848 0.073164 0.266270
0.765690 0.065297 0.256833
0.837533 0.057431 0.247397
0.909375 0.049564 0.237960
0.981218 0.041697 0.228524
1.000000 0.033830 0.219087
1.000000 0.025964 0.209651
0.000000 0.211387 0.342108
0.041066 0.203521 0.332672
0.112909 0.195654 0.323236
0.184751 0.187787 0.313799
0.256594 0.179920 0.304363
0.328436 0.172054 0.294926
0.400279 0.164187 0.285490
0.472121 0.156320 0.276053
0.543964 0.148453 0.266617
0.615806 0.140587 0.257180
0.687649 0.132720 0.247744
0.759491 0.124853 0.238307
0.831334 0.116987 0.228871
0.903176 0.109120 0.219434
0.975019 0.101253 0.209998
1.000000 0.093386 0.200561
1.000000 0.085520 0.191125
0.000000 0.270943 0.323583
0.034867 0.263076 0.314146
0.106710 0.255210 0.304710
0.178552 0.247343 0.295273
0.250395 0.239476 0.285837
0.322237 0.231610 0.276400
0.394080 0.223743 0.266964
0.465922 0.215876 0.257527
0.537765 0.208009 0.248091
0.609607 0.200143 0.238654
0.681450 0.192276 0.229218
0.753292 0.184409 0.219781
0.825135 0.176542 0.210345
0.896977 0.168676 0.200908
0.968820 0.160809 0.191472
1.000000 0.152942 0.182036
1.000000 0.145076 0.172599
0.000000 0.330499 0.305057
0.028668 0.322632 0.295620
0.100511 0.314766 0.286184
0.172353 0.306899 0.276747
0.244196 0.299032 0.267311
0.316039 0.291166 0.257875
0.387881 0.283299 0.248438
0.459724 0.275432 0.239002
0.531566 0.267565 0.229565
0.603409 0.259699 0.220129
0.675251 0.251832 0.210692
0.747094 0.243965 0.201256
0.818936 0.236098 0.191819
0.890779 0.228232 0.182383
0.962621 0.220365 0.172946
1.000000 0.212498 0.163510
1.000000 0.204632 0.154073
0.000000 0.390055 0.286531
0.022470 0.382188 0.277095
0.094312 0.374322 0.267658
0.166155 0.366455 0.258222
0.237997 0.358588 0.248785
0.309840 0.350721 0.239349
0.381682 0.342855 0.229912
0.453525 0.334988 0.220476
0.525367 0.327121 0.211039
0.597210 0.319255 0.201603
0.669052 0.311388 0.192166
0.740895 0.303521 0.182730
0.812737 0.295654 0.173293
0.884580 0.287788 0.163857
0.956422 0.279921 0.154420
1.000000 0.272054 0.144984
1.000000 0.264187 0.135547
0.000000 0.449611 0.268005
0.016271 0.441744 0.258569
0.088113 0.433878 0.249132
0.159956 0.426011 0.239696
0.231798 0.418144 0.230259
0.303641 0.410277 0.220823
0.375483 0.402411 0.211386
0.447326 0.394544 0.201950
0.519169 0.386677 0.192514
0.591011 0.378811 0.183077
0.662854 0.370944 0.173641
0.734696 0.363077 0.164204
0.806539 0.355210 0.154768
0.878381 0.347344 0.145331
0.950224 0.339477 0.135895
1.000000 0.331610 0.126458
1.000000 0.323743 0.117022
0.000000 0.509167 0.249480
0.010072 0.501300 0.240043
0.081915 0.493434 0.230607
0.153757 0.485567 0.221170
0.225600 0.477700 0.211734
0.297442 0.469833 0.202297
0.369285 0.461967 0.192861
0.441127 0.454100 0.183424
0.512970 0.446233 0.173988
0.584812 0.438366 0.164551
0.656655 0.430500 0.155115
0.728497 0.422633 0.145678
0.800340 0.414766 0.136242
0.872182 0.406900 0.126805
0.944025 0.399033 0.117369
1.000000 0.393146 0.107445
1.000000 0.387799 0.097389
0.000000 0.568723 0.230954
0.003873 0.560856 0.221517
0.075716 0.552990 0.212081
0.147558 0.545123 0.202644
0.219401 0.537256 0.193208
0.291243 0.529389 0.183771
0.363086 0.521523 0.174335
0.434928 0.513656 0.164898
0.506771 0.505789 0.155462
0.578613 0.497922 0.146025
0.650456 0.490056 0.136589
0.722298 0.482189 0.127152
0.794141 0.474322 0.117716
0.870223 0.468343 0.107815
0.947724 0.462996 0.097758
1.000000 0.457648 0.087702
1.000000 0.452301 0.077645
0.000000 0.628279 0.212428
0.000000 0.620412 0.202991
0.069517 0.612545 0.193555
0.141360 0.604679 0.184119
0.213202 0.596812 0.174682
0.285045 0.588945 0.165246
0.356887 0.581079 0.155809
0.428730 0.573212 0.146373
0.500572 0.565345 0.136936
0.572415 0.557478 0.127500
0.644257 0.549612 0.118063
0.720131 0.543540 0.108185
0.797632 0.538192 0.098128
0.875134 0.532845 0.088072
0.952635 0.527498 0.078015
1.000000 0.522151 0.067959
1.000000 0.516803 0.057902
0.000000 0.687835 0.193902
0.000000 0.679968 0.184466
0.063318 0.672101 0.175029
0.135161 0.664235 0.165593
0.207003 0.656368 0.156156
0.278846 0.648501 0.146720
0.350688 0.640635 0.137283
0.422531 0.632768 0.127847
0.494373 0.624901 0.118410
0.570039 0.618736 0.108555
0.647540 0.613389 0.098498
0.725042 0.608042 0.088442
0.802543 0.602695 0.078385
0.880045 0.597347 0.068329
0.957546 0.592000 0.058272
1.000000 0.586653 0.048216
1.000000 0.581306 0.038159
0.000000 0.747391 0.175376
0.000000 0.739524 0.165940
0.057119 0.731657 0.156503
0.128962 0.723791 0.147067
0.200804 0.715924 0.137630
0.272647 0.708057 0.128194
0.344489 0.700190 0.118757
0.419947 0.693933 0.108925
0.497448 0.688586 0.098868
0.574950 0.683239 0.088812
0.652451 0.677891 0.078755
0.729953 0.672544 0.068699
0.807454 0.667197 0.058642
0.884956 0.661850 0.048586
0.962457 0.656502 0.038529
1.000000 0.651155 0.028473
1.000000 0.645808 0.018416
0.000000 0.806947 0.156851
0.000000 0.799080 0.147414
0.050921 0.791213 0.137978
0.122763 0.783347 0.128541
0.194606 0.775480 0.119105
0.269855 0.769130 0.109295
0.347356 0.763783 0.099238
0.424858 0.758435 0.089182
0.502359 0.753088 0.079125
0.579861 0.747741 0.069069
0.657362 0.742394 0.059012
0.734864 0.737046 0.048956
0.812365 0.731699 0.038899
0.889867 0.726352 0.028843
0.967368 0.721004 0.018786
1.000000 0.715657 0.008730
1.000000 0.710868 0.000000
0.000000 0.866503 0.138325
0.000000 0.858636 0.128888
0.044722 0.850769 0.119452
0.119763 0.844327 0.109665
0.197264 0.838979 0.099608
0.274766 0.833632 0.089552
0.352267 0.828285 0.079495
0.429769 0.822938 0.069439
0.507270 0.817590 0.059382
0.584772 0.812243 0.049326
0.662273 0.806896 0.039269
0.739775 0.801548 0.029213
0.817276 0.796201 0.019156
0.894778 0.790854 0.009100
0.972222 0.785913 0.000000
1.000000 0.784695 0.000000
1.000000 0.783477 0.000000
0.000000 0.926059 0.119799
0.000000 0.919523 0.110035
0.047172 0.914176 0.099978
0.124674 0.908829 0.089922
0.202175 0.903482 0.079865
0.279677 0.898134 0.069809
0.357178 0.892787 0.059752
0.434680 0.887440 0.049696
0.512181 0.882092 0.039639
0.589683 0.876745 0.029583
0.667184 0.871398 0.019526
0.744686 0.866051 0.009470
0.822151 0.860958 0.000000
0.899073 0.859740 0.000000
0.975994 0.858522 0.000000
1.000000 0.857304 0.000000
1.000000 0.856086 0.000000
0.000000 0.989373 0.100348
0.000000 0.984026 0.090292
0.052083 0.978678 0.080235
0.129585 0.973331 0.070179
0.207086 0.967984 0.060122
0.284588 0.962636 0.050066
0.362089 0.957289 0.040009
0.439591 0.951942 0.029953
0.517092 0.946595 0.019896
0.594594 0.941247 0.009840
0.672081 0.936003 0.000000
0.749002 0.934785 0.000000
0.825923 0.933566 0.000000
0.902845 0.932348 0.000000
0.979766 0.931130 0.000000
1.000000 0.929912 0.000000
1.000000 0.928694 0.000000
0.000000 1.000000 0.080605
0.000000 1.000000 0.070549
0.056994 1.000000 0.060492
0.134496 1.000000 0.050436
0.211997 1.000000 0.040379
0.289499 1.000000 0.030323
0.367000 1.000000 0.020266
0.444502 1.000000 0.010210
0.522003 1.000000 0.000153
0.598931 1.000000 0.000000
0.675853 1.000000 0.000000
0.752774 1.000000 0.000000
0.829696 1.000000 0.000000
0.906617 1.000000 0.000000
0.983539 1.000000 0.000000
1.000000 1.000000 0.000000
1.000000 1.000000 0.000000
0.000000 1.000000 0.060862
0.000000 1.000000 0.050806
0.061905 1.000000 0.040749
0.139407 1.000000 0.030693
0.216908 1.000000 0.020636
0.294409 1.000000 0.010579
0.371911 1.000000 0.000523
0.448861 1.000000 0.000000
0.525782 1.000000 0.000000
0.602704 1.000000 0.000000
0.679625 1.000000 0.000000
0.756546 1.000000 0.000000
0.833468 1.000000 0.000000
0.910389 1.000000 0.000000
0.987311 1.000000 0.000000
1.000000 1.000000 0.000000
1.000000 1.000000 0.000000
0.000000 0.148832 0.432036
0.046061 0.140965 0.422600
0.117903 0.133098 0.413163
0.189746 0.125232 0.403727
0.261589 0.117365 0.394291
0.333431 0.109498 0.384854
0.405274 0.101632 0.375418
0.477116 0.093765 0.365981
0.548959 0.085898 0.356545
0.620801 0.078031 0.347108
0.692644 0.070165 0.337672
0.764486 0.062298 0.328235
0.836329 0.054431 0.318799
0.908171 0.046564 0.309362
0.980014 0.038698 0.299926
1.000000 0.030831 0.290489
1.000000 0.022964 0.281053
0.000000 0.208388 0.413511
