app/src/main/assets/luts/teal_orange.cube
# ApexStudio filter: teal_orange
LUT_3D_SIZE 5
DOMAIN_MIN 0.0 0.0 0.0
DOMAIN_MAX 1.0 1.0 1.0
0.000000 0.157830 0.217830
0.265200 0.126363 0.180084
0.552570 0.094896 0.142338
0.839940 0.063429 0.104592
1.000000 0.031962 0.066846
0.000000 0.396054 0.143727
0.240405 0.364587 0.105981
0.527775 0.333120 0.068235
0.815145 0.301653 0.030489
1.000000 0.270186 0.000000
0.000000 0.634278 0.069624
0.215610 0.602811 0.031878
0.502980 0.571344 0.000000
0.795725 0.542270 0.000000
1.000000 0.520881 0.000000
0.000000 0.872501 0.000000
0.195357 0.843057 0.000000
0.505363 0.821668 0.000000
0.815369 0.800279 0.000000
1.000000 0.784406 0.000000
0.000000 1.000000 0.000000
0.215001 1.000000 0.000000
0.524317 1.000000 0.000000
0.832003 1.000000 0.000000
1.000000 1.000000 0.000000
0.000000 0.145833 0.503439
0.260385 0.114366 0.465693
0.547755 0.082899 0.427947
0.835125 0.051432 0.390201
1.000000 0.019965 0.352455
0.000000 0.384056 0.429335
0.235590 0.352590 0.391589
0.522960 0.321123 0.353844
0.810330 0.289656 0.316098
1.000000 0.258189 0.278352
0.000000 0.622280 0.355232
0.210794 0.590813 0.317486
0.498164 0.559346 0.279740
0.799540 0.534115 0.240460
1.000000 0.512726 0.200234
0.000000 0.860504 0.281129
0.199172 0.834902 0.241940
0.509178 0.813513 0.201714
0.819184 0.792124 0.161488
1.000000 0.782548 0.137566
0.000000 1.000000 0.203194
0.218815 1.000000 0.162967
0.527247 1.000000 0.138207
0.834933 1.000000 0.120777
1.000000 1.000000 0.103347
0.000000 0.133835 0.789047
0.255569 0.102368 0.751301
0.542939 0.070901 0.713555
0.830309 0.039434 0.675809
1.000000 0.007968 0.638064
0.000000 0.372059 0.714944
0.230774 0.340592 0.677198
0.518144 0.309125 0.639452
0.805514 0.277658 0.601706
1.000000 0.246562 0.563869
0.000000 0.610283 0.640841
0.205979 0.578816 0.603095
0.493349 0.547349 0.565349
0.803355 0.525960 0.525123
1.000000 0.504571 0.484897
0.000000 0.848507 0.566738
0.202987 0.826747 0.526603
0.512993 0.805358 0.486377
0.822775 0.785563 0.448351
1.000000 0.780690 0.430920
0.000000 1.000000 0.487857
0.222492 1.000000 0.448992
0.530178 1.000000 0.431562
0.837863 1.000000 0.414131
1.000000 1.000000 0.396701
0.000000 0.121838 1.000000
0.250754 0.090371 1.000000
0.538124 0.058904 0.999164
0.825494 0.027437 0.961418
1.000000 0.000000 0.923672
0.000000 0.360062 1.000000
0.225959 0.328595 0.962807
0.513329 0.297128 0.925061
0.800699 0.265661 0.887315
1.000000 0.238407 0.848532
0.000000 0.598285 0.926449
0.201163 0.566818 0.888703
0.497164 0.539194 0.850012
0.807170 0.517805 0.809786
1.000000 0.496416 0.769560
0.000000 0.839981 0.851492
0.206802 0.818592 0.811266
0.516808 0.797203 0.771040
0.825705 0.783705 0.741705
1.000000 0.778833 0.724275
0.000000 1.000000 0.772520
0.225422 1.000000 0.742346
0.533108 1.000000 0.724916
0.840794 1.000000 0.707486
1.000000 1.000000 0.690056
0.000000 0.109840 1.000000
0.245938 0.078373 1.000000
0.533309 0.046907 1.000000
0.820679 0.015440 1.000000
1.000000 0.000000 1.000000
0.000000 0.348064 1.000000
0.221143 0.316597 1.000000
0.508513 0.285130 1.000000
0.795883 0.253663 1.000000
1.000000 0.230252 1.000000
0.000000 0.586288 1.000000
0.196348 0.554821 1.000000
0.500979 0.531039 1.000000
0.810985 0.509650 1.000000
1.000000 0.488261 1.000000
0.000000 0.831826 1.000000
0.210617 0.810437 1.000000
0.520623 0.789048 1.000000
0.828635 0.781847 1.000000
1.000000 0.776975 1.000000
0.000000 1.000000 1.000000
0.228353 1.000000 1.000000
0.536038 1.000000 1.000000
0.843724 1.000000 1.000000
1.000000 1.000000 0.983410
