app/src/main/assets/luts/thriller_blue.cube
# ApexStudio filter: thriller_blue
LUT_3D_SIZE 17
DOMAIN_MIN 0.0 0.0 0.0
DOMAIN_MAX 1.0 1.0 1.0
0.000000 0.000000 0.000000
0.043750 0.000000 0.000000
0.087500 0.000000 0.000000
0.131250 0.000000 0.000000
0.175000 0.000000 0.000000
0.218750 0.000000 0.000000
0.262500 0.000000 0.000000
0.306250 0.000000 0.000000
0.350000 0.000000 0.000000
0.393750 0.000000 0.000000
0.437500 0.000000 0.000000
0.481250 0.000000 0.000000
0.525000 0.000000 0.000000
0.568750 0.000000 0.000000
0.612500 0.000000 0.000000
0.656250 0.000000 0.000000
0.700000 0.000000 0.000000
0.000000 0.056250 0.000000
0.043750 0.056250 0.000000
0.087500 0.056250 0.000000
0.131250 0.056250 0.000000
0.175000 0.056250 0.000000
0.218750 0.056250 0.000000
0.262500 0.056250 0.000000
0.306250 0.056250 0.000000
0.350000 0.056250 0.000000
0.393750 0.056250 0.000000
0.437500 0.056250 0.000000
0.481250 0.056250 0.000000
0.525000 0.056250 0.000000
0.568750 0.056250 0.000000
0.612500 0.056250 0.000000
0.656250 0.056250 0.000000
0.700000 0.056250 0.000000
0.000000 0.112500 0.000000
0.043750 0.112500 0.000000
0.087500 0.112500 0.000000
0.131250 0.112500 0.000000
0.175000 0.112500 0.000000
0.218750 0.112500 0.000000
0.262500 0.112500 0.000000
0.306250 0.112500 0.000000
0.350000 0.112500 0.000000
0.393750 0.112500 0.000000
0.437500 0.112500 0.000000
0.481250 0.112500 0.000000
0.525000 0.112500 0.000000
0.568750 0.112500 0.000000
0.612500 0.112500 0.000000
0.656250 0.112500 0.000000
0.700000 0.112500 0.000000
0.000000 0.168750 0.000000
0.043750 0.168750 0.000000
0.087500 0.168750 0.000000
0.131250 0.168750 0.000000
0.175000 0.168750 0.000000
0.218750 0.168750 0.000000
0.262500 0.168750 0.000000
0.306250 0.168750 0.000000
0.350000 0.168750 0.000000
0.393750 0.168750 0.000000
0.437500 0.168750 0.000000
0.481250 0.168750 0.000000
0.525000 0.168750 0.000000
0.568750 0.168750 0.000000
0.612500 0.168750 0.000000
0.656250 0.168750 0.000000
0.700000 0.168750 0.000000
0.000000 0.225000 0.000000
0.043750 0.225000 0.000000
0.087500 0.225000 0.000000
0.131250 0.225000 0.000000
0.175000 0.225000 0.000000
0.218750 0.225000 0.000000
0.262500 0.225000 0.000000
0.306250 0.225000 0.000000
0.350000 0.225000 0.000000
0.393750 0.225000 0.000000
0.437500 0.225000 0.000000
0.481250 0.225000 0.000000
0.525000 0.225000 0.000000
0.568750 0.225000 0.000000
0.612500 0.225000 0.000000
0.656250 0.225000 0.000000
0.700000 0.225000 0.000000
0.000000 0.281250 0.000000
0.043750 0.281250 0.000000
0.087500 0.281250 0.000000
0.131250 0.281250 0.000000
0.175000 0.281250 0.000000
0.218750 0.281250 0.000000
0.262500 0.281250 0.000000
0.306250 0.281250 0.000000
0.350000 0.281250 0.000000
0.393750 0.281250 0.000000
0.437500 0.281250 0.000000
0.481250 0.281250 0.000000
0.525000 0.281250 0.000000
0.568750 0.281250 0.000000
0.612500 0.281250 0.000000
0.656250 0.281250 0.000000
0.700000 0.281250 0.000000
0.000000 0.337500 0.000000
0.043750 0.337500 0.000000
0.087500 0.337500 0.000000
0.131250 0.337500 0.000000
0.175000 0.337500 0.000000
0.218750 0.337500 0.000000
0.262500 0.337500 0.000000
0.306250 0.337500 0.000000
0.350000 0.337500 0.000000
0.393750 0.337500 0.000000
0.437500 0.337500 0.000000
0.481250 0.337500 0.000000
0.525000 0.337500 0.000000
0.568750 0.337500 0.000000
0.612500 0.337500 0.000000
0.656250 0.337500 0.000000
0.700000 0.337500 0.000000
0.000000 0.393750 0.000000
0.043750 0.393750 0.000000
0.087500 0.393750 0.000000
0.131250 0.393750 0.000000
0.175000 0.393750 0.000000
0.218750 0.393750 0.000000
0.262500 0.393750 0.000000
0.306250 0.393750 0.000000
0.350000 0.393750 0.000000
0.393750 0.393750 0.000000
0.437500 0.393750 0.000000
0.481250 0.393750 0.000000
0.525000 0.393750 0.000000
0.568750 0.393750 0.000000
0.612500 0.393750 0.000000
0.656250 0.393750 0.000000
0.700000 0.393750 0.000000
0.000000 0.450000 0.000000
0.043750 0.450000 0.000000
0.087500 0.450000 0.000000
0.131250 0.450000 0.000000
0.175000 0.450000 0.000000
0.218750 0.450000 0.000000
0.262500 0.450000 0.000000
0.306250 0.450000 0.000000
0.350000 0.450000 0.000000
0.393750 0.450000 0.000000
0.437500 0.450000 0.000000
0.481250 0.450000 0.000000
0.525000 0.450000 0.000000
0.568750 0.450000 0.000000
0.612500 0.450000 0.000000
0.656250 0.450000 0.000000
0.700000 0.450000 0.000000
0.000000 0.506250 0.000000
0.043750 0.506250 0.000000
0.087500 0.506250 0.000000
0.131250 0.506250 0.000000
0.175000 0.506250 0.000000
0.218750 0.506250 0.000000
0.262500 0.506250 0.000000
0.306250 0.506250 0.000000
0.350000 0.506250 0.000000
0.393750 0.506250 0.000000
0.437500 0.506250 0.000000
0.481250 0.506250 0.000000
0.525000 0.506250 0.000000
0.568750 0.506250 0.000000
0.612500 0.506250 0.000000
0.656250 0.506250 0.000000
0.700000 0.506250 0.000000
0.000000 0.562500 0.000000
0.043750 0.562500 0.000000
0.087500 0.562500 0.000000
0.131250 0.562500 0.000000
0.175000 0.562500 0.000000
0.218750 0.562500 0.000000
0.262500 0.562500 0.000000
0.306250 0.562500 0.000000
0.350000 0.562500 0.000000
0.393750 0.562500 0.000000
0.437500 0.562500 0.000000
0.481250 0.562500 0.000000
0.525000 0.562500 0.000000
0.568750 0.562500 0.000000
0.612500 0.562500 0.000000
0.656250 0.562500 0.000000
0.700000 0.562500 0.000000
0.000000 0.618750 0.000000
0.043750 0.618750 0.000000
0.087500 0.618750 0.000000
0.131250 0.618750 0.000000
0.175000 0.618750 0.000000
0.218750 0.618750 0.000000
0.262500 0.618750 0.000000
0.306250 0.618750 0.000000
0.350000 0.618750 0.000000
0.393750 0.618750 0.000000
0.437500 0.618750 0.000000
0.481250 0.618750 0.000000
0.525000 0.618750 0.000000
0.568750 0.618750 0.000000
0.612500 0.618750 0.000000
0.656250 0.618750 0.000000
0.700000 0.618750 0.000000
0.000000 0.675000 0.000000
0.043750 0.675000 0.000000
0.087500 0.675000 0.000000
0.131250 0.675000 0.000000
0.175000 0.675000 0.000000
0.218750 0.675000 0.000000
0.262500 0.675000 0.000000
0.306250 0.675000 0.000000
0.350000 0.675000 0.000000
0.393750 0.675000 0.000000
0.437500 0.675000 0.000000
0.481250 0.675000 0.000000
0.525000 0.675000 0.000000
0.568750 0.675000 0.000000
0.612500 0.675000 0.000000
0.656250 0.675000 0.000000
0.700000 0.675000 0.000000
0.000000 0.731250 0.000000
0.043750 0.731250 0.000000
0.087500 0.731250 0.000000
0.131250 0.731250 0.000000
0.175000 0.731250 0.000000
0.218750 0.731250 0.000000
0.262500 0.731250 0.000000
0.306250 0.731250 0.000000
0.350000 0.731250 0.000000
0.393750 0.731250 0.000000
0.437500 0.731250 0.000000
0.481250 0.731250 0.000000
0.525000 0.731250 0.000000
0.568750 0.731250 0.000000
0.612500 0.731250 0.000000
0.656250 0.731250 0.000000
0.700000 0.731250 0.000000
0.000000 0.787500 0.000000
0.043750 0.787500 0.000000
0.087500 0.787500 0.000000
0.131250 0.787500 0.000000
0.175000 0.787500 0.000000
0.218750 0.787500 0.000000
0.262500 0.787500 0.000000
0.306250 0.787500 0.000000
0.350000 0.787500 0.000000
0.393750 0.787500 0.000000
0.437500 0.787500 0.000000
0.481250 0.787500 0.000000
0.525000 0.787500 0.000000
0.568750 0.787500 0.000000
0.612500 0.787500 0.000000
0.656250 0.787500 0.000000
0.700000 0.787500 0.000000
0.000000 0.843750 0.000000
0.043750 0.843750 0.000000
0.087500 0.843750 0.000000
0.131250 0.843750 0.000000
0.175000 0.843750 0.000000
0.218750 0.843750 0.000000
0.262500 0.843750 0.000000
0.306250 0.843750 0.000000
0.350000 0.843750 0.000000
0.393750 0.843750 0.000000
0.437500 0.843750 0.000000
0.481250 0.843750 0.000000
0.525000 0.843750 0.000000
0.568750 0.843750 0.000000
0.612500 0.843750 0.000000
0.656250 0.843750 0.000000
0.700000 0.843750 0.000000
0.000000 0.900000 0.000000
0.043750 0.900000 0.000000
0.087500 0.900000 0.000000
0.131250 0.900000 0.000000
0.175000 0.900000 0.000000
0.218750 0.900000 0.000000
0.262500 0.900000 0.000000
0.306250 0.900000 0.000000
0.350000 0.900000 0.000000
0.393750 0.900000 0.000000
0.437500 0.900000 0.000000
0.481250 0.900000 0.000000
0.525000 0.900000 0.000000
0.568750 0.900000 0.000000
0.612500 0.900000 0.000000
0.656250 0.900000 0.000000
0.700000 0.900000 0.000000
0.000000 0.000000 0.075000
0.043750 0.000000 0.075000
0.087500 0.000000 0.075000
0.131250 0.000000 0.075000
0.175000 0.000000 0.075000
0.218750 0.000000 0.075000
0.262500 0.000000 0.075000
0.306250 0.000000 0.075000
0.350000 0.000000 0.075000
0.393750 0.000000 0.075000
0.437500 0.000000 0.075000
0.481250 0.000000 0.075000
0.525000 0.000000 0.075000
0.568750 0.000000 0.075000
0.612500 0.000000 0.075000
0.656250 0.000000 0.075000
0.700000 0.000000 0.075000
0.000000 0.056250 0.075000
0.043750 0.056250 0.075000
0.087500 0.056250 0.075000
0.131250 0.056250 0.075000
0.175000 0.056250 0.075000
0.218750 0.056250 0.075000
0.262500 0.056250 0.075000
0.306250 0.056250 0.075000
0.350000 0.056250 0.075000
0.393750 0.056250 0.075000
0.437500 0.056250 0.075000
0.481250 0.056250 0.075000
0.525000 0.056250 0.075000
0.568750 0.056250 0.075000
0.612500 0.056250 0.075000
0.656250 0.056250 0.075000
0.700000 0.056250 0.075000
0.000000 0.112500 0.075000
0.043750 0.112500 0.075000
0.087500 0.112500 0.075000
0.131250 0.112500 0.075000
0.175000 0.112500 0.075000
0.218750 0.112500 0.075000
0.262500 0.112500 0.075000
0.306250 0.112500 0.075000
0.350000 0.112500 0.075000
0.393750 0.112500 0.075000
0.437500 0.112500 0.075000
0.481250 0.112500 0.075000
0.525000 0.112500 0.075000
0.568750 0.112500 0.075000
0.612500 0.112500 0.075000
0.656250 0.112500 0.075000
0.700000 0.112500 0.075000
0.000000 0.168750 0.075000
0.043750 0.168750 0.075000
0.087500 0.168750 0.075000
0.131250 0.168750 0.075000
0.175000 0.168750 0.075000
0.218750 0.168750 0.075000
0.262500 0.168750 0.075000
0.306250 0.168750 0.075000
0.350000 0.168750 0.075000
0.393750 0.168750 0.075000
0.437500 0.168750 0.075000
0.481250 0.168750 0.075000
0.525000 0.168750 0.075000
0.568750 0.168750 0.075000
0.612500 0.168750 0.075000
0.656250 0.168750 0.075000
0.700000 0.168750 0.075000
0.000000 0.225000 0.075000
0.043750 0.225000 0.075000
0.087500 0.225000 0.075000
0.131250 0.225000 0.075000
0.175000 0.225000 0.075000
0.218750 0.225000 0.075000
0.262500 0.225000 0.075000
0.306250 0.225000 0.075000
0.350000 0.225000 0.075000
0.393750 0.225000 0.075000
0.437500 0.225000 0.075000
0.481250 0.225000 0.075000
0.525000 0.225000 0.075000
0.568750 0.225000 0.075000
0.612500 0.225000 0.075000
0.656250 0.225000 0.075000
0.700000 0.225000 0.075000
0.000000 0.281250 0.075000
0.043750 0.281250 0.075000
0.087500 0.281250 0.075000
0.131250 0.281250 0.075000
0.175000 0.281250 0.075000
0.218750 0.281250 0.075000
0.262500 0.281250 0.075000
0.306250 0.281250 0.075000
0.350000 0.281250 0.075000
0.393750 0.281250 0.075000
0.437500 0.281250 0.075000
0.481250 0.281250 0.075000
0.525000 0.281250 0.075000
0.568750 0.281250 0.075000
0.612500 0.281250 0.075000
0.656250 0.281250 0.075000
0.700000 0.281250 0.075000
0.000000 0.337500 0.075000
0.043750 0.337500 0.075000
0.087500 0.337500 0.075000
0.131250 0.337500 0.075000
0.175000 0.337500 0.075000
0.218750 0.337500 0.075000
0.262500 0.337500 0.075000
0.306250 0.337500 0.075000
0.350000 0.337500 0.075000
0.393750 0.337500 0.075000
0.437500 0.337500 0.075000
0.481250 0.337500 0.075000
0.525000 0.337500 0.075000
0.568750 0.337500 0.075000
0.612500 0.337500 0.075000
0.656250 0.337500 0.075000
0.700000 0.337500 0.075000
0.000000 0.393750 0.075000
0.043750 0.393750 0.075000
0.087500 0.393750 0.075000
0.131250 0.393750 0.075000
0.175000 0.393750 0.075000
0.218750 0.393750 0.075000
0.262500 0.393750 0.075000
0.306250 0.393750 0.075000
0.350000 0.393750 0.075000
0.393750 0.393750 0.075000
0.437500 0.393750 0.075000
0.481250 0.393750 0.075000
0.525000 0.393750 0.075000
0.568750 0.393750 0.075000
0.612500 0.393750 0.075000
0.656250 0.393750 0.075000
0.700000 0.393750 0.075000
0.000000 0.450000 0.075000
0.043750 0.450000 0.075000
0.087500 0.450000 0.075000
0.131250 0.450000 0.075000
0.175000 0.450000 0.075000
0.218750 0.450000 0.075000
0.262500 0.450000 0.075000
0.306250 0.450000 0.075000
0.350000 0.450000 0.075000
0.393750 0.450000 0.075000
0.437500 0.450000 0.075000
0.481250 0.450000 0.075000
0.525000 0.450000 0.075000
0.568750 0.450000 0.075000
0.612500 0.450000 0.075000
0.656250 0.450000 0.075000
0.700000 0.450000 0.075000
0.000000 0.506250 0.075000
0.043750 0.506250 0.075000
0.087500 0.506250 0.075000
0.131250 0.506250 0.075000
0.175000 0.506250 0.075000
0.218750 0.506250 0.075000
0.262500 0.506250 0.075000
0.306250 0.506250 0.075000
0.350000 0.506250 0.075000
0.393750 0.506250 0.075000
0.437500 0.506250 0.075000
0.481250 0.506250 0.075000
0.525000 0.506250 0.075000
0.568750 0.506250 0.075000
0.612500 0.506250 0.075000
0.656250 0.506250 0.075000
0.700000 0.506250 0.075000
0.000000 0.562500 0.075000
0.043750 0.562500 0.075000
0.087500 0.562500 0.075000
0.131250 0.562500 0.075000
0.175000 0.562500 0.075000
0.218750 0.562500 0.075000
0.262500 0.562500 0.075000
0.306250 0.562500 0.075000
0.350000 0.562500 0.075000
0.393750 0.562500 0.075000
0.437500 0.562500 0.075000
0.481250 0.562500 0.075000
0.525000 0.562500 0.075000
0.568750 0.562500 0.075000
0.612500 0.562500 0.075000
0.656250 0.562500 0.075000
0.700000 0.562500 0.075000
0.000000 0.618750 0.075000
0.043750 0.618750 0.075000
0.087500 0.618750 0.075000
0.131250 0.618750 0.075000
0.175000 0.618750 0.075000
0.218750 0.618750 0.075000
0.262500 0.618750 0.075000
0.306250 0.618750 0.075000
0.350000 0.618750 0.075000
0.393750 0.618750 0.075000
0.437500 0.618750 0.075000
0.481250 0.618750 0.075000
0.525000 0.618750 0.075000
0.568750 0.618750 0.075000
0.612500 0.618750 0.075000
0.656250 0.618750 0.075000
0.700000 0.618750 0.075000
0.000000 0.675000 0.075000
0.043750 0.675000 0.075000
0.087500 0.675000 0.075000
0.131250 0.675000 0.075000
0.175000 0.675000 0.075000
0.218750 0.675000 0.075000
0.262500 0.675000 0.075000
0.306250 0.675000 0.075000
0.350000 0.675000 0.075000
0.393750 0.675000 0.075000
0.437500 0.675000 0.075000
0.481250 0.675000 0.075000
0.525000 0.675000 0.075000
0.568750 0.675000 0.075000
0.612500 0.675000 0.075000
0.656250 0.675000 0.075000
0.700000 0.675000 0.075000
0.000000 0.731250 0.075000
0.043750 0.731250 0.075000
0.087500 0.731250 0.075000
0.131250 0.731250 0.075000
0.175000 0.731250 0.075000
0.218750 0.731250 0.075000
0.262500 0.731250 0.075000
0.306250 0.731250 0.075000
0.350000 0.731250 0.075000
0.393750 0.731250 0.075000
0.437500 0.731250 0.075000
0.481250 0.731250 0.075000
0.525000 0.731250 0.075000
0.568750 0.731250 0.075000
0.612500 0.731250 0.075000
0.656250 0.731250 0.075000
0.700000 0.731250 0.075000
0.000000 0.787500 0.075000
0.043750 0.787500 0.075000
0.087500 0.787500 0.075000
0.131250 0.787500 0.075000
0.175000 0.787500 0.075000
0.218750 0.787500 0.075000
0.262500 0.787500 0.075000
0.306250 0.787500 0.075000
0.350000 0.787500 0.075000
0.393750 0.787500 0.075000
0.437500 0.787500 0.075000
0.481250 0.787500 0.075000
0.525000 0.787500 0.075000
0.568750 0.787500 0.075000
0.612500 0.787500 0.075000
0.656250 0.787500 0.075000
0.700000 0.787500 0.075000
0.000000 0.843750 0.075000
0.043750 0.843750 0.075000
0.087500 0.843750 0.075000
0.131250 0.843750 0.075000
0.175000 0.843750 0.075000
0.218750 0.843750 0.075000
0.262500 0.843750 0.075000
0.306250 0.843750 0.075000
0.350000 0.843750 0.075000
0.393750 0.843750 0.075000
0.437500 0.843750 0.075000
0.481250 0.843750 0.075000
0.525000 0.843750 0.075000
0.568750 0.843750 0.075000
0.612500 0.843750 0.075000
0.656250 0.843750 0.075000
0.700000 0.843750 0.075000
0.000000 0.900000 0.075000
0.043750 0.900000 0.075000
0.087500 0.900000 0.075000
0.131250 0.900000 0.075000
0.175000 0.900000 0.075000
0.218750 0.900000 0.075000
0.262500 0.900000 0.075000
0.306250 0.900000 0.075000
0.350000 0.900000 0.075000
0.393750 0.900000 0.075000
0.437500 0.900000 0.075000
0.481250 0.900000 0.075000
0.525000 0.900000 0.075000
0.568750 0.900000 0.075000
0.612500 0.900000 0.075000
0.656250 0.900000 0.075000
0.700000 0.900000 0.075000
0.000000 0.000000 0.150000
0.043750 0.000000 0.150000
0.087500 0.000000 0.150000
0.131250 0.000000 0.150000
0.175000 0.000000 0.150000
0.218750 0.000000 0.150000
0.262500 0.000000 0.150000
0.306250 0.000000 0.150000
0.350000 0.000000 0.150000
0.393750 0.000000 0.150000
0.437500 0.000000 0.150000
0.481250 0.000000 0.150000
0.525000 0.000000 0.150000
0.568750 0.000000 0.150000
0.612500 0.000000 0.150000
0.656250 0.000000 0.150000
0.700000 0.000000 0.150000
0.000000 0.056250 0.150000
0.043750 0.056250 0.150000
0.087500 0.056250 0.150000
0.131250 0.056250 0.150000
0.175000 0.056250 0.150000
0.218750 0.056250 0.150000
0.262500 0.056250 0.150000
0.306250 0.056250 0.150000
0.350000 0.056250 0.150000
0.393750 0.056250 0.150000
0.437500 0.056250 0.150000
0.481250 0.056250 0.150000
0.525000 0.056250 0.150000
0.568750 0.056250 0.150000
0.612500 0.056250 0.150000
0.656250 0.056250 0.150000
0.700000 0.056250 0.150000
0.000000 0.112500 0.150000
0.043750 0.112500 0.150000
0.087500 0.112500 0.150000
0.131250 0.112500 0.150000
0.175000 0.112500 0.150000
0.218750 0.112500 0.150000
0.262500 0.112500 0.150000
0.306250 0.112500 0.150000
0.350000 0.112500 0.150000
0.393750 0.112500 0.150000
0.437500 0.112500 0.150000
0.481250 0.112500 0.150000
0.525000 0.112500 0.150000
0.568750 0.112500 0.150000
0.612500 0.112500 0.150000
0.656250 0.112500 0.150000
0.700000 0.112500 0.150000
0.000000 0.168750 0.150000
0.043750 0.168750 0.150000
0.087500 0.168750 0.150000
0.131250 0.168750 0.150000
0.175000 0.168750 0.150000
0.218750 0.168750 0.150000
0.262500 0.168750 0.150000
0.306250 0.168750 0.150000
0.350000 0.168750 0.150000
0.393750 0.168750 0.150000
0.437500 0.168750 0.150000
0.481250 0.168750 0.150000
0.525000 0.168750 0.150000
0.568750 0.168750 0.150000
0.612500 0.168750 0.150000
0.656250 0.168750 0.150000
0.700000 0.168750 0.150000
0.000000 0.225000 0.150000
0.043750 0.225000 0.150000
0.087500 0.225000 0.150000
0.131250 0.225000 0.150000
0.175000 0.225000 0.150000
0.218750 0.225000 0.150000
0.262500 0.225000 0.150000
0.306250 0.225000 0.150000
0.350000 0.225000 0.150000
0.393750 0.225000 0.150000
0.437500 0.225000 0.150000
0.481250 0.225000 0.150000
0.525000 0.225000 0.150000
0.568750 0.225000 0.150000
0.612500 0.225000 0.150000
0.656250 0.225000 0.150000
0.700000 0.225000 0.150000
0.000000 0.281250 0.150000
0.043750 0.281250 0.150000
0.087500 0.281250 0.150000
0.131250 0.281250 0.150000
0.175000 0.281250 0.150000
0.218750 0.281250 0.150000
0.262500 0.281250 0.150000
0.306250 0.281250 0.150000
0.350000 0.281250 0.150000
0.393750 0.281250 0.150000
0.437500 0.281250 0.150000
0.481250 0.281250 0.150000
0.525000 0.281250 0.150000
0.568750 0.281250 0.150000
0.612500 0.281250 0.150000
0.656250 0.281250 0.150000
0.700000 0.281250 0.150000
0.000000 0.337500 0.150000
0.043750 0.337500 0.150000
0.087500 0.337500 0.150000
0.131250 0.337500 0.150000
0.175000 0.337500 0.150000
0.218750 0.337500 0.150000
0.262500 0.337500 0.150000
0.306250 0.337500 0.150000
0.350000 0.337500 0.150000
0.393750 0.337500 0.150000
0.437500 0.337500 0.150000
0.481250 0.337500 0.150000
0.525000 0.337500 0.150000
0.568750 0.337500 0.150000
0.612500 0.337500 0.150000
0.656250 0.337500 0.150000
0.700000 0.337500 0.150000
0.000000 0.393750 0.150000
0.043750 0.393750 0.150000
0.087500 0.393750 0.150000
0.131250 0.393750 0.150000
0.175000 0.393750 0.150000
0.218750 0.393750 0.150000
0.262500 0.393750 0.150000
0.306250 0.393750 0.150000
0.350000 0.393750 0.150000
0.393750 0.393750 0.150000
0.437500 0.393750 0.150000
0.481250 0.393750 0.150000
0.525000 0.393750 0.150000
0.568750 0.393750 0.150000
0.612500 0.393750 0.150000
0.656250 0.393750 0.150000
0.700000 0.393750 0.150000
0.000000 0.450000 0.150000
0.043750 0.450000 0.150000
0.087500 0.450000 0.150000
0.131250 0.450000 0.150000
0.175000 0.450000 0.150000
0.218750 0.450000 0.150000
0.262500 0.450000 0.150000
0.306250 0.450000 0.150000
0.350000 0.450000 0.150000
0.393750 0.450000 0.150000
0.437500 0.450000 0.150000
0.481250 0.450000 0.150000
0.525000 0.450000 0.150000
0.568750 0.450000 0.150000
0.612500 0.450000 0.150000
0.656250 0.450000 0.150000
0.700000 0.450000 0.150000
0.000000 0.506250 0.150000
0.043750 0.506250 0.150000
0.087500 0.506250 0.150000
0.131250 0.506250 0.150000
0.175000 0.506250 0.150000
0.218750 0.506250 0.150000
0.262500 0.506250 0.150000
0.306250 0.506250 0.150000
0.350000 0.506250 0.150000
0.393750 0.506250 0.150000
0.437500 0.506250 0.150000
0.481250 0.506250 0.150000
0.525000 0.506250 0.150000
0.568750 0.506250 0.150000
0.612500 0.506250 0.150000
0.656250 0.506250 0.150000
0.700000 0.506250 0.150000
0.000000 0.562500 0.150000
0.043750 0.562500 0.150000
0.087500 0.562500 0.150000
0.131250 0.562500 0.150000
0.175000 0.562500 0.150000
0.218750 0.562500 0.150000
0.262500 0.562500 0.150000
0.306250 0.562500 0.150000
0.350000 0.562500 0.150000
0.393750 0.562500 0.150000
0.437500 0.562500 0.150000
0.481250 0.562500 0.150000
0.525000 0.562500 0.150000
0.568750 0.562500 0.150000
0.612500 0.562500 0.150000
0.656250 0.562500 0.150000
0.700000 0.562500 0.150000
0.000000 0.618750 0.150000
0.043750 0.618750 0.150000
0.087500 0.618750 0.150000
0.131250 0.618750 0.150000
0.175000 0.618750 0.150000
0.218750 0.618750 0.150000
0.262500 0.618750 0.150000
0.306250 0.618750 0.150000
0.350000 0.618750 0.150000
0.393750 0.618750 0.150000
0.437500 0.618750 0.150000
0.481250 0.618750 0.150000
0.525000 0.618750 0.150000
0.568750 0.618750 0.150000
0.612500 0.618750 0.150000
0.656250 0.618750 0.150000
0.700000 0.618750 0.150000
0.000000 0.675000 0.150000
0.043750 0.675000 0.150000
0.087500 0.675000 0.150000
0.131250 0.675000 0.150000
0.175000 0.675000 0.150000
0.218750 0.675000 0.150000
0.262500 0.675000 0.150000
0.306250 0.675000 0.150000
0.350000 0.675000 0.150000
0.393750 0.675000 0.150000
0.437500 0.675000 0.150000
0.481250 0.675000 0.150000
0.525000 0.675000 0.150000
0.568750 0.675000 0.150000
0.612500 0.675000 0.150000
0.656250 0.675000 0.150000
0.700000 0.675000 0.150000
0.000000 0.731250 0.150000
0.043750 0.731250 0.150000
0.087500 0.731250 0.150000
0.131250 0.731250 0.150000
0.175000 0.731250 0.150000
0.218750 0.731250 0.150000
0.262500 0.731250 0.150000
0.306250 0.731250 0.150000
0.350000 0.731250 0.150000
0.393750 0.731250 0.150000
0.437500 0.731250 0.150000
0.481250 0.731250 0.150000
0.525000 0.731250 0.150000
0.568750 0.731250 0.150000
0.612500 0.731250 0.150000
0.656250 0.731250 0.150000
0.700000 0.731250 0.150000
0.000000 0.787500 0.150000
0.043750 0.787500 0.150000
0.087500 0.787500 0.150000
0.131250 0.787500 0.150000
0.175000 0.787500 0.150000
0.218750 0.787500 0.150000
0.262500 0.787500 0.150000
0.306250 0.787500 0.150000
0.350000 0.787500 0.150000
0.393750 0.787500 0.150000
0.437500 0.787500 0.150000
0.481250 0.787500 0.150000
0.525000 0.787500 0.150000
0.568750 0.787500 0.150000
0.612500 0.787500 0.150000
0.656250 0.787500 0.150000
0.700000 0.787500 0.150000
0.000000 0.843750 0.150000
0.043750 0.843750 0.150000
0.087500 0.843750 0.150000
0.131250 0.843750 0.150000
0.175000 0.843750 0.150000
0.218750 0.843750 0.150000
0.262500 0.843750 0.150000
0.306250 0.843750 0.150000
0.350000 0.843750 0.150000
0.393750 0.843750 0.150000
0.437500 0.843750 0.150000
0.481250 0.843750 0.150000
0.525000 0.843750 0.150000
0.568750 0.843750 0.150000
0.612500 0.843750 0.150000
0.656250 0.843750 0.150000
0.700000 0.843750 0.150000
0.000000 0.900000 0.150000
0.043750 0.900000 0.150000
0.087500 0.900000 0.150000
0.131250 0.900000 0.150000
0.175000 0.900000 0.150000
0.218750 0.900000 0.150000
0.262500 0.900000 0.150000
0.306250 0.900000 0.150000
0.350000 0.900000 0.150000
0.393750 0.900000 0.150000
0.437500 0.900000 0.150000
0.481250 0.900000 0.150000
0.525000 0.900000 0.150000
0.568750 0.900000 0.150000
0.612500 0.900000 0.150000
0.656250 0.900000 0.150000
0.700000 0.900000 0.150000
0.000000 0.000000 0.225000
0.043750 0.000000 0.225000
0.087500 0.000000 0.225000
0.131250 0.000000 0.225000
0.175000 0.000000 0.225000
0.218750 0.000000 0.225000
0.262500 0.000000 0.225000
0.306250 0.000000 0.225000
0.350000 0.000000 0.225000
0.393750 0.000000 0.225000
0.437500 0.000000 0.225000
0.481250 0.000000 0.225000
0.525000 0.000000 0.225000
0.568750 0.000000 0.225000
0.612500 0.000000 0.225000
0.656250 0.000000 0.225000
0.700000 0.000000 0.225000
0.000000 0.056250 0.225000
