app/src/main/assets/luts/thriller_blue.cube
# ApexStudio filter: thriller_blue
LUT_3D_SIZE 5
DOMAIN_MIN 0.0 0.0 0.0
DOMAIN_MAX 1.0 1.0 1.0
0.000000 0.000000 0.000000
0.175000 0.000000 0.000000
0.350000 0.000000 0.000000
0.525000 0.000000 0.000000
0.700000 0.000000 0.000000
0.000000 0.225000 0.000000
0.175000 0.225000 0.000000
0.350000 0.225000 0.000000
0.525000 0.225000 0.000000
0.700000 0.225000 0.000000
0.000000 0.450000 0.000000
0.175000 0.450000 0.000000
0.350000 0.450000 0.000000
0.525000 0.450000 0.000000
0.700000 0.450000 0.000000
0.000000 0.675000 0.000000
0.175000 0.675000 0.000000
0.350000 0.675000 0.000000
0.525000 0.675000 0.000000
0.700000 0.675000 0.000000
0.000000 0.900000 0.000000
0.175000 0.900000 0.000000
0.350000 0.900000 0.000000
0.525000 0.900000 0.000000
0.700000 0.900000 0.000000
0.000000 0.000000 0.300000
0.175000 0.000000 0.300000
0.350000 0.000000 0.300000
0.525000 0.000000 0.300000
0.700000 0.000000 0.300000
0.000000 0.225000 0.300000
0.175000 0.225000 0.300000
0.350000 0.225000 0.300000
0.525000 0.225000 0.300000
0.700000 0.225000 0.300000
0.000000 0.450000 0.300000
0.175000 0.450000 0.300000
0.350000 0.450000 0.300000
0.525000 0.450000 0.300000
0.700000 0.450000 0.300000
0.000000 0.675000 0.300000
0.175000 0.675000 0.300000
0.350000 0.675000 0.300000
0.525000 0.675000 0.300000
0.700000 0.675000 0.300000
0.000000 0.900000 0.300000
0.175000 0.900000 0.300000
0.350000 0.900000 0.300000
0.525000 0.900000 0.300000
0.700000 0.900000 0.300000
0.000000 0.000000 0.600000
0.175000 0.000000 0.600000
0.350000 0.000000 0.600000
0.525000 0.000000 0.600000
0.700000 0.000000 0.600000
0.000000 0.225000 0.600000
0.175000 0.225000 0.600000
0.350000 0.225000 0.600000
0.525000 0.225000 0.600000
0.700000 0.225000 0.600000
0.000000 0.450000 0.600000
0.175000 0.450000 0.600000
0.350000 0.450000 0.600000
0.525000 0.450000 0.600000
0.700000 0.450000 0.600000
0.000000 0.675000 0.600000
0.175000 0.675000 0.600000
0.350000 0.675000 0.600000
0.525000 0.675000 0.600000
0.700000 0.675000 0.600000
0.000000 0.900000 0.600000
0.175000 0.900000 0.600000
0.350000 0.900000 0.600000
0.525000 0.900000 0.600000
0.700000 0.900000 0.600000
0.000000 0.000000 0.900000
0.175000 0.000000 0.900000
0.350000 0.000000 0.900000
0.525000 0.000000 0.900000
0.700000 0.000000 0.900000
0.000000 0.225000 0.900000
0.175000 0.225000 0.900000
0.350000 0.225000 0.900000
0.525000 0.225000 0.900000
0.700000 0.225000 0.900000
0.000000 0.450000 0.900000
0.175000 0.450000 0.900000
0.350000 0.450000 0.900000
0.525000 0.450000 0.900000
0.700000 0.450000 0.900000
0.000000 0.675000 0.900000
0.175000 0.675000 0.900000
0.350000 0.675000 0.900000
0.525000 0.675000 0.900000
0.700000 0.675000 0.900000
0.000000 0.900000 0.900000
0.175000 0.900000 0.900000
0.350000 0.900000 0.900000
0.525000 0.900000 0.900000
0.700000 0.900000 0.900000
0.000000 0.000000 1.000000
0.175000 0.000000 1.000000
0.350000 0.000000 1.000000
0.525000 0.000000 1.000000
0.700000 0.000000 1.000000
0.000000 0.225000 1.000000
0.175000 0.225000 1.000000
0.350000 0.225000 1.000000
0.525000 0.225000 1.000000
0.700000 0.225000 1.000000
0.000000 0.450000 1.000000
0.175000 0.450000 1.000000
0.350000 0.450000 1.000000
0.525000 0.450000 1.000000
0.700000 0.450000 1.000000
0.000000 0.675000 1.000000
0.175000 0.675000 1.000000
0.350000 0.675000 1.000000
0.525000 0.675000 1.000000
0.700000 0.675000 1.000000
0.000000 0.900000 1.000000
0.175000 0.900000 1.000000
0.350000 0.900000 1.000000
0.525000 0.900000 1.000000
0.700000 0.900000 1.000000
