app/src/main/assets/luts/thriller_blue.cube
# ApexStudio filter: thriller_blue
LUT_3D_SIZE 9
DOMAIN_MIN 0.0 0.0 0.0
DOMAIN_MAX 1.0 1.0 1.0
0.000000 0.000000 0.000000
0.087500 0.000000 0.000000
0.175000 0.000000 0.000000
0.262500 0.000000 0.000000
0.350000 0.000000 0.000000
0.437500 0.000000 0.000000
0.525000 0.000000 0.000000
0.612500 0.000000 0.000000
0.700000 0.000000 0.000000
0.000000 0.112500 0.000000
0.087500 0.112500 0.000000
0.175000 0.112500 0.000000
0.262500 0.112500 0.000000
0.350000 0.112500 0.000000
0.437500 0.112500 0.000000
0.525000 0.112500 0.000000
0.612500 0.112500 0.000000
0.700000 0.112500 0.000000
0.000000 0.225000 0.000000
0.087500 0.225000 0.000000
0.175000 0.225000 0.000000
0.262500 0.225000 0.000000
0.350000 0.225000 0.000000
0.437500 0.225000 0.000000
0.525000 0.225000 0.000000
0.612500 0.225000 0.000000
0.700000 0.225000 0.000000
0.000000 0.337500 0.000000
0.087500 0.337500 0.000000
0.175000 0.337500 0.000000
0.262500 0.337500 0.000000
0.350000 0.337500 0.000000
0.437500 0.337500 0.000000
0.525000 0.337500 0.000000
0.612500 0.337500 0.000000
0.700000 0.337500 0.000000
0.000000 0.450000 0.000000
0.087500 0.450000 0.000000
0.175000 0.450000 0.000000
0.262500 0.450000 0.000000
0.350000 0.450000 0.000000
0.437500 0.450000 0.000000
0.525000 0.450000 0.000000
0.612500 0.450000 0.000000
0.700000 0.450000 0.000000
0.000000 0.562500 0.000000
0.087500 0.562500 0.000000
0.175000 0.562500 0.000000
0.262500 0.562500 0.000000
0.350000 0.562500 0.000000
0.437500 0.562500 0.000000
0.525000 0.562500 0.000000
0.612500 0.562500 0.000000
0.700000 0.562500 0.000000
0.000000 0.675000 0.000000
0.087500 0.675000 0.000000
0.175000 0.675000 0.000000
0.262500 0.675000 0.000000
0.350000 0.675000 0.000000
0.437500 0.675000 0.000000
0.525000 0.675000 0.000000
0.612500 0.675000 0.000000
0.700000 0.675000 0.000000
0.000000 0.787500 0.000000
0.087500 0.787500 0.000000
0.175000 0.787500 0.000000
0.262500 0.787500 0.000000
0.350000 0.787500 0.000000
0.437500 0.787500 0.000000
0.525000 0.787500 0.000000
0.612500 0.787500 0.000000
0.700000 0.787500 0.000000
0.000000 0.900000 0.000000
0.087500 0.900000 0.000000
0.175000 0.900000 0.000000
0.262500 0.900000 0.000000
0.350000 0.900000 0.000000
0.437500 0.900000 0.000000
0.525000 0.900000 0.000000
0.612500 0.900000 0.000000
0.700000 0.900000 0.000000
0.000000 0.000000 0.150000
0.087500 0.000000 0.150000
0.175000 0.000000 0.150000
0.262500 0.000000 0.150000
0.350000 0.000000 0.150000
0.437500 0.000000 0.150000
0.525000 0.000000 0.150000
0.612500 0.000000 0.150000
0.700000 0.000000 0.150000
0.000000 0.112500 0.150000
0.087500 0.112500 0.150000
0.175000 0.112500 0.150000
0.262500 0.112500 0.150000
0.350000 0.112500 0.150000
0.437500 0.112500 0.150000
0.525000 0.112500 0.150000
0.612500 0.112500 0.150000
0.700000 0.112500 0.150000
0.000000 0.225000 0.150000
0.087500 0.225000 0.150000
0.175000 0.225000 0.150000
0.262500 0.225000 0.150000
0.350000 0.225000 0.150000
0.437500 0.225000 0.150000
0.525000 0.225000 0.150000
0.612500 0.225000 0.150000
0.700000 0.225000 0.150000
0.000000 0.337500 0.150000
0.087500 0.337500 0.150000
0.175000 0.337500 0.150000
0.262500 0.337500 0.150000
0.350000 0.337500 0.150000
0.437500 0.337500 0.150000
0.525000 0.337500 0.150000
0.612500 0.337500 0.150000
0.700000 0.337500 0.150000
0.000000 0.450000 0.150000
0.087500 0.450000 0.150000
0.175000 0.450000 0.150000
0.262500 0.450000 0.150000
0.350000 0.450000 0.150000
0.437500 0.450000 0.150000
0.525000 0.450000 0.150000
0.612500 0.450000 0.150000
0.700000 0.450000 0.150000
0.000000 0.562500 0.150000
0.087500 0.562500 0.150000
0.175000 0.562500 0.150000
0.262500 0.562500 0.150000
0.350000 0.562500 0.150000
0.437500 0.562500 0.150000
0.525000 0.562500 0.150000
0.612500 0.562500 0.150000
0.700000 0.562500 0.150000
0.000000 0.675000 0.150000
0.087500 0.675000 0.150000
0.175000 0.675000 0.150000
0.262500 0.675000 0.150000
0.350000 0.675000 0.150000
0.437500 0.675000 0.150000
0.525000 0.675000 0.150000
0.612500 0.675000 0.150000
0.700000 0.675000 0.150000
0.000000 0.787500 0.150000
0.087500 0.787500 0.150000
0.175000 0.787500 0.150000
0.262500 0.787500 0.150000
0.350000 0.787500 0.150000
0.437500 0.787500 0.150000
0.525000 0.787500 0.150000
0.612500 0.787500 0.150000
0.700000 0.787500 0.150000
0.000000 0.900000 0.150000
0.087500 0.900000 0.150000
0.175000 0.900000 0.150000
0.262500 0.900000 0.150000
0.350000 0.900000 0.150000
0.437500 0.900000 0.150000
0.525000 0.900000 0.150000
0.612500 0.900000 0.150000
0.700000 0.900000 0.150000
0.000000 0.000000 0.300000
0.087500 0.000000 0.300000
0.175000 0.000000 0.300000
0.262500 0.000000 0.300000
0.350000 0.000000 0.300000
0.437500 0.000000 0.300000
0.525000 0.000000 0.300000
0.612500 0.000000 0.300000
0.700000 0.000000 0.300000
0.000000 0.112500 0.300000
0.087500 0.112500 0.300000
0.175000 0.112500 0.300000
0.262500 0.112500 0.300000
0.350000 0.112500 0.300000
0.437500 0.112500 0.300000
0.525000 0.112500 0.300000
0.612500 0.112500 0.300000
0.700000 0.112500 0.300000
0.000000 0.225000 0.300000
0.087500 0.225000 0.300000
0.175000 0.225000 0.300000
0.262500 0.225000 0.300000
0.350000 0.225000 0.300000
0.437500 0.225000 0.300000
0.525000 0.225000 0.300000
0.612500 0.225000 0.300000
0.700000 0.225000 0.300000
0.000000 0.337500 0.300000
0.087500 0.337500 0.300000
0.175000 0.337500 0.300000
0.262500 0.337500 0.300000
0.350000 0.337500 0.300000
0.437500 0.337500 0.300000
0.525000 0.337500 0.300000
0.612500 0.337500 0.300000
0.700000 0.337500 0.300000
0.000000 0.450000 0.300000
0.087500 0.450000 0.300000
0.175000 0.450000 0.300000
0.262500 0.450000 0.300000
0.350000 0.450000 0.300000
0.437500 0.450000 0.300000
0.525000 0.450000 0.300000
0.612500 0.450000 0.300000
0.700000 0.450000 0.300000
0.000000 0.562500 0.300000
0.087500 0.562500 0.300000
0.175000 0.562500 0.300000
0.262500 0.562500 0.300000
0.350000 0.562500 0.300000
0.437500 0.562500 0.300000
0.525000 0.562500 0.300000
0.612500 0.562500 0.300000
0.700000 0.562500 0.300000
0.000000 0.675000 0.300000
0.087500 0.675000 0.300000
0.175000 0.675000 0.300000
0.262500 0.675000 0.300000
0.350000 0.675000 0.300000
0.437500 0.675000 0.300000
0.525000 0.675000 0.300000
0.612500 0.675000 0.300000
0.700000 0.675000 0.300000
0.000000 0.787500 0.300000
0.087500 0.787500 0.300000
0.175000 0.787500 0.300000
0.262500 0.787500 0.300000
0.350000 0.787500 0.300000
0.437500 0.787500 0.300000
0.525000 0.787500 0.300000
0.612500 0.787500 0.300000
0.700000 0.787500 0.300000
0.000000 0.900000 0.300000
0.087500 0.900000 0.300000
0.175000 0.900000 0.300000
0.262500 0.900000 0.300000
0.350000 0.900000 0.300000
0.437500 0.900000 0.300000
0.525000 0.900000 0.300000
0.612500 0.900000 0.300000
0.700000 0.900000 0.300000
0.000000 0.000000 0.450000
0.087500 0.000000 0.450000
0.175000 0.000000 0.450000
0.262500 0.000000 0.450000
0.350000 0.000000 0.450000
0.437500 0.000000 0.450000
0.525000 0.000000 0.450000
0.612500 0.000000 0.450000
0.700000 0.000000 0.450000
0.000000 0.112500 0.450000
0.087500 0.112500 0.450000
0.175000 0.112500 0.450000
0.262500 0.112500 0.450000
0.350000 0.112500 0.450000
0.437500 0.112500 0.450000
0.525000 0.112500 0.450000
0.612500 0.112500 0.450000
0.700000 0.112500 0.450000
0.000000 0.225000 0.450000
0.087500 0.225000 0.450000
0.175000 0.225000 0.450000
0.262500 0.225000 0.450000
0.350000 0.225000 0.450000
0.437500 0.225000 0.450000
0.525000 0.225000 0.450000
0.612500 0.225000 0.450000
0.700000 0.225000 0.450000
0.000000 0.337500 0.450000
0.087500 0.337500 0.450000
0.175000 0.337500 0.450000
0.262500 0.337500 0.450000
0.350000 0.337500 0.450000
0.437500 0.337500 0.450000
0.525000 0.337500 0.450000
0.612500 0.337500 0.450000
0.700000 0.337500 0.450000
0.000000 0.450000 0.450000
0.087500 0.450000 0.450000
0.175000 0.450000 0.450000
0.262500 0.450000 0.450000
0.350000 0.450000 0.450000
0.437500 0.450000 0.450000
0.525000 0.450000 0.450000
0.612500 0.450000 0.450000
0.700000 0.450000 0.450000
0.000000 0.562500 0.450000
0.087500 0.562500 0.450000
0.175000 0.562500 0.450000
0.262500 0.562500 0.450000
0.350000 0.562500 0.450000
0.437500 0.562500 0.450000
0.525000 0.562500 0.450000
0.612500 0.562500 0.450000
0.700000 0.562500 0.450000
0.000000 0.675000 0.450000
0.087500 0.675000 0.450000
0.175000 0.675000 0.450000
0.262500 0.675000 0.450000
0.350000 0.675000 0.450000
0.437500 0.675000 0.450000
0.525000 0.675000 0.450000
0.612500 0.675000 0.450000
0.700000 0.675000 0.450000
0.000000 0.787500 0.450000
0.087500 0.787500 0.450000
0.175000 0.787500 0.450000
0.262500 0.787500 0.450000
0.350000 0.787500 0.450000
0.437500 0.787500 0.450000
0.525000 0.787500 0.450000
0.612500 0.787500 0.450000
0.700000 0.787500 0.450000
0.000000 0.900000 0.450000
0.087500 0.900000 0.450000
0.175000 0.900000 0.450000
0.262500 0.900000 0.450000
0.350000 0.900000 0.450000
0.437500 0.900000 0.450000
0.525000 0.900000 0.450000
0.612500 0.900000 0.450000
0.700000 0.900000 0.450000
0.000000 0.000000 0.600000
0.087500 0.000000 0.600000
0.175000 0.000000 0.600000
0.262500 0.000000 0.600000
0.350000 0.000000 0.600000
0.437500 0.000000 0.600000
0.525000 0.000000 0.600000
0.612500 0.000000 0.600000
0.700000 0.000000 0.600000
0.000000 0.112500 0.600000
0.087500 0.112500 0.600000
0.175000 0.112500 0.600000
0.262500 0.112500 0.600000
0.350000 0.112500 0.600000
0.437500 0.112500 0.600000
0.525000 0.112500 0.600000
0.612500 0.112500 0.600000
0.700000 0.112500 0.600000
0.000000 0.225000 0.600000
0.087500 0.225000 0.600000
0.175000 0.225000 0.600000
0.262500 0.225000 0.600000
0.350000 0.225000 0.600000
0.437500 0.225000 0.600000
0.525000 0.225000 0.600000
0.612500 0.225000 0.600000
0.700000 0.225000 0.600000
0.000000 0.337500 0.600000
0.087500 0.337500 0.600000
0.175000 0.337500 0.600000
0.262500 0.337500 0.600000
0.350000 0.337500 0.600000
0.437500 0.337500 0.600000
0.525000 0.337500 0.600000
0.612500 0.337500 0.600000
0.700000 0.337500 0.600000
0.000000 0.450000 0.600000
0.087500 0.450000 0.600000
0.175000 0.450000 0.600000
0.262500 0.450000 0.600000
0.350000 0.450000 0.600000
0.437500 0.450000 0.600000
0.525000 0.450000 0.600000
0.612500 0.450000 0.600000
0.700000 0.450000 0.600000
0.000000 0.562500 0.600000
0.087500 0.562500 0.600000
0.175000 0.562500 0.600000
0.262500 0.562500 0.600000
0.350000 0.562500 0.600000
0.437500 0.562500 0.600000
0.525000 0.562500 0.600000
0.612500 0.562500 0.600000
0.700000 0.562500 0.600000
0.000000 0.675000 0.600000
0.087500 0.675000 0.600000
0.175000 0.675000 0.600000
0.262500 0.675000 0.600000
0.350000 0.675000 0.600000
0.437500 0.675000 0.600000
0.525000 0.675000 0.600000
0.612500 0.675000 0.600000
0.700000 0.675000 0.600000
0.000000 0.787500 0.600000
0.087500 0.787500 0.600000
0.175000 0.787500 0.600000
0.262500 0.787500 0.600000
0.350000 0.787500 0.600000
0.437500 0.787500 0.600000
0.525000 0.787500 0.600000
0.612500 0.787500 0.600000
0.700000 0.787500 0.600000
0.000000 0.900000 0.600000
0.087500 0.900000 0.600000
0.175000 0.900000 0.600000
0.262500 0.900000 0.600000
0.350000 0.900000 0.600000
0.437500 0.900000 0.600000
0.525000 0.900000 0.600000
0.612500 0.900000 0.600000
0.700000 0.900000 0.600000
0.000000 0.000000 0.750000
0.087500 0.000000 0.750000
0.175000 0.000000 0.750000
0.262500 0.000000 0.750000
0.350000 0.000000 0.750000
0.437500 0.000000 0.750000
0.525000 0.000000 0.750000
0.612500 0.000000 0.750000
0.700000 0.000000 0.750000
0.000000 0.112500 0.750000
0.087500 0.112500 0.750000
0.175000 0.112500 0.750000
0.262500 0.112500 0.750000
0.350000 0.112500 0.750000
0.437500 0.112500 0.750000
0.525000 0.112500 0.750000
0.612500 0.112500 0.750000
0.700000 0.112500 0.750000
0.000000 0.225000 0.750000
0.087500 0.225000 0.750000
0.175000 0.225000 0.750000
0.262500 0.225000 0.750000
0.350000 0.225000 0.750000
0.437500 0.225000 0.750000
0.525000 0.225000 0.750000
0.612500 0.225000 0.750000
0.700000 0.225000 0.750000
0.000000 0.337500 0.750000
0.087500 0.337500 0.750000
0.175000 0.337500 0.750000
0.262500 0.337500 0.750000
0.350000 0.337500 0.750000
0.437500 0.337500 0.750000
0.525000 0.337500 0.750000
0.612500 0.337500 0.750000
0.700000 0.337500 0.750000
0.000000 0.450000 0.750000
0.087500 0.450000 0.750000
0.175000 0.450000 0.750000
0.262500 0.450000 0.750000
0.350000 0.450000 0.750000
0.437500 0.450000 0.750000
0.525000 0.450000 0.750000
0.612500 0.450000 0.750000
0.700000 0.450000 0.750000
0.000000 0.562500 0.750000
0.087500 0.562500 0.750000
0.175000 0.562500 0.750000
0.262500 0.562500 0.750000
0.350000 0.562500 0.750000
0.437500 0.562500 0.750000
0.525000 0.562500 0.750000
0.612500 0.562500 0.750000
0.700000 0.562500 0.750000
0.000000 0.675000 0.750000
0.087500 0.675000 0.750000
0.175000 0.675000 0.750000
0.262500 0.675000 0.750000
0.350000 0.675000 0.750000
0.437500 0.675000 0.750000
0.525000 0.675000 0.750000
0.612500 0.675000 0.750000
0.700000 0.675000 0.750000
0.000000 0.787500 0.750000
0.087500 0.787500 0.750000
0.175000 0.787500 0.750000
0.262500 0.787500 0.750000
0.350000 0.787500 0.750000
0.437500 0.787500 0.750000
0.525000 0.787500 0.750000
0.612500 0.787500 0.750000
0.700000 0.787500 0.750000
0.000000 0.900000 0.750000
0.087500 0.900000 0.750000
0.175000 0.900000 0.750000
0.262500 0.900000 0.750000
0.350000 0.900000 0.750000
0.437500 0.900000 0.750000
0.525000 0.900000 0.750000
0.612500 0.900000 0.750000
0.700000 0.900000 0.750000
0.000000 0.000000 0.900000
0.087500 0.000000 0.900000
0.175000 0.000000 0.900000
0.262500 0.000000 0.900000
0.350000 0.000000 0.900000
0.437500 0.000000 0.900000
0.525000 0.000000 0.900000
0.612500 0.000000 0.900000
0.700000 0.000000 0.900000
0.000000 0.112500 0.900000
0.087500 0.112500 0.900000
0.175000 0.112500 0.900000
0.262500 0.112500 0.900000
0.350000 0.112500 0.900000
0.437500 0.112500 0.900000
0.525000 0.112500 0.900000
0.612500 0.112500 0.900000
0.700000 0.112500 0.900000
0.000000 0.225000 0.900000
0.087500 0.225000 0.900000
0.175000 0.225000 0.900000
0.262500 0.225000 0.900000
0.350000 0.225000 0.900000
0.437500 0.225000 0.900000
0.525000 0.225000 0.900000
0.612500 0.225000 0.900000
0.700000 0.225000 0.900000
0.000000 0.337500 0.900000
0.087500 0.337500 0.900000
0.175000 0.337500 0.900000
0.262500 0.337500 0.900000
0.350000 0.337500 0.900000
0.437500 0.337500 0.900000
0.525000 0.337500 0.900000
0.612500 0.337500 0.900000
0.700000 0.337500 0.900000
0.000000 0.450000 0.900000
0.087500 0.450000 0.900000
0.175000 0.450000 0.900000
0.262500 0.450000 0.900000
0.350000 0.450000 0.900000
0.437500 0.450000 0.900000
0.525000 0.450000 0.900000
0.612500 0.450000 0.900000
0.700000 0.450000 0.900000
0.000000 0.562500 0.900000
0.087500 0.562500 0.900000
0.175000 0.562500 0.900000
0.262500 0.562500 0.900000
0.350000 0.562500 0.900000
0.437500 0.562500 0.900000
0.525000 0.562500 0.900000
0.612500 0.562500 0.900000
0.700000 0.562500 0.900000
0.000000 0.675000 0.900000
0.087500 0.675000 0.900000
0.175000 0.675000 0.900000
0.262500 0.675000 0.900000
0.350000 0.675000 0.900000
0.437500 0.675000 0.900000
0.525000 0.675000 0.900000
0.612500 0.675000 0.900000
0.700000 0.675000 0.900000
0.000000 0.787500 0.900000
0.087500 0.787500 0.900000
0.175000 0.787500 0.900000
0.262500 0.787500 0.900000
0.350000 0.787500 0.900000
0.437500 0.787500 0.900000
0.525000 0.787500 0.900000
0.612500 0.787500 0.900000
0.700000 0.787500 0.900000
0.000000 0.900000 0.900000
0.087500 0.900000 0.900000
0.175000 0.900000 0.900000
0.262500 0.900000 0.900000
0.350000 0.900000 0.900000
0.437500 0.900000 0.900000
0.525000 0.900000 0.900000
0.612500 0.900000 0.900000
0.700000 0.900000 0.900000
0.000000 0.000000 1.000000
0.087500 0.000000 1.000000
0.175000 0.000000 1.000000
0.262500 0.000000 1.000000
0.350000 0.000000 1.000000
0.437500 0.000000 1.000000
0.525000 0.000000 1.000000
0.612500 0.000000 1.000000
0.700000 0.000000 1.000000
0.000000 0.112500 1.000000
0.087500 0.112500 1.000000
0.175000 0.112500 1.000000
0.262500 0.112500 1.000000
0.350000 0.112500 1.000000
0.437500 0.112500 1.000000
0.525000 0.112500 1.000000
0.612500 0.112500 1.000000
0.700000 0.112500 1.000000
0.000000 0.225000 1.000000
0.087500 0.225000 1.000000
0.175000 0.225000 1.000000
0.262500 0.225000 1.000000
0.350000 0.225000 1.000000
0.437500 0.225000 1.000000
0.525000 0.225000 1.000000
0.612500 0.225000 1.000000
0.700000 0.225000 1.000000
0.000000 0.337500 1.000000
0.087500 0.337500 1.000000
0.175000 0.337500 1.000000
0.262500 0.337500 1.000000
0.350000 0.337500 1.000000
0.437500 0.337500 1.000000
0.525000 0.337500 1.000000
0.612500 0.337500 1.000000
0.700000 0.337500 1.000000
0.000000 0.450000 1.000000
0.087500 0.450000 1.000000
0.175000 0.450000 1.000000
0.262500 0.450000 1.000000
0.350000 0.450000 1.000000
0.437500 0.450000 1.000000
0.525000 0.450000 1.000000
0.612500 0.450000 1.000000
0.700000 0.450000 1.000000
0.000000 0.562500 1.000000
0.087500 0.562500 1.000000
0.175000 0.562500 1.000000
0.262500 0.562500 1.000000
0.350000 0.562500 1.000000
0.437500 0.562500 1.000000
0.525000 0.562500 1.000000
0.612500 0.562500 1.000000
0.700000 0.562500 1.000000
0.000000 0.675000 1.000000
0.087500 0.675000 1.000000
0.175000 0.675000 1.000000
0.262500 0.675000 1.000000
0.350000 0.675000 1.000000
0.437500 0.675000 1.000000
0.525000 0.675000 1.000000
0.612500 0.675000 1.000000
0.700000 0.675000 1.000000
0.000000 0.787500 1.000000
0.087500 0.787500 1.000000
0.175000 0.787500 1.000000
0.262500 0.787500 1.000000
0.350000 0.787500 1.000000
0.437500 0.787500 1.000000
0.525000 0.787500 1.000000
0.612500 0.787500 1.000000
0.700000 0.787500 1.000000
0.000000 0.900000 1.000000
0.087500 0.900000 1.000000
0.175000 0.900000 1.000000
0.262500 0.900000 1.000000
0.350000 0.900000 1.000000
0.437500 0.900000 1.000000
0.525000 0.900000 1.000000
0.612500 0.900000 1.000000
0.700000 0.900000 1.000000
0.000000 0.000000 1.000000
0.087500 0.000000 1.000000
0.175000 0.000000 1.000000
0.262500 0.000000 1.000000
0.350000 0.000000 1.000000
0.437500 0.000000 1.000000
0.525000 0.000000 1.000000
0.612500 0.000000 1.000000
0.700000 0.000000 1.000000
0.000000 0.112500 1.000000
0.087500 0.112500 1.000000
0.175000 0.112500 1.000000
0.262500 0.112500 1.000000
0.350000 0.112500 1.000000
0.437500 0.112500 1.000000
0.525000 0.112500 1.000000
0.612500 0.112500 1.000000
0.700000 0.112500 1.000000
0.000000 0.225000 1.000000
0.087500 0.225000 1.000000
0.175000 0.225000 1.000000
0.262500 0.225000 1.000000
0.350000 0.225000 1.000000
0.437500 0.225000 1.000000
0.525000 0.225000 1.000000
0.612500 0.225000 1.000000
0.700000 0.225000 1.000000
0.000000 0.337500 1.000000
0.087500 0.337500 1.000000
0.175000 0.337500 1.000000
0.262500 0.337500 1.000000
0.350000 0.337500 1.000000
0.437500 0.337500 1.000000
0.525000 0.337500 1.000000
0.612500 0.337500 1.000000
0.700000 0.337500 1.000000
0.000000 0.450000 1.000000
0.087500 0.450000 1.000000
0.175000 0.450000 1.000000
0.262500 0.450000 1.000000
0.350000 0.450000 1.000000
0.437500 0.450000 1.000000
0.525000 0.450000 1.000000
0.612500 0.450000 1.000000
0.700000 0.450000 1.000000
0.000000 0.562500 1.000000
0.087500 0.562500 1.000000
0.175000 0.562500 1.000000
0.262500 0.562500 1.000000
0.350000 0.562500 1.000000
0.437500 0.562500 1.000000
0.525000 0.562500 1.000000
0.612500 0.562500 1.000000
0.700000 0.562500 1.000000
0.000000 0.675000 1.000000
0.087500 0.675000 1.000000
0.175000 0.675000 1.000000
0.262500 0.675000 1.000000
0.350000 0.675000 1.000000
0.437500 0.675000 1.000000
0.525000 0.675000 1.000000
0.612500 0.675000 1.000000
0.700000 0.675000 1.000000
0.000000 0.787500 1.000000
0.087500 0.787500 1.000000
0.175000 0.787500 1.000000
0.262500 0.787500 1.000000
0.350000 0.787500 1.000000
0.437500 0.787500 1.000000
0.525000 0.787500 1.000000
0.612500 0.787500 1.000000
0.700000 0.787500 1.000000
0.000000 0.900000 1.000000
0.087500 0.900000 1.000000
0.175000 0.900000 1.000000
0.262500 0.900000 1.000000
0.350000 0.900000 1.000000
0.437500 0.900000 1.000000
0.525000 0.900000 1.000000
0.612500 0.900000 1.000000
0.700000 0.900000 1.000000
