app/src/main/assets/luts/thunderstorm_sky.cube
# ApexStudio filter: thunderstorm_sky
LUT_3D_SIZE 17
DOMAIN_MIN 0.0 0.0 0.0
DOMAIN_MAX 1.0 1.0 1.0
0.000000 0.000000 0.100000
0.000000 0.000000 0.100000
0.052500 0.000000 0.100000
0.108750 0.000000 0.100000
0.165000 0.000000 0.100000
0.221250 0.000000 0.100000
0.277500 0.000000 0.100000
0.333750 0.000000 0.100000
0.390000 0.000000 0.100000
0.446250 0.000000 0.100000
0.502500 0.000000 0.100000
0.558750 0.000000 0.100000
0.615000 0.000000 0.100000
0.671250 0.000000 0.100000
0.727500 0.000000 0.100000
0.783750 0.000000 0.100000
0.840000 0.000000 0.100000
0.000000 0.062500 0.100000
0.000000 0.062500 0.100000
0.052500 0.062500 0.100000
0.108750 0.062500 0.100000
0.165000 0.062500 0.100000
0.221250 0.062500 0.100000
0.277500 0.062500 0.100000
0.333750 0.062500 0.100000
0.390000 0.062500 0.100000
0.446250 0.062500 0.100000
0.502500 0.062500 0.100000
0.558750 0.062500 0.100000
0.615000 0.062500 0.100000
0.671250 0.062500 0.100000
0.727500 0.062500 0.100000
0.783750 0.062500 0.100000
0.840000 0.062500 0.100000
0.000000 0.125000 0.100000
0.000000 0.125000 0.100000
0.052500 0.125000 0.100000
0.108750 0.125000 0.100000
0.165000 0.125000 0.100000
0.221250 0.125000 0.100000
0.277500 0.125000 0.100000
0.333750 0.125000 0.100000
0.390000 0.125000 0.100000
0.446250 0.125000 0.100000
0.502500 0.125000 0.100000
0.558750 0.125000 0.100000
0.615000 0.125000 0.100000
0.671250 0.125000 0.100000
0.727500 0.125000 0.100000
0.783750 0.125000 0.100000
0.840000 0.125000 0.100000
0.000000 0.187500 0.100000
0.000000 0.187500 0.100000
0.052500 0.187500 0.100000
0.108750 0.187500 0.100000
0.165000 0.187500 0.100000
0.221250 0.187500 0.100000
0.277500 0.187500 0.100000
0.333750 0.187500 0.100000
0.390000 0.187500 0.100000
0.446250 0.187500 0.100000
0.502500 0.187500 0.100000
0.558750 0.187500 0.100000
0.615000 0.187500 0.100000
0.671250 0.187500 0.100000
0.727500 0.187500 0.100000
0.783750 0.187500 0.100000
0.840000 0.187500 0.100000
0.000000 0.250000 0.100000
0.000000 0.250000 0.100000
0.052500 0.250000 0.100000
0.108750 0.250000 0.100000
0.165000 0.250000 0.100000
0.221250 0.250000 0.100000
0.277500 0.250000 0.100000
0.333750 0.250000 0.100000
0.390000 0.250000 0.100000
0.446250 0.250000 0.100000
0.502500 0.250000 0.100000
0.558750 0.250000 0.100000
0.615000 0.250000 0.100000
0.671250 0.250000 0.100000
0.727500 0.250000 0.100000
0.783750 0.250000 0.100000
0.840000 0.250000 0.100000
0.000000 0.312500 0.100000
0.000000 0.312500 0.100000
0.052500 0.312500 0.100000
0.108750 0.312500 0.100000
0.165000 0.312500 0.100000
0.221250 0.312500 0.100000
0.277500 0.312500 0.100000
0.333750 0.312500 0.100000
0.390000 0.312500 0.100000
0.446250 0.312500 0.100000
0.502500 0.312500 0.100000
0.558750 0.312500 0.100000
0.615000 0.312500 0.100000
0.671250 0.312500 0.100000
0.727500 0.312500 0.100000
0.783750 0.312500 0.100000
0.840000 0.312500 0.100000
0.000000 0.375000 0.100000
0.000000 0.375000 0.100000
0.052500 0.375000 0.100000
0.108750 0.375000 0.100000
0.165000 0.375000 0.100000
0.221250 0.375000 0.100000
0.277500 0.375000 0.100000
0.333750 0.375000 0.100000
0.390000 0.375000 0.100000
0.446250 0.375000 0.100000
0.502500 0.375000 0.100000
0.558750 0.375000 0.100000
0.615000 0.375000 0.100000
0.671250 0.375000 0.100000
0.727500 0.375000 0.100000
0.783750 0.375000 0.100000
0.840000 0.375000 0.100000
0.000000 0.437500 0.100000
0.000000 0.437500 0.100000
0.052500 0.437500 0.100000
0.108750 0.437500 0.100000
0.165000 0.437500 0.100000
0.221250 0.437500 0.100000
0.277500 0.437500 0.100000
0.333750 0.437500 0.100000
0.390000 0.437500 0.100000
0.446250 0.437500 0.100000
0.502500 0.437500 0.100000
0.558750 0.437500 0.100000
0.615000 0.437500 0.100000
0.671250 0.437500 0.100000
0.727500 0.437500 0.100000
0.783750 0.437500 0.100000
0.840000 0.437500 0.100000
0.000000 0.500000 0.100000
0.000000 0.500000 0.100000
0.052500 0.500000 0.100000
0.108750 0.500000 0.100000
0.165000 0.500000 0.100000
0.221250 0.500000 0.100000
0.277500 0.500000 0.100000
0.333750 0.500000 0.100000
0.390000 0.500000 0.100000
0.446250 0.500000 0.100000
0.502500 0.500000 0.100000
0.558750 0.500000 0.100000
0.615000 0.500000 0.100000
0.671250 0.500000 0.100000
0.727500 0.500000 0.100000
0.783750 0.500000 0.100000
0.840000 0.500000 0.100000
0.000000 0.562500 0.100000
0.000000 0.562500 0.100000
0.052500 0.562500 0.100000
0.108750 0.562500 0.100000
0.165000 0.562500 0.100000
0.221250 0.562500 0.100000
0.277500 0.562500 0.100000
0.333750 0.562500 0.100000
0.390000 0.562500 0.100000
0.446250 0.562500 0.100000
0.502500 0.562500 0.100000
0.558750 0.562500 0.100000
0.615000 0.562500 0.100000
0.671250 0.562500 0.100000
0.727500 0.562500 0.100000
0.783750 0.562500 0.100000
0.840000 0.562500 0.100000
0.000000 0.625000 0.100000
0.000000 0.625000 0.100000
0.052500 0.625000 0.100000
0.108750 0.625000 0.100000
0.165000 0.625000 0.100000
0.221250 0.625000 0.100000
0.277500 0.625000 0.100000
0.333750 0.625000 0.100000
0.390000 0.625000 0.100000
0.446250 0.625000 0.100000
0.502500 0.625000 0.100000
0.558750 0.625000 0.100000
0.615000 0.625000 0.100000
0.671250 0.625000 0.100000
0.727500 0.625000 0.100000
0.783750 0.625000 0.100000
0.840000 0.625000 0.100000
0.000000 0.687500 0.100000
0.000000 0.687500 0.100000
0.052500 0.687500 0.100000
0.108750 0.687500 0.100000
0.165000 0.687500 0.100000
0.221250 0.687500 0.100000
0.277500 0.687500 0.100000
0.333750 0.687500 0.100000
0.390000 0.687500 0.100000
0.446250 0.687500 0.100000
0.502500 0.687500 0.100000
0.558750 0.687500 0.100000
0.615000 0.687500 0.100000
0.671250 0.687500 0.100000
0.727500 0.687500 0.100000
0.783750 0.687500 0.100000
0.840000 0.687500 0.100000
0.000000 0.750000 0.100000
0.000000 0.750000 0.100000
0.052500 0.750000 0.100000
0.108750 0.750000 0.100000
0.165000 0.750000 0.100000
0.221250 0.750000 0.100000
0.277500 0.750000 0.100000
0.333750 0.750000 0.100000
0.390000 0.750000 0.100000
0.446250 0.750000 0.100000
0.502500 0.750000 0.100000
0.558750 0.750000 0.100000
0.615000 0.750000 0.100000
0.671250 0.750000 0.100000
0.727500 0.750000 0.100000
0.783750 0.750000 0.100000
0.840000 0.750000 0.100000
0.000000 0.812500 0.100000
0.000000 0.812500 0.100000
0.052500 0.812500 0.100000
0.108750 0.812500 0.100000
0.165000 0.812500 0.100000
0.221250 0.812500 0.100000
0.277500 0.812500 0.100000
0.333750 0.812500 0.100000
0.390000 0.812500 0.100000
0.446250 0.812500 0.100000
0.502500 0.812500 0.100000
0.558750 0.812500 0.100000
0.615000 0.812500 0.100000
0.671250 0.812500 0.100000
0.727500 0.812500 0.100000
0.783750 0.812500 0.100000
0.840000 0.812500 0.100000
0.000000 0.875000 0.100000
0.000000 0.875000 0.100000
0.052500 0.875000 0.100000
0.108750 0.875000 0.100000
0.165000 0.875000 0.100000
0.221250 0.875000 0.100000
0.277500 0.875000 0.100000
0.333750 0.875000 0.100000
0.390000 0.875000 0.100000
0.446250 0.875000 0.100000
0.502500 0.875000 0.100000
0.558750 0.875000 0.100000
0.615000 0.875000 0.100000
0.671250 0.875000 0.100000
0.727500 0.875000 0.100000
0.783750 0.875000 0.100000
0.840000 0.875000 0.100000
0.000000 0.937500 0.100000
0.000000 0.937500 0.100000
0.052500 0.937500 0.100000
0.108750 0.937500 0.100000
0.165000 0.937500 0.100000
0.221250 0.937500 0.100000
0.277500 0.937500 0.100000
0.333750 0.937500 0.100000
0.390000 0.937500 0.100000
0.446250 0.937500 0.100000
0.502500 0.937500 0.100000
0.558750 0.937500 0.100000
0.615000 0.937500 0.100000
0.671250 0.937500 0.100000
0.727500 0.937500 0.100000
0.783750 0.937500 0.100000
0.840000 0.937500 0.100000
0.000000 1.000000 0.100000
0.000000 1.000000 0.100000
0.052500 1.000000 0.100000
0.108750 1.000000 0.100000
0.165000 1.000000 0.100000
0.221250 1.000000 0.100000
0.277500 1.000000 0.100000
0.333750 1.000000 0.100000
0.390000 1.000000 0.100000
0.446250 1.000000 0.100000
0.502500 1.000000 0.100000
0.558750 1.000000 0.100000
0.615000 1.000000 0.100000
0.671250 1.000000 0.100000
0.727500 1.000000 0.100000
0.783750 1.000000 0.100000
0.840000 1.000000 0.100000
0.000000 0.000000 0.178125
0.000000 0.000000 0.178125
0.052500 0.000000 0.178125
0.108750 0.000000 0.178125
0.165000 0.000000 0.178125
0.221250 0.000000 0.178125
0.277500 0.000000 0.178125
0.333750 0.000000 0.178125
0.390000 0.000000 0.178125
0.446250 0.000000 0.178125
0.502500 0.000000 0.178125
0.558750 0.000000 0.178125
0.615000 0.000000 0.178125
0.671250 0.000000 0.178125
0.727500 0.000000 0.178125
0.783750 0.000000 0.178125
0.840000 0.000000 0.178125
0.000000 0.062500 0.178125
0.000000 0.062500 0.178125
0.052500 0.062500 0.178125
0.108750 0.062500 0.178125
0.165000 0.062500 0.178125
0.221250 0.062500 0.178125
0.277500 0.062500 0.178125
0.333750 0.062500 0.178125
0.390000 0.062500 0.178125
0.446250 0.062500 0.178125
0.502500 0.062500 0.178125
0.558750 0.062500 0.178125
0.615000 0.062500 0.178125
0.671250 0.062500 0.178125
0.727500 0.062500 0.178125
0.783750 0.062500 0.178125
0.840000 0.062500 0.178125
0.000000 0.125000 0.178125
0.000000 0.125000 0.178125
0.052500 0.125000 0.178125
0.108750 0.125000 0.178125
0.165000 0.125000 0.178125
0.221250 0.125000 0.178125
0.277500 0.125000 0.178125
0.333750 0.125000 0.178125
0.390000 0.125000 0.178125
0.446250 0.125000 0.178125
0.502500 0.125000 0.178125
0.558750 0.125000 0.178125
0.615000 0.125000 0.178125
0.671250 0.125000 0.178125
0.727500 0.125000 0.178125
0.783750 0.125000 0.178125
0.840000 0.125000 0.178125
0.000000 0.187500 0.178125
0.000000 0.187500 0.178125
0.052500 0.187500 0.178125
0.108750 0.187500 0.178125
0.165000 0.187500 0.178125
0.221250 0.187500 0.178125
0.277500 0.187500 0.178125
0.333750 0.187500 0.178125
0.390000 0.187500 0.178125
0.446250 0.187500 0.178125
0.502500 0.187500 0.178125
0.558750 0.187500 0.178125
0.615000 0.187500 0.178125
0.671250 0.187500 0.178125
0.727500 0.187500 0.178125
0.783750 0.187500 0.178125
0.840000 0.187500 0.178125
0.000000 0.250000 0.178125
0.000000 0.250000 0.178125
0.052500 0.250000 0.178125
0.108750 0.250000 0.178125
0.165000 0.250000 0.178125
0.221250 0.250000 0.178125
0.277500 0.250000 0.178125
0.333750 0.250000 0.178125
0.390000 0.250000 0.178125
0.446250 0.250000 0.178125
0.502500 0.250000 0.178125
0.558750 0.250000 0.178125
0.615000 0.250000 0.178125
0.671250 0.250000 0.178125
0.727500 0.250000 0.178125
0.783750 0.250000 0.178125
0.840000 0.250000 0.178125
0.000000 0.312500 0.178125
0.000000 0.312500 0.178125
0.052500 0.312500 0.178125
0.108750 0.312500 0.178125
0.165000 0.312500 0.178125
0.221250 0.312500 0.178125
0.277500 0.312500 0.178125
0.333750 0.312500 0.178125
0.390000 0.312500 0.178125
0.446250 0.312500 0.178125
0.502500 0.312500 0.178125
0.558750 0.312500 0.178125
0.615000 0.312500 0.178125
0.671250 0.312500 0.178125
0.727500 0.312500 0.178125
0.783750 0.312500 0.178125
0.840000 0.312500 0.178125
0.000000 0.375000 0.178125
0.000000 0.375000 0.178125
0.052500 0.375000 0.178125
0.108750 0.375000 0.178125
0.165000 0.375000 0.178125
0.221250 0.375000 0.178125
0.277500 0.375000 0.178125
0.333750 0.375000 0.178125
0.390000 0.375000 0.178125
0.446250 0.375000 0.178125
0.502500 0.375000 0.178125
0.558750 0.375000 0.178125
0.615000 0.375000 0.178125
0.671250 0.375000 0.178125
0.727500 0.375000 0.178125
0.783750 0.375000 0.178125
0.840000 0.375000 0.178125
0.000000 0.437500 0.178125
0.000000 0.437500 0.178125
0.052500 0.437500 0.178125
0.108750 0.437500 0.178125
0.165000 0.437500 0.178125
0.221250 0.437500 0.178125
0.277500 0.437500 0.178125
0.333750 0.437500 0.178125
0.390000 0.437500 0.178125
0.446250 0.437500 0.178125
0.502500 0.437500 0.178125
0.558750 0.437500 0.178125
0.615000 0.437500 0.178125
0.671250 0.437500 0.178125
0.727500 0.437500 0.178125
0.783750 0.437500 0.178125
0.840000 0.437500 0.178125
0.000000 0.500000 0.178125
0.000000 0.500000 0.178125
0.052500 0.500000 0.178125
0.108750 0.500000 0.178125
0.165000 0.500000 0.178125
0.221250 0.500000 0.178125
0.277500 0.500000 0.178125
0.333750 0.500000 0.178125
0.390000 0.500000 0.178125
0.446250 0.500000 0.178125
0.502500 0.500000 0.178125
0.558750 0.500000 0.178125
0.615000 0.500000 0.178125
0.671250 0.500000 0.178125
0.727500 0.500000 0.178125
0.783750 0.500000 0.178125
0.840000 0.500000 0.178125
0.000000 0.562500 0.178125
0.000000 0.562500 0.178125
0.052500 0.562500 0.178125
0.108750 0.562500 0.178125
0.165000 0.562500 0.178125
0.221250 0.562500 0.178125
0.277500 0.562500 0.178125
0.333750 0.562500 0.178125
0.390000 0.562500 0.178125
0.446250 0.562500 0.178125
0.502500 0.562500 0.178125
0.558750 0.562500 0.178125
0.615000 0.562500 0.178125
0.671250 0.562500 0.178125
0.727500 0.562500 0.178125
0.783750 0.562500 0.178125
0.840000 0.562500 0.178125
0.000000 0.625000 0.178125
0.000000 0.625000 0.178125
0.052500 0.625000 0.178125
0.108750 0.625000 0.178125
0.165000 0.625000 0.178125
0.221250 0.625000 0.178125
0.277500 0.625000 0.178125
0.333750 0.625000 0.178125
0.390000 0.625000 0.178125
0.446250 0.625000 0.178125
0.502500 0.625000 0.178125
0.558750 0.625000 0.178125
0.615000 0.625000 0.178125
0.671250 0.625000 0.178125
0.727500 0.625000 0.178125
0.783750 0.625000 0.178125
0.840000 0.625000 0.178125
0.000000 0.687500 0.178125
0.000000 0.687500 0.178125
0.052500 0.687500 0.178125
0.108750 0.687500 0.178125
0.165000 0.687500 0.178125
0.221250 0.687500 0.178125
0.277500 0.687500 0.178125
0.333750 0.687500 0.178125
0.390000 0.687500 0.178125
0.446250 0.687500 0.178125
0.502500 0.687500 0.178125
0.558750 0.687500 0.178125
0.615000 0.687500 0.178125
0.671250 0.687500 0.178125
0.727500 0.687500 0.178125
0.783750 0.687500 0.178125
0.840000 0.687500 0.178125
0.000000 0.750000 0.178125
0.000000 0.750000 0.178125
0.052500 0.750000 0.178125
0.108750 0.750000 0.178125
0.165000 0.750000 0.178125
0.221250 0.750000 0.178125
0.277500 0.750000 0.178125
0.333750 0.750000 0.178125
0.390000 0.750000 0.178125
0.446250 0.750000 0.178125
0.502500 0.750000 0.178125
0.558750 0.750000 0.178125
0.615000 0.750000 0.178125
0.671250 0.750000 0.178125
0.727500 0.750000 0.178125
0.783750 0.750000 0.178125
0.840000 0.750000 0.178125
0.000000 0.812500 0.178125
0.000000 0.812500 0.178125
0.052500 0.812500 0.178125
0.108750 0.812500 0.178125
0.165000 0.812500 0.178125
0.221250 0.812500 0.178125
0.277500 0.812500 0.178125
0.333750 0.812500 0.178125
0.390000 0.812500 0.178125
0.446250 0.812500 0.178125
0.502500 0.812500 0.178125
0.558750 0.812500 0.178125
0.615000 0.812500 0.178125
0.671250 0.812500 0.178125
0.727500 0.812500 0.178125
0.783750 0.812500 0.178125
0.840000 0.812500 0.178125
0.000000 0.875000 0.178125
0.000000 0.875000 0.178125
0.052500 0.875000 0.178125
0.108750 0.875000 0.178125
0.165000 0.875000 0.178125
0.221250 0.875000 0.178125
0.277500 0.875000 0.178125
0.333750 0.875000 0.178125
0.390000 0.875000 0.178125
0.446250 0.875000 0.178125
0.502500 0.875000 0.178125
0.558750 0.875000 0.178125
0.615000 0.875000 0.178125
0.671250 0.875000 0.178125
0.727500 0.875000 0.178125
0.783750 0.875000 0.178125
0.840000 0.875000 0.178125
0.000000 0.937500 0.178125
0.000000 0.937500 0.178125
0.052500 0.937500 0.178125
0.108750 0.937500 0.178125
0.165000 0.937500 0.178125
0.221250 0.937500 0.178125
0.277500 0.937500 0.178125
0.333750 0.937500 0.178125
0.390000 0.937500 0.178125
0.446250 0.937500 0.178125
0.502500 0.937500 0.178125
0.558750 0.937500 0.178125
0.615000 0.937500 0.178125
0.671250 0.937500 0.178125
0.727500 0.937500 0.178125
0.783750 0.937500 0.178125
0.840000 0.937500 0.178125
0.000000 1.000000 0.178125
0.000000 1.000000 0.178125
0.052500 1.000000 0.178125
0.108750 1.000000 0.178125
0.165000 1.000000 0.178125
0.221250 1.000000 0.178125
0.277500 1.000000 0.178125
0.333750 1.000000 0.178125
0.390000 1.000000 0.178125
0.446250 1.000000 0.178125
0.502500 1.000000 0.178125
0.558750 1.000000 0.178125
0.615000 1.000000 0.178125
0.671250 1.000000 0.178125
0.727500 1.000000 0.178125
0.783750 1.000000 0.178125
0.840000 1.000000 0.178125
0.000000 0.000000 0.256250
0.000000 0.000000 0.256250
0.052500 0.000000 0.256250
0.108750 0.000000 0.256250
0.165000 0.000000 0.256250
0.221250 0.000000 0.256250
0.277500 0.000000 0.256250
0.333750 0.000000 0.256250
0.390000 0.000000 0.256250
0.446250 0.000000 0.256250
0.502500 0.000000 0.256250
0.558750 0.000000 0.256250
0.615000 0.000000 0.256250
0.671250 0.000000 0.256250
0.727500 0.000000 0.256250
0.783750 0.000000 0.256250
0.840000 0.000000 0.256250
0.000000 0.062500 0.256250
0.000000 0.062500 0.256250
0.052500 0.062500 0.256250
0.108750 0.062500 0.256250
0.165000 0.062500 0.256250
0.221250 0.062500 0.256250
0.277500 0.062500 0.256250
0.333750 0.062500 0.256250
0.390000 0.062500 0.256250
0.446250 0.062500 0.256250
0.502500 0.062500 0.256250
0.558750 0.062500 0.256250
0.615000 0.062500 0.256250
0.671250 0.062500 0.256250
0.727500 0.062500 0.256250
0.783750 0.062500 0.256250
0.840000 0.062500 0.256250
0.000000 0.125000 0.256250
0.000000 0.125000 0.256250
0.052500 0.125000 0.256250
0.108750 0.125000 0.256250
0.165000 0.125000 0.256250
0.221250 0.125000 0.256250
0.277500 0.125000 0.256250
0.333750 0.125000 0.256250
0.390000 0.125000 0.256250
0.446250 0.125000 0.256250
0.502500 0.125000 0.256250
0.558750 0.125000 0.256250
0.615000 0.125000 0.256250
0.671250 0.125000 0.256250
0.727500 0.125000 0.256250
0.783750 0.125000 0.256250
0.840000 0.125000 0.256250
0.000000 0.187500 0.256250
0.000000 0.187500 0.256250
0.052500 0.187500 0.256250
0.108750 0.187500 0.256250
0.165000 0.187500 0.256250
0.221250 0.187500 0.256250
0.277500 0.187500 0.256250
0.333750 0.187500 0.256250
0.390000 0.187500 0.256250
0.446250 0.187500 0.256250
0.502500 0.187500 0.256250
0.558750 0.187500 0.256250
0.615000 0.187500 0.256250
0.671250 0.187500 0.256250
0.727500 0.187500 0.256250
0.783750 0.187500 0.256250
0.840000 0.187500 0.256250
0.000000 0.250000 0.256250
0.000000 0.250000 0.256250
0.052500 0.250000 0.256250
0.108750 0.250000 0.256250
0.165000 0.250000 0.256250
0.221250 0.250000 0.256250
0.277500 0.250000 0.256250
0.333750 0.250000 0.256250
0.390000 0.250000 0.256250
0.446250 0.250000 0.256250
0.502500 0.250000 0.256250
0.558750 0.250000 0.256250
0.615000 0.250000 0.256250
0.671250 0.250000 0.256250
0.727500 0.250000 0.256250
0.783750 0.250000 0.256250
0.840000 0.250000 0.256250
0.000000 0.312500 0.256250
0.000000 0.312500 0.256250
0.052500 0.312500 0.256250
0.108750 0.312500 0.256250
0.165000 0.312500 0.256250
0.221250 0.312500 0.256250
0.277500 0.312500 0.256250
0.333750 0.312500 0.256250
0.390000 0.312500 0.256250
0.446250 0.312500 0.256250
0.502500 0.312500 0.256250
0.558750 0.312500 0.256250
0.615000 0.312500 0.256250
0.671250 0.312500 0.256250
0.727500 0.312500 0.256250
0.783750 0.312500 0.256250
0.840000 0.312500 0.256250
0.000000 0.375000 0.256250
0.000000 0.375000 0.256250
0.052500 0.375000 0.256250
0.108750 0.375000 0.256250
0.165000 0.375000 0.256250
0.221250 0.375000 0.256250
0.277500 0.375000 0.256250
0.333750 0.375000 0.256250
0.390000 0.375000 0.256250
0.446250 0.375000 0.256250
0.502500 0.375000 0.256250
0.558750 0.375000 0.256250
0.615000 0.375000 0.256250
0.671250 0.375000 0.256250
0.727500 0.375000 0.256250
0.783750 0.375000 0.256250
0.840000 0.375000 0.256250
0.000000 0.437500 0.256250
0.000000 0.437500 0.256250
0.052500 0.437500 0.256250
0.108750 0.437500 0.256250
0.165000 0.437500 0.256250
0.221250 0.437500 0.256250
0.277500 0.437500 0.256250
0.333750 0.437500 0.256250
0.390000 0.437500 0.256250
0.446250 0.437500 0.256250
0.502500 0.437500 0.256250
0.558750 0.437500 0.256250
0.615000 0.437500 0.256250
0.671250 0.437500 0.256250
0.727500 0.437500 0.256250
0.783750 0.437500 0.256250
0.840000 0.437500 0.256250
0.000000 0.500000 0.256250
0.000000 0.500000 0.256250
0.052500 0.500000 0.256250
0.108750 0.500000 0.256250
0.165000 0.500000 0.256250
0.221250 0.500000 0.256250
0.277500 0.500000 0.256250
0.333750 0.500000 0.256250
0.390000 0.500000 0.256250
0.446250 0.500000 0.256250
0.502500 0.500000 0.256250
0.558750 0.500000 0.256250
0.615000 0.500000 0.256250
0.671250 0.500000 0.256250
0.727500 0.500000 0.256250
0.783750 0.500000 0.256250
0.840000 0.500000 0.256250
0.000000 0.562500 0.256250
0.000000 0.562500 0.256250
0.052500 0.562500 0.256250
0.108750 0.562500 0.256250
0.165000 0.562500 0.256250
0.221250 0.562500 0.256250
0.277500 0.562500 0.256250
0.333750 0.562500 0.256250
0.390000 0.562500 0.256250
0.446250 0.562500 0.256250
0.502500 0.562500 0.256250
0.558750 0.562500 0.256250
0.615000 0.562500 0.256250
0.671250 0.562500 0.256250
0.727500 0.562500 0.256250
0.783750 0.562500 0.256250
0.840000 0.562500 0.256250
0.000000 0.625000 0.256250
0.000000 0.625000 0.256250
0.052500 0.625000 0.256250
0.108750 0.625000 0.256250
0.165000 0.625000 0.256250
0.221250 0.625000 0.256250
0.277500 0.625000 0.256250
0.333750 0.625000 0.256250
0.390000 0.625000 0.256250
0.446250 0.625000 0.256250
0.502500 0.625000 0.256250
0.558750 0.625000 0.256250
0.615000 0.625000 0.256250
0.671250 0.625000 0.256250
0.727500 0.625000 0.256250
0.783750 0.625000 0.256250
0.840000 0.625000 0.256250
0.000000 0.687500 0.256250
0.000000 0.687500 0.256250
0.052500 0.687500 0.256250
0.108750 0.687500 0.256250
0.165000 0.687500 0.256250
0.221250 0.687500 0.256250
0.277500 0.687500 0.256250
0.333750 0.687500 0.256250
0.390000 0.687500 0.256250
0.446250 0.687500 0.256250
0.502500 0.687500 0.256250
0.558750 0.687500 0.256250
0.615000 0.687500 0.256250
0.671250 0.687500 0.256250
0.727500 0.687500 0.256250
0.783750 0.687500 0.256250
0.840000 0.687500 0.256250
0.000000 0.750000 0.256250
0.000000 0.750000 0.256250
0.052500 0.750000 0.256250
0.108750 0.750000 0.256250
0.165000 0.750000 0.256250
0.221250 0.750000 0.256250
0.277500 0.750000 0.256250
0.333750 0.750000 0.256250
0.390000 0.750000 0.256250
0.446250 0.750000 0.256250
0.502500 0.750000 0.256250
0.558750 0.750000 0.256250
0.615000 0.750000 0.256250
0.671250 0.750000 0.256250
0.727500 0.750000 0.256250
0.783750 0.750000 0.256250
0.840000 0.750000 0.256250
0.000000 0.812500 0.256250
0.000000 0.812500 0.256250
0.052500 0.812500 0.256250
0.108750 0.812500 0.256250
0.165000 0.812500 0.256250
0.221250 0.812500 0.256250
0.277500 0.812500 0.256250
0.333750 0.812500 0.256250
0.390000 0.812500 0.256250
0.446250 0.812500 0.256250
0.502500 0.812500 0.256250
0.558750 0.812500 0.256250
0.615000 0.812500 0.256250
0.671250 0.812500 0.256250
0.727500 0.812500 0.256250
0.783750 0.812500 0.256250
0.840000 0.812500 0.256250
0.000000 0.875000 0.256250
0.000000 0.875000 0.256250
0.052500 0.875000 0.256250
0.108750 0.875000 0.256250
0.165000 0.875000 0.256250
0.221250 0.875000 0.256250
0.277500 0.875000 0.256250
0.333750 0.875000 0.256250
0.390000 0.875000 0.256250
0.446250 0.875000 0.256250
0.502500 0.875000 0.256250
0.558750 0.875000 0.256250
0.615000 0.875000 0.256250
0.671250 0.875000 0.256250
0.727500 0.875000 0.256250
0.783750 0.875000 0.256250
0.840000 0.875000 0.256250
0.000000 0.937500 0.256250
0.000000 0.937500 0.256250
0.052500 0.937500 0.256250
0.108750 0.937500 0.256250
0.165000 0.937500 0.256250
0.221250 0.937500 0.256250
0.277500 0.937500 0.256250
0.333750 0.937500 0.256250
0.390000 0.937500 0.256250
0.446250 0.937500 0.256250
0.502500 0.937500 0.256250
0.558750 0.937500 0.256250
0.615000 0.937500 0.256250
0.671250 0.937500 0.256250
0.727500 0.937500 0.256250
0.783750 0.937500 0.256250
0.840000 0.937500 0.256250
0.000000 1.000000 0.256250
0.000000 1.000000 0.256250
0.052500 1.000000 0.256250
0.108750 1.000000 0.256250
0.165000 1.000000 0.256250
0.221250 1.000000 0.256250
0.277500 1.000000 0.256250
0.333750 1.000000 0.256250
0.390000 1.000000 0.256250
0.446250 1.000000 0.256250
0.502500 1.000000 0.256250
0.558750 1.000000 0.256250
0.615000 1.000000 0.256250
0.671250 1.000000 0.256250
0.727500 1.000000 0.256250
0.783750 1.000000 0.256250
0.840000 1.000000 0.256250
0.000000 0.000000 0.334375
0.000000 0.000000 0.334375
0.052500 0.000000 0.334375
0.108750 0.000000 0.334375
0.165000 0.000000 0.334375
0.221250 0.000000 0.334375
0.277500 0.000000 0.334375
0.333750 0.000000 0.334375
0.390000 0.000000 0.334375
0.446250 0.000000 0.334375
0.502500 0.000000 0.334375
0.558750 0.000000 0.334375
0.615000 0.000000 0.334375
0.671250 0.000000 0.334375
0.727500 0.000000 0.334375
0.783750 0.000000 0.334375
0.840000 0.000000 0.334375
0.000000 0.062500 0.334375
