app/src/main/assets/luts/thunderstorm_sky.cube
# ApexStudio filter: thunderstorm_sky
LUT_3D_SIZE 5
DOMAIN_MIN 0.0 0.0 0.0
DOMAIN_MAX 1.0 1.0 1.0
0.000000 0.000000 0.100000
0.165000 0.000000 0.100000
0.390000 0.000000 0.100000
0.615000 0.000000 0.100000
0.840000 0.000000 0.100000
0.000000 0.250000 0.100000
0.165000 0.250000 0.100000
0.390000 0.250000 0.100000
0.615000 0.250000 0.100000
0.840000 0.250000 0.100000
0.000000 0.500000 0.100000
0.165000 0.500000 0.100000
0.390000 0.500000 0.100000
0.615000 0.500000 0.100000
0.840000 0.500000 0.100000
0.000000 0.750000 0.100000
0.165000 0.750000 0.100000
0.390000 0.750000 0.100000
0.615000 0.750000 0.100000
0.840000 0.750000 0.100000
0.000000 1.000000 0.100000
0.165000 1.000000 0.100000
0.390000 1.000000 0.100000
0.615000 1.000000 0.100000
0.840000 1.000000 0.100000
0.000000 0.000000 0.412500
0.165000 0.000000 0.412500
0.390000 0.000000 0.412500
0.615000 0.000000 0.412500
0.840000 0.000000 0.412500
0.000000 0.250000 0.412500
0.165000 0.250000 0.412500
0.390000 0.250000 0.412500
0.615000 0.250000 0.412500
0.840000 0.250000 0.412500
0.000000 0.500000 0.412500
0.165000 0.500000 0.412500
0.390000 0.500000 0.412500
0.615000 0.500000 0.412500
0.840000 0.500000 0.412500
0.000000 0.750000 0.412500
0.165000 0.750000 0.412500
0.390000 0.750000 0.412500
0.615000 0.750000 0.412500
0.840000 0.750000 0.412500
0.000000 1.000000 0.412500
0.165000 1.000000 0.412500
0.390000 1.000000 0.412500
0.615000 1.000000 0.412500
0.840000 1.000000 0.412500
0.000000 0.000000 0.725000
0.165000 0.000000 0.725000
0.390000 0.000000 0.725000
0.615000 0.000000 0.725000
0.840000 0.000000 0.725000
0.000000 0.250000 0.725000
0.165000 0.250000 0.725000
0.390000 0.250000 0.725000
0.615000 0.250000 0.725000
0.840000 0.250000 0.725000
0.000000 0.500000 0.725000
0.165000 0.500000 0.725000
0.390000 0.500000 0.725000
0.615000 0.500000 0.725000
0.840000 0.500000 0.725000
0.000000 0.750000 0.725000
0.165000 0.750000 0.725000
0.390000 0.750000 0.725000
0.615000 0.750000 0.725000
0.840000 0.750000 0.725000
0.000000 1.000000 0.725000
0.165000 1.000000 0.725000
0.390000 1.000000 0.725000
0.615000 1.000000 0.725000
0.840000 1.000000 0.725000
0.000000 0.000000 1.000000
0.165000 0.000000 1.000000
0.390000 0.000000 1.000000
0.615000 0.000000 1.000000
0.840000 0.000000 1.000000
0.000000 0.250000 1.000000
0.165000 0.250000 1.000000
0.390000 0.250000 1.000000
0.615000 0.250000 1.000000
0.840000 0.250000 1.000000
0.000000 0.500000 1.000000
0.165000 0.500000 1.000000
0.390000 0.500000 1.000000
0.615000 0.500000 1.000000
0.840000 0.500000 1.000000
0.000000 0.750000 1.000000
0.165000 0.750000 1.000000
0.390000 0.750000 1.000000
0.615000 0.750000 1.000000
0.840000 0.750000 1.000000
0.000000 1.000000 1.000000
0.165000 1.000000 1.000000
0.390000 1.000000 1.000000
0.615000 1.000000 1.000000
0.840000 1.000000 1.000000
0.000000 0.000000 1.000000
0.165000 0.000000 1.000000
0.390000 0.000000 1.000000
0.615000 0.000000 1.000000
0.840000 0.000000 1.000000
0.000000 0.250000 1.000000
0.165000 0.250000 1.000000
0.390000 0.250000 1.000000
0.615000 0.250000 1.000000
0.840000 0.250000 1.000000
0.000000 0.500000 1.000000
0.165000 0.500000 1.000000
0.390000 0.500000 1.000000
0.615000 0.500000 1.000000
0.840000 0.500000 1.000000
0.000000 0.750000 1.000000
0.165000 0.750000 1.000000
0.390000 0.750000 1.000000
0.615000 0.750000 1.000000
0.840000 0.750000 1.000000
0.000000 1.000000 1.000000
0.165000 1.000000 1.000000
0.390000 1.000000 1.000000
0.615000 1.000000 1.000000
0.840000 1.000000 1.000000
