app/src/main/assets/luts/thunderstorm_sky.cube
# ApexStudio filter: thunderstorm_sky
LUT_3D_SIZE 9
DOMAIN_MIN 0.0 0.0 0.0
DOMAIN_MAX 1.0 1.0 1.0
0.000000 0.000000 0.100000
0.052500 0.000000 0.100000
0.165000 0.000000 0.100000
0.277500 0.000000 0.100000
0.390000 0.000000 0.100000
0.502500 0.000000 0.100000
0.615000 0.000000 0.100000
0.727500 0.000000 0.100000
0.840000 0.000000 0.100000
0.000000 0.125000 0.100000
0.052500 0.125000 0.100000
0.165000 0.125000 0.100000
0.277500 0.125000 0.100000
0.390000 0.125000 0.100000
0.502500 0.125000 0.100000
0.615000 0.125000 0.100000
0.727500 0.125000 0.100000
0.840000 0.125000 0.100000
0.000000 0.250000 0.100000
0.052500 0.250000 0.100000
0.165000 0.250000 0.100000
0.277500 0.250000 0.100000
0.390000 0.250000 0.100000
0.502500 0.250000 0.100000
0.615000 0.250000 0.100000
0.727500 0.250000 0.100000
0.840000 0.250000 0.100000
0.000000 0.375000 0.100000
0.052500 0.375000 0.100000
0.165000 0.375000 0.100000
0.277500 0.375000 0.100000
0.390000 0.375000 0.100000
0.502500 0.375000 0.100000
0.615000 0.375000 0.100000
0.727500 0.375000 0.100000
0.840000 0.375000 0.100000
0.000000 0.500000 0.100000
0.052500 0.500000 0.100000
0.165000 0.500000 0.100000
0.277500 0.500000 0.100000
0.390000 0.500000 0.100000
0.502500 0.500000 0.100000
0.615000 0.500000 0.100000
0.727500 0.500000 0.100000
0.840000 0.500000 0.100000
0.000000 0.625000 0.100000
0.052500 0.625000 0.100000
0.165000 0.625000 0.100000
0.277500 0.625000 0.100000
0.390000 0.625000 0.100000
0.502500 0.625000 0.100000
0.615000 0.625000 0.100000
0.727500 0.625000 0.100000
0.840000 0.625000 0.100000
0.000000 0.750000 0.100000
0.052500 0.750000 0.100000
0.165000 0.750000 0.100000
0.277500 0.750000 0.100000
0.390000 0.750000 0.100000
0.502500 0.750000 0.100000
0.615000 0.750000 0.100000
0.727500 0.750000 0.100000
0.840000 0.750000 0.100000
0.000000 0.875000 0.100000
0.052500 0.875000 0.100000
0.165000 0.875000 0.100000
0.277500 0.875000 0.100000
0.390000 0.875000 0.100000
0.502500 0.875000 0.100000
0.615000 0.875000 0.100000
0.727500 0.875000 0.100000
0.840000 0.875000 0.100000
0.000000 1.000000 0.100000
0.052500 1.000000 0.100000
0.165000 1.000000 0.100000
0.277500 1.000000 0.100000
0.390000 1.000000 0.100000
0.502500 1.000000 0.100000
0.615000 1.000000 0.100000
0.727500 1.000000 0.100000
0.840000 1.000000 0.100000
0.000000 0.000000 0.256250
0.052500 0.000000 0.256250
0.165000 0.000000 0.256250
0.277500 0.000000 0.256250
0.390000 0.000000 0.256250
0.502500 0.000000 0.256250
0.615000 0.000000 0.256250
0.727500 0.000000 0.256250
0.840000 0.000000 0.256250
0.000000 0.125000 0.256250
0.052500 0.125000 0.256250
0.165000 0.125000 0.256250
0.277500 0.125000 0.256250
0.390000 0.125000 0.256250
0.502500 0.125000 0.256250
0.615000 0.125000 0.256250
0.727500 0.125000 0.256250
0.840000 0.125000 0.256250
0.000000 0.250000 0.256250
0.052500 0.250000 0.256250
0.165000 0.250000 0.256250
0.277500 0.250000 0.256250
0.390000 0.250000 0.256250
0.502500 0.250000 0.256250
0.615000 0.250000 0.256250
0.727500 0.250000 0.256250
0.840000 0.250000 0.256250
0.000000 0.375000 0.256250
0.052500 0.375000 0.256250
0.165000 0.375000 0.256250
0.277500 0.375000 0.256250
0.390000 0.375000 0.256250
0.502500 0.375000 0.256250
0.615000 0.375000 0.256250
0.727500 0.375000 0.256250
0.840000 0.375000 0.256250
0.000000 0.500000 0.256250
0.052500 0.500000 0.256250
0.165000 0.500000 0.256250
0.277500 0.500000 0.256250
0.390000 0.500000 0.256250
0.502500 0.500000 0.256250
0.615000 0.500000 0.256250
0.727500 0.500000 0.256250
0.840000 0.500000 0.256250
0.000000 0.625000 0.256250
0.052500 0.625000 0.256250
0.165000 0.625000 0.256250
0.277500 0.625000 0.256250
0.390000 0.625000 0.256250
0.502500 0.625000 0.256250
0.615000 0.625000 0.256250
0.727500 0.625000 0.256250
0.840000 0.625000 0.256250
0.000000 0.750000 0.256250
0.052500 0.750000 0.256250
0.165000 0.750000 0.256250
0.277500 0.750000 0.256250
0.390000 0.750000 0.256250
0.502500 0.750000 0.256250
0.615000 0.750000 0.256250
0.727500 0.750000 0.256250
0.840000 0.750000 0.256250
0.000000 0.875000 0.256250
0.052500 0.875000 0.256250
0.165000 0.875000 0.256250
0.277500 0.875000 0.256250
0.390000 0.875000 0.256250
0.502500 0.875000 0.256250
0.615000 0.875000 0.256250
0.727500 0.875000 0.256250
0.840000 0.875000 0.256250
0.000000 1.000000 0.256250
0.052500 1.000000 0.256250
0.165000 1.000000 0.256250
0.277500 1.000000 0.256250
0.390000 1.000000 0.256250
0.502500 1.000000 0.256250
0.615000 1.000000 0.256250
0.727500 1.000000 0.256250
0.840000 1.000000 0.256250
0.000000 0.000000 0.412500
0.052500 0.000000 0.412500
0.165000 0.000000 0.412500
0.277500 0.000000 0.412500
0.390000 0.000000 0.412500
0.502500 0.000000 0.412500
0.615000 0.000000 0.412500
0.727500 0.000000 0.412500
0.840000 0.000000 0.412500
0.000000 0.125000 0.412500
0.052500 0.125000 0.412500
0.165000 0.125000 0.412500
0.277500 0.125000 0.412500
0.390000 0.125000 0.412500
0.502500 0.125000 0.412500
0.615000 0.125000 0.412500
0.727500 0.125000 0.412500
0.840000 0.125000 0.412500
0.000000 0.250000 0.412500
0.052500 0.250000 0.412500
0.165000 0.250000 0.412500
0.277500 0.250000 0.412500
0.390000 0.250000 0.412500
0.502500 0.250000 0.412500
0.615000 0.250000 0.412500
0.727500 0.250000 0.412500
0.840000 0.250000 0.412500
0.000000 0.375000 0.412500
0.052500 0.375000 0.412500
0.165000 0.375000 0.412500
0.277500 0.375000 0.412500
0.390000 0.375000 0.412500
0.502500 0.375000 0.412500
0.615000 0.375000 0.412500
0.727500 0.375000 0.412500
0.840000 0.375000 0.412500
0.000000 0.500000 0.412500
0.052500 0.500000 0.412500
0.165000 0.500000 0.412500
0.277500 0.500000 0.412500
0.390000 0.500000 0.412500
0.502500 0.500000 0.412500
0.615000 0.500000 0.412500
0.727500 0.500000 0.412500
0.840000 0.500000 0.412500
0.000000 0.625000 0.412500
0.052500 0.625000 0.412500
0.165000 0.625000 0.412500
0.277500 0.625000 0.412500
0.390000 0.625000 0.412500
0.502500 0.625000 0.412500
0.615000 0.625000 0.412500
0.727500 0.625000 0.412500
0.840000 0.625000 0.412500
0.000000 0.750000 0.412500
0.052500 0.750000 0.412500
0.165000 0.750000 0.412500
0.277500 0.750000 0.412500
0.390000 0.750000 0.412500
0.502500 0.750000 0.412500
0.615000 0.750000 0.412500
0.727500 0.750000 0.412500
0.840000 0.750000 0.412500
0.000000 0.875000 0.412500
0.052500 0.875000 0.412500
0.165000 0.875000 0.412500
0.277500 0.875000 0.412500
0.390000 0.875000 0.412500
0.502500 0.875000 0.412500
0.615000 0.875000 0.412500
0.727500 0.875000 0.412500
0.840000 0.875000 0.412500
0.000000 1.000000 0.412500
0.052500 1.000000 0.412500
0.165000 1.000000 0.412500
0.277500 1.000000 0.412500
0.390000 1.000000 0.412500
0.502500 1.000000 0.412500
0.615000 1.000000 0.412500
0.727500 1.000000 0.412500
0.840000 1.000000 0.412500
0.000000 0.000000 0.568750
0.052500 0.000000 0.568750
0.165000 0.000000 0.568750
0.277500 0.000000 0.568750
0.390000 0.000000 0.568750
0.502500 0.000000 0.568750
0.615000 0.000000 0.568750
0.727500 0.000000 0.568750
0.840000 0.000000 0.568750
0.000000 0.125000 0.568750
0.052500 0.125000 0.568750
0.165000 0.125000 0.568750
0.277500 0.125000 0.568750
0.390000 0.125000 0.568750
0.502500 0.125000 0.568750
0.615000 0.125000 0.568750
0.727500 0.125000 0.568750
0.840000 0.125000 0.568750
0.000000 0.250000 0.568750
0.052500 0.250000 0.568750
0.165000 0.250000 0.568750
0.277500 0.250000 0.568750
0.390000 0.250000 0.568750
0.502500 0.250000 0.568750
0.615000 0.250000 0.568750
0.727500 0.250000 0.568750
0.840000 0.250000 0.568750
0.000000 0.375000 0.568750
0.052500 0.375000 0.568750
0.165000 0.375000 0.568750
0.277500 0.375000 0.568750
0.390000 0.375000 0.568750
0.502500 0.375000 0.568750
0.615000 0.375000 0.568750
0.727500 0.375000 0.568750
0.840000 0.375000 0.568750
0.000000 0.500000 0.568750
0.052500 0.500000 0.568750
0.165000 0.500000 0.568750
0.277500 0.500000 0.568750
0.390000 0.500000 0.568750
0.502500 0.500000 0.568750
0.615000 0.500000 0.568750
0.727500 0.500000 0.568750
0.840000 0.500000 0.568750
0.000000 0.625000 0.568750
0.052500 0.625000 0.568750
0.165000 0.625000 0.568750
0.277500 0.625000 0.568750
0.390000 0.625000 0.568750
0.502500 0.625000 0.568750
0.615000 0.625000 0.568750
0.727500 0.625000 0.568750
0.840000 0.625000 0.568750
0.000000 0.750000 0.568750
0.052500 0.750000 0.568750
0.165000 0.750000 0.568750
0.277500 0.750000 0.568750
0.390000 0.750000 0.568750
0.502500 0.750000 0.568750
0.615000 0.750000 0.568750
0.727500 0.750000 0.568750
0.840000 0.750000 0.568750
0.000000 0.875000 0.568750
0.052500 0.875000 0.568750
0.165000 0.875000 0.568750
0.277500 0.875000 0.568750
0.390000 0.875000 0.568750
0.502500 0.875000 0.568750
0.615000 0.875000 0.568750
0.727500 0.875000 0.568750
0.840000 0.875000 0.568750
0.000000 1.000000 0.568750
0.052500 1.000000 0.568750
0.165000 1.000000 0.568750
0.277500 1.000000 0.568750
0.390000 1.000000 0.568750
0.502500 1.000000 0.568750
0.615000 1.000000 0.568750
0.727500 1.000000 0.568750
0.840000 1.000000 0.568750
0.000000 0.000000 0.725000
0.052500 0.000000 0.725000
0.165000 0.000000 0.725000
0.277500 0.000000 0.725000
0.390000 0.000000 0.725000
0.502500 0.000000 0.725000
0.615000 0.000000 0.725000
0.727500 0.000000 0.725000
0.840000 0.000000 0.725000
0.000000 0.125000 0.725000
0.052500 0.125000 0.725000
0.165000 0.125000 0.725000
0.277500 0.125000 0.725000
0.390000 0.125000 0.725000
0.502500 0.125000 0.725000
0.615000 0.125000 0.725000
0.727500 0.125000 0.725000
0.840000 0.125000 0.725000
0.000000 0.250000 0.725000
0.052500 0.250000 0.725000
0.165000 0.250000 0.725000
0.277500 0.250000 0.725000
0.390000 0.250000 0.725000
0.502500 0.250000 0.725000
0.615000 0.250000 0.725000
0.727500 0.250000 0.725000
0.840000 0.250000 0.725000
0.000000 0.375000 0.725000
0.052500 0.375000 0.725000
0.165000 0.375000 0.725000
0.277500 0.375000 0.725000
0.390000 0.375000 0.725000
0.502500 0.375000 0.725000
0.615000 0.375000 0.725000
0.727500 0.375000 0.725000
0.840000 0.375000 0.725000
0.000000 0.500000 0.725000
0.052500 0.500000 0.725000
0.165000 0.500000 0.725000
0.277500 0.500000 0.725000
0.390000 0.500000 0.725000
0.502500 0.500000 0.725000
0.615000 0.500000 0.725000
0.727500 0.500000 0.725000
0.840000 0.500000 0.725000
0.000000 0.625000 0.725000
0.052500 0.625000 0.725000
0.165000 0.625000 0.725000
0.277500 0.625000 0.725000
0.390000 0.625000 0.725000
0.502500 0.625000 0.725000
0.615000 0.625000 0.725000
0.727500 0.625000 0.725000
0.840000 0.625000 0.725000
0.000000 0.750000 0.725000
0.052500 0.750000 0.725000
0.165000 0.750000 0.725000
0.277500 0.750000 0.725000
0.390000 0.750000 0.725000
0.502500 0.750000 0.725000
0.615000 0.750000 0.725000
0.727500 0.750000 0.725000
0.840000 0.750000 0.725000
0.000000 0.875000 0.725000
0.052500 0.875000 0.725000
0.165000 0.875000 0.725000
0.277500 0.875000 0.725000
0.390000 0.875000 0.725000
0.502500 0.875000 0.725000
0.615000 0.875000 0.725000
0.727500 0.875000 0.725000
0.840000 0.875000 0.725000
0.000000 1.000000 0.725000
0.052500 1.000000 0.725000
0.165000 1.000000 0.725000
0.277500 1.000000 0.725000
0.390000 1.000000 0.725000
0.502500 1.000000 0.725000
0.615000 1.000000 0.725000
0.727500 1.000000 0.725000
0.840000 1.000000 0.725000
0.000000 0.000000 0.881250
0.052500 0.000000 0.881250
0.165000 0.000000 0.881250
0.277500 0.000000 0.881250
0.390000 0.000000 0.881250
0.502500 0.000000 0.881250
0.615000 0.000000 0.881250
0.727500 0.000000 0.881250
0.840000 0.000000 0.881250
0.000000 0.125000 0.881250
0.052500 0.125000 0.881250
0.165000 0.125000 0.881250
0.277500 0.125000 0.881250
0.390000 0.125000 0.881250
0.502500 0.125000 0.881250
0.615000 0.125000 0.881250
0.727500 0.125000 0.881250
0.840000 0.125000 0.881250
0.000000 0.250000 0.881250
0.052500 0.250000 0.881250
0.165000 0.250000 0.881250
0.277500 0.250000 0.881250
0.390000 0.250000 0.881250
0.502500 0.250000 0.881250
0.615000 0.250000 0.881250
0.727500 0.250000 0.881250
0.840000 0.250000 0.881250
0.000000 0.375000 0.881250
0.052500 0.375000 0.881250
0.165000 0.375000 0.881250
0.277500 0.375000 0.881250
0.390000 0.375000 0.881250
0.502500 0.375000 0.881250
0.615000 0.375000 0.881250
0.727500 0.375000 0.881250
0.840000 0.375000 0.881250
0.000000 0.500000 0.881250
0.052500 0.500000 0.881250
0.165000 0.500000 0.881250
0.277500 0.500000 0.881250
0.390000 0.500000 0.881250
0.502500 0.500000 0.881250
0.615000 0.500000 0.881250
0.727500 0.500000 0.881250
0.840000 0.500000 0.881250
0.000000 0.625000 0.881250
0.052500 0.625000 0.881250
0.165000 0.625000 0.881250
0.277500 0.625000 0.881250
0.390000 0.625000 0.881250
0.502500 0.625000 0.881250
0.615000 0.625000 0.881250
0.727500 0.625000 0.881250
0.840000 0.625000 0.881250
0.000000 0.750000 0.881250
0.052500 0.750000 0.881250
0.165000 0.750000 0.881250
0.277500 0.750000 0.881250
0.390000 0.750000 0.881250
0.502500 0.750000 0.881250
0.615000 0.750000 0.881250
0.727500 0.750000 0.881250
0.840000 0.750000 0.881250
0.000000 0.875000 0.881250
0.052500 0.875000 0.881250
0.165000 0.875000 0.881250
0.277500 0.875000 0.881250
0.390000 0.875000 0.881250
0.502500 0.875000 0.881250
0.615000 0.875000 0.881250
0.727500 0.875000 0.881250
0.840000 0.875000 0.881250
0.000000 1.000000 0.881250
0.052500 1.000000 0.881250
0.165000 1.000000 0.881250
0.277500 1.000000 0.881250
0.390000 1.000000 0.881250
0.502500 1.000000 0.881250
0.615000 1.000000 0.881250
0.727500 1.000000 0.881250
0.840000 1.000000 0.881250
0.000000 0.000000 1.000000
0.052500 0.000000 1.000000
0.165000 0.000000 1.000000
0.277500 0.000000 1.000000
0.390000 0.000000 1.000000
0.502500 0.000000 1.000000
0.615000 0.000000 1.000000
0.727500 0.000000 1.000000
0.840000 0.000000 1.000000
0.000000 0.125000 1.000000
0.052500 0.125000 1.000000
0.165000 0.125000 1.000000
0.277500 0.125000 1.000000
0.390000 0.125000 1.000000
0.502500 0.125000 1.000000
0.615000 0.125000 1.000000
0.727500 0.125000 1.000000
0.840000 0.125000 1.000000
0.000000 0.250000 1.000000
0.052500 0.250000 1.000000
0.165000 0.250000 1.000000
0.277500 0.250000 1.000000
0.390000 0.250000 1.000000
0.502500 0.250000 1.000000
0.615000 0.250000 1.000000
0.727500 0.250000 1.000000
0.840000 0.250000 1.000000
0.000000 0.375000 1.000000
0.052500 0.375000 1.000000
0.165000 0.375000 1.000000
0.277500 0.375000 1.000000
0.390000 0.375000 1.000000
0.502500 0.375000 1.000000
0.615000 0.375000 1.000000
0.727500 0.375000 1.000000
0.840000 0.375000 1.000000
0.000000 0.500000 1.000000
0.052500 0.500000 1.000000
0.165000 0.500000 1.000000
0.277500 0.500000 1.000000
0.390000 0.500000 1.000000
0.502500 0.500000 1.000000
0.615000 0.500000 1.000000
0.727500 0.500000 1.000000
0.840000 0.500000 1.000000
0.000000 0.625000 1.000000
0.052500 0.625000 1.000000
0.165000 0.625000 1.000000
0.277500 0.625000 1.000000
0.390000 0.625000 1.000000
0.502500 0.625000 1.000000
0.615000 0.625000 1.000000
0.727500 0.625000 1.000000
0.840000 0.625000 1.000000
0.000000 0.750000 1.000000
0.052500 0.750000 1.000000
0.165000 0.750000 1.000000
0.277500 0.750000 1.000000
0.390000 0.750000 1.000000
0.502500 0.750000 1.000000
0.615000 0.750000 1.000000
0.727500 0.750000 1.000000
0.840000 0.750000 1.000000
0.000000 0.875000 1.000000
0.052500 0.875000 1.000000
0.165000 0.875000 1.000000
0.277500 0.875000 1.000000
0.390000 0.875000 1.000000
0.502500 0.875000 1.000000
0.615000 0.875000 1.000000
0.727500 0.875000 1.000000
0.840000 0.875000 1.000000
0.000000 1.000000 1.000000
0.052500 1.000000 1.000000
0.165000 1.000000 1.000000
0.277500 1.000000 1.000000
0.390000 1.000000 1.000000
0.502500 1.000000 1.000000
0.615000 1.000000 1.000000
0.727500 1.000000 1.000000
0.840000 1.000000 1.000000
0.000000 0.000000 1.000000
0.052500 0.000000 1.000000
0.165000 0.000000 1.000000
0.277500 0.000000 1.000000
0.390000 0.000000 1.000000
0.502500 0.000000 1.000000
0.615000 0.000000 1.000000
0.727500 0.000000 1.000000
0.840000 0.000000 1.000000
0.000000 0.125000 1.000000
0.052500 0.125000 1.000000
0.165000 0.125000 1.000000
0.277500 0.125000 1.000000
0.390000 0.125000 1.000000
0.502500 0.125000 1.000000
0.615000 0.125000 1.000000
0.727500 0.125000 1.000000
0.840000 0.125000 1.000000
0.000000 0.250000 1.000000
0.052500 0.250000 1.000000
0.165000 0.250000 1.000000
0.277500 0.250000 1.000000
0.390000 0.250000 1.000000
0.502500 0.250000 1.000000
0.615000 0.250000 1.000000
0.727500 0.250000 1.000000
0.840000 0.250000 1.000000
0.000000 0.375000 1.000000
0.052500 0.375000 1.000000
0.165000 0.375000 1.000000
0.277500 0.375000 1.000000
0.390000 0.375000 1.000000
0.502500 0.375000 1.000000
0.615000 0.375000 1.000000
0.727500 0.375000 1.000000
0.840000 0.375000 1.000000
0.000000 0.500000 1.000000
0.052500 0.500000 1.000000
0.165000 0.500000 1.000000
0.277500 0.500000 1.000000
0.390000 0.500000 1.000000
0.502500 0.500000 1.000000
0.615000 0.500000 1.000000
0.727500 0.500000 1.000000
0.840000 0.500000 1.000000
0.000000 0.625000 1.000000
0.052500 0.625000 1.000000
0.165000 0.625000 1.000000
0.277500 0.625000 1.000000
0.390000 0.625000 1.000000
0.502500 0.625000 1.000000
0.615000 0.625000 1.000000
0.727500 0.625000 1.000000
0.840000 0.625000 1.000000
0.000000 0.750000 1.000000
0.052500 0.750000 1.000000
0.165000 0.750000 1.000000
0.277500 0.750000 1.000000
0.390000 0.750000 1.000000
0.502500 0.750000 1.000000
0.615000 0.750000 1.000000
0.727500 0.750000 1.000000
0.840000 0.750000 1.000000
0.000000 0.875000 1.000000
0.052500 0.875000 1.000000
0.165000 0.875000 1.000000
0.277500 0.875000 1.000000
0.390000 0.875000 1.000000
0.502500 0.875000 1.000000
0.615000 0.875000 1.000000
0.727500 0.875000 1.000000
0.840000 0.875000 1.000000
0.000000 1.000000 1.000000
0.052500 1.000000 1.000000
0.165000 1.000000 1.000000
0.277500 1.000000 1.000000
0.390000 1.000000 1.000000
0.502500 1.000000 1.000000
0.615000 1.000000 1.000000
0.727500 1.000000 1.000000
0.840000 1.000000 1.000000
0.000000 0.000000 1.000000
0.052500 0.000000 1.000000
0.165000 0.000000 1.000000
0.277500 0.000000 1.000000
0.390000 0.000000 1.000000
0.502500 0.000000 1.000000
0.615000 0.000000 1.000000
0.727500 0.000000 1.000000
0.840000 0.000000 1.000000
0.000000 0.125000 1.000000
0.052500 0.125000 1.000000
0.165000 0.125000 1.000000
0.277500 0.125000 1.000000
0.390000 0.125000 1.000000
0.502500 0.125000 1.000000
0.615000 0.125000 1.000000
0.727500 0.125000 1.000000
0.840000 0.125000 1.000000
0.000000 0.250000 1.000000
0.052500 0.250000 1.000000
0.165000 0.250000 1.000000
0.277500 0.250000 1.000000
0.390000 0.250000 1.000000
0.502500 0.250000 1.000000
0.615000 0.250000 1.000000
0.727500 0.250000 1.000000
0.840000 0.250000 1.000000
0.000000 0.375000 1.000000
0.052500 0.375000 1.000000
0.165000 0.375000 1.000000
0.277500 0.375000 1.000000
0.390000 0.375000 1.000000
0.502500 0.375000 1.000000
0.615000 0.375000 1.000000
0.727500 0.375000 1.000000
0.840000 0.375000 1.000000
0.000000 0.500000 1.000000
0.052500 0.500000 1.000000
0.165000 0.500000 1.000000
0.277500 0.500000 1.000000
0.390000 0.500000 1.000000
0.502500 0.500000 1.000000
0.615000 0.500000 1.000000
0.727500 0.500000 1.000000
0.840000 0.500000 1.000000
0.000000 0.625000 1.000000
0.052500 0.625000 1.000000
0.165000 0.625000 1.000000
0.277500 0.625000 1.000000
0.390000 0.625000 1.000000
0.502500 0.625000 1.000000
0.615000 0.625000 1.000000
0.727500 0.625000 1.000000
0.840000 0.625000 1.000000
0.000000 0.750000 1.000000
0.052500 0.750000 1.000000
0.165000 0.750000 1.000000
0.277500 0.750000 1.000000
0.390000 0.750000 1.000000
0.502500 0.750000 1.000000
0.615000 0.750000 1.000000
0.727500 0.750000 1.000000
0.840000 0.750000 1.000000
0.000000 0.875000 1.000000
0.052500 0.875000 1.000000
0.165000 0.875000 1.000000
0.277500 0.875000 1.000000
0.390000 0.875000 1.000000
0.502500 0.875000 1.000000
0.615000 0.875000 1.000000
0.727500 0.875000 1.000000
0.840000 0.875000 1.000000
0.000000 1.000000 1.000000
0.052500 1.000000 1.000000
0.165000 1.000000 1.000000
0.277500 1.000000 1.000000
0.390000 1.000000 1.000000
0.502500 1.000000 1.000000
0.615000 1.000000 1.000000
0.727500 1.000000 1.000000
0.840000 1.000000 1.000000
