app/src/main/assets/luts/twilight_aurora.cube
# ApexStudio filter: twilight_aurora
LUT_3D_SIZE 5
DOMAIN_MIN 0.0 0.0 0.0
DOMAIN_MAX 1.0 1.0 1.0
0.000000 0.080000 0.120000
0.162500 0.080000 0.120000
0.375000 0.080000 0.120000
0.587500 0.080000 0.120000
0.800000 0.080000 0.120000
0.000000 0.380000 0.120000
0.162500 0.380000 0.120000
0.375000 0.380000 0.120000
0.587500 0.380000 0.120000
0.800000 0.380000 0.120000
0.000000 0.680000 0.120000
0.162500 0.680000 0.120000
0.375000 0.680000 0.120000
0.587500 0.680000 0.120000
0.800000 0.680000 0.120000
0.000000 0.980000 0.120000
0.162500 0.980000 0.120000
0.375000 0.980000 0.120000
0.587500 0.980000 0.120000
0.800000 0.980000 0.120000
0.000000 1.000000 0.120000
0.162500 1.000000 0.120000
0.375000 1.000000 0.120000
0.587500 1.000000 0.120000
0.800000 1.000000 0.120000
0.000000 0.080000 0.432500
0.162500 0.080000 0.432500
0.375000 0.080000 0.432500
0.587500 0.080000 0.432500
0.800000 0.080000 0.432500
0.000000 0.380000 0.432500
0.162500 0.380000 0.432500
0.375000 0.380000 0.432500
0.587500 0.380000 0.432500
0.800000 0.380000 0.432500
0.000000 0.680000 0.432500
0.162500 0.680000 0.432500
0.375000 0.680000 0.432500
0.587500 0.680000 0.432500
0.800000 0.680000 0.432500
0.000000 0.980000 0.432500
0.162500 0.980000 0.432500
0.375000 0.980000 0.432500
0.587500 0.980000 0.432500
0.800000 0.980000 0.432500
0.000000 1.000000 0.432500
0.162500 1.000000 0.432500
0.375000 1.000000 0.432500
0.587500 1.000000 0.432500
0.800000 1.000000 0.432500
0.000000 0.080000 0.745000
0.162500 0.080000 0.745000
0.375000 0.080000 0.745000
0.587500 0.080000 0.745000
0.800000 0.080000 0.745000
0.000000 0.380000 0.745000
0.162500 0.380000 0.745000
0.375000 0.380000 0.745000
0.587500 0.380000 0.745000
0.800000 0.380000 0.745000
0.000000 0.680000 0.745000
0.162500 0.680000 0.745000
0.375000 0.680000 0.745000
0.587500 0.680000 0.745000
0.800000 0.680000 0.745000
0.000000 0.980000 0.745000
0.162500 0.980000 0.745000
0.375000 0.980000 0.745000
0.587500 0.980000 0.745000
0.800000 0.980000 0.745000
0.000000 1.000000 0.745000
0.162500 1.000000 0.745000
0.375000 1.000000 0.745000
0.587500 1.000000 0.745000
0.800000 1.000000 0.745000
0.000000 0.080000 1.000000
0.162500 0.080000 1.000000
0.375000 0.080000 1.000000
0.587500 0.080000 1.000000
0.800000 0.080000 1.000000
0.000000 0.380000 1.000000
0.162500 0.380000 1.000000
0.375000 0.380000 1.000000
0.587500 0.380000 1.000000
0.800000 0.380000 1.000000
0.000000 0.680000 1.000000
0.162500 0.680000 1.000000
0.375000 0.680000 1.000000
0.587500 0.680000 1.000000
0.800000 0.680000 1.000000
0.000000 0.980000 1.000000
0.162500 0.980000 1.000000
0.375000 0.980000 1.000000
0.587500 0.980000 1.000000
0.800000 0.980000 1.000000
0.000000 1.000000 1.000000
0.162500 1.000000 1.000000
0.375000 1.000000 1.000000
0.587500 1.000000 1.000000
0.800000 1.000000 1.000000
0.000000 0.080000 1.000000
0.162500 0.080000 1.000000
0.375000 0.080000 1.000000
0.587500 0.080000 1.000000
0.800000 0.080000 1.000000
0.000000 0.380000 1.000000
0.162500 0.380000 1.000000
0.375000 0.380000 1.000000
0.587500 0.380000 1.000000
0.800000 0.380000 1.000000
0.000000 0.680000 1.000000
0.162500 0.680000 1.000000
0.375000 0.680000 1.000000
0.587500 0.680000 1.000000
0.800000 0.680000 1.000000
0.000000 0.980000 1.000000
0.162500 0.980000 1.000000
0.375000 0.980000 1.000000
0.587500 0.980000 1.000000
0.800000 0.980000 1.000000
0.000000 1.000000 1.000000
0.162500 1.000000 1.000000
0.375000 1.000000 1.000000
0.587500 1.000000 1.000000
0.800000 1.000000 1.000000
