app/src/main/assets/luts/twilight_aurora.cube
# ApexStudio filter: twilight_aurora
LUT_3D_SIZE 9
DOMAIN_MIN 0.0 0.0 0.0
DOMAIN_MAX 1.0 1.0 1.0
0.000000 0.080000 0.120000
0.056250 0.080000 0.120000
0.162500 0.080000 0.120000
0.268750 0.080000 0.120000
0.375000 0.080000 0.120000
0.481250 0.080000 0.120000
0.587500 0.080000 0.120000
0.693750 0.080000 0.120000
0.800000 0.080000 0.120000
0.000000 0.230000 0.120000
0.056250 0.230000 0.120000
0.162500 0.230000 0.120000
0.268750 0.230000 0.120000
0.375000 0.230000 0.120000
0.481250 0.230000 0.120000
0.587500 0.230000 0.120000
0.693750 0.230000 0.120000
0.800000 0.230000 0.120000
0.000000 0.380000 0.120000
0.056250 0.380000 0.120000
0.162500 0.380000 0.120000
0.268750 0.380000 0.120000
0.375000 0.380000 0.120000
0.481250 0.380000 0.120000
0.587500 0.380000 0.120000
0.693750 0.380000 0.120000
0.800000 0.380000 0.120000
0.000000 0.530000 0.120000
0.056250 0.530000 0.120000
0.162500 0.530000 0.120000
0.268750 0.530000 0.120000
0.375000 0.530000 0.120000
0.481250 0.530000 0.120000
0.587500 0.530000 0.120000
0.693750 0.530000 0.120000
0.800000 0.530000 0.120000
0.000000 0.680000 0.120000
0.056250 0.680000 0.120000
0.162500 0.680000 0.120000
0.268750 0.680000 0.120000
0.375000 0.680000 0.120000
0.481250 0.680000 0.120000
0.587500 0.680000 0.120000
0.693750 0.680000 0.120000
0.800000 0.680000 0.120000
0.000000 0.830000 0.120000
0.056250 0.830000 0.120000
0.162500 0.830000 0.120000
0.268750 0.830000 0.120000
0.375000 0.830000 0.120000
0.481250 0.830000 0.120000
0.587500 0.830000 0.120000
0.693750 0.830000 0.120000
0.800000 0.830000 0.120000
0.000000 0.980000 0.120000
0.056250 0.980000 0.120000
0.162500 0.980000 0.120000
0.268750 0.980000 0.120000
0.375000 0.980000 0.120000
0.481250 0.980000 0.120000
0.587500 0.980000 0.120000
0.693750 0.980000 0.120000
0.800000 0.980000 0.120000
0.000000 1.000000 0.120000
0.056250 1.000000 0.120000
0.162500 1.000000 0.120000
0.268750 1.000000 0.120000
0.375000 1.000000 0.120000
0.481250 1.000000 0.120000
0.587500 1.000000 0.120000
0.693750 1.000000 0.120000
0.800000 1.000000 0.120000
0.000000 1.000000 0.120000
0.056250 1.000000 0.120000
0.162500 1.000000 0.120000
0.268750 1.000000 0.120000
0.375000 1.000000 0.120000
0.481250 1.000000 0.120000
0.587500 1.000000 0.120000
0.693750 1.000000 0.120000
0.800000 1.000000 0.120000
0.000000 0.080000 0.276250
0.056250 0.080000 0.276250
0.162500 0.080000 0.276250
0.268750 0.080000 0.276250
0.375000 0.080000 0.276250
0.481250 0.080000 0.276250
0.587500 0.080000 0.276250
0.693750 0.080000 0.276250
0.800000 0.080000 0.276250
0.000000 0.230000 0.276250
0.056250 0.230000 0.276250
0.162500 0.230000 0.276250
0.268750 0.230000 0.276250
0.375000 0.230000 0.276250
0.481250 0.230000 0.276250
0.587500 0.230000 0.276250
0.693750 0.230000 0.276250
0.800000 0.230000 0.276250
0.000000 0.380000 0.276250
0.056250 0.380000 0.276250
0.162500 0.380000 0.276250
0.268750 0.380000 0.276250
0.375000 0.380000 0.276250
0.481250 0.380000 0.276250
0.587500 0.380000 0.276250
0.693750 0.380000 0.276250
0.800000 0.380000 0.276250
0.000000 0.530000 0.276250
0.056250 0.530000 0.276250
0.162500 0.530000 0.276250
0.268750 0.530000 0.276250
0.375000 0.530000 0.276250
0.481250 0.530000 0.276250
0.587500 0.530000 0.276250
0.693750 0.530000 0.276250
0.800000 0.530000 0.276250
0.000000 0.680000 0.276250
0.056250 0.680000 0.276250
0.162500 0.680000 0.276250
0.268750 0.680000 0.276250
0.375000 0.680000 0.276250
0.481250 0.680000 0.276250
0.587500 0.680000 0.276250
0.693750 0.680000 0.276250
0.800000 0.680000 0.276250
0.000000 0.830000 0.276250
0.056250 0.830000 0.276250
0.162500 0.830000 0.276250
0.268750 0.830000 0.276250
0.375000 0.830000 0.276250
0.481250 0.830000 0.276250
0.587500 0.830000 0.276250
0.693750 0.830000 0.276250
0.800000 0.830000 0.276250
0.000000 0.980000 0.276250
0.056250 0.980000 0.276250
0.162500 0.980000 0.276250
0.268750 0.980000 0.276250
0.375000 0.980000 0.276250
0.481250 0.980000 0.276250
0.587500 0.980000 0.276250
0.693750 0.980000 0.276250
0.800000 0.980000 0.276250
0.000000 1.000000 0.276250
0.056250 1.000000 0.276250
0.162500 1.000000 0.276250
0.268750 1.000000 0.276250
0.375000 1.000000 0.276250
0.481250 1.000000 0.276250
0.587500 1.000000 0.276250
0.693750 1.000000 0.276250
0.800000 1.000000 0.276250
0.000000 1.000000 0.276250
0.056250 1.000000 0.276250
0.162500 1.000000 0.276250
0.268750 1.000000 0.276250
0.375000 1.000000 0.276250
0.481250 1.000000 0.276250
0.587500 1.000000 0.276250
0.693750 1.000000 0.276250
0.800000 1.000000 0.276250
0.000000 0.080000 0.432500
0.056250 0.080000 0.432500
0.162500 0.080000 0.432500
0.268750 0.080000 0.432500
0.375000 0.080000 0.432500
0.481250 0.080000 0.432500
0.587500 0.080000 0.432500
0.693750 0.080000 0.432500
0.800000 0.080000 0.432500
0.000000 0.230000 0.432500
0.056250 0.230000 0.432500
0.162500 0.230000 0.432500
0.268750 0.230000 0.432500
0.375000 0.230000 0.432500
0.481250 0.230000 0.432500
0.587500 0.230000 0.432500
0.693750 0.230000 0.432500
0.800000 0.230000 0.432500
0.000000 0.380000 0.432500
0.056250 0.380000 0.432500
0.162500 0.380000 0.432500
0.268750 0.380000 0.432500
0.375000 0.380000 0.432500
0.481250 0.380000 0.432500
0.587500 0.380000 0.432500
0.693750 0.380000 0.432500
0.800000 0.380000 0.432500
0.000000 0.530000 0.432500
0.056250 0.530000 0.432500
0.162500 0.530000 0.432500
0.268750 0.530000 0.432500
0.375000 0.530000 0.432500
0.481250 0.530000 0.432500
0.587500 0.530000 0.432500
0.693750 0.530000 0.432500
0.800000 0.530000 0.432500
0.000000 0.680000 0.432500
0.056250 0.680000 0.432500
0.162500 0.680000 0.432500
0.268750 0.680000 0.432500
0.375000 0.680000 0.432500
0.481250 0.680000 0.432500
0.587500 0.680000 0.432500
0.693750 0.680000 0.432500
0.800000 0.680000 0.432500
0.000000 0.830000 0.432500
0.056250 0.830000 0.432500
0.162500 0.830000 0.432500
0.268750 0.830000 0.432500
0.375000 0.830000 0.432500
0.481250 0.830000 0.432500
0.587500 0.830000 0.432500
0.693750 0.830000 0.432500
0.800000 0.830000 0.432500
0.000000 0.980000 0.432500
0.056250 0.980000 0.432500
0.162500 0.980000 0.432500
0.268750 0.980000 0.432500
0.375000 0.980000 0.432500
0.481250 0.980000 0.432500
0.587500 0.980000 0.432500
0.693750 0.980000 0.432500
0.800000 0.980000 0.432500
0.000000 1.000000 0.432500
0.056250 1.000000 0.432500
0.162500 1.000000 0.432500
0.268750 1.000000 0.432500
0.375000 1.000000 0.432500
0.481250 1.000000 0.432500
0.587500 1.000000 0.432500
0.693750 1.000000 0.432500
0.800000 1.000000 0.432500
0.000000 1.000000 0.432500
0.056250 1.000000 0.432500
0.162500 1.000000 0.432500
0.268750 1.000000 0.432500
0.375000 1.000000 0.432500
0.481250 1.000000 0.432500
0.587500 1.000000 0.432500
0.693750 1.000000 0.432500
0.800000 1.000000 0.432500
0.000000 0.080000 0.588750
0.056250 0.080000 0.588750
0.162500 0.080000 0.588750
0.268750 0.080000 0.588750
0.375000 0.080000 0.588750
0.481250 0.080000 0.588750
0.587500 0.080000 0.588750
0.693750 0.080000 0.588750
0.800000 0.080000 0.588750
0.000000 0.230000 0.588750
0.056250 0.230000 0.588750
0.162500 0.230000 0.588750
0.268750 0.230000 0.588750
0.375000 0.230000 0.588750
0.481250 0.230000 0.588750
0.587500 0.230000 0.588750
0.693750 0.230000 0.588750
0.800000 0.230000 0.588750
0.000000 0.380000 0.588750
0.056250 0.380000 0.588750
0.162500 0.380000 0.588750
0.268750 0.380000 0.588750
0.375000 0.380000 0.588750
0.481250 0.380000 0.588750
0.587500 0.380000 0.588750
0.693750 0.380000 0.588750
0.800000 0.380000 0.588750
0.000000 0.530000 0.588750
0.056250 0.530000 0.588750
0.162500 0.530000 0.588750
0.268750 0.530000 0.588750
0.375000 0.530000 0.588750
0.481250 0.530000 0.588750
0.587500 0.530000 0.588750
0.693750 0.530000 0.588750
0.800000 0.530000 0.588750
0.000000 0.680000 0.588750
0.056250 0.680000 0.588750
0.162500 0.680000 0.588750
0.268750 0.680000 0.588750
0.375000 0.680000 0.588750
0.481250 0.680000 0.588750
0.587500 0.680000 0.588750
0.693750 0.680000 0.588750
0.800000 0.680000 0.588750
0.000000 0.830000 0.588750
0.056250 0.830000 0.588750
0.162500 0.830000 0.588750
0.268750 0.830000 0.588750
0.375000 0.830000 0.588750
0.481250 0.830000 0.588750
0.587500 0.830000 0.588750
0.693750 0.830000 0.588750
0.800000 0.830000 0.588750
0.000000 0.980000 0.588750
0.056250 0.980000 0.588750
0.162500 0.980000 0.588750
0.268750 0.980000 0.588750
0.375000 0.980000 0.588750
0.481250 0.980000 0.588750
0.587500 0.980000 0.588750
0.693750 0.980000 0.588750
0.800000 0.980000 0.588750
0.000000 1.000000 0.588750
0.056250 1.000000 0.588750
0.162500 1.000000 0.588750
0.268750 1.000000 0.588750
0.375000 1.000000 0.588750
0.481250 1.000000 0.588750
0.587500 1.000000 0.588750
0.693750 1.000000 0.588750
0.800000 1.000000 0.588750
0.000000 1.000000 0.588750
0.056250 1.000000 0.588750
0.162500 1.000000 0.588750
0.268750 1.000000 0.588750
0.375000 1.000000 0.588750
0.481250 1.000000 0.588750
0.587500 1.000000 0.588750
0.693750 1.000000 0.588750
0.800000 1.000000 0.588750
0.000000 0.080000 0.745000
0.056250 0.080000 0.745000
0.162500 0.080000 0.745000
0.268750 0.080000 0.745000
0.375000 0.080000 0.745000
0.481250 0.080000 0.745000
0.587500 0.080000 0.745000
0.693750 0.080000 0.745000
0.800000 0.080000 0.745000
0.000000 0.230000 0.745000
0.056250 0.230000 0.745000
0.162500 0.230000 0.745000
0.268750 0.230000 0.745000
0.375000 0.230000 0.745000
0.481250 0.230000 0.745000
0.587500 0.230000 0.745000
0.693750 0.230000 0.745000
0.800000 0.230000 0.745000
0.000000 0.380000 0.745000
0.056250 0.380000 0.745000
0.162500 0.380000 0.745000
0.268750 0.380000 0.745000
0.375000 0.380000 0.745000
0.481250 0.380000 0.745000
0.587500 0.380000 0.745000
0.693750 0.380000 0.745000
0.800000 0.380000 0.745000
0.000000 0.530000 0.745000
0.056250 0.530000 0.745000
0.162500 0.530000 0.745000
0.268750 0.530000 0.745000
0.375000 0.530000 0.745000
0.481250 0.530000 0.745000
0.587500 0.530000 0.745000
0.693750 0.530000 0.745000
0.800000 0.530000 0.745000
0.000000 0.680000 0.745000
0.056250 0.680000 0.745000
0.162500 0.680000 0.745000
0.268750 0.680000 0.745000
0.375000 0.680000 0.745000
0.481250 0.680000 0.745000
0.587500 0.680000 0.745000
0.693750 0.680000 0.745000
0.800000 0.680000 0.745000
0.000000 0.830000 0.745000
0.056250 0.830000 0.745000
0.162500 0.830000 0.745000
0.268750 0.830000 0.745000
0.375000 0.830000 0.745000
0.481250 0.830000 0.745000
0.587500 0.830000 0.745000
0.693750 0.830000 0.745000
0.800000 0.830000 0.745000
0.000000 0.980000 0.745000
0.056250 0.980000 0.745000
0.162500 0.980000 0.745000
0.268750 0.980000 0.745000
0.375000 0.980000 0.745000
0.481250 0.980000 0.745000
0.587500 0.980000 0.745000
0.693750 0.980000 0.745000
0.800000 0.980000 0.745000
0.000000 1.000000 0.745000
0.056250 1.000000 0.745000
0.162500 1.000000 0.745000
0.268750 1.000000 0.745000
0.375000 1.000000 0.745000
0.481250 1.000000 0.745000
0.587500 1.000000 0.745000
0.693750 1.000000 0.745000
0.800000 1.000000 0.745000
0.000000 1.000000 0.745000
0.056250 1.000000 0.745000
0.162500 1.000000 0.745000
0.268750 1.000000 0.745000
0.375000 1.000000 0.745000
0.481250 1.000000 0.745000
0.587500 1.000000 0.745000
0.693750 1.000000 0.745000
0.800000 1.000000 0.745000
0.000000 0.080000 0.901250
0.056250 0.080000 0.901250
0.162500 0.080000 0.901250
0.268750 0.080000 0.901250
0.375000 0.080000 0.901250
0.481250 0.080000 0.901250
0.587500 0.080000 0.901250
0.693750 0.080000 0.901250
0.800000 0.080000 0.901250
0.000000 0.230000 0.901250
0.056250 0.230000 0.901250
0.162500 0.230000 0.901250
0.268750 0.230000 0.901250
0.375000 0.230000 0.901250
0.481250 0.230000 0.901250
0.587500 0.230000 0.901250
0.693750 0.230000 0.901250
0.800000 0.230000 0.901250
0.000000 0.380000 0.901250
0.056250 0.380000 0.901250
0.162500 0.380000 0.901250
0.268750 0.380000 0.901250
0.375000 0.380000 0.901250
0.481250 0.380000 0.901250
0.587500 0.380000 0.901250
0.693750 0.380000 0.901250
0.800000 0.380000 0.901250
0.000000 0.530000 0.901250
0.056250 0.530000 0.901250
0.162500 0.530000 0.901250
0.268750 0.530000 0.901250
0.375000 0.530000 0.901250
0.481250 0.530000 0.901250
0.587500 0.530000 0.901250
0.693750 0.530000 0.901250
0.800000 0.530000 0.901250
0.000000 0.680000 0.901250
0.056250 0.680000 0.901250
0.162500 0.680000 0.901250
0.268750 0.680000 0.901250
0.375000 0.680000 0.901250
0.481250 0.680000 0.901250
0.587500 0.680000 0.901250
0.693750 0.680000 0.901250
0.800000 0.680000 0.901250
0.000000 0.830000 0.901250
0.056250 0.830000 0.901250
0.162500 0.830000 0.901250
0.268750 0.830000 0.901250
0.375000 0.830000 0.901250
0.481250 0.830000 0.901250
0.587500 0.830000 0.901250
0.693750 0.830000 0.901250
0.800000 0.830000 0.901250
0.000000 0.980000 0.901250
0.056250 0.980000 0.901250
0.162500 0.980000 0.901250
0.268750 0.980000 0.901250
0.375000 0.980000 0.901250
0.481250 0.980000 0.901250
0.587500 0.980000 0.901250
0.693750 0.980000 0.901250
0.800000 0.980000 0.901250
0.000000 1.000000 0.901250
0.056250 1.000000 0.901250
0.162500 1.000000 0.901250
0.268750 1.000000 0.901250
0.375000 1.000000 0.901250
0.481250 1.000000 0.901250
0.587500 1.000000 0.901250
0.693750 1.000000 0.901250
0.800000 1.000000 0.901250
0.000000 1.000000 0.901250
0.056250 1.000000 0.901250
0.162500 1.000000 0.901250
0.268750 1.000000 0.901250
0.375000 1.000000 0.901250
0.481250 1.000000 0.901250
0.587500 1.000000 0.901250
0.693750 1.000000 0.901250
0.800000 1.000000 0.901250
0.000000 0.080000 1.000000
0.056250 0.080000 1.000000
0.162500 0.080000 1.000000
0.268750 0.080000 1.000000
0.375000 0.080000 1.000000
0.481250 0.080000 1.000000
0.587500 0.080000 1.000000
0.693750 0.080000 1.000000
0.800000 0.080000 1.000000
0.000000 0.230000 1.000000
0.056250 0.230000 1.000000
0.162500 0.230000 1.000000
0.268750 0.230000 1.000000
0.375000 0.230000 1.000000
0.481250 0.230000 1.000000
0.587500 0.230000 1.000000
0.693750 0.230000 1.000000
0.800000 0.230000 1.000000
0.000000 0.380000 1.000000
0.056250 0.380000 1.000000
0.162500 0.380000 1.000000
0.268750 0.380000 1.000000
0.375000 0.380000 1.000000
0.481250 0.380000 1.000000
0.587500 0.380000 1.000000
0.693750 0.380000 1.000000
0.800000 0.380000 1.000000
0.000000 0.530000 1.000000
0.056250 0.530000 1.000000
0.162500 0.530000 1.000000
0.268750 0.530000 1.000000
0.375000 0.530000 1.000000
0.481250 0.530000 1.000000
0.587500 0.530000 1.000000
0.693750 0.530000 1.000000
0.800000 0.530000 1.000000
0.000000 0.680000 1.000000
0.056250 0.680000 1.000000
0.162500 0.680000 1.000000
0.268750 0.680000 1.000000
0.375000 0.680000 1.000000
0.481250 0.680000 1.000000
0.587500 0.680000 1.000000
0.693750 0.680000 1.000000
0.800000 0.680000 1.000000
0.000000 0.830000 1.000000
0.056250 0.830000 1.000000
0.162500 0.830000 1.000000
0.268750 0.830000 1.000000
0.375000 0.830000 1.000000
0.481250 0.830000 1.000000
0.587500 0.830000 1.000000
0.693750 0.830000 1.000000
0.800000 0.830000 1.000000
0.000000 0.980000 1.000000
0.056250 0.980000 1.000000
0.162500 0.980000 1.000000
0.268750 0.980000 1.000000
0.375000 0.980000 1.000000
0.481250 0.980000 1.000000
0.587500 0.980000 1.000000
0.693750 0.980000 1.000000
0.800000 0.980000 1.000000
0.000000 1.000000 1.000000
0.056250 1.000000 1.000000
0.162500 1.000000 1.000000
0.268750 1.000000 1.000000
0.375000 1.000000 1.000000
0.481250 1.000000 1.000000
0.587500 1.000000 1.000000
0.693750 1.000000 1.000000
0.800000 1.000000 1.000000
0.000000 1.000000 1.000000
0.056250 1.000000 1.000000
0.162500 1.000000 1.000000
0.268750 1.000000 1.000000
0.375000 1.000000 1.000000
0.481250 1.000000 1.000000
0.587500 1.000000 1.000000
0.693750 1.000000 1.000000
0.800000 1.000000 1.000000
0.000000 0.080000 1.000000
0.056250 0.080000 1.000000
0.162500 0.080000 1.000000
0.268750 0.080000 1.000000
0.375000 0.080000 1.000000
0.481250 0.080000 1.000000
0.587500 0.080000 1.000000
0.693750 0.080000 1.000000
0.800000 0.080000 1.000000
0.000000 0.230000 1.000000
0.056250 0.230000 1.000000
0.162500 0.230000 1.000000
0.268750 0.230000 1.000000
0.375000 0.230000 1.000000
0.481250 0.230000 1.000000
0.587500 0.230000 1.000000
0.693750 0.230000 1.000000
0.800000 0.230000 1.000000
0.000000 0.380000 1.000000
0.056250 0.380000 1.000000
0.162500 0.380000 1.000000
0.268750 0.380000 1.000000
0.375000 0.380000 1.000000
0.481250 0.380000 1.000000
0.587500 0.380000 1.000000
0.693750 0.380000 1.000000
0.800000 0.380000 1.000000
0.000000 0.530000 1.000000
0.056250 0.530000 1.000000
0.162500 0.530000 1.000000
0.268750 0.530000 1.000000
0.375000 0.530000 1.000000
0.481250 0.530000 1.000000
0.587500 0.530000 1.000000
0.693750 0.530000 1.000000
0.800000 0.530000 1.000000
0.000000 0.680000 1.000000
0.056250 0.680000 1.000000
0.162500 0.680000 1.000000
0.268750 0.680000 1.000000
0.375000 0.680000 1.000000
0.481250 0.680000 1.000000
0.587500 0.680000 1.000000
0.693750 0.680000 1.000000
0.800000 0.680000 1.000000
0.000000 0.830000 1.000000
0.056250 0.830000 1.000000
0.162500 0.830000 1.000000
0.268750 0.830000 1.000000
0.375000 0.830000 1.000000
0.481250 0.830000 1.000000
0.587500 0.830000 1.000000
0.693750 0.830000 1.000000
0.800000 0.830000 1.000000
0.000000 0.980000 1.000000
0.056250 0.980000 1.000000
0.162500 0.980000 1.000000
0.268750 0.980000 1.000000
0.375000 0.980000 1.000000
0.481250 0.980000 1.000000
0.587500 0.980000 1.000000
0.693750 0.980000 1.000000
0.800000 0.980000 1.000000
0.000000 1.000000 1.000000
0.056250 1.000000 1.000000
0.162500 1.000000 1.000000
0.268750 1.000000 1.000000
0.375000 1.000000 1.000000
0.481250 1.000000 1.000000
0.587500 1.000000 1.000000
0.693750 1.000000 1.000000
0.800000 1.000000 1.000000
0.000000 1.000000 1.000000
0.056250 1.000000 1.000000
0.162500 1.000000 1.000000
0.268750 1.000000 1.000000
0.375000 1.000000 1.000000
0.481250 1.000000 1.000000
0.587500 1.000000 1.000000
0.693750 1.000000 1.000000
0.800000 1.000000 1.000000
0.000000 0.080000 1.000000
0.056250 0.080000 1.000000
0.162500 0.080000 1.000000
0.268750 0.080000 1.000000
0.375000 0.080000 1.000000
0.481250 0.080000 1.000000
0.587500 0.080000 1.000000
0.693750 0.080000 1.000000
0.800000 0.080000 1.000000
0.000000 0.230000 1.000000
0.056250 0.230000 1.000000
0.162500 0.230000 1.000000
0.268750 0.230000 1.000000
0.375000 0.230000 1.000000
0.481250 0.230000 1.000000
0.587500 0.230000 1.000000
0.693750 0.230000 1.000000
0.800000 0.230000 1.000000
0.000000 0.380000 1.000000
0.056250 0.380000 1.000000
0.162500 0.380000 1.000000
0.268750 0.380000 1.000000
0.375000 0.380000 1.000000
0.481250 0.380000 1.000000
0.587500 0.380000 1.000000
0.693750 0.380000 1.000000
0.800000 0.380000 1.000000
0.000000 0.530000 1.000000
0.056250 0.530000 1.000000
0.162500 0.530000 1.000000
0.268750 0.530000 1.000000
0.375000 0.530000 1.000000
0.481250 0.530000 1.000000
0.587500 0.530000 1.000000
0.693750 0.530000 1.000000
0.800000 0.530000 1.000000
0.000000 0.680000 1.000000
0.056250 0.680000 1.000000
0.162500 0.680000 1.000000
0.268750 0.680000 1.000000
0.375000 0.680000 1.000000
0.481250 0.680000 1.000000
0.587500 0.680000 1.000000
0.693750 0.680000 1.000000
0.800000 0.680000 1.000000
0.000000 0.830000 1.000000
0.056250 0.830000 1.000000
0.162500 0.830000 1.000000
0.268750 0.830000 1.000000
0.375000 0.830000 1.000000
0.481250 0.830000 1.000000
0.587500 0.830000 1.000000
0.693750 0.830000 1.000000
0.800000 0.830000 1.000000
0.000000 0.980000 1.000000
0.056250 0.980000 1.000000
0.162500 0.980000 1.000000
0.268750 0.980000 1.000000
0.375000 0.980000 1.000000
0.481250 0.980000 1.000000
0.587500 0.980000 1.000000
0.693750 0.980000 1.000000
0.800000 0.980000 1.000000
0.000000 1.000000 1.000000
0.056250 1.000000 1.000000
0.162500 1.000000 1.000000
0.268750 1.000000 1.000000
0.375000 1.000000 1.000000
0.481250 1.000000 1.000000
0.587500 1.000000 1.000000
0.693750 1.000000 1.000000
0.800000 1.000000 1.000000
0.000000 1.000000 1.000000
0.056250 1.000000 1.000000
0.162500 1.000000 1.000000
0.268750 1.000000 1.000000
0.375000 1.000000 1.000000
0.481250 1.000000 1.000000
0.587500 1.000000 1.000000
0.693750 1.000000 1.000000
0.800000 1.000000 1.000000
