app/src/main/assets/luts/twilight_aurora.cube
# ApexStudio filter: twilight_aurora
LUT_3D_SIZE 17
DOMAIN_MIN 0.0 0.0 0.0
DOMAIN_MAX 1.0 1.0 1.0
0.000000 0.080000 0.120000
0.003125 0.080000 0.120000
0.056250 0.080000 0.120000
0.109375 0.080000 0.120000
0.162500 0.080000 0.120000
0.215625 0.080000 0.120000
0.268750 0.080000 0.120000
0.321875 0.080000 0.120000
0.375000 0.080000 0.120000
0.428125 0.080000 0.120000
0.481250 0.080000 0.120000
0.534375 0.080000 0.120000
0.587500 0.080000 0.120000
0.640625 0.080000 0.120000
0.693750 0.080000 0.120000
0.746875 0.080000 0.120000
0.800000 0.080000 0.120000
0.000000 0.155000 0.120000
0.003125 0.155000 0.120000
0.056250 0.155000 0.120000
0.109375 0.155000 0.120000
0.162500 0.155000 0.120000
0.215625 0.155000 0.120000
0.268750 0.155000 0.120000
0.321875 0.155000 0.120000
0.375000 0.155000 0.120000
0.428125 0.155000 0.120000
0.481250 0.155000 0.120000
0.534375 0.155000 0.120000
0.587500 0.155000 0.120000
0.640625 0.155000 0.120000
0.693750 0.155000 0.120000
0.746875 0.155000 0.120000
0.800000 0.155000 0.120000
0.000000 0.230000 0.120000
0.003125 0.230000 0.120000
0.056250 0.230000 0.120000
0.109375 0.230000 0.120000
0.162500 0.230000 0.120000
0.215625 0.230000 0.120000
0.268750 0.230000 0.120000
0.321875 0.230000 0.120000
0.375000 0.230000 0.120000
0.428125 0.230000 0.120000
0.481250 0.230000 0.120000
0.534375 0.230000 0.120000
0.587500 0.230000 0.120000
0.640625 0.230000 0.120000
0.693750 0.230000 0.120000
0.746875 0.230000 0.120000
0.800000 0.230000 0.120000
0.000000 0.305000 0.120000
0.003125 0.305000 0.120000
0.056250 0.305000 0.120000
0.109375 0.305000 0.120000
0.162500 0.305000 0.120000
0.215625 0.305000 0.120000
0.268750 0.305000 0.120000
0.321875 0.305000 0.120000
0.375000 0.305000 0.120000
0.428125 0.305000 0.120000
0.481250 0.305000 0.120000
0.534375 0.305000 0.120000
0.587500 0.305000 0.120000
0.640625 0.305000 0.120000
0.693750 0.305000 0.120000
0.746875 0.305000 0.120000
0.800000 0.305000 0.120000
0.000000 0.380000 0.120000
0.003125 0.380000 0.120000
0.056250 0.380000 0.120000
0.109375 0.380000 0.120000
0.162500 0.380000 0.120000
0.215625 0.380000 0.120000
0.268750 0.380000 0.120000
0.321875 0.380000 0.120000
0.375000 0.380000 0.120000
0.428125 0.380000 0.120000
0.481250 0.380000 0.120000
0.534375 0.380000 0.120000
0.587500 0.380000 0.120000
0.640625 0.380000 0.120000
0.693750 0.380000 0.120000
0.746875 0.380000 0.120000
0.800000 0.380000 0.120000
0.000000 0.455000 0.120000
0.003125 0.455000 0.120000
0.056250 0.455000 0.120000
0.109375 0.455000 0.120000
0.162500 0.455000 0.120000
0.215625 0.455000 0.120000
0.268750 0.455000 0.120000
0.321875 0.455000 0.120000
0.375000 0.455000 0.120000
0.428125 0.455000 0.120000
0.481250 0.455000 0.120000
0.534375 0.455000 0.120000
0.587500 0.455000 0.120000
0.640625 0.455000 0.120000
0.693750 0.455000 0.120000
0.746875 0.455000 0.120000
0.800000 0.455000 0.120000
0.000000 0.530000 0.120000
0.003125 0.530000 0.120000
0.056250 0.530000 0.120000
0.109375 0.530000 0.120000
0.162500 0.530000 0.120000
0.215625 0.530000 0.120000
0.268750 0.530000 0.120000
0.321875 0.530000 0.120000
0.375000 0.530000 0.120000
0.428125 0.530000 0.120000
0.481250 0.530000 0.120000
0.534375 0.530000 0.120000
0.587500 0.530000 0.120000
0.640625 0.530000 0.120000
0.693750 0.530000 0.120000
0.746875 0.530000 0.120000
0.800000 0.530000 0.120000
0.000000 0.605000 0.120000
0.003125 0.605000 0.120000
0.056250 0.605000 0.120000
0.109375 0.605000 0.120000
0.162500 0.605000 0.120000
0.215625 0.605000 0.120000
0.268750 0.605000 0.120000
0.321875 0.605000 0.120000
0.375000 0.605000 0.120000
0.428125 0.605000 0.120000
0.481250 0.605000 0.120000
0.534375 0.605000 0.120000
0.587500 0.605000 0.120000
0.640625 0.605000 0.120000
0.693750 0.605000 0.120000
0.746875 0.605000 0.120000
0.800000 0.605000 0.120000
0.000000 0.680000 0.120000
0.003125 0.680000 0.120000
0.056250 0.680000 0.120000
0.109375 0.680000 0.120000
0.162500 0.680000 0.120000
0.215625 0.680000 0.120000
0.268750 0.680000 0.120000
0.321875 0.680000 0.120000
0.375000 0.680000 0.120000
0.428125 0.680000 0.120000
0.481250 0.680000 0.120000
0.534375 0.680000 0.120000
0.587500 0.680000 0.120000
0.640625 0.680000 0.120000
0.693750 0.680000 0.120000
0.746875 0.680000 0.120000
0.800000 0.680000 0.120000
0.000000 0.755000 0.120000
0.003125 0.755000 0.120000
0.056250 0.755000 0.120000
0.109375 0.755000 0.120000
0.162500 0.755000 0.120000
0.215625 0.755000 0.120000
0.268750 0.755000 0.120000
0.321875 0.755000 0.120000
0.375000 0.755000 0.120000
0.428125 0.755000 0.120000
0.481250 0.755000 0.120000
0.534375 0.755000 0.120000
0.587500 0.755000 0.120000
0.640625 0.755000 0.120000
0.693750 0.755000 0.120000
0.746875 0.755000 0.120000
0.800000 0.755000 0.120000
0.000000 0.830000 0.120000
0.003125 0.830000 0.120000
0.056250 0.830000 0.120000
0.109375 0.830000 0.120000
0.162500 0.830000 0.120000
0.215625 0.830000 0.120000
0.268750 0.830000 0.120000
0.321875 0.830000 0.120000
0.375000 0.830000 0.120000
0.428125 0.830000 0.120000
0.481250 0.830000 0.120000
0.534375 0.830000 0.120000
0.587500 0.830000 0.120000
0.640625 0.830000 0.120000
0.693750 0.830000 0.120000
0.746875 0.830000 0.120000
0.800000 0.830000 0.120000
0.000000 0.905000 0.120000
0.003125 0.905000 0.120000
0.056250 0.905000 0.120000
0.109375 0.905000 0.120000
0.162500 0.905000 0.120000
0.215625 0.905000 0.120000
0.268750 0.905000 0.120000
0.321875 0.905000 0.120000
0.375000 0.905000 0.120000
0.428125 0.905000 0.120000
0.481250 0.905000 0.120000
0.534375 0.905000 0.120000
0.587500 0.905000 0.120000
0.640625 0.905000 0.120000
0.693750 0.905000 0.120000
0.746875 0.905000 0.120000
0.800000 0.905000 0.120000
0.000000 0.980000 0.120000
0.003125 0.980000 0.120000
0.056250 0.980000 0.120000
0.109375 0.980000 0.120000
0.162500 0.980000 0.120000
0.215625 0.980000 0.120000
0.268750 0.980000 0.120000
0.321875 0.980000 0.120000
0.375000 0.980000 0.120000
0.428125 0.980000 0.120000
0.481250 0.980000 0.120000
0.534375 0.980000 0.120000
0.587500 0.980000 0.120000
0.640625 0.980000 0.120000
0.693750 0.980000 0.120000
0.746875 0.980000 0.120000
0.800000 0.980000 0.120000
0.000000 1.000000 0.120000
0.003125 1.000000 0.120000
0.056250 1.000000 0.120000
0.109375 1.000000 0.120000
0.162500 1.000000 0.120000
0.215625 1.000000 0.120000
0.268750 1.000000 0.120000
0.321875 1.000000 0.120000
0.375000 1.000000 0.120000
0.428125 1.000000 0.120000
0.481250 1.000000 0.120000
0.534375 1.000000 0.120000
0.587500 1.000000 0.120000
0.640625 1.000000 0.120000
0.693750 1.000000 0.120000
0.746875 1.000000 0.120000
0.800000 1.000000 0.120000
0.000000 1.000000 0.120000
0.003125 1.000000 0.120000
0.056250 1.000000 0.120000
0.109375 1.000000 0.120000
0.162500 1.000000 0.120000
0.215625 1.000000 0.120000
0.268750 1.000000 0.120000
0.321875 1.000000 0.120000
0.375000 1.000000 0.120000
0.428125 1.000000 0.120000
0.481250 1.000000 0.120000
0.534375 1.000000 0.120000
0.587500 1.000000 0.120000
0.640625 1.000000 0.120000
0.693750 1.000000 0.120000
0.746875 1.000000 0.120000
0.800000 1.000000 0.120000
0.000000 1.000000 0.120000
0.003125 1.000000 0.120000
0.056250 1.000000 0.120000
0.109375 1.000000 0.120000
0.162500 1.000000 0.120000
0.215625 1.000000 0.120000
0.268750 1.000000 0.120000
0.321875 1.000000 0.120000
0.375000 1.000000 0.120000
0.428125 1.000000 0.120000
0.481250 1.000000 0.120000
0.534375 1.000000 0.120000
0.587500 1.000000 0.120000
0.640625 1.000000 0.120000
0.693750 1.000000 0.120000
0.746875 1.000000 0.120000
0.800000 1.000000 0.120000
0.000000 1.000000 0.120000
0.003125 1.000000 0.120000
0.056250 1.000000 0.120000
0.109375 1.000000 0.120000
0.162500 1.000000 0.120000
0.215625 1.000000 0.120000
0.268750 1.000000 0.120000
0.321875 1.000000 0.120000
0.375000 1.000000 0.120000
0.428125 1.000000 0.120000
0.481250 1.000000 0.120000
0.534375 1.000000 0.120000
0.587500 1.000000 0.120000
0.640625 1.000000 0.120000
0.693750 1.000000 0.120000
0.746875 1.000000 0.120000
0.800000 1.000000 0.120000
0.000000 0.080000 0.198125
0.003125 0.080000 0.198125
0.056250 0.080000 0.198125
0.109375 0.080000 0.198125
0.162500 0.080000 0.198125
0.215625 0.080000 0.198125
0.268750 0.080000 0.198125
0.321875 0.080000 0.198125
0.375000 0.080000 0.198125
0.428125 0.080000 0.198125
0.481250 0.080000 0.198125
0.534375 0.080000 0.198125
0.587500 0.080000 0.198125
0.640625 0.080000 0.198125
0.693750 0.080000 0.198125
0.746875 0.080000 0.198125
0.800000 0.080000 0.198125
0.000000 0.155000 0.198125
0.003125 0.155000 0.198125
0.056250 0.155000 0.198125
0.109375 0.155000 0.198125
0.162500 0.155000 0.198125
0.215625 0.155000 0.198125
0.268750 0.155000 0.198125
0.321875 0.155000 0.198125
0.375000 0.155000 0.198125
0.428125 0.155000 0.198125
0.481250 0.155000 0.198125
0.534375 0.155000 0.198125
0.587500 0.155000 0.198125
0.640625 0.155000 0.198125
0.693750 0.155000 0.198125
0.746875 0.155000 0.198125
0.800000 0.155000 0.198125
0.000000 0.230000 0.198125
0.003125 0.230000 0.198125
0.056250 0.230000 0.198125
0.109375 0.230000 0.198125
0.162500 0.230000 0.198125
0.215625 0.230000 0.198125
0.268750 0.230000 0.198125
0.321875 0.230000 0.198125
0.375000 0.230000 0.198125
0.428125 0.230000 0.198125
0.481250 0.230000 0.198125
0.534375 0.230000 0.198125
0.587500 0.230000 0.198125
0.640625 0.230000 0.198125
0.693750 0.230000 0.198125
0.746875 0.230000 0.198125
0.800000 0.230000 0.198125
0.000000 0.305000 0.198125
0.003125 0.305000 0.198125
0.056250 0.305000 0.198125
0.109375 0.305000 0.198125
0.162500 0.305000 0.198125
0.215625 0.305000 0.198125
0.268750 0.305000 0.198125
0.321875 0.305000 0.198125
0.375000 0.305000 0.198125
0.428125 0.305000 0.198125
0.481250 0.305000 0.198125
0.534375 0.305000 0.198125
0.587500 0.305000 0.198125
0.640625 0.305000 0.198125
0.693750 0.305000 0.198125
0.746875 0.305000 0.198125
0.800000 0.305000 0.198125
0.000000 0.380000 0.198125
0.003125 0.380000 0.198125
0.056250 0.380000 0.198125
0.109375 0.380000 0.198125
0.162500 0.380000 0.198125
0.215625 0.380000 0.198125
0.268750 0.380000 0.198125
0.321875 0.380000 0.198125
0.375000 0.380000 0.198125
0.428125 0.380000 0.198125
0.481250 0.380000 0.198125
0.534375 0.380000 0.198125
0.587500 0.380000 0.198125
0.640625 0.380000 0.198125
0.693750 0.380000 0.198125
0.746875 0.380000 0.198125
0.800000 0.380000 0.198125
0.000000 0.455000 0.198125
0.003125 0.455000 0.198125
0.056250 0.455000 0.198125
0.109375 0.455000 0.198125
0.162500 0.455000 0.198125
0.215625 0.455000 0.198125
0.268750 0.455000 0.198125
0.321875 0.455000 0.198125
0.375000 0.455000 0.198125
0.428125 0.455000 0.198125
0.481250 0.455000 0.198125
0.534375 0.455000 0.198125
0.587500 0.455000 0.198125
0.640625 0.455000 0.198125
0.693750 0.455000 0.198125
0.746875 0.455000 0.198125
0.800000 0.455000 0.198125
0.000000 0.530000 0.198125
0.003125 0.530000 0.198125
0.056250 0.530000 0.198125
0.109375 0.530000 0.198125
0.162500 0.530000 0.198125
0.215625 0.530000 0.198125
0.268750 0.530000 0.198125
0.321875 0.530000 0.198125
0.375000 0.530000 0.198125
0.428125 0.530000 0.198125
0.481250 0.530000 0.198125
0.534375 0.530000 0.198125
0.587500 0.530000 0.198125
0.640625 0.530000 0.198125
0.693750 0.530000 0.198125
0.746875 0.530000 0.198125
0.800000 0.530000 0.198125
0.000000 0.605000 0.198125
0.003125 0.605000 0.198125
0.056250 0.605000 0.198125
0.109375 0.605000 0.198125
0.162500 0.605000 0.198125
0.215625 0.605000 0.198125
0.268750 0.605000 0.198125
0.321875 0.605000 0.198125
0.375000 0.605000 0.198125
0.428125 0.605000 0.198125
0.481250 0.605000 0.198125
0.534375 0.605000 0.198125
0.587500 0.605000 0.198125
0.640625 0.605000 0.198125
0.693750 0.605000 0.198125
0.746875 0.605000 0.198125
0.800000 0.605000 0.198125
0.000000 0.680000 0.198125
0.003125 0.680000 0.198125
0.056250 0.680000 0.198125
0.109375 0.680000 0.198125
0.162500 0.680000 0.198125
0.215625 0.680000 0.198125
0.268750 0.680000 0.198125
0.321875 0.680000 0.198125
0.375000 0.680000 0.198125
0.428125 0.680000 0.198125
0.481250 0.680000 0.198125
0.534375 0.680000 0.198125
0.587500 0.680000 0.198125
0.640625 0.680000 0.198125
0.693750 0.680000 0.198125
0.746875 0.680000 0.198125
0.800000 0.680000 0.198125
0.000000 0.755000 0.198125
0.003125 0.755000 0.198125
0.056250 0.755000 0.198125
0.109375 0.755000 0.198125
0.162500 0.755000 0.198125
0.215625 0.755000 0.198125
0.268750 0.755000 0.198125
0.321875 0.755000 0.198125
0.375000 0.755000 0.198125
0.428125 0.755000 0.198125
0.481250 0.755000 0.198125
0.534375 0.755000 0.198125
0.587500 0.755000 0.198125
0.640625 0.755000 0.198125
0.693750 0.755000 0.198125
0.746875 0.755000 0.198125
0.800000 0.755000 0.198125
0.000000 0.830000 0.198125
0.003125 0.830000 0.198125
0.056250 0.830000 0.198125
0.109375 0.830000 0.198125
0.162500 0.830000 0.198125
0.215625 0.830000 0.198125
0.268750 0.830000 0.198125
0.321875 0.830000 0.198125
0.375000 0.830000 0.198125
0.428125 0.830000 0.198125
0.481250 0.830000 0.198125
0.534375 0.830000 0.198125
0.587500 0.830000 0.198125
0.640625 0.830000 0.198125
0.693750 0.830000 0.198125
0.746875 0.830000 0.198125
0.800000 0.830000 0.198125
0.000000 0.905000 0.198125
0.003125 0.905000 0.198125
0.056250 0.905000 0.198125
0.109375 0.905000 0.198125
0.162500 0.905000 0.198125
0.215625 0.905000 0.198125
0.268750 0.905000 0.198125
0.321875 0.905000 0.198125
0.375000 0.905000 0.198125
0.428125 0.905000 0.198125
0.481250 0.905000 0.198125
0.534375 0.905000 0.198125
0.587500 0.905000 0.198125
0.640625 0.905000 0.198125
0.693750 0.905000 0.198125
0.746875 0.905000 0.198125
0.800000 0.905000 0.198125
0.000000 0.980000 0.198125
0.003125 0.980000 0.198125
0.056250 0.980000 0.198125
0.109375 0.980000 0.198125
0.162500 0.980000 0.198125
0.215625 0.980000 0.198125
0.268750 0.980000 0.198125
0.321875 0.980000 0.198125
0.375000 0.980000 0.198125
0.428125 0.980000 0.198125
0.481250 0.980000 0.198125
0.534375 0.980000 0.198125
0.587500 0.980000 0.198125
0.640625 0.980000 0.198125
0.693750 0.980000 0.198125
0.746875 0.980000 0.198125
0.800000 0.980000 0.198125
0.000000 1.000000 0.198125
0.003125 1.000000 0.198125
0.056250 1.000000 0.198125
0.109375 1.000000 0.198125
0.162500 1.000000 0.198125
0.215625 1.000000 0.198125
0.268750 1.000000 0.198125
0.321875 1.000000 0.198125
0.375000 1.000000 0.198125
0.428125 1.000000 0.198125
0.481250 1.000000 0.198125
0.534375 1.000000 0.198125
0.587500 1.000000 0.198125
0.640625 1.000000 0.198125
0.693750 1.000000 0.198125
0.746875 1.000000 0.198125
0.800000 1.000000 0.198125
0.000000 1.000000 0.198125
0.003125 1.000000 0.198125
0.056250 1.000000 0.198125
0.109375 1.000000 0.198125
0.162500 1.000000 0.198125
0.215625 1.000000 0.198125
0.268750 1.000000 0.198125
0.321875 1.000000 0.198125
0.375000 1.000000 0.198125
0.428125 1.000000 0.198125
0.481250 1.000000 0.198125
0.534375 1.000000 0.198125
0.587500 1.000000 0.198125
0.640625 1.000000 0.198125
0.693750 1.000000 0.198125
0.746875 1.000000 0.198125
0.800000 1.000000 0.198125
0.000000 1.000000 0.198125
0.003125 1.000000 0.198125
0.056250 1.000000 0.198125
0.109375 1.000000 0.198125
0.162500 1.000000 0.198125
0.215625 1.000000 0.198125
0.268750 1.000000 0.198125
0.321875 1.000000 0.198125
0.375000 1.000000 0.198125
0.428125 1.000000 0.198125
0.481250 1.000000 0.198125
0.534375 1.000000 0.198125
0.587500 1.000000 0.198125
0.640625 1.000000 0.198125
0.693750 1.000000 0.198125
0.746875 1.000000 0.198125
0.800000 1.000000 0.198125
0.000000 1.000000 0.198125
0.003125 1.000000 0.198125
0.056250 1.000000 0.198125
0.109375 1.000000 0.198125
0.162500 1.000000 0.198125
0.215625 1.000000 0.198125
0.268750 1.000000 0.198125
0.321875 1.000000 0.198125
0.375000 1.000000 0.198125
0.428125 1.000000 0.198125
0.481250 1.000000 0.198125
0.534375 1.000000 0.198125
0.587500 1.000000 0.198125
0.640625 1.000000 0.198125
0.693750 1.000000 0.198125
0.746875 1.000000 0.198125
0.800000 1.000000 0.198125
0.000000 0.080000 0.276250
0.003125 0.080000 0.276250
0.056250 0.080000 0.276250
0.109375 0.080000 0.276250
0.162500 0.080000 0.276250
0.215625 0.080000 0.276250
0.268750 0.080000 0.276250
0.321875 0.080000 0.276250
0.375000 0.080000 0.276250
0.428125 0.080000 0.276250
0.481250 0.080000 0.276250
0.534375 0.080000 0.276250
0.587500 0.080000 0.276250
0.640625 0.080000 0.276250
0.693750 0.080000 0.276250
0.746875 0.080000 0.276250
0.800000 0.080000 0.276250
0.000000 0.155000 0.276250
0.003125 0.155000 0.276250
0.056250 0.155000 0.276250
0.109375 0.155000 0.276250
0.162500 0.155000 0.276250
0.215625 0.155000 0.276250
0.268750 0.155000 0.276250
0.321875 0.155000 0.276250
0.375000 0.155000 0.276250
0.428125 0.155000 0.276250
0.481250 0.155000 0.276250
0.534375 0.155000 0.276250
0.587500 0.155000 0.276250
0.640625 0.155000 0.276250
0.693750 0.155000 0.276250
0.746875 0.155000 0.276250
0.800000 0.155000 0.276250
0.000000 0.230000 0.276250
0.003125 0.230000 0.276250
0.056250 0.230000 0.276250
0.109375 0.230000 0.276250
0.162500 0.230000 0.276250
0.215625 0.230000 0.276250
0.268750 0.230000 0.276250
0.321875 0.230000 0.276250
0.375000 0.230000 0.276250
0.428125 0.230000 0.276250
0.481250 0.230000 0.276250
0.534375 0.230000 0.276250
0.587500 0.230000 0.276250
0.640625 0.230000 0.276250
0.693750 0.230000 0.276250
0.746875 0.230000 0.276250
0.800000 0.230000 0.276250
0.000000 0.305000 0.276250
0.003125 0.305000 0.276250
0.056250 0.305000 0.276250
0.109375 0.305000 0.276250
0.162500 0.305000 0.276250
0.215625 0.305000 0.276250
0.268750 0.305000 0.276250
0.321875 0.305000 0.276250
0.375000 0.305000 0.276250
0.428125 0.305000 0.276250
0.481250 0.305000 0.276250
0.534375 0.305000 0.276250
0.587500 0.305000 0.276250
0.640625 0.305000 0.276250
0.693750 0.305000 0.276250
0.746875 0.305000 0.276250
0.800000 0.305000 0.276250
0.000000 0.380000 0.276250
0.003125 0.380000 0.276250
0.056250 0.380000 0.276250
0.109375 0.380000 0.276250
0.162500 0.380000 0.276250
0.215625 0.380000 0.276250
0.268750 0.380000 0.276250
0.321875 0.380000 0.276250
0.375000 0.380000 0.276250
0.428125 0.380000 0.276250
0.481250 0.380000 0.276250
0.534375 0.380000 0.276250
0.587500 0.380000 0.276250
0.640625 0.380000 0.276250
0.693750 0.380000 0.276250
0.746875 0.380000 0.276250
0.800000 0.380000 0.276250
0.000000 0.455000 0.276250
0.003125 0.455000 0.276250
0.056250 0.455000 0.276250
0.109375 0.455000 0.276250
0.162500 0.455000 0.276250
0.215625 0.455000 0.276250
0.268750 0.455000 0.276250
0.321875 0.455000 0.276250
0.375000 0.455000 0.276250
0.428125 0.455000 0.276250
0.481250 0.455000 0.276250
0.534375 0.455000 0.276250
0.587500 0.455000 0.276250
0.640625 0.455000 0.276250
0.693750 0.455000 0.276250
0.746875 0.455000 0.276250
0.800000 0.455000 0.276250
0.000000 0.530000 0.276250
0.003125 0.530000 0.276250
0.056250 0.530000 0.276250
0.109375 0.530000 0.276250
0.162500 0.530000 0.276250
0.215625 0.530000 0.276250
0.268750 0.530000 0.276250
0.321875 0.530000 0.276250
0.375000 0.530000 0.276250
0.428125 0.530000 0.276250
0.481250 0.530000 0.276250
0.534375 0.530000 0.276250
0.587500 0.530000 0.276250
0.640625 0.530000 0.276250
0.693750 0.530000 0.276250
0.746875 0.530000 0.276250
0.800000 0.530000 0.276250
0.000000 0.605000 0.276250
0.003125 0.605000 0.276250
0.056250 0.605000 0.276250
0.109375 0.605000 0.276250
0.162500 0.605000 0.276250
0.215625 0.605000 0.276250
0.268750 0.605000 0.276250
0.321875 0.605000 0.276250
0.375000 0.605000 0.276250
0.428125 0.605000 0.276250
0.481250 0.605000 0.276250
0.534375 0.605000 0.276250
0.587500 0.605000 0.276250
0.640625 0.605000 0.276250
0.693750 0.605000 0.276250
0.746875 0.605000 0.276250
0.800000 0.605000 0.276250
0.000000 0.680000 0.276250
0.003125 0.680000 0.276250
0.056250 0.680000 0.276250
0.109375 0.680000 0.276250
0.162500 0.680000 0.276250
0.215625 0.680000 0.276250
0.268750 0.680000 0.276250
0.321875 0.680000 0.276250
0.375000 0.680000 0.276250
0.428125 0.680000 0.276250
0.481250 0.680000 0.276250
0.534375 0.680000 0.276250
0.587500 0.680000 0.276250
0.640625 0.680000 0.276250
0.693750 0.680000 0.276250
0.746875 0.680000 0.276250
0.800000 0.680000 0.276250
0.000000 0.755000 0.276250
0.003125 0.755000 0.276250
0.056250 0.755000 0.276250
0.109375 0.755000 0.276250
0.162500 0.755000 0.276250
0.215625 0.755000 0.276250
0.268750 0.755000 0.276250
0.321875 0.755000 0.276250
0.375000 0.755000 0.276250
0.428125 0.755000 0.276250
0.481250 0.755000 0.276250
0.534375 0.755000 0.276250
0.587500 0.755000 0.276250
0.640625 0.755000 0.276250
0.693750 0.755000 0.276250
0.746875 0.755000 0.276250
0.800000 0.755000 0.276250
0.000000 0.830000 0.276250
0.003125 0.830000 0.276250
0.056250 0.830000 0.276250
0.109375 0.830000 0.276250
0.162500 0.830000 0.276250
0.215625 0.830000 0.276250
0.268750 0.830000 0.276250
0.321875 0.830000 0.276250
0.375000 0.830000 0.276250
0.428125 0.830000 0.276250
0.481250 0.830000 0.276250
0.534375 0.830000 0.276250
0.587500 0.830000 0.276250
0.640625 0.830000 0.276250
0.693750 0.830000 0.276250
0.746875 0.830000 0.276250
0.800000 0.830000 0.276250
0.000000 0.905000 0.276250
0.003125 0.905000 0.276250
0.056250 0.905000 0.276250
0.109375 0.905000 0.276250
0.162500 0.905000 0.276250
0.215625 0.905000 0.276250
0.268750 0.905000 0.276250
0.321875 0.905000 0.276250
0.375000 0.905000 0.276250
0.428125 0.905000 0.276250
0.481250 0.905000 0.276250
0.534375 0.905000 0.276250
0.587500 0.905000 0.276250
0.640625 0.905000 0.276250
0.693750 0.905000 0.276250
0.746875 0.905000 0.276250
0.800000 0.905000 0.276250
0.000000 0.980000 0.276250
0.003125 0.980000 0.276250
0.056250 0.980000 0.276250
0.109375 0.980000 0.276250
0.162500 0.980000 0.276250
0.215625 0.980000 0.276250
0.268750 0.980000 0.276250
0.321875 0.980000 0.276250
0.375000 0.980000 0.276250
0.428125 0.980000 0.276250
0.481250 0.980000 0.276250
0.534375 0.980000 0.276250
0.587500 0.980000 0.276250
0.640625 0.980000 0.276250
0.693750 0.980000 0.276250
0.746875 0.980000 0.276250
0.800000 0.980000 0.276250
0.000000 1.000000 0.276250
0.003125 1.000000 0.276250
0.056250 1.000000 0.276250
0.109375 1.000000 0.276250
0.162500 1.000000 0.276250
0.215625 1.000000 0.276250
0.268750 1.000000 0.276250
0.321875 1.000000 0.276250
0.375000 1.000000 0.276250
0.428125 1.000000 0.276250
0.481250 1.000000 0.276250
0.534375 1.000000 0.276250
0.587500 1.000000 0.276250
0.640625 1.000000 0.276250
0.693750 1.000000 0.276250
0.746875 1.000000 0.276250
0.800000 1.000000 0.276250
0.000000 1.000000 0.276250
0.003125 1.000000 0.276250
0.056250 1.000000 0.276250
0.109375 1.000000 0.276250
0.162500 1.000000 0.276250
0.215625 1.000000 0.276250
0.268750 1.000000 0.276250
0.321875 1.000000 0.276250
0.375000 1.000000 0.276250
0.428125 1.000000 0.276250
0.481250 1.000000 0.276250
0.534375 1.000000 0.276250
0.587500 1.000000 0.276250
0.640625 1.000000 0.276250
0.693750 1.000000 0.276250
0.746875 1.000000 0.276250
0.800000 1.000000 0.276250
0.000000 1.000000 0.276250
0.003125 1.000000 0.276250
0.056250 1.000000 0.276250
0.109375 1.000000 0.276250
0.162500 1.000000 0.276250
0.215625 1.000000 0.276250
0.268750 1.000000 0.276250
0.321875 1.000000 0.276250
0.375000 1.000000 0.276250
0.428125 1.000000 0.276250
0.481250 1.000000 0.276250
0.534375 1.000000 0.276250
0.587500 1.000000 0.276250
0.640625 1.000000 0.276250
0.693750 1.000000 0.276250
0.746875 1.000000 0.276250
0.800000 1.000000 0.276250
0.000000 1.000000 0.276250
0.003125 1.000000 0.276250
0.056250 1.000000 0.276250
0.109375 1.000000 0.276250
0.162500 1.000000 0.276250
0.215625 1.000000 0.276250
0.268750 1.000000 0.276250
0.321875 1.000000 0.276250
0.375000 1.000000 0.276250
0.428125 1.000000 0.276250
0.481250 1.000000 0.276250
0.534375 1.000000 0.276250
0.587500 1.000000 0.276250
0.640625 1.000000 0.276250
0.693750 1.000000 0.276250
0.746875 1.000000 0.276250
0.800000 1.000000 0.276250
0.000000 0.080000 0.354375
0.003125 0.080000 0.354375
0.056250 0.080000 0.354375
0.109375 0.080000 0.354375
0.162500 0.080000 0.354375
0.215625 0.080000 0.354375
0.268750 0.080000 0.354375
0.321875 0.080000 0.354375
0.375000 0.080000 0.354375
0.428125 0.080000 0.354375
0.481250 0.080000 0.354375
0.534375 0.080000 0.354375
0.587500 0.080000 0.354375
0.640625 0.080000 0.354375
0.693750 0.080000 0.354375
0.746875 0.080000 0.354375
0.800000 0.080000 0.354375
0.000000 0.155000 0.354375
