app/src/main/assets/luts/urban_shadow.cube
# ApexStudio filter: urban_shadow
LUT_3D_SIZE 9
DOMAIN_MIN 0.0 0.0 0.0
DOMAIN_MAX 1.0 1.0 1.0
0.000000 0.000000 0.000000
0.025000 0.000000 0.000000
0.150000 0.000000 0.000000
0.275000 0.000000 0.000000
0.400000 0.000000 0.000000
0.525000 0.000000 0.000000
0.650000 0.000000 0.000000
0.775000 0.000000 0.000000
0.900000 0.000000 0.000000
0.000000 0.080603 0.000000
0.025000 0.080603 0.000000
0.150000 0.080603 0.000000
0.275000 0.080603 0.000000
0.400000 0.080603 0.000000
0.525000 0.080603 0.000000
0.650000 0.080603 0.000000
0.775000 0.080603 0.000000
0.900000 0.080603 0.000000
0.000000 0.205134 0.000000
0.025000 0.205134 0.000000
0.150000 0.205134 0.000000
0.275000 0.205134 0.000000
0.400000 0.205134 0.000000
0.525000 0.205134 0.000000
0.650000 0.205134 0.000000
0.775000 0.205134 0.000000
0.900000 0.205134 0.000000
0.000000 0.325725 0.000000
0.025000 0.325725 0.000000
0.150000 0.325725 0.000000
0.275000 0.325725 0.000000
0.400000 0.325725 0.000000
0.525000 0.325725 0.000000
0.650000 0.325725 0.000000
0.775000 0.325725 0.000000
0.900000 0.325725 0.000000
0.000000 0.444068 0.000000
0.025000 0.444068 0.000000
0.150000 0.444068 0.000000
0.275000 0.444068 0.000000
0.400000 0.444068 0.000000
0.525000 0.444068 0.000000
0.650000 0.444068 0.000000
0.775000 0.444068 0.000000
0.900000 0.444068 0.000000
0.000000 0.560836 0.000000
0.025000 0.560836 0.000000
0.150000 0.560836 0.000000
0.275000 0.560836 0.000000
0.400000 0.560836 0.000000
0.525000 0.560836 0.000000
0.650000 0.560836 0.000000
0.775000 0.560836 0.000000
0.900000 0.560836 0.000000
0.000000 0.676391 0.000000
0.025000 0.676391 0.000000
0.150000 0.676391 0.000000
0.275000 0.676391 0.000000
0.400000 0.676391 0.000000
0.525000 0.676391 0.000000
0.650000 0.676391 0.000000
0.775000 0.676391 0.000000
0.900000 0.676391 0.000000
0.000000 0.790963 0.000000
0.025000 0.790963 0.000000
0.150000 0.790963 0.000000
0.275000 0.790963 0.000000
0.400000 0.790963 0.000000
0.525000 0.790963 0.000000
0.650000 0.790963 0.000000
0.775000 0.790963 0.000000
0.900000 0.790963 0.000000
0.000000 0.904707 0.000000
0.025000 0.904707 0.000000
0.150000 0.904707 0.000000
0.275000 0.904707 0.000000
0.400000 0.904707 0.000000
0.525000 0.904707 0.000000
0.650000 0.904707 0.000000
0.775000 0.904707 0.000000
0.900000 0.904707 0.000000
0.000000 0.000000 0.143461
0.025000 0.000000 0.143461
0.150000 0.000000 0.143461
0.275000 0.000000 0.143461
0.400000 0.000000 0.143461
0.525000 0.000000 0.143461
0.650000 0.000000 0.143461
0.775000 0.000000 0.143461
0.900000 0.000000 0.143461
0.000000 0.080603 0.143461
0.025000 0.080603 0.143461
0.150000 0.080603 0.143461
0.275000 0.080603 0.143461
0.400000 0.080603 0.143461
0.525000 0.080603 0.143461
0.650000 0.080603 0.143461
0.775000 0.080603 0.143461
0.900000 0.080603 0.143461
0.000000 0.205134 0.143461
0.025000 0.205134 0.143461
0.150000 0.205134 0.143461
0.275000 0.205134 0.143461
0.400000 0.205134 0.143461
0.525000 0.205134 0.143461
0.650000 0.205134 0.143461
0.775000 0.205134 0.143461
0.900000 0.205134 0.143461
0.000000 0.325725 0.143461
0.025000 0.325725 0.143461
0.150000 0.325725 0.143461
0.275000 0.325725 0.143461
0.400000 0.325725 0.143461
0.525000 0.325725 0.143461
0.650000 0.325725 0.143461
0.775000 0.325725 0.143461
0.900000 0.325725 0.143461
0.000000 0.444068 0.143461
0.025000 0.444068 0.143461
0.150000 0.444068 0.143461
0.275000 0.444068 0.143461
0.400000 0.444068 0.143461
0.525000 0.444068 0.143461
0.650000 0.444068 0.143461
0.775000 0.444068 0.143461
0.900000 0.444068 0.143461
0.000000 0.560836 0.143461
0.025000 0.560836 0.143461
0.150000 0.560836 0.143461
0.275000 0.560836 0.143461
0.400000 0.560836 0.143461
0.525000 0.560836 0.143461
0.650000 0.560836 0.143461
0.775000 0.560836 0.143461
0.900000 0.560836 0.143461
0.000000 0.676391 0.143461
0.025000 0.676391 0.143461
0.150000 0.676391 0.143461
0.275000 0.676391 0.143461
0.400000 0.676391 0.143461
0.525000 0.676391 0.143461
0.650000 0.676391 0.143461
0.775000 0.676391 0.143461
0.900000 0.676391 0.143461
0.000000 0.790963 0.143461
0.025000 0.790963 0.143461
0.150000 0.790963 0.143461
0.275000 0.790963 0.143461
0.400000 0.790963 0.143461
0.525000 0.790963 0.143461
0.650000 0.790963 0.143461
0.775000 0.790963 0.143461
0.900000 0.790963 0.143461
0.000000 0.904707 0.143461
0.025000 0.904707 0.143461
0.150000 0.904707 0.143461
0.275000 0.904707 0.143461
0.400000 0.904707 0.143461
0.525000 0.904707 0.143461
0.650000 0.904707 0.143461
0.775000 0.904707 0.143461
0.900000 0.904707 0.143461
0.000000 0.000000 0.269399
0.025000 0.000000 0.269399
0.150000 0.000000 0.269399
0.275000 0.000000 0.269399
0.400000 0.000000 0.269399
0.525000 0.000000 0.269399
0.650000 0.000000 0.269399
0.775000 0.000000 0.269399
0.900000 0.000000 0.269399
0.000000 0.080603 0.269399
0.025000 0.080603 0.269399
0.150000 0.080603 0.269399
0.275000 0.080603 0.269399
0.400000 0.080603 0.269399
0.525000 0.080603 0.269399
0.650000 0.080603 0.269399
0.775000 0.080603 0.269399
0.900000 0.080603 0.269399
0.000000 0.205134 0.269399
0.025000 0.205134 0.269399
0.150000 0.205134 0.269399
0.275000 0.205134 0.269399
0.400000 0.205134 0.269399
0.525000 0.205134 0.269399
0.650000 0.205134 0.269399
0.775000 0.205134 0.269399
0.900000 0.205134 0.269399
0.000000 0.325725 0.269399
0.025000 0.325725 0.269399
0.150000 0.325725 0.269399
0.275000 0.325725 0.269399
0.400000 0.325725 0.269399
0.525000 0.325725 0.269399
0.650000 0.325725 0.269399
0.775000 0.325725 0.269399
0.900000 0.325725 0.269399
0.000000 0.444068 0.269399
0.025000 0.444068 0.269399
0.150000 0.444068 0.269399
0.275000 0.444068 0.269399
0.400000 0.444068 0.269399
0.525000 0.444068 0.269399
0.650000 0.444068 0.269399
0.775000 0.444068 0.269399
0.900000 0.444068 0.269399
0.000000 0.560836 0.269399
0.025000 0.560836 0.269399
0.150000 0.560836 0.269399
0.275000 0.560836 0.269399
0.400000 0.560836 0.269399
0.525000 0.560836 0.269399
0.650000 0.560836 0.269399
0.775000 0.560836 0.269399
0.900000 0.560836 0.269399
0.000000 0.676391 0.269399
0.025000 0.676391 0.269399
0.150000 0.676391 0.269399
0.275000 0.676391 0.269399
0.400000 0.676391 0.269399
0.525000 0.676391 0.269399
0.650000 0.676391 0.269399
0.775000 0.676391 0.269399
0.900000 0.676391 0.269399
0.000000 0.790963 0.269399
0.025000 0.790963 0.269399
0.150000 0.790963 0.269399
0.275000 0.790963 0.269399
0.400000 0.790963 0.269399
0.525000 0.790963 0.269399
0.650000 0.790963 0.269399
0.775000 0.790963 0.269399
0.900000 0.790963 0.269399
0.000000 0.904707 0.269399
0.025000 0.904707 0.269399
0.150000 0.904707 0.269399
0.275000 0.904707 0.269399
0.400000 0.904707 0.269399
0.525000 0.904707 0.269399
0.650000 0.904707 0.269399
0.775000 0.904707 0.269399
0.900000 0.904707 0.269399
0.000000 0.000000 0.389475
0.025000 0.000000 0.389475
0.150000 0.000000 0.389475
0.275000 0.000000 0.389475
0.400000 0.000000 0.389475
0.525000 0.000000 0.389475
0.650000 0.000000 0.389475
0.775000 0.000000 0.389475
0.900000 0.000000 0.389475
0.000000 0.080603 0.389475
0.025000 0.080603 0.389475
0.150000 0.080603 0.389475
0.275000 0.080603 0.389475
0.400000 0.080603 0.389475
0.525000 0.080603 0.389475
0.650000 0.080603 0.389475
0.775000 0.080603 0.389475
0.900000 0.080603 0.389475
0.000000 0.205134 0.389475
0.025000 0.205134 0.389475
0.150000 0.205134 0.389475
0.275000 0.205134 0.389475
0.400000 0.205134 0.389475
0.525000 0.205134 0.389475
0.650000 0.205134 0.389475
0.775000 0.205134 0.389475
0.900000 0.205134 0.389475
0.000000 0.325725 0.389475
0.025000 0.325725 0.389475
0.150000 0.325725 0.389475
0.275000 0.325725 0.389475
0.400000 0.325725 0.389475
0.525000 0.325725 0.389475
0.650000 0.325725 0.389475
0.775000 0.325725 0.389475
0.900000 0.325725 0.389475
0.000000 0.444068 0.389475
0.025000 0.444068 0.389475
0.150000 0.444068 0.389475
0.275000 0.444068 0.389475
0.400000 0.444068 0.389475
0.525000 0.444068 0.389475
0.650000 0.444068 0.389475
0.775000 0.444068 0.389475
0.900000 0.444068 0.389475
0.000000 0.560836 0.389475
0.025000 0.560836 0.389475
0.150000 0.560836 0.389475
0.275000 0.560836 0.389475
0.400000 0.560836 0.389475
0.525000 0.560836 0.389475
0.650000 0.560836 0.389475
0.775000 0.560836 0.389475
0.900000 0.560836 0.389475
0.000000 0.676391 0.389475
0.025000 0.676391 0.389475
0.150000 0.676391 0.389475
0.275000 0.676391 0.389475
0.400000 0.676391 0.389475
0.525000 0.676391 0.389475
0.650000 0.676391 0.389475
0.775000 0.676391 0.389475
0.900000 0.676391 0.389475
0.000000 0.790963 0.389475
0.025000 0.790963 0.389475
0.150000 0.790963 0.389475
0.275000 0.790963 0.389475
0.400000 0.790963 0.389475
0.525000 0.790963 0.389475
0.650000 0.790963 0.389475
0.775000 0.790963 0.389475
0.900000 0.790963 0.389475
0.000000 0.904707 0.389475
0.025000 0.904707 0.389475
0.150000 0.904707 0.389475
0.275000 0.904707 0.389475
0.400000 0.904707 0.389475
0.525000 0.904707 0.389475
0.650000 0.904707 0.389475
0.775000 0.904707 0.389475
0.900000 0.904707 0.389475
0.000000 0.000000 0.505895
0.025000 0.000000 0.505895
0.150000 0.000000 0.505895
0.275000 0.000000 0.505895
0.400000 0.000000 0.505895
0.525000 0.000000 0.505895
0.650000 0.000000 0.505895
0.775000 0.000000 0.505895
0.900000 0.000000 0.505895
0.000000 0.080603 0.505895
0.025000 0.080603 0.505895
0.150000 0.080603 0.505895
0.275000 0.080603 0.505895
0.400000 0.080603 0.505895
0.525000 0.080603 0.505895
0.650000 0.080603 0.505895
0.775000 0.080603 0.505895
0.900000 0.080603 0.505895
0.000000 0.205134 0.505895
0.025000 0.205134 0.505895
0.150000 0.205134 0.505895
0.275000 0.205134 0.505895
0.400000 0.205134 0.505895
0.525000 0.205134 0.505895
0.650000 0.205134 0.505895
0.775000 0.205134 0.505895
0.900000 0.205134 0.505895
0.000000 0.325725 0.505895
0.025000 0.325725 0.505895
0.150000 0.325725 0.505895
0.275000 0.325725 0.505895
0.400000 0.325725 0.505895
0.525000 0.325725 0.505895
0.650000 0.325725 0.505895
0.775000 0.325725 0.505895
0.900000 0.325725 0.505895
0.000000 0.444068 0.505895
0.025000 0.444068 0.505895
0.150000 0.444068 0.505895
0.275000 0.444068 0.505895
0.400000 0.444068 0.505895
0.525000 0.444068 0.505895
0.650000 0.444068 0.505895
0.775000 0.444068 0.505895
0.900000 0.444068 0.505895
0.000000 0.560836 0.505895
0.025000 0.560836 0.505895
0.150000 0.560836 0.505895
0.275000 0.560836 0.505895
0.400000 0.560836 0.505895
0.525000 0.560836 0.505895
0.650000 0.560836 0.505895
0.775000 0.560836 0.505895
0.900000 0.560836 0.505895
0.000000 0.676391 0.505895
0.025000 0.676391 0.505895
0.150000 0.676391 0.505895
0.275000 0.676391 0.505895
0.400000 0.676391 0.505895
0.525000 0.676391 0.505895
0.650000 0.676391 0.505895
0.775000 0.676391 0.505895
0.900000 0.676391 0.505895
0.000000 0.790963 0.505895
0.025000 0.790963 0.505895
0.150000 0.790963 0.505895
0.275000 0.790963 0.505895
0.400000 0.790963 0.505895
0.525000 0.790963 0.505895
0.650000 0.790963 0.505895
0.775000 0.790963 0.505895
0.900000 0.790963 0.505895
0.000000 0.904707 0.505895
0.025000 0.904707 0.505895
0.150000 0.904707 0.505895
0.275000 0.904707 0.505895
0.400000 0.904707 0.505895
0.525000 0.904707 0.505895
0.650000 0.904707 0.505895
0.775000 0.904707 0.505895
0.900000 0.904707 0.505895
0.000000 0.000000 0.619669
0.025000 0.000000 0.619669
0.150000 0.000000 0.619669
0.275000 0.000000 0.619669
0.400000 0.000000 0.619669
0.525000 0.000000 0.619669
0.650000 0.000000 0.619669
0.775000 0.000000 0.619669
0.900000 0.000000 0.619669
0.000000 0.080603 0.619669
0.025000 0.080603 0.619669
0.150000 0.080603 0.619669
0.275000 0.080603 0.619669
0.400000 0.080603 0.619669
0.525000 0.080603 0.619669
0.650000 0.080603 0.619669
0.775000 0.080603 0.619669
0.900000 0.080603 0.619669
0.000000 0.205134 0.619669
0.025000 0.205134 0.619669
0.150000 0.205134 0.619669
0.275000 0.205134 0.619669
0.400000 0.205134 0.619669
0.525000 0.205134 0.619669
0.650000 0.205134 0.619669
0.775000 0.205134 0.619669
0.900000 0.205134 0.619669
0.000000 0.325725 0.619669
0.025000 0.325725 0.619669
0.150000 0.325725 0.619669
0.275000 0.325725 0.619669
0.400000 0.325725 0.619669
0.525000 0.325725 0.619669
0.650000 0.325725 0.619669
0.775000 0.325725 0.619669
0.900000 0.325725 0.619669
0.000000 0.444068 0.619669
0.025000 0.444068 0.619669
0.150000 0.444068 0.619669
0.275000 0.444068 0.619669
0.400000 0.444068 0.619669
0.525000 0.444068 0.619669
0.650000 0.444068 0.619669
0.775000 0.444068 0.619669
0.900000 0.444068 0.619669
0.000000 0.560836 0.619669
0.025000 0.560836 0.619669
0.150000 0.560836 0.619669
0.275000 0.560836 0.619669
0.400000 0.560836 0.619669
0.525000 0.560836 0.619669
0.650000 0.560836 0.619669
0.775000 0.560836 0.619669
0.900000 0.560836 0.619669
0.000000 0.676391 0.619669
0.025000 0.676391 0.619669
0.150000 0.676391 0.619669
0.275000 0.676391 0.619669
0.400000 0.676391 0.619669
0.525000 0.676391 0.619669
0.650000 0.676391 0.619669
0.775000 0.676391 0.619669
0.900000 0.676391 0.619669
0.000000 0.790963 0.619669
0.025000 0.790963 0.619669
0.150000 0.790963 0.619669
0.275000 0.790963 0.619669
0.400000 0.790963 0.619669
0.525000 0.790963 0.619669
0.650000 0.790963 0.619669
0.775000 0.790963 0.619669
0.900000 0.790963 0.619669
0.000000 0.904707 0.619669
0.025000 0.904707 0.619669
0.150000 0.904707 0.619669
0.275000 0.904707 0.619669
0.400000 0.904707 0.619669
0.525000 0.904707 0.619669
0.650000 0.904707 0.619669
0.775000 0.904707 0.619669
0.900000 0.904707 0.619669
0.000000 0.000000 0.731380
0.025000 0.000000 0.731380
0.150000 0.000000 0.731380
0.275000 0.000000 0.731380
0.400000 0.000000 0.731380
0.525000 0.000000 0.731380
0.650000 0.000000 0.731380
0.775000 0.000000 0.731380
0.900000 0.000000 0.731380
0.000000 0.080603 0.731380
0.025000 0.080603 0.731380
0.150000 0.080603 0.731380
0.275000 0.080603 0.731380
0.400000 0.080603 0.731380
0.525000 0.080603 0.731380
0.650000 0.080603 0.731380
0.775000 0.080603 0.731380
0.900000 0.080603 0.731380
0.000000 0.205134 0.731380
0.025000 0.205134 0.731380
0.150000 0.205134 0.731380
0.275000 0.205134 0.731380
0.400000 0.205134 0.731380
0.525000 0.205134 0.731380
0.650000 0.205134 0.731380
0.775000 0.205134 0.731380
0.900000 0.205134 0.731380
0.000000 0.325725 0.731380
0.025000 0.325725 0.731380
0.150000 0.325725 0.731380
0.275000 0.325725 0.731380
0.400000 0.325725 0.731380
0.525000 0.325725 0.731380
0.650000 0.325725 0.731380
0.775000 0.325725 0.731380
0.900000 0.325725 0.731380
0.000000 0.444068 0.731380
0.025000 0.444068 0.731380
0.150000 0.444068 0.731380
0.275000 0.444068 0.731380
0.400000 0.444068 0.731380
0.525000 0.444068 0.731380
0.650000 0.444068 0.731380
0.775000 0.444068 0.731380
0.900000 0.444068 0.731380
0.000000 0.560836 0.731380
0.025000 0.560836 0.731380
0.150000 0.560836 0.731380
0.275000 0.560836 0.731380
0.400000 0.560836 0.731380
0.525000 0.560836 0.731380
0.650000 0.560836 0.731380
0.775000 0.560836 0.731380
0.900000 0.560836 0.731380
0.000000 0.676391 0.731380
0.025000 0.676391 0.731380
0.150000 0.676391 0.731380
0.275000 0.676391 0.731380
0.400000 0.676391 0.731380
0.525000 0.676391 0.731380
0.650000 0.676391 0.731380
0.775000 0.676391 0.731380
0.900000 0.676391 0.731380
0.000000 0.790963 0.731380
0.025000 0.790963 0.731380
0.150000 0.790963 0.731380
0.275000 0.790963 0.731380
0.400000 0.790963 0.731380
0.525000 0.790963 0.731380
0.650000 0.790963 0.731380
0.775000 0.790963 0.731380
0.900000 0.790963 0.731380
0.000000 0.904707 0.731380
0.025000 0.904707 0.731380
0.150000 0.904707 0.731380
0.275000 0.904707 0.731380
0.400000 0.904707 0.731380
0.525000 0.904707 0.731380
0.650000 0.904707 0.731380
0.775000 0.904707 0.731380
0.900000 0.904707 0.731380
0.000000 0.000000 0.841402
0.025000 0.000000 0.841402
0.150000 0.000000 0.841402
0.275000 0.000000 0.841402
0.400000 0.000000 0.841402
0.525000 0.000000 0.841402
0.650000 0.000000 0.841402
0.775000 0.000000 0.841402
0.900000 0.000000 0.841402
0.000000 0.080603 0.841402
0.025000 0.080603 0.841402
0.150000 0.080603 0.841402
0.275000 0.080603 0.841402
0.400000 0.080603 0.841402
0.525000 0.080603 0.841402
0.650000 0.080603 0.841402
0.775000 0.080603 0.841402
0.900000 0.080603 0.841402
0.000000 0.205134 0.841402
0.025000 0.205134 0.841402
0.150000 0.205134 0.841402
0.275000 0.205134 0.841402
0.400000 0.205134 0.841402
0.525000 0.205134 0.841402
0.650000 0.205134 0.841402
0.775000 0.205134 0.841402
0.900000 0.205134 0.841402
0.000000 0.325725 0.841402
0.025000 0.325725 0.841402
0.150000 0.325725 0.841402
0.275000 0.325725 0.841402
0.400000 0.325725 0.841402
0.525000 0.325725 0.841402
0.650000 0.325725 0.841402
0.775000 0.325725 0.841402
0.900000 0.325725 0.841402
0.000000 0.444068 0.841402
0.025000 0.444068 0.841402
0.150000 0.444068 0.841402
0.275000 0.444068 0.841402
0.400000 0.444068 0.841402
0.525000 0.444068 0.841402
0.650000 0.444068 0.841402
0.775000 0.444068 0.841402
0.900000 0.444068 0.841402
0.000000 0.560836 0.841402
0.025000 0.560836 0.841402
0.150000 0.560836 0.841402
0.275000 0.560836 0.841402
0.400000 0.560836 0.841402
0.525000 0.560836 0.841402
0.650000 0.560836 0.841402
0.775000 0.560836 0.841402
0.900000 0.560836 0.841402
0.000000 0.676391 0.841402
0.025000 0.676391 0.841402
0.150000 0.676391 0.841402
0.275000 0.676391 0.841402
0.400000 0.676391 0.841402
0.525000 0.676391 0.841402
0.650000 0.676391 0.841402
0.775000 0.676391 0.841402
0.900000 0.676391 0.841402
0.000000 0.790963 0.841402
0.025000 0.790963 0.841402
0.150000 0.790963 0.841402
0.275000 0.790963 0.841402
0.400000 0.790963 0.841402
0.525000 0.790963 0.841402
0.650000 0.790963 0.841402
0.775000 0.790963 0.841402
0.900000 0.790963 0.841402
0.000000 0.904707 0.841402
0.025000 0.904707 0.841402
0.150000 0.904707 0.841402
0.275000 0.904707 0.841402
0.400000 0.904707 0.841402
0.525000 0.904707 0.841402
0.650000 0.904707 0.841402
0.775000 0.904707 0.841402
0.900000 0.904707 0.841402
0.000000 0.000000 0.950000
0.025000 0.000000 0.950000
0.150000 0.000000 0.950000
0.275000 0.000000 0.950000
0.400000 0.000000 0.950000
0.525000 0.000000 0.950000
0.650000 0.000000 0.950000
0.775000 0.000000 0.950000
0.900000 0.000000 0.950000
0.000000 0.080603 0.950000
0.025000 0.080603 0.950000
0.150000 0.080603 0.950000
0.275000 0.080603 0.950000
0.400000 0.080603 0.950000
0.525000 0.080603 0.950000
0.650000 0.080603 0.950000
0.775000 0.080603 0.950000
0.900000 0.080603 0.950000
0.000000 0.205134 0.950000
0.025000 0.205134 0.950000
0.150000 0.205134 0.950000
0.275000 0.205134 0.950000
0.400000 0.205134 0.950000
0.525000 0.205134 0.950000
0.650000 0.205134 0.950000
0.775000 0.205134 0.950000
0.900000 0.205134 0.950000
0.000000 0.325725 0.950000
0.025000 0.325725 0.950000
0.150000 0.325725 0.950000
0.275000 0.325725 0.950000
0.400000 0.325725 0.950000
0.525000 0.325725 0.950000
0.650000 0.325725 0.950000
0.775000 0.325725 0.950000
0.900000 0.325725 0.950000
0.000000 0.444068 0.950000
0.025000 0.444068 0.950000
0.150000 0.444068 0.950000
0.275000 0.444068 0.950000
0.400000 0.444068 0.950000
0.525000 0.444068 0.950000
0.650000 0.444068 0.950000
0.775000 0.444068 0.950000
0.900000 0.444068 0.950000
0.000000 0.560836 0.950000
0.025000 0.560836 0.950000
0.150000 0.560836 0.950000
0.275000 0.560836 0.950000
0.400000 0.560836 0.950000
0.525000 0.560836 0.950000
0.650000 0.560836 0.950000
0.775000 0.560836 0.950000
0.900000 0.560836 0.950000
0.000000 0.676391 0.950000
0.025000 0.676391 0.950000
0.150000 0.676391 0.950000
0.275000 0.676391 0.950000
0.400000 0.676391 0.950000
0.525000 0.676391 0.950000
0.650000 0.676391 0.950000
0.775000 0.676391 0.950000
0.900000 0.676391 0.950000
0.000000 0.790963 0.950000
0.025000 0.790963 0.950000
0.150000 0.790963 0.950000
0.275000 0.790963 0.950000
0.400000 0.790963 0.950000
0.525000 0.790963 0.950000
0.650000 0.790963 0.950000
0.775000 0.790963 0.950000
0.900000 0.790963 0.950000
0.000000 0.904707 0.950000
0.025000 0.904707 0.950000
0.150000 0.904707 0.950000
0.275000 0.904707 0.950000
0.400000 0.904707 0.950000
0.525000 0.904707 0.950000
0.650000 0.904707 0.950000
0.775000 0.904707 0.950000
0.900000 0.904707 0.950000
