app/src/main/assets/luts/urban_shadow.cube
# ApexStudio filter: urban_shadow
LUT_3D_SIZE 17
DOMAIN_MIN 0.0 0.0 0.0
DOMAIN_MAX 1.0 1.0 1.0
0.000000 0.000000 0.000000
0.000000 0.000000 0.000000
0.025000 0.000000 0.000000
0.087500 0.000000 0.000000
0.150000 0.000000 0.000000
0.212500 0.000000 0.000000
0.275000 0.000000 0.000000
0.337500 0.000000 0.000000
0.400000 0.000000 0.000000
0.462500 0.000000 0.000000
0.525000 0.000000 0.000000
0.587500 0.000000 0.000000
0.650000 0.000000 0.000000
0.712500 0.000000 0.000000
0.775000 0.000000 0.000000
0.837500 0.000000 0.000000
0.900000 0.000000 0.000000
0.000000 0.014630 0.000000
0.000000 0.014630 0.000000
0.025000 0.014630 0.000000
0.087500 0.014630 0.000000
0.150000 0.014630 0.000000
0.212500 0.014630 0.000000
0.275000 0.014630 0.000000
0.337500 0.014630 0.000000
0.400000 0.014630 0.000000
0.462500 0.014630 0.000000
0.525000 0.014630 0.000000
0.587500 0.014630 0.000000
0.650000 0.014630 0.000000
0.712500 0.014630 0.000000
0.775000 0.014630 0.000000
0.837500 0.014630 0.000000
0.900000 0.014630 0.000000
0.000000 0.080603 0.000000
0.000000 0.080603 0.000000
0.025000 0.080603 0.000000
0.087500 0.080603 0.000000
0.150000 0.080603 0.000000
0.212500 0.080603 0.000000
0.275000 0.080603 0.000000
0.337500 0.080603 0.000000
0.400000 0.080603 0.000000
0.462500 0.080603 0.000000
0.525000 0.080603 0.000000
0.587500 0.080603 0.000000
0.650000 0.080603 0.000000
0.712500 0.080603 0.000000
0.775000 0.080603 0.000000
0.837500 0.080603 0.000000
0.900000 0.080603 0.000000
0.000000 0.143569 0.000000
0.000000 0.143569 0.000000
0.025000 0.143569 0.000000
0.087500 0.143569 0.000000
0.150000 0.143569 0.000000
0.212500 0.143569 0.000000
0.275000 0.143569 0.000000
0.337500 0.143569 0.000000
0.400000 0.143569 0.000000
0.462500 0.143569 0.000000
0.525000 0.143569 0.000000
0.587500 0.143569 0.000000
0.650000 0.143569 0.000000
0.712500 0.143569 0.000000
0.775000 0.143569 0.000000
0.837500 0.143569 0.000000
0.900000 0.143569 0.000000
0.000000 0.205134 0.000000
0.000000 0.205134 0.000000
0.025000 0.205134 0.000000
0.087500 0.205134 0.000000
0.150000 0.205134 0.000000
0.212500 0.205134 0.000000
0.275000 0.205134 0.000000
0.337500 0.205134 0.000000
0.400000 0.205134 0.000000
0.462500 0.205134 0.000000
0.525000 0.205134 0.000000
0.587500 0.205134 0.000000
0.650000 0.205134 0.000000
0.712500 0.205134 0.000000
0.775000 0.205134 0.000000
0.837500 0.205134 0.000000
0.900000 0.205134 0.000000
0.000000 0.265775 0.000000
0.000000 0.265775 0.000000
0.025000 0.265775 0.000000
0.087500 0.265775 0.000000
0.150000 0.265775 0.000000
0.212500 0.265775 0.000000
0.275000 0.265775 0.000000
0.337500 0.265775 0.000000
0.400000 0.265775 0.000000
0.462500 0.265775 0.000000
0.525000 0.265775 0.000000
0.587500 0.265775 0.000000
0.650000 0.265775 0.000000
0.712500 0.265775 0.000000
0.775000 0.265775 0.000000
0.837500 0.265775 0.000000
0.900000 0.265775 0.000000
0.000000 0.325725 0.000000
0.000000 0.325725 0.000000
0.025000 0.325725 0.000000
0.087500 0.325725 0.000000
0.150000 0.325725 0.000000
0.212500 0.325725 0.000000
0.275000 0.325725 0.000000
0.337500 0.325725 0.000000
0.400000 0.325725 0.000000
0.462500 0.325725 0.000000
0.525000 0.325725 0.000000
0.587500 0.325725 0.000000
0.650000 0.325725 0.000000
0.712500 0.325725 0.000000
0.775000 0.325725 0.000000
0.837500 0.325725 0.000000
0.900000 0.325725 0.000000
0.000000 0.385125 0.000000
0.000000 0.385125 0.000000
0.025000 0.385125 0.000000
0.087500 0.385125 0.000000
0.150000 0.385125 0.000000
0.212500 0.385125 0.000000
0.275000 0.385125 0.000000
0.337500 0.385125 0.000000
0.400000 0.385125 0.000000
0.462500 0.385125 0.000000
0.525000 0.385125 0.000000
0.587500 0.385125 0.000000
0.650000 0.385125 0.000000
0.712500 0.385125 0.000000
0.775000 0.385125 0.000000
0.837500 0.385125 0.000000
0.900000 0.385125 0.000000
0.000000 0.444068 0.000000
0.000000 0.444068 0.000000
0.025000 0.444068 0.000000
0.087500 0.444068 0.000000
0.150000 0.444068 0.000000
0.212500 0.444068 0.000000
0.275000 0.444068 0.000000
0.337500 0.444068 0.000000
0.400000 0.444068 0.000000
0.462500 0.444068 0.000000
0.525000 0.444068 0.000000
0.587500 0.444068 0.000000
0.650000 0.444068 0.000000
0.712500 0.444068 0.000000
0.775000 0.444068 0.000000
0.837500 0.444068 0.000000
0.900000 0.444068 0.000000
0.000000 0.502622 0.000000
0.000000 0.502622 0.000000
0.025000 0.502622 0.000000
0.087500 0.502622 0.000000
0.150000 0.502622 0.000000
0.212500 0.502622 0.000000
0.275000 0.502622 0.000000
0.337500 0.502622 0.000000
0.400000 0.502622 0.000000
0.462500 0.502622 0.000000
0.525000 0.502622 0.000000
0.587500 0.502622 0.000000
0.650000 0.502622 0.000000
0.712500 0.502622 0.000000
0.775000 0.502622 0.000000
0.837500 0.502622 0.000000
0.900000 0.502622 0.000000
0.000000 0.560836 0.000000
0.000000 0.560836 0.000000
0.025000 0.560836 0.000000
0.087500 0.560836 0.000000
0.150000 0.560836 0.000000
0.212500 0.560836 0.000000
0.275000 0.560836 0.000000
0.337500 0.560836 0.000000
0.400000 0.560836 0.000000
0.462500 0.560836 0.000000
0.525000 0.560836 0.000000
0.587500 0.560836 0.000000
0.650000 0.560836 0.000000
0.712500 0.560836 0.000000
0.775000 0.560836 0.000000
0.837500 0.560836 0.000000
0.900000 0.560836 0.000000
0.000000 0.618749 0.000000
0.000000 0.618749 0.000000
0.025000 0.618749 0.000000
0.087500 0.618749 0.000000
0.150000 0.618749 0.000000
0.212500 0.618749 0.000000
0.275000 0.618749 0.000000
0.337500 0.618749 0.000000
0.400000 0.618749 0.000000
0.462500 0.618749 0.000000
0.525000 0.618749 0.000000
0.587500 0.618749 0.000000
0.650000 0.618749 0.000000
0.712500 0.618749 0.000000
0.775000 0.618749 0.000000
0.837500 0.618749 0.000000
0.900000 0.618749 0.000000
0.000000 0.676391 0.000000
0.000000 0.676391 0.000000
0.025000 0.676391 0.000000
0.087500 0.676391 0.000000
0.150000 0.676391 0.000000
0.212500 0.676391 0.000000
0.275000 0.676391 0.000000
0.337500 0.676391 0.000000
0.400000 0.676391 0.000000
0.462500 0.676391 0.000000
0.525000 0.676391 0.000000
0.587500 0.676391 0.000000
0.650000 0.676391 0.000000
0.712500 0.676391 0.000000
0.775000 0.676391 0.000000
0.837500 0.676391 0.000000
0.900000 0.676391 0.000000
0.000000 0.733789 0.000000
0.000000 0.733789 0.000000
0.025000 0.733789 0.000000
0.087500 0.733789 0.000000
0.150000 0.733789 0.000000
0.212500 0.733789 0.000000
0.275000 0.733789 0.000000
0.337500 0.733789 0.000000
0.400000 0.733789 0.000000
0.462500 0.733789 0.000000
0.525000 0.733789 0.000000
0.587500 0.733789 0.000000
0.650000 0.733789 0.000000
0.712500 0.733789 0.000000
0.775000 0.733789 0.000000
0.837500 0.733789 0.000000
0.900000 0.733789 0.000000
0.000000 0.790963 0.000000
0.000000 0.790963 0.000000
0.025000 0.790963 0.000000
0.087500 0.790963 0.000000
0.150000 0.790963 0.000000
0.212500 0.790963 0.000000
0.275000 0.790963 0.000000
0.337500 0.790963 0.000000
0.400000 0.790963 0.000000
0.462500 0.790963 0.000000
0.525000 0.790963 0.000000
0.587500 0.790963 0.000000
0.650000 0.790963 0.000000
0.712500 0.790963 0.000000
0.775000 0.790963 0.000000
0.837500 0.790963 0.000000
0.900000 0.790963 0.000000
0.000000 0.847930 0.000000
0.000000 0.847930 0.000000
0.025000 0.847930 0.000000
0.087500 0.847930 0.000000
0.150000 0.847930 0.000000
0.212500 0.847930 0.000000
0.275000 0.847930 0.000000
0.337500 0.847930 0.000000
0.400000 0.847930 0.000000
0.462500 0.847930 0.000000
0.525000 0.847930 0.000000
0.587500 0.847930 0.000000
0.650000 0.847930 0.000000
0.712500 0.847930 0.000000
0.775000 0.847930 0.000000
0.837500 0.847930 0.000000
0.900000 0.847930 0.000000
0.000000 0.904707 0.000000
0.000000 0.904707 0.000000
0.025000 0.904707 0.000000
0.087500 0.904707 0.000000
0.150000 0.904707 0.000000
0.212500 0.904707 0.000000
0.275000 0.904707 0.000000
0.337500 0.904707 0.000000
0.400000 0.904707 0.000000
0.462500 0.904707 0.000000
0.525000 0.904707 0.000000
0.587500 0.904707 0.000000
0.650000 0.904707 0.000000
0.712500 0.904707 0.000000
0.775000 0.904707 0.000000
0.837500 0.904707 0.000000
0.900000 0.904707 0.000000
0.000000 0.000000 0.076396
0.000000 0.000000 0.076396
0.025000 0.000000 0.076396
0.087500 0.000000 0.076396
0.150000 0.000000 0.076396
0.212500 0.000000 0.076396
0.275000 0.000000 0.076396
0.337500 0.000000 0.076396
0.400000 0.000000 0.076396
0.462500 0.000000 0.076396
0.525000 0.000000 0.076396
0.587500 0.000000 0.076396
0.650000 0.000000 0.076396
0.712500 0.000000 0.076396
0.775000 0.000000 0.076396
0.837500 0.000000 0.076396
0.900000 0.000000 0.076396
0.000000 0.014630 0.076396
0.000000 0.014630 0.076396
0.025000 0.014630 0.076396
0.087500 0.014630 0.076396
0.150000 0.014630 0.076396
0.212500 0.014630 0.076396
0.275000 0.014630 0.076396
0.337500 0.014630 0.076396
0.400000 0.014630 0.076396
0.462500 0.014630 0.076396
0.525000 0.014630 0.076396
0.587500 0.014630 0.076396
0.650000 0.014630 0.076396
0.712500 0.014630 0.076396
0.775000 0.014630 0.076396
0.837500 0.014630 0.076396
0.900000 0.014630 0.076396
0.000000 0.080603 0.076396
0.000000 0.080603 0.076396
0.025000 0.080603 0.076396
0.087500 0.080603 0.076396
0.150000 0.080603 0.076396
0.212500 0.080603 0.076396
0.275000 0.080603 0.076396
0.337500 0.080603 0.076396
0.400000 0.080603 0.076396
0.462500 0.080603 0.076396
0.525000 0.080603 0.076396
0.587500 0.080603 0.076396
0.650000 0.080603 0.076396
0.712500 0.080603 0.076396
0.775000 0.080603 0.076396
0.837500 0.080603 0.076396
0.900000 0.080603 0.076396
0.000000 0.143569 0.076396
0.000000 0.143569 0.076396
0.025000 0.143569 0.076396
0.087500 0.143569 0.076396
0.150000 0.143569 0.076396
0.212500 0.143569 0.076396
0.275000 0.143569 0.076396
0.337500 0.143569 0.076396
0.400000 0.143569 0.076396
0.462500 0.143569 0.076396
0.525000 0.143569 0.076396
0.587500 0.143569 0.076396
0.650000 0.143569 0.076396
0.712500 0.143569 0.076396
0.775000 0.143569 0.076396
0.837500 0.143569 0.076396
0.900000 0.143569 0.076396
0.000000 0.205134 0.076396
0.000000 0.205134 0.076396
0.025000 0.205134 0.076396
0.087500 0.205134 0.076396
0.150000 0.205134 0.076396
0.212500 0.205134 0.076396
0.275000 0.205134 0.076396
0.337500 0.205134 0.076396
0.400000 0.205134 0.076396
0.462500 0.205134 0.076396
0.525000 0.205134 0.076396
0.587500 0.205134 0.076396
0.650000 0.205134 0.076396
0.712500 0.205134 0.076396
0.775000 0.205134 0.076396
0.837500 0.205134 0.076396
0.900000 0.205134 0.076396
0.000000 0.265775 0.076396
0.000000 0.265775 0.076396
0.025000 0.265775 0.076396
0.087500 0.265775 0.076396
0.150000 0.265775 0.076396
0.212500 0.265775 0.076396
0.275000 0.265775 0.076396
0.337500 0.265775 0.076396
0.400000 0.265775 0.076396
0.462500 0.265775 0.076396
0.525000 0.265775 0.076396
0.587500 0.265775 0.076396
0.650000 0.265775 0.076396
0.712500 0.265775 0.076396
0.775000 0.265775 0.076396
0.837500 0.265775 0.076396
0.900000 0.265775 0.076396
0.000000 0.325725 0.076396
0.000000 0.325725 0.076396
0.025000 0.325725 0.076396
0.087500 0.325725 0.076396
0.150000 0.325725 0.076396
0.212500 0.325725 0.076396
0.275000 0.325725 0.076396
0.337500 0.325725 0.076396
0.400000 0.325725 0.076396
0.462500 0.325725 0.076396
0.525000 0.325725 0.076396
0.587500 0.325725 0.076396
0.650000 0.325725 0.076396
0.712500 0.325725 0.076396
0.775000 0.325725 0.076396
0.837500 0.325725 0.076396
0.900000 0.325725 0.076396
0.000000 0.385125 0.076396
0.000000 0.385125 0.076396
0.025000 0.385125 0.076396
0.087500 0.385125 0.076396
0.150000 0.385125 0.076396
0.212500 0.385125 0.076396
0.275000 0.385125 0.076396
0.337500 0.385125 0.076396
0.400000 0.385125 0.076396
0.462500 0.385125 0.076396
0.525000 0.385125 0.076396
0.587500 0.385125 0.076396
0.650000 0.385125 0.076396
0.712500 0.385125 0.076396
0.775000 0.385125 0.076396
0.837500 0.385125 0.076396
0.900000 0.385125 0.076396
0.000000 0.444068 0.076396
0.000000 0.444068 0.076396
0.025000 0.444068 0.076396
0.087500 0.444068 0.076396
0.150000 0.444068 0.076396
0.212500 0.444068 0.076396
0.275000 0.444068 0.076396
0.337500 0.444068 0.076396
0.400000 0.444068 0.076396
0.462500 0.444068 0.076396
0.525000 0.444068 0.076396
0.587500 0.444068 0.076396
0.650000 0.444068 0.076396
0.712500 0.444068 0.076396
0.775000 0.444068 0.076396
0.837500 0.444068 0.076396
0.900000 0.444068 0.076396
0.000000 0.502622 0.076396
0.000000 0.502622 0.076396
0.025000 0.502622 0.076396
0.087500 0.502622 0.076396
0.150000 0.502622 0.076396
0.212500 0.502622 0.076396
0.275000 0.502622 0.076396
0.337500 0.502622 0.076396
0.400000 0.502622 0.076396
0.462500 0.502622 0.076396
0.525000 0.502622 0.076396
0.587500 0.502622 0.076396
0.650000 0.502622 0.076396
0.712500 0.502622 0.076396
0.775000 0.502622 0.076396
0.837500 0.502622 0.076396
0.900000 0.502622 0.076396
0.000000 0.560836 0.076396
0.000000 0.560836 0.076396
0.025000 0.560836 0.076396
0.087500 0.560836 0.076396
0.150000 0.560836 0.076396
0.212500 0.560836 0.076396
0.275000 0.560836 0.076396
0.337500 0.560836 0.076396
0.400000 0.560836 0.076396
0.462500 0.560836 0.076396
0.525000 0.560836 0.076396
0.587500 0.560836 0.076396
0.650000 0.560836 0.076396
0.712500 0.560836 0.076396
0.775000 0.560836 0.076396
0.837500 0.560836 0.076396
0.900000 0.560836 0.076396
0.000000 0.618749 0.076396
0.000000 0.618749 0.076396
0.025000 0.618749 0.076396
0.087500 0.618749 0.076396
0.150000 0.618749 0.076396
0.212500 0.618749 0.076396
0.275000 0.618749 0.076396
0.337500 0.618749 0.076396
0.400000 0.618749 0.076396
0.462500 0.618749 0.076396
0.525000 0.618749 0.076396
0.587500 0.618749 0.076396
0.650000 0.618749 0.076396
0.712500 0.618749 0.076396
0.775000 0.618749 0.076396
0.837500 0.618749 0.076396
0.900000 0.618749 0.076396
0.000000 0.676391 0.076396
0.000000 0.676391 0.076396
0.025000 0.676391 0.076396
0.087500 0.676391 0.076396
0.150000 0.676391 0.076396
0.212500 0.676391 0.076396
0.275000 0.676391 0.076396
0.337500 0.676391 0.076396
0.400000 0.676391 0.076396
0.462500 0.676391 0.076396
0.525000 0.676391 0.076396
0.587500 0.676391 0.076396
0.650000 0.676391 0.076396
0.712500 0.676391 0.076396
0.775000 0.676391 0.076396
0.837500 0.676391 0.076396
0.900000 0.676391 0.076396
0.000000 0.733789 0.076396
0.000000 0.733789 0.076396
0.025000 0.733789 0.076396
0.087500 0.733789 0.076396
0.150000 0.733789 0.076396
0.212500 0.733789 0.076396
0.275000 0.733789 0.076396
0.337500 0.733789 0.076396
0.400000 0.733789 0.076396
0.462500 0.733789 0.076396
0.525000 0.733789 0.076396
0.587500 0.733789 0.076396
0.650000 0.733789 0.076396
0.712500 0.733789 0.076396
0.775000 0.733789 0.076396
0.837500 0.733789 0.076396
0.900000 0.733789 0.076396
0.000000 0.790963 0.076396
0.000000 0.790963 0.076396
0.025000 0.790963 0.076396
0.087500 0.790963 0.076396
0.150000 0.790963 0.076396
0.212500 0.790963 0.076396
0.275000 0.790963 0.076396
0.337500 0.790963 0.076396
0.400000 0.790963 0.076396
0.462500 0.790963 0.076396
0.525000 0.790963 0.076396
0.587500 0.790963 0.076396
0.650000 0.790963 0.076396
0.712500 0.790963 0.076396
0.775000 0.790963 0.076396
0.837500 0.790963 0.076396
0.900000 0.790963 0.076396
0.000000 0.847930 0.076396
0.000000 0.847930 0.076396
0.025000 0.847930 0.076396
0.087500 0.847930 0.076396
0.150000 0.847930 0.076396
0.212500 0.847930 0.076396
0.275000 0.847930 0.076396
0.337500 0.847930 0.076396
0.400000 0.847930 0.076396
0.462500 0.847930 0.076396
0.525000 0.847930 0.076396
0.587500 0.847930 0.076396
0.650000 0.847930 0.076396
0.712500 0.847930 0.076396
0.775000 0.847930 0.076396
0.837500 0.847930 0.076396
0.900000 0.847930 0.076396
0.000000 0.904707 0.076396
0.000000 0.904707 0.076396
0.025000 0.904707 0.076396
0.087500 0.904707 0.076396
0.150000 0.904707 0.076396
0.212500 0.904707 0.076396
0.275000 0.904707 0.076396
0.337500 0.904707 0.076396
0.400000 0.904707 0.076396
0.462500 0.904707 0.076396
0.525000 0.904707 0.076396
0.587500 0.904707 0.076396
0.650000 0.904707 0.076396
0.712500 0.904707 0.076396
0.775000 0.904707 0.076396
0.837500 0.904707 0.076396
0.900000 0.904707 0.076396
0.000000 0.000000 0.143461
0.000000 0.000000 0.143461
0.025000 0.000000 0.143461
0.087500 0.000000 0.143461
0.150000 0.000000 0.143461
0.212500 0.000000 0.143461
0.275000 0.000000 0.143461
0.337500 0.000000 0.143461
0.400000 0.000000 0.143461
0.462500 0.000000 0.143461
0.525000 0.000000 0.143461
0.587500 0.000000 0.143461
0.650000 0.000000 0.143461
0.712500 0.000000 0.143461
0.775000 0.000000 0.143461
0.837500 0.000000 0.143461
0.900000 0.000000 0.143461
0.000000 0.014630 0.143461
0.000000 0.014630 0.143461
0.025000 0.014630 0.143461
0.087500 0.014630 0.143461
0.150000 0.014630 0.143461
0.212500 0.014630 0.143461
0.275000 0.014630 0.143461
0.337500 0.014630 0.143461
0.400000 0.014630 0.143461
0.462500 0.014630 0.143461
0.525000 0.014630 0.143461
0.587500 0.014630 0.143461
0.650000 0.014630 0.143461
0.712500 0.014630 0.143461
0.775000 0.014630 0.143461
0.837500 0.014630 0.143461
0.900000 0.014630 0.143461
0.000000 0.080603 0.143461
0.000000 0.080603 0.143461
0.025000 0.080603 0.143461
0.087500 0.080603 0.143461
0.150000 0.080603 0.143461
0.212500 0.080603 0.143461
0.275000 0.080603 0.143461
0.337500 0.080603 0.143461
0.400000 0.080603 0.143461
0.462500 0.080603 0.143461
0.525000 0.080603 0.143461
0.587500 0.080603 0.143461
0.650000 0.080603 0.143461
0.712500 0.080603 0.143461
0.775000 0.080603 0.143461
0.837500 0.080603 0.143461
0.900000 0.080603 0.143461
0.000000 0.143569 0.143461
0.000000 0.143569 0.143461
0.025000 0.143569 0.143461
0.087500 0.143569 0.143461
0.150000 0.143569 0.143461
0.212500 0.143569 0.143461
0.275000 0.143569 0.143461
0.337500 0.143569 0.143461
0.400000 0.143569 0.143461
0.462500 0.143569 0.143461
0.525000 0.143569 0.143461
0.587500 0.143569 0.143461
0.650000 0.143569 0.143461
0.712500 0.143569 0.143461
0.775000 0.143569 0.143461
0.837500 0.143569 0.143461
0.900000 0.143569 0.143461
0.000000 0.205134 0.143461
0.000000 0.205134 0.143461
0.025000 0.205134 0.143461
0.087500 0.205134 0.143461
0.150000 0.205134 0.143461
0.212500 0.205134 0.143461
0.275000 0.205134 0.143461
0.337500 0.205134 0.143461
0.400000 0.205134 0.143461
0.462500 0.205134 0.143461
0.525000 0.205134 0.143461
0.587500 0.205134 0.143461
0.650000 0.205134 0.143461
0.712500 0.205134 0.143461
0.775000 0.205134 0.143461
0.837500 0.205134 0.143461
0.900000 0.205134 0.143461
0.000000 0.265775 0.143461
0.000000 0.265775 0.143461
0.025000 0.265775 0.143461
0.087500 0.265775 0.143461
0.150000 0.265775 0.143461
0.212500 0.265775 0.143461
0.275000 0.265775 0.143461
0.337500 0.265775 0.143461
0.400000 0.265775 0.143461
0.462500 0.265775 0.143461
0.525000 0.265775 0.143461
0.587500 0.265775 0.143461
0.650000 0.265775 0.143461
0.712500 0.265775 0.143461
0.775000 0.265775 0.143461
0.837500 0.265775 0.143461
0.900000 0.265775 0.143461
0.000000 0.325725 0.143461
0.000000 0.325725 0.143461
0.025000 0.325725 0.143461
0.087500 0.325725 0.143461
0.150000 0.325725 0.143461
0.212500 0.325725 0.143461
0.275000 0.325725 0.143461
0.337500 0.325725 0.143461
0.400000 0.325725 0.143461
0.462500 0.325725 0.143461
0.525000 0.325725 0.143461
0.587500 0.325725 0.143461
0.650000 0.325725 0.143461
0.712500 0.325725 0.143461
0.775000 0.325725 0.143461
0.837500 0.325725 0.143461
0.900000 0.325725 0.143461
0.000000 0.385125 0.143461
0.000000 0.385125 0.143461
0.025000 0.385125 0.143461
0.087500 0.385125 0.143461
0.150000 0.385125 0.143461
0.212500 0.385125 0.143461
0.275000 0.385125 0.143461
0.337500 0.385125 0.143461
0.400000 0.385125 0.143461
0.462500 0.385125 0.143461
0.525000 0.385125 0.143461
0.587500 0.385125 0.143461
0.650000 0.385125 0.143461
0.712500 0.385125 0.143461
0.775000 0.385125 0.143461
0.837500 0.385125 0.143461
0.900000 0.385125 0.143461
0.000000 0.444068 0.143461
0.000000 0.444068 0.143461
0.025000 0.444068 0.143461
0.087500 0.444068 0.143461
0.150000 0.444068 0.143461
0.212500 0.444068 0.143461
0.275000 0.444068 0.143461
0.337500 0.444068 0.143461
0.400000 0.444068 0.143461
0.462500 0.444068 0.143461
0.525000 0.444068 0.143461
0.587500 0.444068 0.143461
0.650000 0.444068 0.143461
0.712500 0.444068 0.143461
0.775000 0.444068 0.143461
0.837500 0.444068 0.143461
0.900000 0.444068 0.143461
0.000000 0.502622 0.143461
0.000000 0.502622 0.143461
0.025000 0.502622 0.143461
0.087500 0.502622 0.143461
0.150000 0.502622 0.143461
0.212500 0.502622 0.143461
0.275000 0.502622 0.143461
0.337500 0.502622 0.143461
0.400000 0.502622 0.143461
0.462500 0.502622 0.143461
0.525000 0.502622 0.143461
0.587500 0.502622 0.143461
0.650000 0.502622 0.143461
0.712500 0.502622 0.143461
0.775000 0.502622 0.143461
0.837500 0.502622 0.143461
0.900000 0.502622 0.143461
0.000000 0.560836 0.143461
0.000000 0.560836 0.143461
0.025000 0.560836 0.143461
0.087500 0.560836 0.143461
0.150000 0.560836 0.143461
0.212500 0.560836 0.143461
0.275000 0.560836 0.143461
0.337500 0.560836 0.143461
0.400000 0.560836 0.143461
0.462500 0.560836 0.143461
0.525000 0.560836 0.143461
0.587500 0.560836 0.143461
0.650000 0.560836 0.143461
0.712500 0.560836 0.143461
0.775000 0.560836 0.143461
0.837500 0.560836 0.143461
0.900000 0.560836 0.143461
0.000000 0.618749 0.143461
0.000000 0.618749 0.143461
0.025000 0.618749 0.143461
0.087500 0.618749 0.143461
0.150000 0.618749 0.143461
0.212500 0.618749 0.143461
0.275000 0.618749 0.143461
0.337500 0.618749 0.143461
0.400000 0.618749 0.143461
0.462500 0.618749 0.143461
0.525000 0.618749 0.143461
0.587500 0.618749 0.143461
0.650000 0.618749 0.143461
0.712500 0.618749 0.143461
0.775000 0.618749 0.143461
0.837500 0.618749 0.143461
0.900000 0.618749 0.143461
0.000000 0.676391 0.143461
0.000000 0.676391 0.143461
0.025000 0.676391 0.143461
0.087500 0.676391 0.143461
0.150000 0.676391 0.143461
0.212500 0.676391 0.143461
0.275000 0.676391 0.143461
0.337500 0.676391 0.143461
0.400000 0.676391 0.143461
0.462500 0.676391 0.143461
0.525000 0.676391 0.143461
0.587500 0.676391 0.143461
0.650000 0.676391 0.143461
0.712500 0.676391 0.143461
0.775000 0.676391 0.143461
0.837500 0.676391 0.143461
0.900000 0.676391 0.143461
0.000000 0.733789 0.143461
0.000000 0.733789 0.143461
0.025000 0.733789 0.143461
0.087500 0.733789 0.143461
0.150000 0.733789 0.143461
0.212500 0.733789 0.143461
0.275000 0.733789 0.143461
0.337500 0.733789 0.143461
0.400000 0.733789 0.143461
0.462500 0.733789 0.143461
0.525000 0.733789 0.143461
0.587500 0.733789 0.143461
0.650000 0.733789 0.143461
0.712500 0.733789 0.143461
0.775000 0.733789 0.143461
0.837500 0.733789 0.143461
0.900000 0.733789 0.143461
0.000000 0.790963 0.143461
0.000000 0.790963 0.143461
0.025000 0.790963 0.143461
0.087500 0.790963 0.143461
0.150000 0.790963 0.143461
0.212500 0.790963 0.143461
0.275000 0.790963 0.143461
0.337500 0.790963 0.143461
0.400000 0.790963 0.143461
0.462500 0.790963 0.143461
0.525000 0.790963 0.143461
0.587500 0.790963 0.143461
0.650000 0.790963 0.143461
0.712500 0.790963 0.143461
0.775000 0.790963 0.143461
0.837500 0.790963 0.143461
0.900000 0.790963 0.143461
0.000000 0.847930 0.143461
0.000000 0.847930 0.143461
0.025000 0.847930 0.143461
0.087500 0.847930 0.143461
0.150000 0.847930 0.143461
0.212500 0.847930 0.143461
0.275000 0.847930 0.143461
0.337500 0.847930 0.143461
0.400000 0.847930 0.143461
0.462500 0.847930 0.143461
0.525000 0.847930 0.143461
0.587500 0.847930 0.143461
0.650000 0.847930 0.143461
0.712500 0.847930 0.143461
0.775000 0.847930 0.143461
0.837500 0.847930 0.143461
0.900000 0.847930 0.143461
0.000000 0.904707 0.143461
0.000000 0.904707 0.143461
0.025000 0.904707 0.143461
0.087500 0.904707 0.143461
0.150000 0.904707 0.143461
0.212500 0.904707 0.143461
0.275000 0.904707 0.143461
0.337500 0.904707 0.143461
0.400000 0.904707 0.143461
0.462500 0.904707 0.143461
0.525000 0.904707 0.143461
0.587500 0.904707 0.143461
0.650000 0.904707 0.143461
0.712500 0.904707 0.143461
0.775000 0.904707 0.143461
0.837500 0.904707 0.143461
0.900000 0.904707 0.143461
0.000000 0.000000 0.207403
0.000000 0.000000 0.207403
0.025000 0.000000 0.207403
0.087500 0.000000 0.207403
0.150000 0.000000 0.207403
0.212500 0.000000 0.207403
0.275000 0.000000 0.207403
0.337500 0.000000 0.207403
0.400000 0.000000 0.207403
0.462500 0.000000 0.207403
0.525000 0.000000 0.207403
0.587500 0.000000 0.207403
0.650000 0.000000 0.207403
0.712500 0.000000 0.207403
0.775000 0.000000 0.207403
0.837500 0.000000 0.207403
0.900000 0.000000 0.207403
0.000000 0.014630 0.207403
