app/src/main/assets/luts/urban_shadow.cube
# ApexStudio filter: urban_shadow
LUT_3D_SIZE 5
DOMAIN_MIN 0.0 0.0 0.0
DOMAIN_MAX 1.0 1.0 1.0
0.000000 0.000000 0.000000
0.150000 0.000000 0.000000
0.400000 0.000000 0.000000
0.650000 0.000000 0.000000
0.900000 0.000000 0.000000
0.000000 0.205134 0.000000
0.150000 0.205134 0.000000
0.400000 0.205134 0.000000
0.650000 0.205134 0.000000
0.900000 0.205134 0.000000
0.000000 0.444068 0.000000
0.150000 0.444068 0.000000
0.400000 0.444068 0.000000
0.650000 0.444068 0.000000
0.900000 0.444068 0.000000
0.000000 0.676391 0.000000
0.150000 0.676391 0.000000
0.400000 0.676391 0.000000
0.650000 0.676391 0.000000
0.900000 0.676391 0.000000
0.000000 0.904707 0.000000
0.150000 0.904707 0.000000
0.400000 0.904707 0.000000
0.650000 0.904707 0.000000
0.900000 0.904707 0.000000
0.000000 0.000000 0.269399
0.150000 0.000000 0.269399
0.400000 0.000000 0.269399
0.650000 0.000000 0.269399
0.900000 0.000000 0.269399
0.000000 0.205134 0.269399
0.150000 0.205134 0.269399
0.400000 0.205134 0.269399
0.650000 0.205134 0.269399
0.900000 0.205134 0.269399
0.000000 0.444068 0.269399
0.150000 0.444068 0.269399
0.400000 0.444068 0.269399
0.650000 0.444068 0.269399
0.900000 0.444068 0.269399
0.000000 0.676391 0.269399
0.150000 0.676391 0.269399
0.400000 0.676391 0.269399
0.650000 0.676391 0.269399
0.900000 0.676391 0.269399
0.000000 0.904707 0.269399
0.150000 0.904707 0.269399
0.400000 0.904707 0.269399
0.650000 0.904707 0.269399
0.900000 0.904707 0.269399
0.000000 0.000000 0.505895
0.150000 0.000000 0.505895
0.400000 0.000000 0.505895
0.650000 0.000000 0.505895
0.900000 0.000000 0.505895
0.000000 0.205134 0.505895
0.150000 0.205134 0.505895
0.400000 0.205134 0.505895
0.650000 0.205134 0.505895
0.900000 0.205134 0.505895
0.000000 0.444068 0.505895
0.150000 0.444068 0.505895
0.400000 0.444068 0.505895
0.650000 0.444068 0.505895
0.900000 0.444068 0.505895
0.000000 0.676391 0.505895
0.150000 0.676391 0.505895
0.400000 0.676391 0.505895
0.650000 0.676391 0.505895
0.900000 0.676391 0.505895
0.000000 0.904707 0.505895
0.150000 0.904707 0.505895
0.400000 0.904707 0.505895
0.650000 0.904707 0.505895
0.900000 0.904707 0.505895
0.000000 0.000000 0.731380
0.150000 0.000000 0.731380
0.400000 0.000000 0.731380
0.650000 0.000000 0.731380
0.900000 0.000000 0.731380
0.000000 0.205134 0.731380
0.150000 0.205134 0.731380
0.400000 0.205134 0.731380
0.650000 0.205134 0.731380
0.900000 0.205134 0.731380
0.000000 0.444068 0.731380
0.150000 0.444068 0.731380
0.400000 0.444068 0.731380
0.650000 0.444068 0.731380
0.900000 0.444068 0.731380
0.000000 0.676391 0.731380
0.150000 0.676391 0.731380
0.400000 0.676391 0.731380
0.650000 0.676391 0.731380
0.900000 0.676391 0.731380
0.000000 0.904707 0.731380
0.150000 0.904707 0.731380
0.400000 0.904707 0.731380
0.650000 0.904707 0.731380
0.900000 0.904707 0.731380
0.000000 0.000000 0.950000
0.150000 0.000000 0.950000
0.400000 0.000000 0.950000
0.650000 0.000000 0.950000
0.900000 0.000000 0.950000
0.000000 0.205134 0.950000
0.150000 0.205134 0.950000
0.400000 0.205134 0.950000
0.650000 0.205134 0.950000
0.900000 0.205134 0.950000
0.000000 0.444068 0.950000
0.150000 0.444068 0.950000
0.400000 0.444068 0.950000
0.650000 0.444068 0.950000
0.900000 0.444068 0.950000
0.000000 0.676391 0.950000
0.150000 0.676391 0.950000
0.400000 0.676391 0.950000
0.650000 0.676391 0.950000
0.900000 0.676391 0.950000
0.000000 0.904707 0.950000
0.150000 0.904707 0.950000
0.400000 0.904707 0.950000
0.650000 0.904707 0.950000
0.900000 0.904707 0.950000
