app/src/main/assets/luts/vhs_warm.cube
# ApexStudio filter: vhs_warm
LUT_3D_SIZE 17
DOMAIN_MIN 0.0 0.0 0.0
DOMAIN_MAX 1.0 1.0 1.0
0.087758 0.000000 0.000000
0.166674 0.000000 0.000000
0.249664 0.000000 0.000000
0.335558 0.000000 0.000000
0.423731 0.000000 0.000000
0.513789 0.000000 0.000000
0.605462 0.000000 0.000000
0.698549 0.000000 0.000000
0.792896 0.000000 0.000000
0.888382 0.000000 0.000000
0.984908 0.000000 0.000000
1.000000 0.000000 0.000000
1.000000 0.000000 0.000000
1.000000 0.000000 0.000000
1.000000 0.000000 0.000000
1.000000 0.000000 0.000000
1.000000 0.000000 0.000000
0.076751 0.063740 0.000000
0.155668 0.057891 0.000000
0.238658 0.051740 0.000000
0.324552 0.045374 0.000000
0.412724 0.038839 0.000000
0.502783 0.032165 0.000000
0.594456 0.025371 0.000000
0.687543 0.018472 0.000000
0.781890 0.011479 0.000000
0.877376 0.004402 0.000000
0.973901 0.000000 0.000000
1.000000 0.000000 0.000000
1.000000 0.000000 0.000000
1.000000 0.000000 0.000000
1.000000 0.000000 0.000000
1.000000 0.000000 0.000000
1.000000 0.000000 0.000000
0.065745 0.133983 0.000000
0.144662 0.128135 0.000000
0.227652 0.121984 0.000000
0.313545 0.115618 0.000000
0.401718 0.109083 0.000000
0.491777 0.102409 0.000000
0.583450 0.095614 0.000000
0.676537 0.088715 0.000000
0.770884 0.081723 0.000000
0.866370 0.074646 0.000000
0.962895 0.067492 0.000000
1.000000 0.060267 0.000000
1.000000 0.052977 0.000000
1.000000 0.050787 0.000000
1.000000 0.050787 0.000000
1.000000 0.050787 0.000000
1.000000 0.050787 0.000000
0.054739 0.204227 0.000000
0.133656 0.198378 0.000000
0.216645 0.192228 0.000000
0.302539 0.185862 0.000000
0.390712 0.179327 0.000000
0.480771 0.172652 0.000000
0.572443 0.165858 0.000000
0.665530 0.158959 0.000000
0.759878 0.151967 0.000000
0.855364 0.144890 0.000000
0.951889 0.137736 0.000000
1.000000 0.130511 0.000000
1.000000 0.123221 0.000000
1.000000 0.121031 0.000000
1.000000 0.121031 0.000000
1.000000 0.121031 0.000000
1.000000 0.121031 0.000000
0.043733 0.274471 0.000000
0.122649 0.268622 0.000000
0.205639 0.262471 0.000000
0.291533 0.256106 0.000000
0.379706 0.249571 0.000000
0.469764 0.242896 0.000000
0.561437 0.236102 0.000000
0.654524 0.229203 0.000000
0.748871 0.222210 0.000000
0.844357 0.215134 0.000000
0.940883 0.207980 0.000000
1.000000 0.200755 0.000000
1.000000 0.193464 0.000000
1.000000 0.191275 0.000000
1.000000 0.191275 0.000000
1.000000 0.191275 0.000000
1.000000 0.191275 0.000000
0.032726 0.344715 0.000000
0.111643 0.338866 0.000000
0.194633 0.332715 0.000000
0.280527 0.326349 0.000000
0.368699 0.319814 0.000000
0.458758 0.313140 0.000000
0.550431 0.306346 0.000000
0.643518 0.299447 0.000000
0.737865 0.292454 0.000000
0.833351 0.285377 0.000000
0.929876 0.278223 0.000000
1.000000 0.270999 0.000000
1.000000 0.263708 0.000000
1.000000 0.261519 0.000000
1.000000 0.261519 0.000000
1.000000 0.261519 0.000000
1.000000 0.261519 0.000000
0.021720 0.414958 0.000000
0.100637 0.409110 0.000000
0.183627 0.402959 0.000000
0.269520 0.396593 0.000000
0.357693 0.390058 0.000000
0.447752 0.383384 0.000000
0.539425 0.376589 0.000000
0.632512 0.369690 0.000000
0.726859 0.362698 0.000000
0.822345 0.355621 0.000000
0.918870 0.348467 0.000000
1.000000 0.341242 0.000000
1.000000 0.333952 0.000000
1.000000 0.331763 0.000000
1.000000 0.331763 0.000000
1.000000 0.331763 0.000000
1.000000 0.331763 0.000000
0.010714 0.485202 0.000000
0.089631 0.479353 0.000000
0.172620 0.473203 0.000000
0.258514 0.466837 0.000000
0.346687 0.460302 0.000000
0.436746 0.453627 0.000000
0.528418 0.446833 0.000000
0.621505 0.439934 0.000000
0.715853 0.432942 0.000000
0.811339 0.425865 0.000000
0.907864 0.418711 0.000000
1.000000 0.411486 0.000000
1.000000 0.404196 0.000000
1.000000 0.402006 0.000000
1.000000 0.402006 0.000000
1.000000 0.402006 0.000000
1.000000 0.402006 0.000000
0.000000 0.555446 0.000000
0.078624 0.549597 0.000000
0.161614 0.543446 0.000000
0.247508 0.537081 0.000000
0.335681 0.530546 0.000000
0.425739 0.523871 0.000000
0.517412 0.517077 0.000000
0.610499 0.510178 0.000000
0.704846 0.503185 0.000000
0.800332 0.496109 0.000000
0.896858 0.488955 0.000000
0.994340 0.481730 0.000000
1.000000 0.474439 0.000000
1.000000 0.472250 0.000000
1.000000 0.472250 0.000000
1.000000 0.472250 0.000000
1.000000 0.472250 0.000000
0.000000 0.625690 0.000000
0.067618 0.619841 0.000000
0.150608 0.613690 0.000000
0.236502 0.607324 0.000000
0.324674 0.600789 0.000000
0.414733 0.594115 0.000000
0.506406 0.587321 0.000000
0.599493 0.580422 0.000000
0.693840 0.573429 0.000000
0.789326 0.566352 0.000000
0.885851 0.559198 0.000000
0.983333 0.551974 0.000000
1.000000 0.544683 0.000000
1.000000 0.542494 0.000000
1.000000 0.542494 0.000000
1.000000 0.542494 0.000000
1.000000 0.542494 0.000000
0.000000 0.695933 0.000000
0.056612 0.690085 0.000000
0.139602 0.683934 0.000000
0.225495 0.677568 0.000000
0.313668 0.671033 0.000000
0.403727 0.664359 0.000000
0.495400 0.657564 0.000000
0.588487 0.650665 0.000000
0.682834 0.643673 0.000000
0.778320 0.636596 0.000000
0.874845 0.629442 0.000000
0.972327 0.622217 0.000000
1.000000 0.614927 0.000000
1.000000 0.612738 0.000000
1.000000 0.612738 0.000000
1.000000 0.612738 0.000000
1.000000 0.612738 0.000000
0.000000 0.766177 0.000000
0.045606 0.760328 0.000000
0.128595 0.754178 0.000000
0.214489 0.747812 0.000000
0.302662 0.741277 0.000000
0.392721 0.734602 0.000000
0.484393 0.727808 0.000000
0.577480 0.720909 0.000000
0.671828 0.713917 0.000000
0.767314 0.706840 0.000000
0.863839 0.699686 0.000000
0.961321 0.692461 0.000000
1.000000 0.685171 0.000000
1.000000 0.682981 0.000000
1.000000 0.682981 0.000000
1.000000 0.682981 0.000000
1.000000 0.682981 0.000000
0.000000 0.836421 0.000000
0.034599 0.830572 0.000000
0.117589 0.824421 0.000000
0.203483 0.818056 0.000000
0.291656 0.811521 0.000000
0.381714 0.804846 0.000000
0.473387 0.798052 0.000000
0.566474 0.791153 0.000000
0.660821 0.784160 0.000000
0.756307 0.777084 0.000000
0.852833 0.769930 0.000000
0.950315 0.762705 0.000000
1.000000 0.755414 0.000000
1.000000 0.753225 0.000000
1.000000 0.753225 0.000000
1.000000 0.753225 0.000000
1.000000 0.753225 0.000000
0.000000 0.906665 0.000000
0.023593 0.900816 0.000000
0.106583 0.894665 0.000000
0.192477 0.888299 0.000000
0.280649 0.881764 0.000000
0.370708 0.875090 0.000000
0.462381 0.868296 0.000000
0.555468 0.861397 0.000000
0.649815 0.854404 0.000000
0.745301 0.847327 0.000000
0.841826 0.840173 0.000000
0.939308 0.832949 0.000000
1.000000 0.825658 0.000000
1.000000 0.823469 0.000000
1.000000 0.823469 0.000000
1.000000 0.823469 0.000000
1.000000 0.823469 0.000000
0.000000 0.976908 0.000000
0.012587 0.971060 0.000000
0.095577 0.964909 0.000000
0.181470 0.958543 0.000000
0.269643 0.952008 0.000000
0.359702 0.945334 0.000000
0.451375 0.938539 0.000000
0.544462 0.931640 0.000000
0.638809 0.924648 0.000000
0.734295 0.917571 0.000000
0.830820 0.910417 0.000000
0.928302 0.903192 0.000000
1.000000 0.895902 0.000000
1.000000 0.893713 0.000000
1.000000 0.893713 0.000000
1.000000 0.893713 0.000000
1.000000 0.893713 0.000000
0.000000 1.000000 0.000000
0.001581 1.000000 0.000000
0.084570 1.000000 0.000000
0.170464 1.000000 0.000000
0.258637 1.000000 0.000000
0.348696 1.000000 0.000000
0.440368 1.000000 0.000000
0.533455 1.000000 0.000000
0.627803 0.994892 0.000000
0.723289 0.987815 0.000000
0.819814 0.980661 0.000000
0.917296 0.973436 0.000000
1.000000 0.966146 0.000000
1.000000 0.963956 0.000000
1.000000 0.963956 0.000000
1.000000 0.963956 0.000000
1.000000 0.963956 0.000000
0.000000 1.000000 0.000000
0.000000 1.000000 0.000000
0.073564 1.000000 0.000000
0.159458 1.000000 0.000000
0.247631 1.000000 0.000000
0.337689 1.000000 0.000000
0.429362 1.000000 0.000000
0.522449 1.000000 0.000000
0.616796 1.000000 0.000000
0.712282 1.000000 0.000000
0.808808 1.000000 0.000000
0.906290 1.000000 0.000000
1.000000 1.000000 0.000000
1.000000 1.000000 0.000000
1.000000 1.000000 0.000000
1.000000 1.000000 0.000000
1.000000 1.000000 0.000000
0.087758 0.000000 0.000000
0.166674 0.000000 0.000000
0.249664 0.000000 0.000000
0.335558 0.000000 0.000000
0.423731 0.000000 0.000000
0.513789 0.000000 0.000000
0.605462 0.000000 0.000000
0.698549 0.000000 0.000000
0.792896 0.000000 0.000000
0.888382 0.000000 0.000000
0.984908 0.000000 0.000000
1.000000 0.000000 0.000000
1.000000 0.000000 0.000000
1.000000 0.000000 0.000000
1.000000 0.000000 0.000000
1.000000 0.000000 0.000000
1.000000 0.000000 0.000000
0.076751 0.063740 0.000000
0.155668 0.057891 0.000000
0.238658 0.051740 0.000000
0.324552 0.045374 0.000000
0.412724 0.038839 0.000000
0.502783 0.032165 0.000000
0.594456 0.025371 0.000000
0.687543 0.018472 0.000000
0.781890 0.011479 0.000000
0.877376 0.004402 0.000000
0.973901 0.000000 0.000000
1.000000 0.000000 0.000000
1.000000 0.000000 0.000000
1.000000 0.000000 0.000000
1.000000 0.000000 0.000000
1.000000 0.000000 0.000000
1.000000 0.000000 0.000000
0.065745 0.133983 0.000000
0.144662 0.128135 0.000000
0.227652 0.121984 0.000000
0.313545 0.115618 0.000000
0.401718 0.109083 0.000000
0.491777 0.102409 0.000000
0.583450 0.095614 0.000000
0.676537 0.088715 0.000000
0.770884 0.081723 0.000000
0.866370 0.074646 0.000000
0.962895 0.067492 0.000000
1.000000 0.060267 0.000000
1.000000 0.052977 0.000000
1.000000 0.050787 0.000000
1.000000 0.050787 0.000000
1.000000 0.050787 0.000000
1.000000 0.050787 0.000000
0.054739 0.204227 0.000000
0.133656 0.198378 0.000000
0.216645 0.192228 0.000000
0.302539 0.185862 0.000000
0.390712 0.179327 0.000000
0.480771 0.172652 0.000000
0.572443 0.165858 0.000000
0.665530 0.158959 0.000000
0.759878 0.151967 0.000000
0.855364 0.144890 0.000000
0.951889 0.137736 0.000000
1.000000 0.130511 0.000000
1.000000 0.123221 0.000000
1.000000 0.121031 0.000000
1.000000 0.121031 0.000000
1.000000 0.121031 0.000000
1.000000 0.121031 0.000000
0.043733 0.274471 0.000000
0.122649 0.268622 0.000000
0.205639 0.262471 0.000000
0.291533 0.256106 0.000000
0.379706 0.249571 0.000000
0.469764 0.242896 0.000000
0.561437 0.236102 0.000000
0.654524 0.229203 0.000000
0.748871 0.222210 0.000000
0.844357 0.215134 0.000000
0.940883 0.207980 0.000000
1.000000 0.200755 0.000000
1.000000 0.193464 0.000000
1.000000 0.191275 0.000000
1.000000 0.191275 0.000000
1.000000 0.191275 0.000000
1.000000 0.191275 0.000000
0.032726 0.344715 0.000000
0.111643 0.338866 0.000000
0.194633 0.332715 0.000000
0.280527 0.326349 0.000000
0.368699 0.319814 0.000000
0.458758 0.313140 0.000000
0.550431 0.306346 0.000000
0.643518 0.299447 0.000000
0.737865 0.292454 0.000000
0.833351 0.285377 0.000000
0.929876 0.278223 0.000000
1.000000 0.270999 0.000000
1.000000 0.263708 0.000000
1.000000 0.261519 0.000000
1.000000 0.261519 0.000000
1.000000 0.261519 0.000000
1.000000 0.261519 0.000000
0.021720 0.414958 0.000000
0.100637 0.409110 0.000000
0.183627 0.402959 0.000000
0.269520 0.396593 0.000000
0.357693 0.390058 0.000000
0.447752 0.383384 0.000000
0.539425 0.376589 0.000000
0.632512 0.369690 0.000000
0.726859 0.362698 0.000000
0.822345 0.355621 0.000000
0.918870 0.348467 0.000000
1.000000 0.341242 0.000000
1.000000 0.333952 0.000000
1.000000 0.331763 0.000000
1.000000 0.331763 0.000000
1.000000 0.331763 0.000000
1.000000 0.331763 0.000000
0.010714 0.485202 0.000000
0.089631 0.479353 0.000000
0.172620 0.473203 0.000000
0.258514 0.466837 0.000000
0.346687 0.460302 0.000000
0.436746 0.453627 0.000000
0.528418 0.446833 0.000000
0.621505 0.439934 0.000000
0.715853 0.432942 0.000000
0.811339 0.425865 0.000000
0.907864 0.418711 0.000000
1.000000 0.411486 0.000000
1.000000 0.404196 0.000000
1.000000 0.402006 0.000000
1.000000 0.402006 0.000000
1.000000 0.402006 0.000000
1.000000 0.402006 0.000000
0.000000 0.555446 0.000000
0.078624 0.549597 0.000000
0.161614 0.543446 0.000000
0.247508 0.537081 0.000000
0.335681 0.530546 0.000000
0.425739 0.523871 0.000000
0.517412 0.517077 0.000000
0.610499 0.510178 0.000000
0.704846 0.503185 0.000000
0.800332 0.496109 0.000000
0.896858 0.488955 0.000000
0.994340 0.481730 0.000000
1.000000 0.474439 0.000000
1.000000 0.472250 0.000000
1.000000 0.472250 0.000000
1.000000 0.472250 0.000000
1.000000 0.472250 0.000000
0.000000 0.625690 0.000000
0.067618 0.619841 0.000000
0.150608 0.613690 0.000000
0.236502 0.607324 0.000000
0.324674 0.600789 0.000000
0.414733 0.594115 0.000000
0.506406 0.587321 0.000000
0.599493 0.580422 0.000000
0.693840 0.573429 0.000000
0.789326 0.566352 0.000000
0.885851 0.559198 0.000000
0.983333 0.551974 0.000000
1.000000 0.544683 0.000000
1.000000 0.542494 0.000000
1.000000 0.542494 0.000000
1.000000 0.542494 0.000000
1.000000 0.542494 0.000000
0.000000 0.695933 0.000000
0.056612 0.690085 0.000000
0.139602 0.683934 0.000000
0.225495 0.677568 0.000000
0.313668 0.671033 0.000000
0.403727 0.664359 0.000000
0.495400 0.657564 0.000000
0.588487 0.650665 0.000000
0.682834 0.643673 0.000000
0.778320 0.636596 0.000000
0.874845 0.629442 0.000000
0.972327 0.622217 0.000000
1.000000 0.614927 0.000000
1.000000 0.612738 0.000000
1.000000 0.612738 0.000000
1.000000 0.612738 0.000000
1.000000 0.612738 0.000000
0.000000 0.766177 0.000000
0.045606 0.760328 0.000000
0.128595 0.754178 0.000000
0.214489 0.747812 0.000000
0.302662 0.741277 0.000000
0.392721 0.734602 0.000000
0.484393 0.727808 0.000000
0.577480 0.720909 0.000000
0.671828 0.713917 0.000000
0.767314 0.706840 0.000000
0.863839 0.699686 0.000000
0.961321 0.692461 0.000000
1.000000 0.685171 0.000000
1.000000 0.682981 0.000000
1.000000 0.682981 0.000000
1.000000 0.682981 0.000000
1.000000 0.682981 0.000000
0.000000 0.836421 0.000000
0.034599 0.830572 0.000000
0.117589 0.824421 0.000000
0.203483 0.818056 0.000000
0.291656 0.811521 0.000000
0.381714 0.804846 0.000000
0.473387 0.798052 0.000000
0.566474 0.791153 0.000000
0.660821 0.784160 0.000000
0.756307 0.777084 0.000000
0.852833 0.769930 0.000000
0.950315 0.762705 0.000000
1.000000 0.755414 0.000000
1.000000 0.753225 0.000000
1.000000 0.753225 0.000000
1.000000 0.753225 0.000000
1.000000 0.753225 0.000000
0.000000 0.906665 0.000000
0.023593 0.900816 0.000000
0.106583 0.894665 0.000000
0.192477 0.888299 0.000000
0.280649 0.881764 0.000000
0.370708 0.875090 0.000000
0.462381 0.868296 0.000000
0.555468 0.861397 0.000000
0.649815 0.854404 0.000000
0.745301 0.847327 0.000000
0.841826 0.840173 0.000000
0.939308 0.832949 0.000000
1.000000 0.825658 0.000000
1.000000 0.823469 0.000000
1.000000 0.823469 0.000000
1.000000 0.823469 0.000000
1.000000 0.823469 0.000000
0.000000 0.976908 0.000000
0.012587 0.971060 0.000000
0.095577 0.964909 0.000000
0.181470 0.958543 0.000000
0.269643 0.952008 0.000000
0.359702 0.945334 0.000000
0.451375 0.938539 0.000000
0.544462 0.931640 0.000000
0.638809 0.924648 0.000000
0.734295 0.917571 0.000000
0.830820 0.910417 0.000000
0.928302 0.903192 0.000000
1.000000 0.895902 0.000000
1.000000 0.893713 0.000000
1.000000 0.893713 0.000000
1.000000 0.893713 0.000000
1.000000 0.893713 0.000000
0.000000 1.000000 0.000000
0.001581 1.000000 0.000000
0.084570 1.000000 0.000000
0.170464 1.000000 0.000000
0.258637 1.000000 0.000000
0.348696 1.000000 0.000000
0.440368 1.000000 0.000000
0.533455 1.000000 0.000000
0.627803 0.994892 0.000000
0.723289 0.987815 0.000000
0.819814 0.980661 0.000000
0.917296 0.973436 0.000000
1.000000 0.966146 0.000000
1.000000 0.963956 0.000000
1.000000 0.963956 0.000000
1.000000 0.963956 0.000000
1.000000 0.963956 0.000000
0.000000 1.000000 0.000000
0.000000 1.000000 0.000000
0.073564 1.000000 0.000000
0.159458 1.000000 0.000000
0.247631 1.000000 0.000000
0.337689 1.000000 0.000000
0.429362 1.000000 0.000000
0.522449 1.000000 0.000000
0.616796 1.000000 0.000000
0.712282 1.000000 0.000000
0.808808 1.000000 0.000000
0.906290 1.000000 0.000000
1.000000 1.000000 0.000000
1.000000 1.000000 0.000000
1.000000 1.000000 0.000000
1.000000 1.000000 0.000000
1.000000 1.000000 0.000000
0.086024 0.000000 0.057681
0.164940 0.000000 0.051832
0.247930 0.000000 0.045681
0.333824 0.000000 0.039315
0.421996 0.000000 0.032780
0.512055 0.000000 0.026106
0.603728 0.000000 0.019312
0.696815 0.000000 0.012413
0.791162 0.000000 0.005420
0.886648 0.000000 0.000000
0.983173 0.000000 0.000000
1.000000 0.000000 0.000000
1.000000 0.000000 0.000000
1.000000 0.000000 0.000000
1.000000 0.000000 0.000000
1.000000 0.000000 0.000000
1.000000 0.000000 0.000000
0.075017 0.062006 0.046674
0.153934 0.056157 0.040826
0.236924 0.050006 0.034675
0.322817 0.043640 0.028309
0.410990 0.037105 0.021774
0.501049 0.030431 0.015100
0.592722 0.023636 0.008305
0.685809 0.016737 0.001406
0.780156 0.009745 0.000000
0.875642 0.002668 0.000000
0.972167 0.000000 0.000000
1.000000 0.000000 0.000000
1.000000 0.000000 0.000000
1.000000 0.000000 0.000000
1.000000 0.000000 0.000000
1.000000 0.000000 0.000000
1.000000 0.000000 0.000000
0.064011 0.132249 0.035668
0.142928 0.126400 0.029819
0.225918 0.120250 0.023669
0.311811 0.113884 0.017303
0.399984 0.107349 0.010768
0.490043 0.100674 0.004093
0.581715 0.093880 0.000000
0.674802 0.086981 0.000000
0.769150 0.079989 0.000000
0.864636 0.072912 0.000000
0.961161 0.065758 0.000000
1.000000 0.058533 0.000000
1.000000 0.051243 0.000000
1.000000 0.049053 0.000000
1.000000 0.049053 0.000000
1.000000 0.049053 0.000000
1.000000 0.049053 0.000000
0.053005 0.202493 0.024662
0.131921 0.196644 0.018813
0.214911 0.190493 0.012662
0.300805 0.184128 0.006297
0.388978 0.177593 0.000000
0.479036 0.170918 0.000000
0.570709 0.164124 0.000000
0.663796 0.157225 0.000000
0.758144 0.150232 0.000000
0.853630 0.143156 0.000000
0.950155 0.136002 0.000000
1.000000 0.128777 0.000000
1.000000 0.121487 0.000000
1.000000 0.119297 0.000000
1.000000 0.119297 0.000000
1.000000 0.119297 0.000000
1.000000 0.119297 0.000000
0.041999 0.272737 0.013656
0.120915 0.266888 0.007807
0.203905 0.260737 0.001656
0.289799 0.254371 0.000000
0.377971 0.247837 0.000000
0.468030 0.241162 0.000000
0.559703 0.234368 0.000000
0.652790 0.227469 0.000000
0.747137 0.220476 0.000000
0.842623 0.213399 0.000000
0.939148 0.206246 0.000000
1.000000 0.199021 0.000000
1.000000 0.191730 0.000000
1.000000 0.189541 0.000000
1.000000 0.189541 0.000000
1.000000 0.189541 0.000000
1.000000 0.189541 0.000000
0.030992 0.342981 0.002649
0.109909 0.337132 0.000000
0.192899 0.330981 0.000000
0.278792 0.324615 0.000000
0.366965 0.318080 0.000000
0.457024 0.311406 0.000000
0.548697 0.304611 0.000000
0.641784 0.297712 0.000000
0.736131 0.290720 0.000000
0.831617 0.283643 0.000000
0.928142 0.276489 0.000000
1.000000 0.269265 0.000000
1.000000 0.261974 0.000000
1.000000 0.259785 0.000000
1.000000 0.259785 0.000000
1.000000 0.259785 0.000000
1.000000 0.259785 0.000000
0.019986 0.413224 0.000000
0.098903 0.407375 0.000000
0.181893 0.401225 0.000000
0.267786 0.394859 0.000000
0.355959 0.388324 0.000000
0.446018 0.381649 0.000000
0.537690 0.374855 0.000000
0.630777 0.367956 0.000000
0.725125 0.360964 0.000000
0.820611 0.353887 0.000000
0.917136 0.346733 0.000000
1.000000 0.339508 0.000000
1.000000 0.332218 0.000000
1.000000 0.330028 0.000000
1.000000 0.330028 0.000000
1.000000 0.330028 0.000000
1.000000 0.330028 0.000000
0.008980 0.483468 0.000000
0.087896 0.477619 0.000000
0.170886 0.471468 0.000000
0.256780 0.465103 0.000000
0.344953 0.458568 0.000000
0.435011 0.451893 0.000000
0.526684 0.445099 0.000000
0.619771 0.438200 0.000000
0.714119 0.431207 0.000000
0.809605 0.424131 0.000000
0.906130 0.416977 0.000000
1.000000 0.409752 0.000000
1.000000 0.402462 0.000000
1.000000 0.400272 0.000000
1.000000 0.400272 0.000000
1.000000 0.400272 0.000000
1.000000 0.400272 0.000000
0.000000 0.553712 0.000000
0.076890 0.547863 0.000000
0.159880 0.541712 0.000000
0.245774 0.535346 0.000000
0.333946 0.528812 0.000000
0.424005 0.522137 0.000000
0.515678 0.515343 0.000000
0.608765 0.508444 0.000000
0.703112 0.501451 0.000000
0.798598 0.494374 0.000000
0.895123 0.487221 0.000000
0.992605 0.479996 0.000000
1.000000 0.472705 0.000000
1.000000 0.470516 0.000000
1.000000 0.470516 0.000000
1.000000 0.470516 0.000000
1.000000 0.470516 0.000000
0.000000 0.623956 0.000000
0.065884 0.618107 0.000000
0.148874 0.611956 0.000000
0.234767 0.605590 0.000000
0.322940 0.599055 0.000000
0.412999 0.592381 0.000000
0.504672 0.585586 0.000000
0.597759 0.578687 0.000000
0.692106 0.571695 0.000000
0.787592 0.564618 0.000000
0.884117 0.557464 0.000000
0.981599 0.550240 0.000000
1.000000 0.542949 0.000000
1.000000 0.540760 0.000000
1.000000 0.540760 0.000000
1.000000 0.540760 0.000000
1.000000 0.540760 0.000000
0.000000 0.694199 0.000000
0.054878 0.688350 0.000000
0.137868 0.682200 0.000000
0.223761 0.675834 0.000000
0.311934 0.669299 0.000000
0.401993 0.662624 0.000000
0.493665 0.655830 0.000000
0.586752 0.648931 0.000000
0.681100 0.641939 0.000000
0.776586 0.634862 0.000000
0.873111 0.627708 0.000000
0.970593 0.620483 0.000000
1.000000 0.613193 0.000000
1.000000 0.611003 0.000000
1.000000 0.611003 0.000000
1.000000 0.611003 0.000000
1.000000 0.611003 0.000000
0.000000 0.764443 0.000000
0.043871 0.758594 0.000000
0.126861 0.752443 0.000000
0.212755 0.746078 0.000000
0.300928 0.739543 0.000000
0.390986 0.732868 0.000000
0.482659 0.726074 0.000000
0.575746 0.719175 0.000000
0.670094 0.712182 0.000000
0.765580 0.705106 0.000000
0.862105 0.697952 0.000000
0.959587 0.690727 0.000000
1.000000 0.683437 0.000000
1.000000 0.681247 0.000000
1.000000 0.681247 0.000000
1.000000 0.681247 0.000000
1.000000 0.681247 0.000000
0.000000 0.834687 0.000000
0.032865 0.828838 0.000000
0.115855 0.822687 0.000000
0.201749 0.816321 0.000000
0.289921 0.809787 0.000000
0.379980 0.803112 0.000000
0.471653 0.796318 0.000000
0.564740 0.789419 0.000000
0.659087 0.782426 0.000000
0.754573 0.775349 0.000000
0.851098 0.768196 0.000000
0.948580 0.760971 0.000000
1.000000 0.753680 0.000000
1.000000 0.751491 0.000000
1.000000 0.751491 0.000000
1.000000 0.751491 0.000000
1.000000 0.751491 0.000000
0.000000 0.904931 0.000000
0.021859 0.899082 0.000000
0.104849 0.892931 0.000000
0.190742 0.886565 0.000000
0.278915 0.880030 0.000000
0.368974 0.873356 0.000000
0.460647 0.866561 0.000000
0.553734 0.859662 0.000000
0.648081 0.852670 0.000000
0.743567 0.845593 0.000000
0.840092 0.838439 0.000000
0.937574 0.831215 0.000000
1.000000 0.823924 0.000000
1.000000 0.821735 0.000000
1.000000 0.821735 0.000000
1.000000 0.821735 0.000000
1.000000 0.821735 0.000000
0.000000 0.975174 0.000000
0.010853 0.969325 0.000000
0.093843 0.963175 0.000000
0.179736 0.956809 0.000000
0.267909 0.950274 0.000000
0.357968 0.943599 0.000000
0.449640 0.936805 0.000000
0.542727 0.929906 0.000000
0.637075 0.922914 0.000000
0.732561 0.915837 0.000000
0.829086 0.908683 0.000000
0.926568 0.901458 0.000000
1.000000 0.894168 0.000000
1.000000 0.891978 0.000000
1.000000 0.891978 0.000000
1.000000 0.891978 0.000000
1.000000 0.891978 0.000000
0.000000 1.000000 0.000000
0.000000 1.000000 0.000000
0.082836 1.000000 0.000000
0.168730 1.000000 0.000000
0.256903 1.000000 0.000000
0.346961 1.000000 0.000000
0.438634 1.000000 0.000000
0.531721 1.000000 0.000000
0.626069 0.993157 0.000000
0.721555 0.986081 0.000000
0.818080 0.978927 0.000000
0.915562 0.971702 0.000000
1.000000 0.964412 0.000000
1.000000 0.962222 0.000000
1.000000 0.962222 0.000000
1.000000 0.962222 0.000000
1.000000 0.962222 0.000000
0.000000 1.000000 0.000000
0.000000 1.000000 0.000000
0.071830 1.000000 0.000000
0.157724 1.000000 0.000000
0.245896 1.000000 0.000000
0.335955 1.000000 0.000000
0.427628 1.000000 0.000000
0.520715 1.000000 0.000000
0.615062 1.000000 0.000000
0.710548 1.000000 0.000000
0.807073 1.000000 0.000000
0.904555 1.000000 0.000000
1.000000 1.000000 0.000000
1.000000 1.000000 0.000000
1.000000 1.000000 0.000000
1.000000 1.000000 0.000000
1.000000 1.000000 0.000000
0.083930 0.000000 0.135156
0.162847 0.000000 0.129307
0.245837 0.000000 0.123156
0.331730 0.000000 0.116790
0.419903 0.000000 0.110255
0.509962 0.000000 0.103581
0.601635 0.000000 0.096787
0.694722 0.000000 0.089888
0.789069 0.000000 0.082895
0.884555 0.000000 0.075818
0.981080 0.000000 0.068664
1.000000 0.000000 0.061440
1.000000 0.000000 0.054149
1.000000 0.000000 0.051960
1.000000 0.000000 0.051960
1.000000 0.000000 0.051960
1.000000 0.000000 0.051960
0.072924 0.059912 0.124149
