app/src/main/assets/luts/vhs_warm.cube
# ApexStudio filter: vhs_warm
LUT_3D_SIZE 9
DOMAIN_MIN 0.0 0.0 0.0
DOMAIN_MAX 1.0 1.0 1.0
0.087758 0.000000 0.000000
0.249664 0.000000 0.000000
0.423731 0.000000 0.000000
0.605462 0.000000 0.000000
0.792896 0.000000 0.000000
0.984908 0.000000 0.000000
1.000000 0.000000 0.000000
1.000000 0.000000 0.000000
1.000000 0.000000 0.000000
0.065745 0.133983 0.000000
0.227652 0.121984 0.000000
0.401718 0.109083 0.000000
0.583450 0.095614 0.000000
0.770884 0.081723 0.000000
0.962895 0.067492 0.000000
1.000000 0.052977 0.000000
1.000000 0.050787 0.000000
1.000000 0.050787 0.000000
0.043733 0.274471 0.000000
0.205639 0.262471 0.000000
0.379706 0.249571 0.000000
0.561437 0.236102 0.000000
0.748871 0.222210 0.000000
0.940883 0.207980 0.000000
1.000000 0.193464 0.000000
1.000000 0.191275 0.000000
1.000000 0.191275 0.000000
0.021720 0.414958 0.000000
0.183627 0.402959 0.000000
0.357693 0.390058 0.000000
0.539425 0.376589 0.000000
0.726859 0.362698 0.000000
0.918870 0.348467 0.000000
1.000000 0.333952 0.000000
1.000000 0.331763 0.000000
1.000000 0.331763 0.000000
0.000000 0.555446 0.000000
0.161614 0.543446 0.000000
0.335681 0.530546 0.000000
0.517412 0.517077 0.000000
0.704846 0.503185 0.000000
0.896858 0.488955 0.000000
1.000000 0.474439 0.000000
1.000000 0.472250 0.000000
1.000000 0.472250 0.000000
0.000000 0.695933 0.000000
0.139602 0.683934 0.000000
0.313668 0.671033 0.000000
0.495400 0.657564 0.000000
0.682834 0.643673 0.000000
0.874845 0.629442 0.000000
1.000000 0.614927 0.000000
1.000000 0.612738 0.000000
1.000000 0.612738 0.000000
0.000000 0.836421 0.000000
0.117589 0.824421 0.000000
0.291656 0.811521 0.000000
0.473387 0.798052 0.000000
0.660821 0.784160 0.000000
0.852833 0.769930 0.000000
1.000000 0.755414 0.000000
1.000000 0.753225 0.000000
1.000000 0.753225 0.000000
0.000000 0.976908 0.000000
0.095577 0.964909 0.000000
0.269643 0.952008 0.000000
0.451375 0.938539 0.000000
0.638809 0.924648 0.000000
0.830820 0.910417 0.000000
1.000000 0.895902 0.000000
1.000000 0.893713 0.000000
1.000000 0.893713 0.000000
0.000000 1.000000 0.000000
0.073564 1.000000 0.000000
0.247631 1.000000 0.000000
0.429362 1.000000 0.000000
0.616796 1.000000 0.000000
0.808808 1.000000 0.000000
1.000000 1.000000 0.000000
1.000000 1.000000 0.000000
1.000000 1.000000 0.000000
0.086024 0.000000 0.057681
0.247930 0.000000 0.045681
0.421996 0.000000 0.032780
0.603728 0.000000 0.019312
0.791162 0.000000 0.005420
0.983173 0.000000 0.000000
1.000000 0.000000 0.000000
1.000000 0.000000 0.000000
1.000000 0.000000 0.000000
0.064011 0.132249 0.035668
0.225918 0.120250 0.023669
0.399984 0.107349 0.010768
0.581715 0.093880 0.000000
0.769150 0.079989 0.000000
0.961161 0.065758 0.000000
1.000000 0.051243 0.000000
1.000000 0.049053 0.000000
1.000000 0.049053 0.000000
0.041999 0.272737 0.013656
0.203905 0.260737 0.001656
0.377971 0.247837 0.000000
0.559703 0.234368 0.000000
0.747137 0.220476 0.000000
0.939148 0.206246 0.000000
1.000000 0.191730 0.000000
1.000000 0.189541 0.000000
1.000000 0.189541 0.000000
0.019986 0.413224 0.000000
0.181893 0.401225 0.000000
0.355959 0.388324 0.000000
0.537690 0.374855 0.000000
0.725125 0.360964 0.000000
0.917136 0.346733 0.000000
1.000000 0.332218 0.000000
1.000000 0.330028 0.000000
1.000000 0.330028 0.000000
0.000000 0.553712 0.000000
0.159880 0.541712 0.000000
0.333946 0.528812 0.000000
0.515678 0.515343 0.000000
0.703112 0.501451 0.000000
0.895123 0.487221 0.000000
1.000000 0.472705 0.000000
1.000000 0.470516 0.000000
1.000000 0.470516 0.000000
0.000000 0.694199 0.000000
0.137868 0.682200 0.000000
0.311934 0.669299 0.000000
0.493665 0.655830 0.000000
0.681100 0.641939 0.000000
0.873111 0.627708 0.000000
1.000000 0.613193 0.000000
1.000000 0.611003 0.000000
1.000000 0.611003 0.000000
0.000000 0.834687 0.000000
0.115855 0.822687 0.000000
0.289921 0.809787 0.000000
0.471653 0.796318 0.000000
0.659087 0.782426 0.000000
0.851098 0.768196 0.000000
1.000000 0.753680 0.000000
1.000000 0.751491 0.000000
1.000000 0.751491 0.000000
0.000000 0.975174 0.000000
0.093843 0.963175 0.000000
0.267909 0.950274 0.000000
0.449640 0.936805 0.000000
0.637075 0.922914 0.000000
0.829086 0.908683 0.000000
1.000000 0.894168 0.000000
1.000000 0.891978 0.000000
1.000000 0.891978 0.000000
0.000000 1.000000 0.000000
0.071830 1.000000 0.000000
0.245896 1.000000 0.000000
0.427628 1.000000 0.000000
0.615062 1.000000 0.000000
0.807073 1.000000 0.000000
1.000000 1.000000 0.000000
1.000000 1.000000 0.000000
1.000000 1.000000 0.000000
0.081952 0.000000 0.208374
0.243859 0.000000 0.196375
0.417925 0.000000 0.183474
0.599656 0.000000 0.170005
0.787091 0.000000 0.156113
0.979102 0.000000 0.141883
1.000000 0.000000 0.127368
1.000000 0.000000 0.125178
1.000000 0.000000 0.125178
0.059940 0.128178 0.186362
0.221846 0.116178 0.174362
0.395912 0.103278 0.161461
0.577644 0.089809 0.147992
0.765078 0.075917 0.134101
0.957089 0.061687 0.119870
1.000000 0.047171 0.105355
1.000000 0.044982 0.103166
1.000000 0.044982 0.103166
0.037927 0.268665 0.164349
0.199834 0.256666 0.152350
0.373900 0.243765 0.139449
0.555631 0.230296 0.125980
0.743066 0.216405 0.112088
0.935077 0.202174 0.097858
1.000000 0.187659 0.083343
1.000000 0.185469 0.081153
1.000000 0.185469 0.081153
0.015915 0.409153 0.142337
0.177821 0.397153 0.130337
0.351887 0.384253 0.117436
0.533619 0.370784 0.103967
0.721053 0.356892 0.090076
0.913064 0.342662 0.075845
1.000000 0.328146 0.061330
1.000000 0.325957 0.059141
1.000000 0.325957 0.059141
0.000000 0.549640 0.120324
0.155809 0.537641 0.108325
0.329875 0.524740 0.095424
0.511606 0.511271 0.081955
0.699041 0.497380 0.068063
0.891052 0.483149 0.053833
1.000000 0.468634 0.039318
1.000000 0.466444 0.037128
1.000000 0.466444 0.037128
0.000000 0.690128 0.098312
0.133796 0.678128 0.086312
0.307862 0.665228 0.073411
0.489594 0.651759 0.059942
0.677028 0.637867 0.046051
0.869039 0.623637 0.031820
1.000000 0.609121 0.017305
1.000000 0.606932 0.015116
1.000000 0.606932 0.015116
0.000000 0.830615 0.076299
0.111784 0.818616 0.064300
0.285850 0.805715 0.051399
0.467581 0.792246 0.037930
0.655016 0.778355 0.024038
0.847027 0.764124 0.009808
1.000000 0.749609 0.000000
1.000000 0.747419 0.000000
1.000000 0.747419 0.000000
0.000000 0.971103 0.054287
0.089771 0.959103 0.042287
0.263837 0.946203 0.029386
0.445569 0.932734 0.015917
0.633003 0.918842 0.002026
0.825014 0.904612 0.000000
1.000000 0.890096 0.000000
1.000000 0.887907 0.000000
1.000000 0.887907 0.000000
0.000000 1.000000 0.032274
0.067759 1.000000 0.020275
0.241825 1.000000 0.007374
0.423556 1.000000 0.000000
0.610991 1.000000 0.000000
0.803002 1.000000 0.000000
0.998853 1.000000 0.000000
1.000000 1.000000 0.000000
1.000000 1.000000 0.000000
0.078176 0.000000 0.348149
0.240082 0.000000 0.336150
0.414148 0.000000 0.323249
0.595880 0.000000 0.309780
0.783314 0.000000 0.295889
0.975325 0.000000 0.281658
1.000000 0.000000 0.267143
1.000000 0.000000 0.264953
1.000000 0.000000 0.264953
0.056163 0.124401 0.326137
0.218070 0.112402 0.314137
0.392136 0.099501 0.301237
0.573867 0.086032 0.287768
0.761302 0.072141 0.273876
0.953313 0.057910 0.259646
1.000000 0.043395 0.245130
1.000000 0.041205 0.242941
1.000000 0.041205 0.242941
0.034151 0.264889 0.304124
0.196057 0.252889 0.292125
0.370123 0.239988 0.279224
0.551855 0.226520 0.265755
0.739289 0.212628 0.251864
0.931300 0.198397 0.237633
1.000000 0.183882 0.223118
1.000000 0.181693 0.220928
1.000000 0.181693 0.220928
0.012138 0.405376 0.282112
0.174045 0.393377 0.270112
0.348111 0.380476 0.257212
0.529842 0.367007 0.243743
0.717277 0.353116 0.229851
0.909288 0.338885 0.215621
1.000000 0.324370 0.201105
1.000000 0.322180 0.198916
1.000000 0.322180 0.198916
0.000000 0.545864 0.260099
0.152032 0.533864 0.248100
0.326098 0.520963 0.235199
0.507830 0.507495 0.221730
0.695264 0.493603 0.207839
0.887275 0.479372 0.193608
1.000000 0.464857 0.179093
1.000000 0.462668 0.176903
1.000000 0.462668 0.176903
0.000000 0.686351 0.238087
0.130020 0.674352 0.226087
0.304086 0.661451 0.213187
0.485817 0.647982 0.199718
0.673252 0.634091 0.185826
0.865263 0.619860 0.171596
1.000000 0.605345 0.157080
1.000000 0.603155 0.154891
1.000000 0.603155 0.154891
0.000000 0.826839 0.216074
0.108007 0.814839 0.204075
0.282073 0.801938 0.191174
0.463805 0.788470 0.177705
0.651239 0.774578 0.163814
0.843250 0.760347 0.149583
1.000000 0.745832 0.135068
1.000000 0.743643 0.132878
1.000000 0.743643 0.132878
0.000000 0.967326 0.194062
0.085995 0.955327 0.182062
0.260061 0.942426 0.169162
0.441792 0.928957 0.155693
0.629227 0.915066 0.141801
0.821238 0.900835 0.127571
1.000000 0.886320 0.113055
1.000000 0.884130 0.110866
1.000000 0.884130 0.110866
0.000000 1.000000 0.172049
0.063982 1.000000 0.160050
0.238048 1.000000 0.147149
0.419780 1.000000 0.133680
0.607214 1.000000 0.119789
0.799225 1.000000 0.105558
0.995076 1.000000 0.091043
1.000000 1.000000 0.088853
1.000000 1.000000 0.088853
0.074546 0.000000 0.482467
0.236453 0.000000 0.470468
0.410519 0.000000 0.457567
0.592251 0.000000 0.444098
0.779685 0.000000 0.430207
0.971696 0.000000 0.415976
1.000000 0.000000 0.401461
1.000000 0.000000 0.399271
1.000000 0.000000 0.399271
0.052534 0.120772 0.460455
0.214440 0.108773 0.448455
0.388507 0.095872 0.435554
0.570238 0.082403 0.422086
0.757673 0.068512 0.408194
0.949684 0.054281 0.393963
1.000000 0.039766 0.379448
1.000000 0.037576 0.377259
1.000000 0.037576 0.377259
0.030521 0.261260 0.438442
0.192428 0.249260 0.426443
0.366494 0.236359 0.413542
0.548226 0.222891 0.400073
0.735660 0.208999 0.386182
0.927671 0.194768 0.371951
1.000000 0.180253 0.357436
1.000000 0.178064 0.355246
1.000000 0.178064 0.355246
0.008509 0.401747 0.416430
0.170415 0.389748 0.404430
0.344482 0.376847 0.391529
0.526213 0.363378 0.378061
0.713648 0.349487 0.364169
0.905659 0.335256 0.349938
1.000000 0.320741 0.335423
1.000000 0.318551 0.333234
1.000000 0.318551 0.333234
0.000000 0.542235 0.394417
0.148403 0.530235 0.382418
0.322469 0.517334 0.369517
0.504201 0.503866 0.356048
0.691635 0.489974 0.342157
0.883646 0.475743 0.327926
1.000000 0.461228 0.313411
1.000000 0.459039 0.311221
1.000000 0.459039 0.311221
0.000000 0.682722 0.372405
0.126390 0.670723 0.360405
0.300457 0.657822 0.347504
0.482188 0.644353 0.334036
0.669623 0.630462 0.320144
0.861634 0.616231 0.305913
1.000000 0.601716 0.291398
1.000000 0.599526 0.289209
1.000000 0.599526 0.289209
0.000000 0.823210 0.350392
0.104378 0.811210 0.338393
0.278444 0.798309 0.325492
0.460176 0.784841 0.312023
0.647610 0.770949 0.298132
0.839621 0.756718 0.283901
1.000000 0.742203 0.269386
1.000000 0.740014 0.267196
1.000000 0.740014 0.267196
0.000000 0.963697 0.328380
0.082365 0.951698 0.316380
0.256432 0.938797 0.303479
0.438163 0.925328 0.290011
0.625598 0.911437 0.276119
0.817609 0.897206 0.261888
1.000000 0.882691 0.247373
1.000000 0.880501 0.245184
1.000000 0.880501 0.245184
0.000000 1.000000 0.306367
0.060353 1.000000 0.294368
0.234419 1.000000 0.281467
0.416151 1.000000 0.267998
0.603585 1.000000 0.254107
0.795596 1.000000 0.239876
0.991447 1.000000 0.225361
1.000000 1.000000 0.223171
1.000000 1.000000 0.223171
0.071016 0.000000 0.613143
0.232922 0.000000 0.601144
0.406989 0.000000 0.588243
0.588720 0.000000 0.574774
0.776155 0.000000 0.560883
0.968166 0.000000 0.546652
1.000000 0.000000 0.532137
1.000000 0.000000 0.529947
1.000000 0.000000 0.529947
0.049003 0.117242 0.591131
0.210910 0.105242 0.579131
0.384976 0.092341 0.566230
0.566708 0.078872 0.552762
0.754142 0.064981 0.538870
0.946153 0.050750 0.524639
1.000000 0.036235 0.510124
1.000000 0.034046 0.507935
1.000000 0.034046 0.507935
0.026991 0.257729 0.569118
0.188897 0.245729 0.557119
0.362964 0.232829 0.544218
0.544695 0.219360 0.530749
0.732130 0.205468 0.516858
0.924141 0.191238 0.502627
1.000000 0.176723 0.488112
1.000000 0.174533 0.485922
1.000000 0.174533 0.485922
0.004978 0.398217 0.547106
0.166885 0.386217 0.535106
0.340951 0.373316 0.522205
0.522683 0.359847 0.508737
0.710117 0.345956 0.494845
0.902128 0.331725 0.480614
1.000000 0.317210 0.466099
1.000000 0.315021 0.463910
1.000000 0.315021 0.463910
0.000000 0.538704 0.525093
0.144872 0.526704 0.513094
0.318939 0.513804 0.500193
0.500670 0.500335 0.486724
0.688105 0.486443 0.472833
0.880116 0.472213 0.458602
1.000000 0.457698 0.444087
1.000000 0.455508 0.441897
1.000000 0.455508 0.441897
0.000000 0.679192 0.503081
0.122860 0.667192 0.491081
0.296926 0.654291 0.478180
0.478658 0.640822 0.464712
0.666092 0.626931 0.450820
0.858103 0.612700 0.436589
1.000000 0.598185 0.422074
1.000000 0.595996 0.419885
1.000000 0.595996 0.419885
0.000000 0.819679 0.481068
0.100847 0.807679 0.469069
0.274914 0.794779 0.456168
0.456645 0.781310 0.442699
0.644080 0.767418 0.428808
0.836091 0.753188 0.414577
1.000000 0.738673 0.400062
1.000000 0.736483 0.397872
1.000000 0.736483 0.397872
0.000000 0.960167 0.459056
0.078835 0.948167 0.447056
0.252901 0.935266 0.434155
0.434633 0.921797 0.420687
0.622067 0.907906 0.406795
0.814078 0.893675 0.392564
1.000000 0.879160 0.378049
1.000000 0.876971 0.375860
1.000000 0.876971 0.375860
0.000000 1.000000 0.437043
0.056822 1.000000 0.425044
0.230889 1.000000 0.412143
0.412620 1.000000 0.398674
0.600055 1.000000 0.384783
0.792066 1.000000 0.370552
0.987916 1.000000 0.356037
1.000000 1.000000 0.353847
1.000000 1.000000 0.353847
0.067559 0.000000 0.741098
0.229465 0.000000 0.729098
0.403531 0.000000 0.716197
0.585263 0.000000 0.702728
0.772697 0.000000 0.688837
0.964709 0.000000 0.674606
1.000000 0.000000 0.660091
1.000000 0.000000 0.657902
1.000000 0.000000 0.657902
0.045546 0.113784 0.719085
0.207453 0.101785 0.707085
0.381519 0.088884 0.694185
0.563251 0.075415 0.680716
0.750685 0.061524 0.666824
0.942696 0.047293 0.652594
1.000000 0.032778 0.638079
1.000000 0.030588 0.635889
1.000000 0.030588 0.635889
0.023534 0.254272 0.697073
0.185440 0.242272 0.685073
0.359506 0.229372 0.672172
0.541238 0.215903 0.658703
0.728672 0.202011 0.644812
0.920684 0.187781 0.630581
1.000000 0.173265 0.616066
1.000000 0.171076 0.613877
1.000000 0.171076 0.613877
0.001521 0.394759 0.675060
0.163428 0.382760 0.663060
0.337494 0.369859 0.650160
0.519226 0.356390 0.636691
0.706660 0.342499 0.622799
0.898671 0.328268 0.608569
1.000000 0.313753 0.594054
1.000000 0.311563 0.591864
1.000000 0.311563 0.591864
0.000000 0.535247 0.653048
0.141415 0.523247 0.641048
0.315481 0.510347 0.628147
0.497213 0.496878 0.614678
0.684647 0.482986 0.600787
0.876659 0.468756 0.586556
1.000000 0.454240 0.572041
1.000000 0.452051 0.569852
1.000000 0.452051 0.569852
0.000000 0.675734 0.631035
0.119403 0.663735 0.619035
0.293469 0.650834 0.606135
0.475201 0.637365 0.592666
0.662635 0.623474 0.578774
0.854646 0.609243 0.564544
1.000000 0.594728 0.550029
1.000000 0.592538 0.547839
1.000000 0.592538 0.547839
0.000000 0.816222 0.609023
0.097390 0.804222 0.597023
0.271456 0.791322 0.584122
0.453188 0.777853 0.570653
0.640622 0.763961 0.556762
0.832634 0.749731 0.542531
1.000000 0.735215 0.528016
1.000000 0.733026 0.525827
1.000000 0.733026 0.525827
0.000000 0.956709 0.587010
0.075378 0.944710 0.575010
0.249444 0.931809 0.562110
0.431176 0.918340 0.548641
0.618610 0.904449 0.534749
0.810621 0.890218 0.520519
1.000000 0.875703 0.506004
1.000000 0.873513 0.503814
1.000000 0.873513 0.503814
0.000000 1.000000 0.564998
0.053365 1.000000 0.552998
0.227431 1.000000 0.540097
0.409163 1.000000 0.526628
0.596597 1.000000 0.512737
0.788609 1.000000 0.498506
0.984459 1.000000 0.483991
1.000000 1.000000 0.481802
1.000000 1.000000 0.481802
0.064160 0.000000 0.866887
0.226067 0.000000 0.854887
0.400133 0.000000 0.841987
0.581864 0.000000 0.828518
0.769299 0.000000 0.814626
0.961310 0.000000 0.800396
1.000000 0.000000 0.785880
1.000000 0.000000 0.783691
1.000000 0.000000 0.783691
0.042148 0.110386 0.844874
0.204054 0.098386 0.832875
0.378120 0.085485 0.819974
0.559852 0.072017 0.806505
0.747286 0.058125 0.792614
0.939297 0.043894 0.778383
1.000000 0.029379 0.763868
1.000000 0.027190 0.761678
1.000000 0.027190 0.761678
0.020135 0.250873 0.822862
0.182042 0.238874 0.810862
0.356108 0.225973 0.797962
0.537839 0.212504 0.784493
0.725274 0.198613 0.770601
0.917285 0.184382 0.756371
1.000000 0.169867 0.741855
1.000000 0.167677 0.739666
1.000000 0.167677 0.739666
0.000000 0.391361 0.800849
0.160029 0.379361 0.788850
0.334095 0.366460 0.775949
0.515827 0.352992 0.762480
0.703261 0.339100 0.748589
0.895272 0.324869 0.734358
1.000000 0.310354 0.719843
1.000000 0.308165 0.717653
1.000000 0.308165 0.717653
0.000000 0.531848 0.778837
0.138017 0.519849 0.766837
0.312083 0.506948 0.753937
0.493814 0.493479 0.740468
0.681249 0.479588 0.726576
0.873260 0.465357 0.712346
1.000000 0.450842 0.697830
1.000000 0.448652 0.695641
1.000000 0.448652 0.695641
0.000000 0.672336 0.756824
0.116004 0.660336 0.744825
0.290070 0.647435 0.731924
0.471802 0.633967 0.718455
0.659236 0.620075 0.704564
0.851247 0.605844 0.690333
1.000000 0.591329 0.675818
1.000000 0.589140 0.673628
1.000000 0.589140 0.673628
0.000000 0.812823 0.734812
0.093992 0.800824 0.722812
0.268058 0.787923 0.709912
0.449789 0.774454 0.696443
0.637224 0.760563 0.682551
0.829235 0.746332 0.668321
1.000000 0.731817 0.653805
1.000000 0.729627 0.651616
1.000000 0.729627 0.651616
0.000000 0.953311 0.712799
0.071979 0.941311 0.700800
0.246045 0.928410 0.687899
0.427777 0.914942 0.674430
0.615211 0.901050 0.660539
0.807222 0.886819 0.646308
1.000000 0.872304 0.631793
1.000000 0.870115 0.629603
1.000000 0.870115 0.629603
0.000000 1.000000 0.690787
0.049967 1.000000 0.678787
0.224033 1.000000 0.665887
0.405764 1.000000 0.652418
0.593199 1.000000 0.638526
0.785210 1.000000 0.624296
0.981061 1.000000 0.609780
1.000000 1.000000 0.607591
1.000000 1.000000 0.607591
0.060810 0.000000 0.990883
0.222716 0.000000 0.978884
0.396783 0.000000 0.965983
0.578514 0.000000 0.952514
0.765949 0.000000 0.938623
0.957960 0.000000 0.924392
1.000000 0.000000 0.909877
1.000000 0.000000 0.907687
1.000000 0.000000 0.907687
0.038797 0.107036 0.968871
0.200704 0.095036 0.956871
0.374770 0.082135 0.943971
0.556502 0.068666 0.930502
0.743936 0.054775 0.916610
0.935947 0.040544 0.902380
1.000000 0.026029 0.887864
1.000000 0.023840 0.885675
1.000000 0.023840 0.885675
0.016785 0.247523 0.946858
0.178691 0.235524 0.934859
0.352758 0.222623 0.921958
0.534489 0.209154 0.908489
0.721924 0.195262 0.894598
0.913935 0.181032 0.880367
1.000000 0.166517 0.865852
1.000000 0.164327 0.863662
1.000000 0.164327 0.863662
0.000000 0.388011 0.924846
0.156679 0.376011 0.912846
0.330745 0.363110 0.899946
0.512477 0.349641 0.886477
0.699911 0.335750 0.872585
0.891922 0.321519 0.858355
1.000000 0.307004 0.843839
1.000000 0.304815 0.841650
1.000000 0.304815 0.841650
0.000000 0.528498 0.902833
0.134666 0.516499 0.890834
0.308733 0.503598 0.877933
0.490464 0.490129 0.864464
0.677899 0.476237 0.850573
0.869910 0.462007 0.836342
1.000000 0.447492 0.821827
1.000000 0.445302 0.819637
1.000000 0.445302 0.819637
0.000000 0.668986 0.880821
0.112654 0.656986 0.868821
0.286720 0.644085 0.855921
0.468452 0.630616 0.842452
0.655886 0.616725 0.828560
0.847897 0.602494 0.814330
1.000000 0.587979 0.799814
1.000000 0.585790 0.797625
1.000000 0.585790 0.797625
0.000000 0.809473 0.858808
0.090641 0.797474 0.846809
0.264708 0.784573 0.833908
0.446439 0.771104 0.820439
0.633874 0.757212 0.806548
0.825885 0.742982 0.792317
1.000000 0.728467 0.777802
1.000000 0.726277 0.775612
1.000000 0.726277 0.775612
0.000000 0.949961 0.836796
0.068629 0.937961 0.824796
0.242695 0.925060 0.811896
0.424427 0.911591 0.798427
0.611861 0.897700 0.784535
0.803872 0.883469 0.770305
0.999723 0.868954 0.755789
1.000000 0.866765 0.753600
1.000000 0.866765 0.753600
0.000000 1.000000 0.814783
0.046616 1.000000 0.802784
0.220683 1.000000 0.789883
0.402414 1.000000 0.776414
0.589849 1.000000 0.762523
0.781860 1.000000 0.748292
0.977711 1.000000 0.733777
1.000000 1.000000 0.731587
1.000000 1.000000 0.731587
