app/src/main/assets/luts/vhs_warm.cube
# ApexStudio filter: vhs_warm
LUT_3D_SIZE 5
DOMAIN_MIN 0.0 0.0 0.0
DOMAIN_MAX 1.0 1.0 1.0
0.087758 0.000000 0.000000
0.423731 0.000000 0.000000
0.792896 0.000000 0.000000
1.000000 0.000000 0.000000
1.000000 0.000000 0.000000
0.043733 0.274471 0.000000
0.379706 0.249571 0.000000
0.748871 0.222210 0.000000
1.000000 0.193464 0.000000
1.000000 0.191275 0.000000
0.000000 0.555446 0.000000
0.335681 0.530546 0.000000
0.704846 0.503185 0.000000
1.000000 0.474439 0.000000
1.000000 0.472250 0.000000
0.000000 0.836421 0.000000
0.291656 0.811521 0.000000
0.660821 0.784160 0.000000
1.000000 0.755414 0.000000
1.000000 0.753225 0.000000
0.000000 1.000000 0.000000
0.247631 1.000000 0.000000
0.616796 1.000000 0.000000
1.000000 1.000000 0.000000
1.000000 1.000000 0.000000
0.081952 0.000000 0.208374
0.417925 0.000000 0.183474
0.787091 0.000000 0.156113
1.000000 0.000000 0.127368
1.000000 0.000000 0.125178
0.037927 0.268665 0.164349
0.373900 0.243765 0.139449
0.743066 0.216405 0.112088
1.000000 0.187659 0.083343
1.000000 0.185469 0.081153
0.000000 0.549640 0.120324
0.329875 0.524740 0.095424
0.699041 0.497380 0.068063
1.000000 0.468634 0.039318
1.000000 0.466444 0.037128
0.000000 0.830615 0.076299
0.285850 0.805715 0.051399
0.655016 0.778355 0.024038
1.000000 0.749609 0.000000
1.000000 0.747419 0.000000
0.000000 1.000000 0.032274
0.241825 1.000000 0.007374
0.610991 1.000000 0.000000
0.998853 1.000000 0.000000
1.000000 1.000000 0.000000
0.074546 0.000000 0.482467
0.410519 0.000000 0.457567
0.779685 0.000000 0.430207
1.000000 0.000000 0.401461
1.000000 0.000000 0.399271
0.030521 0.261260 0.438442
0.366494 0.236359 0.413542
0.735660 0.208999 0.386182
1.000000 0.180253 0.357436
1.000000 0.178064 0.355246
0.000000 0.542235 0.394417
0.322469 0.517334 0.369517
0.691635 0.489974 0.342157
1.000000 0.461228 0.313411
1.000000 0.459039 0.311221
0.000000 0.823210 0.350392
0.278444 0.798309 0.325492
0.647610 0.770949 0.298132
1.000000 0.742203 0.269386
1.000000 0.740014 0.267196
0.000000 1.000000 0.306367
0.234419 1.000000 0.281467
0.603585 1.000000 0.254107
0.991447 1.000000 0.225361
1.000000 1.000000 0.223171
0.067559 0.000000 0.741098
0.403531 0.000000 0.716197
0.772697 0.000000 0.688837
1.000000 0.000000 0.660091
1.000000 0.000000 0.657902
0.023534 0.254272 0.697073
0.359506 0.229372 0.672172
0.728672 0.202011 0.644812
1.000000 0.173265 0.616066
1.000000 0.171076 0.613877
0.000000 0.535247 0.653048
0.315481 0.510347 0.628147
0.684647 0.482986 0.600787
1.000000 0.454240 0.572041
1.000000 0.452051 0.569852
0.000000 0.816222 0.609023
0.271456 0.791322 0.584122
0.640622 0.763961 0.556762
1.000000 0.735215 0.528016
1.000000 0.733026 0.525827
0.000000 1.000000 0.564998
0.227431 1.000000 0.540097
0.596597 1.000000 0.512737
0.984459 1.000000 0.483991
1.000000 1.000000 0.481802
0.060810 0.000000 0.990883
0.396783 0.000000 0.965983
0.765949 0.000000 0.938623
1.000000 0.000000 0.909877
1.000000 0.000000 0.907687
0.016785 0.247523 0.946858
0.352758 0.222623 0.921958
0.721924 0.195262 0.894598
1.000000 0.166517 0.865852
1.000000 0.164327 0.863662
0.000000 0.528498 0.902833
0.308733 0.503598 0.877933
0.677899 0.476237 0.850573
1.000000 0.447492 0.821827
1.000000 0.445302 0.819637
0.000000 0.809473 0.858808
0.264708 0.784573 0.833908
0.633874 0.757212 0.806548
1.000000 0.728467 0.777802
1.000000 0.726277 0.775612
0.000000 1.000000 0.814783
0.220683 1.000000 0.789883
0.589849 1.000000 0.762523
0.977711 1.000000 0.733777
1.000000 1.000000 0.731587
