app/src/main/assets/luts/vintage_sepia.cube
# ApexStudio filter: vintage_sepia
LUT_3D_SIZE 5
DOMAIN_MIN 0.0 0.0 0.0
DOMAIN_MAX 1.0 1.0 1.0
0.000000 0.000000 0.000000
0.082225 0.071012 0.056063
0.164450 0.142025 0.112125
0.246675 0.213037 0.168187
0.328900 0.284050 0.224250
0.161425 0.139412 0.110062
0.243650 0.210425 0.166125
0.325875 0.281438 0.222188
0.408100 0.352450 0.278250
0.490325 0.423462 0.334313
0.322850 0.278825 0.220125
0.405075 0.349837 0.276187
0.487300 0.420850 0.332250
0.569525 0.491862 0.388312
0.651750 0.562875 0.444375
0.484275 0.418237 0.330187
0.566500 0.489250 0.386250
0.648725 0.560262 0.442312
0.730950 0.631275 0.498375
0.813175 0.702287 0.554437
0.645700 0.557650 0.440250
0.727925 0.628662 0.496312
0.810150 0.699675 0.552375
0.892375 0.770687 0.608437
0.974600 0.841700 0.664500
0.031350 0.027075 0.021375
0.113575 0.098087 0.077437
0.195800 0.169100 0.133500
0.278025 0.240113 0.189563
0.360250 0.311125 0.245625
0.192775 0.166487 0.131437
0.275000 0.237500 0.187500
0.357225 0.308513 0.243563
0.439450 0.379525 0.299625
0.521675 0.450537 0.355687
0.354200 0.305900 0.241500
0.436425 0.376912 0.297563
0.518650 0.447925 0.353625
0.600875 0.518937 0.409687
0.683100 0.589950 0.465750
0.515625 0.445312 0.351562
0.597850 0.516325 0.407625
0.680075 0.587337 0.463687
0.762300 0.658350 0.519750
0.844525 0.729362 0.575812
0.677050 0.584725 0.461625
0.759275 0.655737 0.517687
0.841500 0.726750 0.573750
0.923725 0.797762 0.629812
1.000000 0.868775 0.685875
0.062700 0.054150 0.042750
0.144925 0.125163 0.098812
0.227150 0.196175 0.154875
0.309375 0.267187 0.210938
0.391600 0.338200 0.267000
0.224125 0.193562 0.152812
0.306350 0.264575 0.208875
0.388575 0.335587 0.264937
0.470800 0.406600 0.321000
0.553025 0.477612 0.377063
0.385550 0.332975 0.262875
0.467775 0.403987 0.318937
0.550000 0.475000 0.375000
0.632225 0.546013 0.431063
0.714450 0.617025 0.487125
0.546975 0.472387 0.372937
0.629200 0.543400 0.429000
0.711425 0.614413 0.485063
0.793650 0.685425 0.541125
0.875875 0.756437 0.597187
0.708400 0.611800 0.483000
0.790625 0.682812 0.539062
0.872850 0.753825 0.595125
0.955075 0.824838 0.651188
1.000000 0.895850 0.707250
0.094050 0.081225 0.064125
0.176275 0.152237 0.120188
0.258500 0.223250 0.176250
0.340725 0.294263 0.232313
0.422950 0.365275 0.288375
0.255475 0.220638 0.174187
0.337700 0.291650 0.230250
0.419925 0.362662 0.286313
0.502150 0.433675 0.342375
0.584375 0.504687 0.398438
0.416900 0.360050 0.284250
0.499125 0.431062 0.340313
0.581350 0.502075 0.396375
0.663575 0.573087 0.452437
0.745800 0.644100 0.508500
0.578325 0.499462 0.394312
0.660550 0.570475 0.450375
0.742775 0.641487 0.506437
0.825000 0.712500 0.562500
0.907225 0.783512 0.618563
0.739750 0.638875 0.504375
0.821975 0.709887 0.560437
0.904200 0.780900 0.616500
0.986425 0.851912 0.672563
1.000000 0.922925 0.728625
0.125400 0.108300 0.085500
0.207625 0.179312 0.141563
0.289850 0.250325 0.197625
0.372075 0.321337 0.253688
0.454300 0.392350 0.309750
0.286825 0.247712 0.195562
0.369050 0.318725 0.251625
0.451275 0.389737 0.307688
0.533500 0.460750 0.363750
0.615725 0.531762 0.419812
0.448250 0.387125 0.305625
0.530475 0.458137 0.361687
0.612700 0.529150 0.417750
0.694925 0.600162 0.473812
0.777150 0.671175 0.529875
0.609675 0.526537 0.415687
0.691900 0.597550 0.471750
0.774125 0.668562 0.527813
0.856350 0.739575 0.583875
0.938575 0.810587 0.639937
0.771100 0.665950 0.525750
0.853325 0.736962 0.581812
0.935550 0.807975 0.637875
1.000000 0.878987 0.693937
1.000000 0.950000 0.750000
