app/src/main/assets/luts/vintage_sepia.cube
# ApexStudio filter: vintage_sepia
LUT_3D_SIZE 17
DOMAIN_MIN 0.0 0.0 0.0
DOMAIN_MAX 1.0 1.0 1.0
0.000000 0.000000 0.000000
0.020556 0.017753 0.014016
0.041113 0.035506 0.028031
0.061669 0.053259 0.042047
0.082225 0.071012 0.056063
0.102781 0.088766 0.070078
0.123338 0.106519 0.084094
0.143894 0.124272 0.098109
0.164450 0.142025 0.112125
0.185006 0.159778 0.126141
0.205563 0.177531 0.140156
0.226119 0.195284 0.154172
0.246675 0.213037 0.168187
0.267231 0.230791 0.182203
0.287788 0.248544 0.196219
0.308344 0.266297 0.210234
0.328900 0.284050 0.224250
0.040356 0.034853 0.027516
0.060913 0.052606 0.041531
0.081469 0.070359 0.055547
0.102025 0.088112 0.069562
0.122581 0.105866 0.083578
0.143138 0.123619 0.097594
0.163694 0.141372 0.111609
0.184250 0.159125 0.125625
0.204806 0.176878 0.139641
0.225362 0.194631 0.153656
0.245919 0.212384 0.167672
0.266475 0.230137 0.181687
0.287031 0.247891 0.195703
0.307588 0.265644 0.209719
0.328144 0.283397 0.223734
0.348700 0.301150 0.237750
0.369256 0.318903 0.251766
0.080713 0.069706 0.055031
0.101269 0.087459 0.069047
0.121825 0.105212 0.083062
0.142381 0.122966 0.097078
0.162938 0.140719 0.111094
0.183494 0.158472 0.125109
0.204050 0.176225 0.139125
0.224606 0.193978 0.153141
0.245163 0.211731 0.167156
0.265719 0.229484 0.181172
0.286275 0.247237 0.195187
0.306831 0.264991 0.209203
0.327388 0.282744 0.223219
0.347944 0.300497 0.237234
0.368500 0.318250 0.251250
0.389056 0.336003 0.265266
0.409613 0.353756 0.279281
0.121069 0.104559 0.082547
0.141625 0.122312 0.096562
0.162181 0.140066 0.110578
0.182737 0.157819 0.124594
0.203294 0.175572 0.138609
0.223850 0.193325 0.152625
0.244406 0.211078 0.166641
0.264963 0.228831 0.180656
0.285519 0.246584 0.194672
0.306075 0.264338 0.208687
0.326631 0.282091 0.222703
0.347188 0.299844 0.236719
0.367744 0.317597 0.250734
0.388300 0.335350 0.264750
0.408856 0.353103 0.278766
0.429413 0.370856 0.292781
0.449969 0.388609 0.306797
0.161425 0.139412 0.110062
0.181981 0.157166 0.124078
0.202538 0.174919 0.138094
0.223094 0.192672 0.152109
0.243650 0.210425 0.166125
0.264206 0.228178 0.180141
0.284762 0.245931 0.194156
0.305319 0.263684 0.208172
0.325875 0.281438 0.222188
0.346431 0.299191 0.236203
0.366987 0.316944 0.250219
0.387544 0.334697 0.264234
0.408100 0.352450 0.278250
0.428656 0.370203 0.292266
0.449213 0.387956 0.306281
0.469769 0.405709 0.320297
0.490325 0.423462 0.334313
0.201781 0.174266 0.137578
0.222337 0.192019 0.151594
0.242894 0.209772 0.165609
0.263450 0.227525 0.179625
0.284006 0.245278 0.193641
0.304563 0.263031 0.207656
0.325119 0.280784 0.221672
0.345675 0.298537 0.235687
0.366231 0.316291 0.249703
0.386788 0.334044 0.263719
0.407344 0.351797 0.277734
0.427900 0.369550 0.291750
0.448456 0.387303 0.305766
0.469012 0.405056 0.319781
0.489569 0.422809 0.333797
0.510125 0.440562 0.347812
0.530681 0.458316 0.361828
0.242138 0.209119 0.165094
0.262694 0.226872 0.179109
0.283250 0.244625 0.193125
0.303806 0.262378 0.207141
0.324362 0.280131 0.221156
0.344919 0.297884 0.235172
0.365475 0.315637 0.249188
0.386031 0.333391 0.263203
0.406587 0.351144 0.277219
0.427144 0.368897 0.291234
0.447700 0.386650 0.305250
0.468256 0.404403 0.319266
0.488812 0.422156 0.333281
0.509369 0.439909 0.347297
0.529925 0.457662 0.361313
0.550481 0.475416 0.375328
0.571037 0.493169 0.389344
0.282494 0.243972 0.192609
0.303050 0.261725 0.206625
0.323606 0.279478 0.220641
0.344163 0.297231 0.234656
0.364719 0.314984 0.248672
0.385275 0.332737 0.262688
0.405831 0.350491 0.276703
0.426388 0.368244 0.290719
0.446944 0.385997 0.304734
0.467500 0.403750 0.318750
0.488056 0.421503 0.332766
0.508613 0.439256 0.346781
0.529169 0.457009 0.360797
0.549725 0.474763 0.374812
0.570281 0.492516 0.388828
0.590838 0.510269 0.402844
0.611394 0.528022 0.416859
0.322850 0.278825 0.220125
0.343406 0.296578 0.234141
0.363963 0.314331 0.248156
0.384519 0.332084 0.262172
0.405075 0.349837 0.276187
0.425631 0.367591 0.290203
0.446188 0.385344 0.304219
0.466744 0.403097 0.318234
0.487300 0.420850 0.332250
0.507856 0.438603 0.346266
0.528413 0.456356 0.360281
0.548969 0.474109 0.374297
0.569525 0.491862 0.388312
0.590081 0.509616 0.402328
0.610638 0.527369 0.416344
0.631194 0.545122 0.430359
0.651750 0.562875 0.444375
0.363206 0.313678 0.247641
0.383763 0.331431 0.261656
0.404319 0.349184 0.275672
0.424875 0.366937 0.289687
0.445431 0.384691 0.303703
0.465987 0.402444 0.317719
0.486544 0.420197 0.331734
0.507100 0.437950 0.345750
0.527656 0.455703 0.359766
0.548212 0.473456 0.373781
0.568769 0.491209 0.387797
0.589325 0.508962 0.401812
0.609881 0.526716 0.415828
0.630438 0.544469 0.429844
0.650994 0.562222 0.443859
0.671550 0.579975 0.457875
0.692106 0.597728 0.471891
0.403562 0.348531 0.275156
0.424119 0.366284 0.289172
0.444675 0.384037 0.303187
0.465231 0.401791 0.317203
0.485787 0.419544 0.331219
0.506344 0.437297 0.345234
0.526900 0.455050 0.359250
0.547456 0.472803 0.373266
0.568012 0.490556 0.387281
0.588569 0.508309 0.401297
0.609125 0.526062 0.415312
0.629681 0.543816 0.429328
0.650237 0.561569 0.443344
0.670794 0.579322 0.457359
0.691350 0.597075 0.471375
0.711906 0.614828 0.485391
0.732463 0.632581 0.499406
0.443919 0.383384 0.302672
0.464475 0.401137 0.316688
0.485031 0.418891 0.330703
0.505588 0.436644 0.344719
0.526144 0.454397 0.358734
0.546700 0.472150 0.372750
0.567256 0.489903 0.386766
0.587813 0.507656 0.400781
0.608369 0.525409 0.414797
0.628925 0.543162 0.428812
0.649481 0.560916 0.442828
0.670037 0.578669 0.456844
0.690594 0.596422 0.470859
0.711150 0.614175 0.484875
0.731706 0.631928 0.498891
0.752263 0.649681 0.512906
0.772819 0.667434 0.526922
0.484275 0.418237 0.330187
0.504831 0.435991 0.344203
0.525388 0.453744 0.358219
0.545944 0.471497 0.372234
0.566500 0.489250 0.386250
0.587056 0.507003 0.400266
0.607612 0.524756 0.414281
0.628169 0.542509 0.428297
0.648725 0.560262 0.442312
0.669281 0.578016 0.456328
0.689837 0.595769 0.470344
0.710394 0.613522 0.484359
0.730950 0.631275 0.498375
0.751506 0.649028 0.512391
0.772063 0.666781 0.526406
0.792619 0.684534 0.540422
0.813175 0.702287 0.554437
0.524631 0.453091 0.357703
0.545188 0.470844 0.371719
0.565744 0.488597 0.385734
0.586300 0.506350 0.399750
0.606856 0.524103 0.413766
0.627413 0.541856 0.427781
0.647969 0.559609 0.441797
0.668525 0.577363 0.455813
0.689081 0.595116 0.469828
0.709638 0.612869 0.483844
0.730194 0.630622 0.497859
0.750750 0.648375 0.511875
0.771306 0.666128 0.525891
0.791863 0.683881 0.539906
0.812419 0.701634 0.553922
0.832975 0.719387 0.567937
0.853531 0.737141 0.581953
0.564988 0.487944 0.385219
0.585544 0.505697 0.399234
0.606100 0.523450 0.413250
0.626656 0.541203 0.427266
0.647213 0.558956 0.441281
0.667769 0.576709 0.455297
0.688325 0.594463 0.469313
0.708881 0.612216 0.483328
0.729438 0.629969 0.497344
0.749994 0.647722 0.511359
0.770550 0.665475 0.525375
0.791106 0.683228 0.539391
0.811663 0.700981 0.553406
0.832219 0.718734 0.567422
0.852775 0.736487 0.581438
0.873331 0.754241 0.595453
0.893887 0.771994 0.609469
0.605344 0.522797 0.412734
0.625900 0.540550 0.426750
0.646456 0.558303 0.440766
0.667013 0.576056 0.454781
0.687569 0.593809 0.468797
0.708125 0.611562 0.482812
0.728681 0.629316 0.496828
0.749238 0.647069 0.510844
0.769794 0.664822 0.524859
0.790350 0.682575 0.538875
0.810906 0.700328 0.552891
0.831462 0.718081 0.566906
0.852019 0.735834 0.580922
0.872575 0.753587 0.594938
0.893131 0.771341 0.608953
0.913687 0.789094 0.622969
0.934244 0.806847 0.636984
0.645700 0.557650 0.440250
0.666256 0.575403 0.454266
0.686813 0.593156 0.468281
0.707369 0.610909 0.482297
0.727925 0.628662 0.496312
0.748481 0.646416 0.510328
0.769038 0.664169 0.524344
0.789594 0.681922 0.538359
0.810150 0.699675 0.552375
0.830706 0.717428 0.566391
0.851263 0.735181 0.580406
0.871819 0.752934 0.594422
0.892375 0.770687 0.608437
0.912931 0.788441 0.622453
0.933488 0.806194 0.636469
0.954044 0.823947 0.650484
0.974600 0.841700 0.664500
0.007838 0.006769 0.005344
0.028394 0.024522 0.019359
0.048950 0.042275 0.033375
0.069506 0.060028 0.047391
0.090063 0.077781 0.061406
0.110619 0.095534 0.075422
0.131175 0.113287 0.089438
0.151731 0.131041 0.103453
0.172288 0.148794 0.117469
0.192844 0.166547 0.131484
0.213400 0.184300 0.145500
0.233956 0.202053 0.159516
0.254513 0.219806 0.173531
0.275069 0.237559 0.187547
0.295625 0.255312 0.201562
0.316181 0.273066 0.215578
0.336738 0.290819 0.229594
0.048194 0.041622 0.032859
0.068750 0.059375 0.046875
0.089306 0.077128 0.060891
0.109863 0.094881 0.074906
0.130419 0.112634 0.088922
0.150975 0.130387 0.102937
0.171531 0.148141 0.116953
0.192087 0.165894 0.130969
0.212644 0.183647 0.144984
0.233200 0.201400 0.159000
0.253756 0.219153 0.173016
0.274312 0.236906 0.187031
0.294869 0.254659 0.201047
0.315425 0.272413 0.215062
0.335981 0.290166 0.229078
0.356537 0.307919 0.243094
0.377094 0.325672 0.257109
0.088550 0.076475 0.060375
0.109106 0.094228 0.074391
0.129663 0.111981 0.088406
0.150219 0.129734 0.102422
0.170775 0.147487 0.116437
0.191331 0.165241 0.130453
0.211888 0.182994 0.144469
0.232444 0.200747 0.158484
0.253000 0.218500 0.172500
0.273556 0.236253 0.186516
0.294112 0.254006 0.200531
0.314669 0.271759 0.214547
0.335225 0.289513 0.228563
0.355781 0.307266 0.242578
0.376337 0.325019 0.256594
0.396894 0.342772 0.270609
0.417450 0.360525 0.284625
0.128906 0.111328 0.087891
0.149462 0.129081 0.101906
0.170019 0.146834 0.115922
0.190575 0.164587 0.129937
0.211131 0.182341 0.143953
0.231687 0.200094 0.157969
0.252244 0.217847 0.171984
0.272800 0.235600 0.186000
0.293356 0.253353 0.200016
0.313913 0.271106 0.214031
0.334469 0.288859 0.228047
0.355025 0.306612 0.242062
0.375581 0.324366 0.256078
0.396137 0.342119 0.270094
0.416694 0.359872 0.284109
0.437250 0.377625 0.298125
0.457806 0.395378 0.312141
0.169262 0.146181 0.115406
0.189819 0.163934 0.129422
0.210375 0.181687 0.143437
0.230931 0.199441 0.157453
0.251487 0.217194 0.171469
0.272044 0.234947 0.185484
0.292600 0.252700 0.199500
0.313156 0.270453 0.213516
0.333713 0.288206 0.227531
0.354269 0.305959 0.241547
0.374825 0.323712 0.255562
0.395381 0.341466 0.269578
0.415938 0.359219 0.283594
0.436494 0.376972 0.297609
0.457050 0.394725 0.311625
0.477606 0.412478 0.325641
0.498163 0.430231 0.339656
0.209619 0.181034 0.142922
0.230175 0.198787 0.156937
0.250731 0.216541 0.170953
0.271288 0.234294 0.184969
0.291844 0.252047 0.198984
0.312400 0.269800 0.213000
0.332956 0.287553 0.227016
0.353513 0.305306 0.241031
0.374069 0.323059 0.255047
0.394625 0.340812 0.269062
0.415181 0.358566 0.283078
0.435737 0.376319 0.297094
0.456294 0.394072 0.311109
0.476850 0.411825 0.325125
0.497406 0.429578 0.339141
0.517962 0.447331 0.353156
0.538519 0.465084 0.367172
0.249975 0.215887 0.170437
0.270531 0.233641 0.184453
0.291087 0.251394 0.198469
0.311644 0.269147 0.212484
0.332200 0.286900 0.226500
0.352756 0.304653 0.240516
0.373312 0.322406 0.254531
0.393869 0.340159 0.268547
0.414425 0.357912 0.282562
0.434981 0.375666 0.296578
0.455537 0.393419 0.310594
0.476094 0.411172 0.324609
0.496650 0.428925 0.338625
0.517206 0.446678 0.352641
0.537763 0.464431 0.366656
0.558319 0.482184 0.380672
0.578875 0.499937 0.394687
0.290331 0.250741 0.197953
0.310888 0.268494 0.211969
0.331444 0.286247 0.225984
0.352000 0.304000 0.240000
0.372556 0.321753 0.254016
0.393113 0.339506 0.268031
0.413669 0.357259 0.282047
0.434225 0.375012 0.296063
0.454781 0.392766 0.310078
0.475338 0.410519 0.324094
0.495894 0.428272 0.338109
0.516450 0.446025 0.352125
0.537006 0.463778 0.366141
0.557563 0.481531 0.380156
0.578119 0.499284 0.394172
0.598675 0.517038 0.408188
0.619231 0.534791 0.422203
0.330688 0.285594 0.225469
0.351244 0.303347 0.239484
0.371800 0.321100 0.253500
0.392356 0.338853 0.267516
0.412913 0.356606 0.281531
0.433469 0.374359 0.295547
0.454025 0.392112 0.309563
0.474581 0.409866 0.323578
0.495137 0.427619 0.337594
0.515694 0.445372 0.351609
0.536250 0.463125 0.365625
0.556806 0.480878 0.379641
0.577363 0.498631 0.393656
0.597919 0.516384 0.407672
0.618475 0.534138 0.421687
0.639031 0.551891 0.435703
0.659588 0.569644 0.449719
0.371044 0.320447 0.252984
0.391600 0.338200 0.267000
0.412156 0.355953 0.281016
0.432712 0.373706 0.295031
0.453269 0.391459 0.309047
0.473825 0.409212 0.323062
0.494381 0.426966 0.337078
0.514938 0.444719 0.351094
0.535494 0.462472 0.365109
0.556050 0.480225 0.379125
0.576606 0.497978 0.393141
0.597163 0.515731 0.407156
0.617719 0.533484 0.421172
0.638275 0.551238 0.435188
0.658831 0.568991 0.449203
0.679388 0.586744 0.463219
0.699944 0.604497 0.477234
0.411400 0.355300 0.280500
0.431956 0.373053 0.294516
0.452512 0.390806 0.308531
0.473069 0.408559 0.322547
0.493625 0.426312 0.336562
0.514181 0.444066 0.350578
0.534737 0.461819 0.364594
0.555294 0.479572 0.378609
0.575850 0.497325 0.392625
0.596406 0.515078 0.406641
0.616963 0.532831 0.420656
0.637519 0.550584 0.434672
0.658075 0.568337 0.448687
0.678631 0.586091 0.462703
0.699188 0.603844 0.476719
0.719744 0.621597 0.490734
0.740300 0.639350 0.504750
0.451756 0.390153 0.308016
0.472313 0.407906 0.322031
0.492869 0.425659 0.336047
0.513425 0.443412 0.350062
0.533981 0.461166 0.364078
0.554538 0.478919 0.378094
0.575094 0.496672 0.392109
0.595650 0.514425 0.406125
0.616206 0.532178 0.420141
0.636763 0.549931 0.434156
0.657319 0.567684 0.448172
0.677875 0.585437 0.462187
0.698431 0.603191 0.476203
0.718988 0.620944 0.490219
0.739544 0.638697 0.504234
0.760100 0.656450 0.518250
0.780656 0.674203 0.532266
0.492113 0.425006 0.335531
0.512669 0.442759 0.349547
0.533225 0.460512 0.363562
0.553781 0.478266 0.377578
0.574338 0.496019 0.391594
0.594894 0.513772 0.405609
0.615450 0.531525 0.419625
0.636006 0.549278 0.433641
0.656563 0.567031 0.447656
0.677119 0.584784 0.461672
0.697675 0.602537 0.475687
0.718231 0.620291 0.489703
0.738788 0.638044 0.503719
0.759344 0.655797 0.517734
0.779900 0.673550 0.531750
0.800456 0.691303 0.545766
0.821013 0.709056 0.559781
0.532469 0.459859 0.363047
0.553025 0.477612 0.377063
0.573581 0.495366 0.391078
0.594137 0.513119 0.405094
0.614694 0.530872 0.419109
0.635250 0.548625 0.433125
0.655806 0.566378 0.447141
0.676363 0.584131 0.461156
0.696919 0.601884 0.475172
0.717475 0.619637 0.489187
0.738031 0.637391 0.503203
0.758587 0.655144 0.517219
0.779144 0.672897 0.531234
0.799700 0.690650 0.545250
0.820256 0.708403 0.559266
0.840813 0.726156 0.573281
0.861369 0.743909 0.587297
0.572825 0.494712 0.390563
0.593381 0.512466 0.404578
0.613938 0.530219 0.418594
0.634494 0.547972 0.432609
0.655050 0.565725 0.446625
0.675606 0.583478 0.460641
0.696163 0.601231 0.474656
0.716719 0.618984 0.488672
0.737275 0.636737 0.502687
0.757831 0.654491 0.516703
0.778388 0.672244 0.530719
0.798944 0.689997 0.544734
0.819500 0.707750 0.558750
0.840056 0.725503 0.572766
0.860613 0.743256 0.586781
0.881169 0.761009 0.600797
0.901725 0.778762 0.614812
0.613181 0.529566 0.418078
0.633738 0.547319 0.432094
0.654294 0.565072 0.446109
0.674850 0.582825 0.460125
0.695406 0.600578 0.474141
0.715963 0.618331 0.488156
0.736519 0.636084 0.502172
0.757075 0.653837 0.516188
0.777631 0.671591 0.530203
0.798188 0.689344 0.544219
0.818744 0.707097 0.558234
0.839300 0.724850 0.572250
0.859856 0.742603 0.586266
0.880413 0.760356 0.600281
0.900969 0.778109 0.614297
0.921525 0.795862 0.628313
0.942081 0.813616 0.642328
0.653538 0.564419 0.445594
0.674094 0.582172 0.459609
0.694650 0.599925 0.473625
0.715206 0.617678 0.487641
0.735763 0.635431 0.501656
0.756319 0.653184 0.515672
0.776875 0.670937 0.529688
0.797431 0.688691 0.543703
0.817988 0.706444 0.557719
0.838544 0.724197 0.571734
0.859100 0.741950 0.585750
0.879656 0.759703 0.599766
0.900213 0.777456 0.613781
0.920769 0.795209 0.627797
0.941325 0.812962 0.641813
0.961881 0.830716 0.655828
0.982438 0.848469 0.669844
0.015675 0.013537 0.010688
0.036231 0.031291 0.024703
0.056788 0.049044 0.038719
0.077344 0.066797 0.052734
0.097900 0.084550 0.066750
0.118456 0.102303 0.080766
0.139013 0.120056 0.094781
0.159569 0.137809 0.108797
0.180125 0.155562 0.122813
0.200681 0.173316 0.136828
0.221238 0.191069 0.150844
0.241794 0.208822 0.164859
0.262350 0.226575 0.178875
0.282906 0.244328 0.192891
0.303463 0.262081 0.206906
0.324019 0.279834 0.220922
0.344575 0.297587 0.234937
0.056031 0.048391 0.038203
0.076588 0.066144 0.052219
0.097144 0.083897 0.066234
0.117700 0.101650 0.080250
0.138256 0.119403 0.094266
0.158813 0.137156 0.108281
0.179369 0.154909 0.122297
0.199925 0.172662 0.136313
0.220481 0.190416 0.150328
0.241038 0.208169 0.164344
0.261594 0.225922 0.178359
0.282150 0.243675 0.192375
0.302706 0.261428 0.206391
0.323263 0.279181 0.220406
0.343819 0.296934 0.234422
0.364375 0.314687 0.248437
0.384931 0.332441 0.262453
0.096388 0.083244 0.065719
0.116944 0.100997 0.079734
0.137500 0.118750 0.093750
0.158056 0.136503 0.107766
0.178613 0.154256 0.121781
0.199169 0.172009 0.135797
0.219725 0.189763 0.149813
0.240281 0.207516 0.163828
0.260837 0.225269 0.177844
0.281394 0.243022 0.191859
0.301950 0.260775 0.205875
0.322506 0.278528 0.219891
0.343063 0.296281 0.233906
0.363619 0.314034 0.247922
0.384175 0.331787 0.261937
0.404731 0.349541 0.275953
0.425288 0.367294 0.289969
0.136744 0.118097 0.093234
0.157300 0.135850 0.107250
0.177856 0.153603 0.121266
0.198413 0.171356 0.135281
0.218969 0.189109 0.149297
0.239525 0.206862 0.163312
0.260081 0.224616 0.177328
0.280638 0.242369 0.191344
0.301194 0.260122 0.205359
0.321750 0.277875 0.219375
0.342306 0.295628 0.233391
0.362862 0.313381 0.247406
0.383419 0.331134 0.261422
0.403975 0.348887 0.275438
0.424531 0.366641 0.289453
0.445087 0.384394 0.303469
0.465644 0.402147 0.317484
0.177100 0.152950 0.120750
0.197656 0.170703 0.134766
0.218213 0.188456 0.148781
0.238769 0.206209 0.162797
0.259325 0.223962 0.176812
0.279881 0.241716 0.190828
0.300437 0.259469 0.204844
0.320994 0.277222 0.218859
0.341550 0.294975 0.232875
0.362106 0.312728 0.246891
0.382662 0.330481 0.260906
0.403219 0.348234 0.274922
0.423775 0.365987 0.288937
0.444331 0.383741 0.302953
0.464888 0.401494 0.316969
0.485444 0.419247 0.330984
0.506000 0.437000 0.345000
0.217456 0.187803 0.148266
0.238012 0.205556 0.162281
0.258569 0.223309 0.176297
0.279125 0.241062 0.190312
0.299681 0.258816 0.204328
0.320238 0.276569 0.218344
0.340794 0.294322 0.232359
0.361350 0.312075 0.246375
0.381906 0.329828 0.260391
0.402463 0.347581 0.274406
0.423019 0.365334 0.288422
0.443575 0.383087 0.302437
0.464131 0.400841 0.316453
0.484687 0.418594 0.330469
0.505244 0.436347 0.344484
0.525800 0.454100 0.358500
0.546356 0.471853 0.372516
0.257812 0.222656 0.175781
0.278369 0.240409 0.189797
0.298925 0.258162 0.203813
0.319481 0.275916 0.217828
0.340037 0.293669 0.231844
0.360594 0.311422 0.245859
0.381150 0.329175 0.259875
0.401706 0.346928 0.273891
0.422262 0.364681 0.287906
0.442819 0.382434 0.301922
0.463375 0.400187 0.315937
0.483931 0.417941 0.329953
0.504487 0.435694 0.343969
0.525044 0.453447 0.357984
0.545600 0.471200 0.372000
0.566156 0.488953 0.386016
0.586712 0.506706 0.400031
0.298169 0.257509 0.203297
0.318725 0.275263 0.217313
0.339281 0.293016 0.231328
0.359838 0.310769 0.245344
0.380394 0.328522 0.259359
0.400950 0.346275 0.273375
0.421506 0.364028 0.287391
0.442063 0.381781 0.301406
0.462619 0.399534 0.315422
0.483175 0.417287 0.329437
0.503731 0.435041 0.343453
0.524288 0.452794 0.357469
0.544844 0.470547 0.371484
0.565400 0.488300 0.385500
0.585956 0.506053 0.399516
0.606513 0.523806 0.413531
0.627069 0.541559 0.427547
0.338525 0.292362 0.230812
0.359081 0.310116 0.244828
0.379637 0.327869 0.258844
0.400194 0.345622 0.272859
0.420750 0.363375 0.286875
0.441306 0.381128 0.300891
0.461863 0.398881 0.314906
0.482419 0.416634 0.328922
0.502975 0.434387 0.342937
0.523531 0.452141 0.356953
0.544088 0.469894 0.370969
0.564644 0.487647 0.384984
0.585200 0.505400 0.399000
0.605756 0.523153 0.413016
0.626313 0.540906 0.427031
0.646869 0.558659 0.441047
0.667425 0.576412 0.455063
0.378881 0.327216 0.258328
0.399438 0.344969 0.272344
0.419994 0.362722 0.286359
0.440550 0.380475 0.300375
0.461106 0.398228 0.314391
0.481662 0.415981 0.328406
0.502219 0.433734 0.342422
0.522775 0.451487 0.356437
0.543331 0.469241 0.370453
0.563888 0.486994 0.384469
0.584444 0.504747 0.398484
0.605000 0.522500 0.412500
0.625556 0.540253 0.426516
0.646112 0.558006 0.440531
0.666669 0.575759 0.454547
0.687225 0.593512 0.468562
0.707781 0.611266 0.482578
0.419237 0.362069 0.285844
0.439794 0.379822 0.299859
0.460350 0.397575 0.313875
0.480906 0.415328 0.327891
0.501462 0.433081 0.341906
0.522019 0.450834 0.355922
0.542575 0.468587 0.369937
0.563131 0.486341 0.383953
0.583687 0.504094 0.397969
0.604244 0.521847 0.411984
0.624800 0.539600 0.426000
0.645356 0.557353 0.440016
0.665912 0.575106 0.454031
0.686469 0.592859 0.468047
0.707025 0.610612 0.482062
0.727581 0.628366 0.496078
0.748138 0.646119 0.510094
0.459594 0.396922 0.313359
0.480150 0.414675 0.327375
0.500706 0.432428 0.341391
0.521263 0.450181 0.355406
0.541819 0.467934 0.369422
0.562375 0.485687 0.383437
0.582931 0.503441 0.397453
0.603488 0.521194 0.411469
0.624044 0.538947 0.425484
0.644600 0.556700 0.439500
0.665156 0.574453 0.453516
0.685712 0.592206 0.467531
0.706269 0.609959 0.481547
0.726825 0.627712 0.495562
0.747381 0.645466 0.509578
0.767938 0.663219 0.523594
0.788494 0.680972 0.537609
0.499950 0.431775 0.340875
0.520506 0.449528 0.354891
0.541063 0.467281 0.368906
0.561619 0.485034 0.382922
0.582175 0.502787 0.396937
0.602731 0.520541 0.410953
0.623287 0.538294 0.424969
0.643844 0.556047 0.438984
0.664400 0.573800 0.453000
0.684956 0.591553 0.467016
0.705512 0.609306 0.481031
0.726069 0.627059 0.495047
0.746625 0.644812 0.509062
0.767181 0.662566 0.523078
0.787738 0.680319 0.537094
0.808294 0.698072 0.551109
0.828850 0.715825 0.565125
0.540306 0.466628 0.368391
0.560863 0.484381 0.382406
0.581419 0.502134 0.396422
0.601975 0.519887 0.410437
0.622531 0.537641 0.424453
0.643088 0.555394 0.438469
0.663644 0.573147 0.452484
0.684200 0.590900 0.466500
0.704756 0.608653 0.480516
0.725313 0.626406 0.494531
0.745869 0.644159 0.508547
0.766425 0.661912 0.522562
0.786981 0.679666 0.536578
0.807538 0.697419 0.550594
0.828094 0.715172 0.564609
0.848650 0.732925 0.578625
0.869206 0.750678 0.592641
0.580663 0.501481 0.395906
0.601219 0.519234 0.409922
0.621775 0.536987 0.423938
0.642331 0.554741 0.437953
0.662887 0.572494 0.451969
0.683444 0.590247 0.465984
0.704000 0.608000 0.480000
0.724556 0.625753 0.494016
0.745112 0.643506 0.508031
0.765669 0.661259 0.522047
0.786225 0.679013 0.536062
0.806781 0.696766 0.550078
0.827338 0.714519 0.564094
0.847894 0.732272 0.578109
0.868450 0.750025 0.592125
0.889006 0.767778 0.606141
0.909562 0.785531 0.620156
0.621019 0.536334 0.423422
0.641575 0.554087 0.437437
0.662131 0.571841 0.451453
0.682688 0.589594 0.465469
0.703244 0.607347 0.479484
0.723800 0.625100 0.493500
0.744356 0.642853 0.507516
0.764912 0.660606 0.521531
0.785469 0.678359 0.535547
0.806025 0.696112 0.549562
0.826581 0.713866 0.563578
0.847137 0.731619 0.577594
0.867694 0.749372 0.591609
0.888250 0.767125 0.605625
0.908806 0.784878 0.619641
0.929362 0.802631 0.633656
0.949919 0.820384 0.647672
0.661375 0.571187 0.450937
0.681931 0.588941 0.464953
0.702488 0.606694 0.478969
0.723044 0.624447 0.492984
0.743600 0.642200 0.507000
0.764156 0.659953 0.521016
0.784713 0.677706 0.535031
0.805269 0.695459 0.549047
0.825825 0.713212 0.563062
0.846381 0.730966 0.577078
0.866938 0.748719 0.591094
0.887494 0.766472 0.605109
0.908050 0.784225 0.619125
0.928606 0.801978 0.633141
0.949163 0.819731 0.647156
0.969719 0.837484 0.661172
0.990275 0.855237 0.675187
0.023513 0.020306 0.016031
0.044069 0.038059 0.030047
0.064625 0.055812 0.044062
0.085181 0.073566 0.058078
0.105738 0.091319 0.072094
0.126294 0.109072 0.086109
0.146850 0.126825 0.100125
0.167406 0.144578 0.114141
0.187963 0.162331 0.128156
0.208519 0.180084 0.142172
0.229075 0.197837 0.156187
0.249631 0.215591 0.170203
0.270188 0.233344 0.184219
0.290744 0.251097 0.198234
0.311300 0.268850 0.212250
0.331856 0.286603 0.226266
0.352413 0.304356 0.240281
0.063869 0.055159 0.043547
