app/src/main/assets/luts/vintage_sepia.cube
# ApexStudio filter: vintage_sepia
LUT_3D_SIZE 9
DOMAIN_MIN 0.0 0.0 0.0
DOMAIN_MAX 1.0 1.0 1.0
0.000000 0.000000 0.000000
0.041113 0.035506 0.028031
0.082225 0.071012 0.056063
0.123338 0.106519 0.084094
0.164450 0.142025 0.112125
0.205563 0.177531 0.140156
0.246675 0.213037 0.168187
0.287788 0.248544 0.196219
0.328900 0.284050 0.224250
0.080713 0.069706 0.055031
0.121825 0.105212 0.083062
0.162938 0.140719 0.111094
0.204050 0.176225 0.139125
0.245163 0.211731 0.167156
0.286275 0.247237 0.195187
0.327388 0.282744 0.223219
0.368500 0.318250 0.251250
0.409613 0.353756 0.279281
0.161425 0.139412 0.110062
0.202538 0.174919 0.138094
0.243650 0.210425 0.166125
0.284762 0.245931 0.194156
0.325875 0.281438 0.222188
0.366987 0.316944 0.250219
0.408100 0.352450 0.278250
0.449213 0.387956 0.306281
0.490325 0.423462 0.334313
0.242138 0.209119 0.165094
0.283250 0.244625 0.193125
0.324362 0.280131 0.221156
0.365475 0.315637 0.249188
0.406587 0.351144 0.277219
0.447700 0.386650 0.305250
0.488812 0.422156 0.333281
0.529925 0.457662 0.361313
0.571037 0.493169 0.389344
0.322850 0.278825 0.220125
0.363963 0.314331 0.248156
0.405075 0.349837 0.276187
0.446188 0.385344 0.304219
0.487300 0.420850 0.332250
0.528413 0.456356 0.360281
0.569525 0.491862 0.388312
0.610638 0.527369 0.416344
0.651750 0.562875 0.444375
0.403562 0.348531 0.275156
0.444675 0.384037 0.303187
0.485787 0.419544 0.331219
0.526900 0.455050 0.359250
0.568012 0.490556 0.387281
0.609125 0.526062 0.415312
0.650237 0.561569 0.443344
0.691350 0.597075 0.471375
0.732463 0.632581 0.499406
0.484275 0.418237 0.330187
0.525388 0.453744 0.358219
0.566500 0.489250 0.386250
0.607612 0.524756 0.414281
0.648725 0.560262 0.442312
0.689837 0.595769 0.470344
0.730950 0.631275 0.498375
0.772063 0.666781 0.526406
0.813175 0.702287 0.554437
0.564988 0.487944 0.385219
0.606100 0.523450 0.413250
0.647213 0.558956 0.441281
0.688325 0.594463 0.469313
0.729438 0.629969 0.497344
0.770550 0.665475 0.525375
0.811663 0.700981 0.553406
0.852775 0.736487 0.581438
0.893887 0.771994 0.609469
0.645700 0.557650 0.440250
0.686813 0.593156 0.468281
0.727925 0.628662 0.496312
0.769038 0.664169 0.524344
0.810150 0.699675 0.552375
0.851263 0.735181 0.580406
0.892375 0.770687 0.608437
0.933488 0.806194 0.636469
0.974600 0.841700 0.664500
0.015675 0.013537 0.010688
0.056788 0.049044 0.038719
0.097900 0.084550 0.066750
0.139013 0.120056 0.094781
0.180125 0.155562 0.122813
0.221238 0.191069 0.150844
0.262350 0.226575 0.178875
0.303463 0.262081 0.206906
0.344575 0.297587 0.234937
0.096388 0.083244 0.065719
0.137500 0.118750 0.093750
0.178613 0.154256 0.121781
0.219725 0.189763 0.149813
0.260837 0.225269 0.177844
0.301950 0.260775 0.205875
0.343063 0.296281 0.233906
0.384175 0.331787 0.261937
0.425288 0.367294 0.289969
0.177100 0.152950 0.120750
0.218213 0.188456 0.148781
0.259325 0.223962 0.176812
0.300437 0.259469 0.204844
0.341550 0.294975 0.232875
0.382662 0.330481 0.260906
0.423775 0.365987 0.288937
0.464888 0.401494 0.316969
0.506000 0.437000 0.345000
0.257812 0.222656 0.175781
0.298925 0.258162 0.203813
0.340037 0.293669 0.231844
0.381150 0.329175 0.259875
0.422262 0.364681 0.287906
0.463375 0.400187 0.315937
0.504487 0.435694 0.343969
0.545600 0.471200 0.372000
0.586712 0.506706 0.400031
0.338525 0.292362 0.230812
0.379637 0.327869 0.258844
0.420750 0.363375 0.286875
0.461863 0.398881 0.314906
0.502975 0.434387 0.342937
0.544088 0.469894 0.370969
0.585200 0.505400 0.399000
0.626313 0.540906 0.427031
0.667425 0.576412 0.455063
0.419237 0.362069 0.285844
0.460350 0.397575 0.313875
0.501462 0.433081 0.341906
0.542575 0.468587 0.369937
0.583687 0.504094 0.397969
0.624800 0.539600 0.426000
0.665912 0.575106 0.454031
0.707025 0.610612 0.482062
0.748138 0.646119 0.510094
0.499950 0.431775 0.340875
0.541063 0.467281 0.368906
0.582175 0.502787 0.396937
0.623287 0.538294 0.424969
0.664400 0.573800 0.453000
0.705512 0.609306 0.481031
0.746625 0.644812 0.509062
0.787738 0.680319 0.537094
0.828850 0.715825 0.565125
0.580663 0.501481 0.395906
0.621775 0.536987 0.423938
0.662887 0.572494 0.451969
0.704000 0.608000 0.480000
0.745112 0.643506 0.508031
0.786225 0.679013 0.536062
0.827338 0.714519 0.564094
0.868450 0.750025 0.592125
0.909562 0.785531 0.620156
0.661375 0.571187 0.450937
0.702488 0.606694 0.478969
0.743600 0.642200 0.507000
0.784713 0.677706 0.535031
0.825825 0.713212 0.563062
0.866938 0.748719 0.591094
0.908050 0.784225 0.619125
0.949163 0.819731 0.647156
0.990275 0.855237 0.675187
0.031350 0.027075 0.021375
0.072463 0.062581 0.049406
0.113575 0.098087 0.077437
0.154688 0.133594 0.105469
0.195800 0.169100 0.133500
0.236912 0.204606 0.161531
0.278025 0.240113 0.189563
0.319138 0.275619 0.217594
0.360250 0.311125 0.245625
0.112062 0.096781 0.076406
0.153175 0.132287 0.104437
0.194288 0.167794 0.132469
0.235400 0.203300 0.160500
0.276513 0.238806 0.188531
0.317625 0.274313 0.216562
0.358738 0.309819 0.244594
0.399850 0.345325 0.272625
0.440963 0.380831 0.300656
0.192775 0.166487 0.131437
0.233887 0.201994 0.159469
0.275000 0.237500 0.187500
0.316113 0.273006 0.215531
0.357225 0.308513 0.243563
0.398338 0.344019 0.271594
0.439450 0.379525 0.299625
0.480563 0.415031 0.327656
0.521675 0.450537 0.355687
0.273487 0.236194 0.186469
0.314600 0.271700 0.214500
0.355713 0.307206 0.242531
0.396825 0.342712 0.270563
0.437938 0.378219 0.298594
0.479050 0.413725 0.326625
0.520163 0.449231 0.354656
0.561275 0.484737 0.382687
0.602387 0.520244 0.410719
0.354200 0.305900 0.241500
0.395313 0.341406 0.269531
0.436425 0.376912 0.297563
0.477538 0.412419 0.325594
0.518650 0.447925 0.353625
0.559763 0.483431 0.381656
0.600875 0.518937 0.409687
0.641988 0.554444 0.437719
0.683100 0.589950 0.465750
0.434913 0.375606 0.296531
0.476025 0.411112 0.324562
0.517138 0.446619 0.352594
0.558250 0.482125 0.380625
0.599362 0.517631 0.408656
0.640475 0.553137 0.436687
0.681587 0.588644 0.464719
0.722700 0.624150 0.492750
0.763813 0.659656 0.520781
0.515625 0.445312 0.351562
0.556737 0.480819 0.379594
0.597850 0.516325 0.407625
0.638962 0.551831 0.435656
0.680075 0.587337 0.463687
0.721187 0.622844 0.491719
0.762300 0.658350 0.519750
0.803413 0.693856 0.547781
0.844525 0.729362 0.575812
0.596337 0.515019 0.406594
0.637450 0.550525 0.434625
0.678562 0.586031 0.462656
0.719675 0.621537 0.490687
0.760787 0.657044 0.518719
0.801900 0.692550 0.546750
0.843013 0.728056 0.574781
0.884125 0.763562 0.602812
0.925237 0.799069 0.630844
0.677050 0.584725 0.461625
0.718163 0.620231 0.489656
0.759275 0.655737 0.517687
0.800388 0.691244 0.545719
0.841500 0.726750 0.573750
0.882613 0.762256 0.601781
0.923725 0.797762 0.629812
0.964838 0.833269 0.657844
1.000000 0.868775 0.685875
0.047025 0.040613 0.032063
0.088138 0.076119 0.060094
0.129250 0.111625 0.088125
0.170363 0.147131 0.116156
0.211475 0.182638 0.144187
0.252588 0.218144 0.172219
0.293700 0.253650 0.200250
0.334813 0.289156 0.228281
0.375925 0.324662 0.256312
0.127738 0.110319 0.087094
0.168850 0.145825 0.115125
0.209963 0.181331 0.143156
0.251075 0.216837 0.171187
0.292188 0.252344 0.199219
0.333300 0.287850 0.227250
0.374413 0.323356 0.255281
0.415525 0.358862 0.283312
0.456638 0.394369 0.311344
0.208450 0.180025 0.142125
0.249563 0.215531 0.170156
0.290675 0.251037 0.198187
0.331788 0.286544 0.226219
0.372900 0.322050 0.254250
0.414013 0.357556 0.282281
0.455125 0.393062 0.310312
0.496238 0.428569 0.338344
0.537350 0.464075 0.366375
0.289162 0.249731 0.197156
0.330275 0.285237 0.225188
0.371388 0.320744 0.253219
0.412500 0.356250 0.281250
0.453613 0.391756 0.309281
0.494725 0.427262 0.337313
0.535837 0.462769 0.365344
0.576950 0.498275 0.393375
0.618062 0.533781 0.421406
0.369875 0.319437 0.252188
0.410988 0.354944 0.280219
0.452100 0.390450 0.308250
0.493213 0.425956 0.336281
0.534325 0.461462 0.364312
0.575438 0.496969 0.392344
0.616550 0.532475 0.420375
0.657662 0.567981 0.448406
0.698775 0.603487 0.476437
0.450587 0.389144 0.307219
0.491700 0.424650 0.335250
0.532813 0.460156 0.363281
0.573925 0.495662 0.391312
0.615037 0.531169 0.419344
0.656150 0.566675 0.447375
0.697262 0.602181 0.475406
0.738375 0.637687 0.503437
0.779487 0.673194 0.531469
0.531300 0.458850 0.362250
0.572412 0.494356 0.390281
0.613525 0.529862 0.418312
0.654637 0.565369 0.446344
0.695750 0.600875 0.474375
0.736862 0.636381 0.502406
0.777975 0.671887 0.530437
0.819088 0.707394 0.558469
0.860200 0.742900 0.586500
0.612012 0.528556 0.417281
0.653125 0.564063 0.445312
0.694237 0.599569 0.473344
0.735350 0.635075 0.501375
0.776462 0.670581 0.529406
0.817575 0.706087 0.557438
0.858688 0.741594 0.585469
0.899800 0.777100 0.613500
0.940912 0.812606 0.641531
0.692725 0.598262 0.472312
0.733838 0.633769 0.500344
0.774950 0.669275 0.528375
0.816063 0.704781 0.556406
0.857175 0.740287 0.584437
0.898288 0.775794 0.612469
0.939400 0.811300 0.640500
0.980513 0.846806 0.668531
1.000000 0.882312 0.696562
0.062700 0.054150 0.042750
0.103813 0.089656 0.070781
0.144925 0.125163 0.098812
0.186038 0.160669 0.126844
0.227150 0.196175 0.154875
0.268263 0.231681 0.182906
0.309375 0.267187 0.210938
0.350488 0.302694 0.238969
0.391600 0.338200 0.267000
0.143412 0.123856 0.097781
0.184525 0.159362 0.125812
0.225638 0.194869 0.153844
0.266750 0.230375 0.181875
0.307862 0.265881 0.209906
0.348975 0.301387 0.237937
0.390088 0.336894 0.265969
0.431200 0.372400 0.294000
0.472313 0.407906 0.322031
0.224125 0.193562 0.152812
0.265238 0.229069 0.180844
0.306350 0.264575 0.208875
0.347463 0.300081 0.236906
0.388575 0.335587 0.264937
0.429688 0.371094 0.292969
0.470800 0.406600 0.321000
0.511912 0.442106 0.349031
0.553025 0.477612 0.377063
0.304838 0.263269 0.207844
0.345950 0.298775 0.235875
0.387063 0.334281 0.263906
0.428175 0.369787 0.291937
0.469288 0.405294 0.319969
0.510400 0.440800 0.348000
0.551513 0.476306 0.376031
0.592625 0.511813 0.404063
0.633738 0.547319 0.432094
0.385550 0.332975 0.262875
0.426663 0.368481 0.290906
0.467775 0.403987 0.318937
0.508888 0.439494 0.346969
0.550000 0.475000 0.375000
0.591113 0.510506 0.403031
0.632225 0.546013 0.431063
0.673338 0.581519 0.459094
0.714450 0.617025 0.487125
0.466262 0.402681 0.317906
0.507375 0.438187 0.345937
0.548488 0.473694 0.373969
0.589600 0.509200 0.402000
0.630713 0.544706 0.430031
0.671825 0.580213 0.458063
0.712938 0.615719 0.486094
0.754050 0.651225 0.514125
0.795163 0.686731 0.542156
0.546975 0.472387 0.372937
0.588088 0.507894 0.400969
0.629200 0.543400 0.429000
0.670313 0.578906 0.457031
0.711425 0.614413 0.485063
0.752538 0.649919 0.513094
0.793650 0.685425 0.541125
0.834763 0.720931 0.569156
0.875875 0.756437 0.597187
0.627688 0.542094 0.427969
0.668800 0.577600 0.456000
0.709913 0.613106 0.484031
0.751025 0.648613 0.512063
0.792138 0.684119 0.540094
0.833250 0.719625 0.568125
0.874363 0.755131 0.596156
0.915475 0.790637 0.624188
0.956588 0.826144 0.652219
0.708400 0.611800 0.483000
0.749513 0.647306 0.511031
0.790625 0.682812 0.539062
0.831738 0.718319 0.567094
0.872850 0.753825 0.595125
0.913963 0.789331 0.623156
0.955075 0.824838 0.651188
0.996188 0.860344 0.679219
1.000000 0.895850 0.707250
0.078375 0.067687 0.053438
0.119488 0.103194 0.081469
0.160600 0.138700 0.109500
0.201713 0.174206 0.137531
0.242825 0.209712 0.165563
0.283938 0.245219 0.193594
0.325050 0.280725 0.221625
0.366163 0.316231 0.249656
0.407275 0.351737 0.277687
0.159088 0.137394 0.108469
0.200200 0.172900 0.136500
0.241313 0.208406 0.164531
0.282425 0.243913 0.192563
0.323537 0.279419 0.220594
0.364650 0.314925 0.248625
0.405763 0.350431 0.276656
0.446875 0.385937 0.304688
0.487988 0.421444 0.332719
0.239800 0.207100 0.163500
0.280913 0.242606 0.191531
0.322025 0.278112 0.219562
0.363138 0.313619 0.247594
0.404250 0.349125 0.275625
0.445362 0.384631 0.303656
0.486475 0.420137 0.331688
0.527587 0.455644 0.359719
0.568700 0.491150 0.387750
0.320513 0.276806 0.218531
0.361625 0.312312 0.246562
0.402738 0.347819 0.274594
0.443850 0.383325 0.302625
0.484963 0.418831 0.330656
0.526075 0.454337 0.358687
0.567188 0.489844 0.386719
0.608300 0.525350 0.414750
0.649413 0.560856 0.442781
0.401225 0.346513 0.273563
0.442337 0.382019 0.301594
0.483450 0.417525 0.329625
0.524563 0.453031 0.357656
0.565675 0.488537 0.385687
0.606788 0.524044 0.413719
0.647900 0.559550 0.441750
0.689013 0.595056 0.469781
0.730125 0.630563 0.497813
0.481938 0.416219 0.328594
0.523050 0.451725 0.356625
0.564163 0.487231 0.384656
0.605275 0.522737 0.412687
0.646388 0.558244 0.440719
0.687500 0.593750 0.468750
0.728612 0.629256 0.496781
0.769725 0.664762 0.524813
0.810838 0.700269 0.552844
0.562650 0.485925 0.383625
0.603763 0.521431 0.411656
0.644875 0.556937 0.439688
0.685988 0.592444 0.467719
0.727100 0.627950 0.495750
0.768213 0.663456 0.523781
0.809325 0.698962 0.551813
0.850438 0.734469 0.579844
0.891550 0.769975 0.607875
0.643363 0.555631 0.438656
0.684475 0.591138 0.466688
0.725588 0.626644 0.494719
0.766700 0.662150 0.522750
0.807813 0.697656 0.550781
0.848925 0.733163 0.578813
0.890038 0.768669 0.606844
0.931150 0.804175 0.634875
0.972263 0.839681 0.662906
0.724075 0.625337 0.493688
0.765188 0.660844 0.521719
0.806300 0.696350 0.549750
0.847413 0.731856 0.577781
0.888525 0.767362 0.605812
0.929638 0.802869 0.633844
0.970750 0.838375 0.661875
1.000000 0.873881 0.689906
1.000000 0.909387 0.717937
0.094050 0.081225 0.064125
0.135163 0.116731 0.092156
0.176275 0.152237 0.120188
0.217388 0.187744 0.148219
0.258500 0.223250 0.176250
0.299613 0.258756 0.204281
0.340725 0.294263 0.232313
0.381838 0.329769 0.260344
0.422950 0.365275 0.288375
0.174763 0.150931 0.119156
0.215875 0.186437 0.147187
0.256988 0.221944 0.175219
0.298100 0.257450 0.203250
0.339213 0.292956 0.231281
0.380325 0.328462 0.259313
0.421438 0.363969 0.287344
0.462550 0.399475 0.315375
0.503663 0.434981 0.343406
0.255475 0.220638 0.174187
0.296588 0.256144 0.202219
0.337700 0.291650 0.230250
0.378812 0.327156 0.258281
0.419925 0.362662 0.286313
0.461037 0.398169 0.314344
0.502150 0.433675 0.342375
0.543263 0.469181 0.370406
0.584375 0.504687 0.398438
0.336188 0.290344 0.229219
0.377300 0.325850 0.257250
0.418413 0.361356 0.285281
0.459525 0.396863 0.313312
0.500638 0.432369 0.341344
0.541750 0.467875 0.369375
0.582863 0.503381 0.397406
0.623975 0.538887 0.425438
0.665088 0.574394 0.453469
0.416900 0.360050 0.284250
0.458013 0.395556 0.312281
0.499125 0.431062 0.340313
0.540238 0.466569 0.368344
0.581350 0.502075 0.396375
0.622463 0.537581 0.424406
0.663575 0.573087 0.452437
0.704688 0.608594 0.480469
0.745800 0.644100 0.508500
0.497613 0.429756 0.339281
0.538725 0.465262 0.367312
0.579838 0.500769 0.395344
0.620950 0.536275 0.423375
0.662062 0.571781 0.451406
0.703175 0.607287 0.479437
0.744287 0.642794 0.507469
0.785400 0.678300 0.535500
0.826513 0.713806 0.563531
0.578325 0.499462 0.394312
0.619438 0.534969 0.422344
0.660550 0.570475 0.450375
0.701663 0.605981 0.478406
0.742775 0.641487 0.506437
0.783887 0.676994 0.534469
0.825000 0.712500 0.562500
0.866113 0.748006 0.590531
0.907225 0.783512 0.618563
0.659038 0.569169 0.449344
0.700150 0.604675 0.477375
0.741263 0.640181 0.505406
0.782375 0.675687 0.533438
0.823488 0.711194 0.561469
0.864600 0.746700 0.589500
0.905713 0.782206 0.617531
0.946825 0.817712 0.645563
0.987938 0.853219 0.673594
0.739750 0.638875 0.504375
0.780863 0.674381 0.532406
0.821975 0.709887 0.560437
0.863088 0.745394 0.588469
0.904200 0.780900 0.616500
0.945313 0.816406 0.644531
0.986425 0.851912 0.672563
1.000000 0.887419 0.700594
1.000000 0.922925 0.728625
0.109725 0.094762 0.074813
0.150838 0.130269 0.102844
0.191950 0.165775 0.130875
0.233063 0.201281 0.158906
0.274175 0.236787 0.186938
0.315288 0.272294 0.214969
0.356400 0.307800 0.243000
0.397513 0.343306 0.271031
0.438625 0.378812 0.299063
0.190438 0.164469 0.129844
0.231550 0.199975 0.157875
0.272663 0.235481 0.185906
0.313775 0.270987 0.213938
0.354888 0.306494 0.241969
0.396000 0.342000 0.270000
0.437113 0.377506 0.298031
0.478225 0.413012 0.326062
0.519338 0.448519 0.354094
0.271150 0.234175 0.184875
0.312262 0.269681 0.212906
0.353375 0.305187 0.240937
0.394487 0.340694 0.268969
0.435600 0.376200 0.297000
0.476712 0.411706 0.325031
0.517825 0.447212 0.353063
0.558937 0.482719 0.381094
0.600050 0.518225 0.409125
0.351863 0.303881 0.239906
0.392975 0.339388 0.267937
0.434088 0.374894 0.295969
0.475200 0.410400 0.324000
0.516313 0.445906 0.352031
0.557425 0.481413 0.380063
0.598538 0.516919 0.408094
0.639650 0.552425 0.436125
0.680763 0.587931 0.464156
0.432575 0.373587 0.294937
0.473688 0.409094 0.322969
0.514800 0.444600 0.351000
0.555913 0.480106 0.379031
0.597025 0.515612 0.407062
0.638138 0.551119 0.435094
0.679250 0.586625 0.463125
0.720363 0.622131 0.491156
0.761475 0.657637 0.519188
0.513288 0.443294 0.349969
0.554400 0.478800 0.378000
0.595513 0.514306 0.406031
0.636625 0.549812 0.434063
0.677737 0.585319 0.462094
0.718850 0.620825 0.490125
0.759962 0.656331 0.518156
0.801075 0.691837 0.546187
0.842188 0.727344 0.574219
0.594000 0.513000 0.405000
0.635112 0.548506 0.433031
0.676225 0.584013 0.461063
0.717337 0.619519 0.489094
0.758450 0.655025 0.517125
0.799562 0.690531 0.545156
0.840675 0.726038 0.573187
0.881788 0.761544 0.601219
0.922900 0.797050 0.629250
0.674713 0.582706 0.460031
0.715825 0.618213 0.488063
0.756938 0.653719 0.516094
0.798050 0.689225 0.544125
0.839163 0.724731 0.572156
0.880275 0.760238 0.600187
0.921388 0.795744 0.628219
0.962500 0.831250 0.656250
1.000000 0.866756 0.684281
0.755425 0.652412 0.515062
0.796538 0.687919 0.543094
0.837650 0.723425 0.571125
0.878763 0.758931 0.599156
0.919875 0.794437 0.627188
0.960988 0.829944 0.655219
1.000000 0.865450 0.683250
1.000000 0.900956 0.711281
1.000000 0.936462 0.739312
0.125400 0.108300 0.085500
0.166513 0.143806 0.113531
0.207625 0.179312 0.141563
0.248738 0.214819 0.169594
0.289850 0.250325 0.197625
0.330963 0.285831 0.225656
0.372075 0.321337 0.253688
0.413188 0.356844 0.281719
0.454300 0.392350 0.309750
0.206113 0.178006 0.140531
0.247225 0.213512 0.168563
0.288338 0.249019 0.196594
0.329450 0.284525 0.224625
0.370563 0.320031 0.252656
0.411675 0.355537 0.280687
0.452788 0.391044 0.308719
0.493900 0.426550 0.336750
0.535013 0.462056 0.364781
0.286825 0.247712 0.195562
0.327937 0.283219 0.223594
0.369050 0.318725 0.251625
0.410162 0.354231 0.279656
0.451275 0.389737 0.307688
0.492387 0.425244 0.335719
0.533500 0.460750 0.363750
0.574613 0.496256 0.391781
0.615725 0.531762 0.419812
0.367538 0.317419 0.250594
0.408650 0.352925 0.278625
0.449763 0.388431 0.306656
0.490875 0.423937 0.334687
0.531988 0.459444 0.362719
0.573100 0.494950 0.390750
0.614213 0.530456 0.418781
0.655325 0.565962 0.446813
0.696438 0.601469 0.474844
0.448250 0.387125 0.305625
0.489362 0.422631 0.333656
0.530475 0.458137 0.361687
0.571588 0.493644 0.389719
0.612700 0.529150 0.417750
0.653813 0.564656 0.445781
0.694925 0.600162 0.473812
0.736038 0.635669 0.501844
0.777150 0.671175 0.529875
0.528963 0.456831 0.360656
0.570075 0.492337 0.388687
0.611187 0.527844 0.416719
0.652300 0.563350 0.444750
0.693412 0.598856 0.472781
0.734525 0.634362 0.500812
0.775637 0.669869 0.528844
0.816750 0.705375 0.556875
0.857863 0.740881 0.584906
0.609675 0.526537 0.415687
0.650787 0.562044 0.443719
0.691900 0.597550 0.471750
0.733012 0.633056 0.499781
0.774125 0.668562 0.527813
0.815237 0.704069 0.555844
0.856350 0.739575 0.583875
0.897463 0.775081 0.611906
0.938575 0.810587 0.639937
0.690388 0.596244 0.470719
0.731500 0.631750 0.498750
0.772613 0.667256 0.526781
0.813725 0.702762 0.554813
0.854838 0.738269 0.582844
0.895950 0.773775 0.610875
0.937063 0.809281 0.638906
0.978175 0.844787 0.666937
1.000000 0.880294 0.694969
0.771100 0.665950 0.525750
0.812213 0.701456 0.553781
0.853325 0.736962 0.581812
0.894438 0.772469 0.609844
0.935550 0.807975 0.637875
0.976663 0.843481 0.665906
1.000000 0.878987 0.693937
1.000000 0.914494 0.721969
1.000000 0.950000 0.750000
