app/src/main/assets/luts/volcanic_ember.cube
# ApexStudio filter: volcanic_ember
LUT_3D_SIZE 5
DOMAIN_MIN 0.0 0.0 0.0
DOMAIN_MAX 1.0 1.0 1.0
0.150000 0.020000 0.000000
0.500000 0.020000 0.000000
0.850000 0.020000 0.000000
1.000000 0.020000 0.000000
1.000000 0.020000 0.000000
0.150000 0.282500 0.000000
0.500000 0.282500 0.000000
0.850000 0.282500 0.000000
1.000000 0.282500 0.000000
1.000000 0.282500 0.000000
0.150000 0.545000 0.000000
0.500000 0.545000 0.000000
0.850000 0.545000 0.000000
1.000000 0.545000 0.000000
1.000000 0.545000 0.000000
0.150000 0.807500 0.000000
0.500000 0.807500 0.000000
0.850000 0.807500 0.000000
1.000000 0.807500 0.000000
1.000000 0.807500 0.000000
0.150000 1.000000 0.000000
0.500000 1.000000 0.000000
0.850000 1.000000 0.000000
1.000000 1.000000 0.000000
1.000000 1.000000 0.000000
0.150000 0.020000 0.087500
0.500000 0.020000 0.087500
0.850000 0.020000 0.087500
1.000000 0.020000 0.087500
1.000000 0.020000 0.087500
0.150000 0.282500 0.087500
0.500000 0.282500 0.087500
0.850000 0.282500 0.087500
1.000000 0.282500 0.087500
1.000000 0.282500 0.087500
0.150000 0.545000 0.087500
0.500000 0.545000 0.087500
0.850000 0.545000 0.087500
1.000000 0.545000 0.087500
1.000000 0.545000 0.087500
0.150000 0.807500 0.087500
0.500000 0.807500 0.087500
0.850000 0.807500 0.087500
1.000000 0.807500 0.087500
1.000000 0.807500 0.087500
0.150000 1.000000 0.087500
0.500000 1.000000 0.087500
0.850000 1.000000 0.087500
1.000000 1.000000 0.087500
1.000000 1.000000 0.087500
0.150000 0.020000 0.275000
0.500000 0.020000 0.275000
0.850000 0.020000 0.275000
1.000000 0.020000 0.275000
1.000000 0.020000 0.275000
0.150000 0.282500 0.275000
0.500000 0.282500 0.275000
0.850000 0.282500 0.275000
1.000000 0.282500 0.275000
1.000000 0.282500 0.275000
0.150000 0.545000 0.275000
0.500000 0.545000 0.275000
0.850000 0.545000 0.275000
1.000000 0.545000 0.275000
1.000000 0.545000 0.275000
0.150000 0.807500 0.275000
0.500000 0.807500 0.275000
0.850000 0.807500 0.275000
1.000000 0.807500 0.275000
1.000000 0.807500 0.275000
0.150000 1.000000 0.275000
0.500000 1.000000 0.275000
0.850000 1.000000 0.275000
1.000000 1.000000 0.275000
1.000000 1.000000 0.275000
0.150000 0.020000 0.462500
0.500000 0.020000 0.462500
0.850000 0.020000 0.462500
1.000000 0.020000 0.462500
1.000000 0.020000 0.462500
0.150000 0.282500 0.462500
0.500000 0.282500 0.462500
0.850000 0.282500 0.462500
1.000000 0.282500 0.462500
1.000000 0.282500 0.462500
0.150000 0.545000 0.462500
0.500000 0.545000 0.462500
0.850000 0.545000 0.462500
1.000000 0.545000 0.462500
1.000000 0.545000 0.462500
0.150000 0.807500 0.462500
0.500000 0.807500 0.462500
0.850000 0.807500 0.462500
1.000000 0.807500 0.462500
1.000000 0.807500 0.462500
0.150000 1.000000 0.462500
0.500000 1.000000 0.462500
0.850000 1.000000 0.462500
1.000000 1.000000 0.462500
1.000000 1.000000 0.462500
0.150000 0.020000 0.650000
0.500000 0.020000 0.650000
0.850000 0.020000 0.650000
1.000000 0.020000 0.650000
1.000000 0.020000 0.650000
0.150000 0.282500 0.650000
0.500000 0.282500 0.650000
0.850000 0.282500 0.650000
1.000000 0.282500 0.650000
1.000000 0.282500 0.650000
0.150000 0.545000 0.650000
0.500000 0.545000 0.650000
0.850000 0.545000 0.650000
1.000000 0.545000 0.650000
1.000000 0.545000 0.650000
0.150000 0.807500 0.650000
0.500000 0.807500 0.650000
0.850000 0.807500 0.650000
1.000000 0.807500 0.650000
1.000000 0.807500 0.650000
0.150000 1.000000 0.650000
0.500000 1.000000 0.650000
0.850000 1.000000 0.650000
1.000000 1.000000 0.650000
1.000000 1.000000 0.650000
