app/src/main/assets/luts/volcanic_ember.cube
# ApexStudio filter: volcanic_ember
LUT_3D_SIZE 17
DOMAIN_MIN 0.0 0.0 0.0
DOMAIN_MAX 1.0 1.0 1.0
0.150000 0.020000 0.000000
0.237500 0.020000 0.000000
0.325000 0.020000 0.000000
0.412500 0.020000 0.000000
0.500000 0.020000 0.000000
0.587500 0.020000 0.000000
0.675000 0.020000 0.000000
0.762500 0.020000 0.000000
0.850000 0.020000 0.000000
0.937500 0.020000 0.000000
1.000000 0.020000 0.000000
1.000000 0.020000 0.000000
1.000000 0.020000 0.000000
1.000000 0.020000 0.000000
1.000000 0.020000 0.000000
1.000000 0.020000 0.000000
1.000000 0.020000 0.000000
0.150000 0.085625 0.000000
0.237500 0.085625 0.000000
0.325000 0.085625 0.000000
0.412500 0.085625 0.000000
0.500000 0.085625 0.000000
0.587500 0.085625 0.000000
0.675000 0.085625 0.000000
0.762500 0.085625 0.000000
0.850000 0.085625 0.000000
0.937500 0.085625 0.000000
1.000000 0.085625 0.000000
1.000000 0.085625 0.000000
1.000000 0.085625 0.000000
1.000000 0.085625 0.000000
1.000000 0.085625 0.000000
1.000000 0.085625 0.000000
1.000000 0.085625 0.000000
0.150000 0.151250 0.000000
0.237500 0.151250 0.000000
0.325000 0.151250 0.000000
0.412500 0.151250 0.000000
0.500000 0.151250 0.000000
0.587500 0.151250 0.000000
0.675000 0.151250 0.000000
0.762500 0.151250 0.000000
0.850000 0.151250 0.000000
0.937500 0.151250 0.000000
1.000000 0.151250 0.000000
1.000000 0.151250 0.000000
1.000000 0.151250 0.000000
1.000000 0.151250 0.000000
1.000000 0.151250 0.000000
1.000000 0.151250 0.000000
1.000000 0.151250 0.000000
0.150000 0.216875 0.000000
0.237500 0.216875 0.000000
0.325000 0.216875 0.000000
0.412500 0.216875 0.000000
0.500000 0.216875 0.000000
0.587500 0.216875 0.000000
0.675000 0.216875 0.000000
0.762500 0.216875 0.000000
0.850000 0.216875 0.000000
0.937500 0.216875 0.000000
1.000000 0.216875 0.000000
1.000000 0.216875 0.000000
1.000000 0.216875 0.000000
1.000000 0.216875 0.000000
1.000000 0.216875 0.000000
1.000000 0.216875 0.000000
1.000000 0.216875 0.000000
0.150000 0.282500 0.000000
0.237500 0.282500 0.000000
0.325000 0.282500 0.000000
0.412500 0.282500 0.000000
0.500000 0.282500 0.000000
0.587500 0.282500 0.000000
0.675000 0.282500 0.000000
0.762500 0.282500 0.000000
0.850000 0.282500 0.000000
0.937500 0.282500 0.000000
1.000000 0.282500 0.000000
1.000000 0.282500 0.000000
1.000000 0.282500 0.000000
1.000000 0.282500 0.000000
1.000000 0.282500 0.000000
1.000000 0.282500 0.000000
1.000000 0.282500 0.000000
0.150000 0.348125 0.000000
0.237500 0.348125 0.000000
0.325000 0.348125 0.000000
0.412500 0.348125 0.000000
0.500000 0.348125 0.000000
0.587500 0.348125 0.000000
0.675000 0.348125 0.000000
0.762500 0.348125 0.000000
0.850000 0.348125 0.000000
0.937500 0.348125 0.000000
1.000000 0.348125 0.000000
1.000000 0.348125 0.000000
1.000000 0.348125 0.000000
1.000000 0.348125 0.000000
1.000000 0.348125 0.000000
1.000000 0.348125 0.000000
1.000000 0.348125 0.000000
0.150000 0.413750 0.000000
0.237500 0.413750 0.000000
0.325000 0.413750 0.000000
0.412500 0.413750 0.000000
0.500000 0.413750 0.000000
0.587500 0.413750 0.000000
0.675000 0.413750 0.000000
0.762500 0.413750 0.000000
0.850000 0.413750 0.000000
0.937500 0.413750 0.000000
1.000000 0.413750 0.000000
1.000000 0.413750 0.000000
1.000000 0.413750 0.000000
1.000000 0.413750 0.000000
1.000000 0.413750 0.000000
1.000000 0.413750 0.000000
1.000000 0.413750 0.000000
0.150000 0.479375 0.000000
0.237500 0.479375 0.000000
0.325000 0.479375 0.000000
0.412500 0.479375 0.000000
0.500000 0.479375 0.000000
0.587500 0.479375 0.000000
0.675000 0.479375 0.000000
0.762500 0.479375 0.000000
0.850000 0.479375 0.000000
0.937500 0.479375 0.000000
1.000000 0.479375 0.000000
1.000000 0.479375 0.000000
1.000000 0.479375 0.000000
1.000000 0.479375 0.000000
1.000000 0.479375 0.000000
1.000000 0.479375 0.000000
1.000000 0.479375 0.000000
0.150000 0.545000 0.000000
0.237500 0.545000 0.000000
0.325000 0.545000 0.000000
0.412500 0.545000 0.000000
0.500000 0.545000 0.000000
0.587500 0.545000 0.000000
0.675000 0.545000 0.000000
0.762500 0.545000 0.000000
0.850000 0.545000 0.000000
0.937500 0.545000 0.000000
1.000000 0.545000 0.000000
1.000000 0.545000 0.000000
1.000000 0.545000 0.000000
1.000000 0.545000 0.000000
1.000000 0.545000 0.000000
1.000000 0.545000 0.000000
1.000000 0.545000 0.000000
0.150000 0.610625 0.000000
0.237500 0.610625 0.000000
0.325000 0.610625 0.000000
0.412500 0.610625 0.000000
0.500000 0.610625 0.000000
0.587500 0.610625 0.000000
0.675000 0.610625 0.000000
0.762500 0.610625 0.000000
0.850000 0.610625 0.000000
0.937500 0.610625 0.000000
1.000000 0.610625 0.000000
1.000000 0.610625 0.000000
1.000000 0.610625 0.000000
1.000000 0.610625 0.000000
1.000000 0.610625 0.000000
1.000000 0.610625 0.000000
1.000000 0.610625 0.000000
0.150000 0.676250 0.000000
0.237500 0.676250 0.000000
0.325000 0.676250 0.000000
0.412500 0.676250 0.000000
0.500000 0.676250 0.000000
0.587500 0.676250 0.000000
0.675000 0.676250 0.000000
0.762500 0.676250 0.000000
0.850000 0.676250 0.000000
0.937500 0.676250 0.000000
1.000000 0.676250 0.000000
1.000000 0.676250 0.000000
1.000000 0.676250 0.000000
1.000000 0.676250 0.000000
1.000000 0.676250 0.000000
1.000000 0.676250 0.000000
1.000000 0.676250 0.000000
0.150000 0.741875 0.000000
0.237500 0.741875 0.000000
0.325000 0.741875 0.000000
0.412500 0.741875 0.000000
0.500000 0.741875 0.000000
0.587500 0.741875 0.000000
0.675000 0.741875 0.000000
0.762500 0.741875 0.000000
0.850000 0.741875 0.000000
0.937500 0.741875 0.000000
1.000000 0.741875 0.000000
1.000000 0.741875 0.000000
1.000000 0.741875 0.000000
1.000000 0.741875 0.000000
1.000000 0.741875 0.000000
1.000000 0.741875 0.000000
1.000000 0.741875 0.000000
0.150000 0.807500 0.000000
0.237500 0.807500 0.000000
0.325000 0.807500 0.000000
0.412500 0.807500 0.000000
0.500000 0.807500 0.000000
0.587500 0.807500 0.000000
0.675000 0.807500 0.000000
0.762500 0.807500 0.000000
0.850000 0.807500 0.000000
0.937500 0.807500 0.000000
1.000000 0.807500 0.000000
1.000000 0.807500 0.000000
1.000000 0.807500 0.000000
1.000000 0.807500 0.000000
1.000000 0.807500 0.000000
1.000000 0.807500 0.000000
1.000000 0.807500 0.000000
0.150000 0.873125 0.000000
0.237500 0.873125 0.000000
0.325000 0.873125 0.000000
0.412500 0.873125 0.000000
0.500000 0.873125 0.000000
0.587500 0.873125 0.000000
0.675000 0.873125 0.000000
0.762500 0.873125 0.000000
0.850000 0.873125 0.000000
0.937500 0.873125 0.000000
1.000000 0.873125 0.000000
1.000000 0.873125 0.000000
1.000000 0.873125 0.000000
1.000000 0.873125 0.000000
1.000000 0.873125 0.000000
1.000000 0.873125 0.000000
1.000000 0.873125 0.000000
0.150000 0.938750 0.000000
0.237500 0.938750 0.000000
0.325000 0.938750 0.000000
0.412500 0.938750 0.000000
0.500000 0.938750 0.000000
0.587500 0.938750 0.000000
0.675000 0.938750 0.000000
0.762500 0.938750 0.000000
0.850000 0.938750 0.000000
0.937500 0.938750 0.000000
1.000000 0.938750 0.000000
1.000000 0.938750 0.000000
1.000000 0.938750 0.000000
1.000000 0.938750 0.000000
1.000000 0.938750 0.000000
1.000000 0.938750 0.000000
1.000000 0.938750 0.000000
0.150000 1.000000 0.000000
0.237500 1.000000 0.000000
0.325000 1.000000 0.000000
0.412500 1.000000 0.000000
0.500000 1.000000 0.000000
0.587500 1.000000 0.000000
0.675000 1.000000 0.000000
0.762500 1.000000 0.000000
0.850000 1.000000 0.000000
0.937500 1.000000 0.000000
1.000000 1.000000 0.000000
1.000000 1.000000 0.000000
1.000000 1.000000 0.000000
1.000000 1.000000 0.000000
1.000000 1.000000 0.000000
1.000000 1.000000 0.000000
1.000000 1.000000 0.000000
0.150000 1.000000 0.000000
0.237500 1.000000 0.000000
0.325000 1.000000 0.000000
0.412500 1.000000 0.000000
0.500000 1.000000 0.000000
0.587500 1.000000 0.000000
0.675000 1.000000 0.000000
0.762500 1.000000 0.000000
0.850000 1.000000 0.000000
0.937500 1.000000 0.000000
1.000000 1.000000 0.000000
1.000000 1.000000 0.000000
1.000000 1.000000 0.000000
1.000000 1.000000 0.000000
1.000000 1.000000 0.000000
1.000000 1.000000 0.000000
1.000000 1.000000 0.000000
0.150000 0.020000 0.000000
0.237500 0.020000 0.000000
0.325000 0.020000 0.000000
0.412500 0.020000 0.000000
0.500000 0.020000 0.000000
0.587500 0.020000 0.000000
0.675000 0.020000 0.000000
0.762500 0.020000 0.000000
0.850000 0.020000 0.000000
0.937500 0.020000 0.000000
1.000000 0.020000 0.000000
1.000000 0.020000 0.000000
1.000000 0.020000 0.000000
1.000000 0.020000 0.000000
1.000000 0.020000 0.000000
1.000000 0.020000 0.000000
1.000000 0.020000 0.000000
0.150000 0.085625 0.000000
0.237500 0.085625 0.000000
0.325000 0.085625 0.000000
0.412500 0.085625 0.000000
0.500000 0.085625 0.000000
0.587500 0.085625 0.000000
0.675000 0.085625 0.000000
0.762500 0.085625 0.000000
0.850000 0.085625 0.000000
0.937500 0.085625 0.000000
1.000000 0.085625 0.000000
1.000000 0.085625 0.000000
1.000000 0.085625 0.000000
1.000000 0.085625 0.000000
1.000000 0.085625 0.000000
1.000000 0.085625 0.000000
1.000000 0.085625 0.000000
0.150000 0.151250 0.000000
0.237500 0.151250 0.000000
0.325000 0.151250 0.000000
0.412500 0.151250 0.000000
0.500000 0.151250 0.000000
0.587500 0.151250 0.000000
0.675000 0.151250 0.000000
0.762500 0.151250 0.000000
0.850000 0.151250 0.000000
0.937500 0.151250 0.000000
1.000000 0.151250 0.000000
1.000000 0.151250 0.000000
1.000000 0.151250 0.000000
1.000000 0.151250 0.000000
1.000000 0.151250 0.000000
1.000000 0.151250 0.000000
1.000000 0.151250 0.000000
0.150000 0.216875 0.000000
0.237500 0.216875 0.000000
0.325000 0.216875 0.000000
0.412500 0.216875 0.000000
0.500000 0.216875 0.000000
0.587500 0.216875 0.000000
0.675000 0.216875 0.000000
0.762500 0.216875 0.000000
0.850000 0.216875 0.000000
0.937500 0.216875 0.000000
1.000000 0.216875 0.000000
1.000000 0.216875 0.000000
1.000000 0.216875 0.000000
1.000000 0.216875 0.000000
1.000000 0.216875 0.000000
1.000000 0.216875 0.000000
1.000000 0.216875 0.000000
0.150000 0.282500 0.000000
0.237500 0.282500 0.000000
0.325000 0.282500 0.000000
0.412500 0.282500 0.000000
0.500000 0.282500 0.000000
0.587500 0.282500 0.000000
0.675000 0.282500 0.000000
0.762500 0.282500 0.000000
0.850000 0.282500 0.000000
0.937500 0.282500 0.000000
1.000000 0.282500 0.000000
1.000000 0.282500 0.000000
1.000000 0.282500 0.000000
1.000000 0.282500 0.000000
1.000000 0.282500 0.000000
1.000000 0.282500 0.000000
1.000000 0.282500 0.000000
0.150000 0.348125 0.000000
0.237500 0.348125 0.000000
0.325000 0.348125 0.000000
0.412500 0.348125 0.000000
0.500000 0.348125 0.000000
0.587500 0.348125 0.000000
0.675000 0.348125 0.000000
0.762500 0.348125 0.000000
0.850000 0.348125 0.000000
0.937500 0.348125 0.000000
1.000000 0.348125 0.000000
1.000000 0.348125 0.000000
1.000000 0.348125 0.000000
1.000000 0.348125 0.000000
1.000000 0.348125 0.000000
1.000000 0.348125 0.000000
1.000000 0.348125 0.000000
0.150000 0.413750 0.000000
0.237500 0.413750 0.000000
0.325000 0.413750 0.000000
0.412500 0.413750 0.000000
0.500000 0.413750 0.000000
0.587500 0.413750 0.000000
0.675000 0.413750 0.000000
0.762500 0.413750 0.000000
0.850000 0.413750 0.000000
0.937500 0.413750 0.000000
1.000000 0.413750 0.000000
1.000000 0.413750 0.000000
1.000000 0.413750 0.000000
1.000000 0.413750 0.000000
1.000000 0.413750 0.000000
1.000000 0.413750 0.000000
1.000000 0.413750 0.000000
0.150000 0.479375 0.000000
0.237500 0.479375 0.000000
0.325000 0.479375 0.000000
0.412500 0.479375 0.000000
0.500000 0.479375 0.000000
0.587500 0.479375 0.000000
0.675000 0.479375 0.000000
0.762500 0.479375 0.000000
0.850000 0.479375 0.000000
0.937500 0.479375 0.000000
1.000000 0.479375 0.000000
1.000000 0.479375 0.000000
1.000000 0.479375 0.000000
1.000000 0.479375 0.000000
1.000000 0.479375 0.000000
1.000000 0.479375 0.000000
1.000000 0.479375 0.000000
0.150000 0.545000 0.000000
0.237500 0.545000 0.000000
0.325000 0.545000 0.000000
0.412500 0.545000 0.000000
0.500000 0.545000 0.000000
0.587500 0.545000 0.000000
0.675000 0.545000 0.000000
0.762500 0.545000 0.000000
0.850000 0.545000 0.000000
0.937500 0.545000 0.000000
1.000000 0.545000 0.000000
1.000000 0.545000 0.000000
1.000000 0.545000 0.000000
1.000000 0.545000 0.000000
1.000000 0.545000 0.000000
1.000000 0.545000 0.000000
1.000000 0.545000 0.000000
0.150000 0.610625 0.000000
0.237500 0.610625 0.000000
0.325000 0.610625 0.000000
0.412500 0.610625 0.000000
0.500000 0.610625 0.000000
0.587500 0.610625 0.000000
0.675000 0.610625 0.000000
0.762500 0.610625 0.000000
0.850000 0.610625 0.000000
0.937500 0.610625 0.000000
1.000000 0.610625 0.000000
1.000000 0.610625 0.000000
1.000000 0.610625 0.000000
1.000000 0.610625 0.000000
1.000000 0.610625 0.000000
1.000000 0.610625 0.000000
1.000000 0.610625 0.000000
0.150000 0.676250 0.000000
0.237500 0.676250 0.000000
0.325000 0.676250 0.000000
0.412500 0.676250 0.000000
0.500000 0.676250 0.000000
0.587500 0.676250 0.000000
0.675000 0.676250 0.000000
0.762500 0.676250 0.000000
0.850000 0.676250 0.000000
0.937500 0.676250 0.000000
1.000000 0.676250 0.000000
1.000000 0.676250 0.000000
1.000000 0.676250 0.000000
1.000000 0.676250 0.000000
1.000000 0.676250 0.000000
1.000000 0.676250 0.000000
1.000000 0.676250 0.000000
0.150000 0.741875 0.000000
0.237500 0.741875 0.000000
0.325000 0.741875 0.000000
0.412500 0.741875 0.000000
0.500000 0.741875 0.000000
0.587500 0.741875 0.000000
0.675000 0.741875 0.000000
0.762500 0.741875 0.000000
0.850000 0.741875 0.000000
0.937500 0.741875 0.000000
1.000000 0.741875 0.000000
1.000000 0.741875 0.000000
1.000000 0.741875 0.000000
1.000000 0.741875 0.000000
1.000000 0.741875 0.000000
1.000000 0.741875 0.000000
1.000000 0.741875 0.000000
0.150000 0.807500 0.000000
0.237500 0.807500 0.000000
0.325000 0.807500 0.000000
0.412500 0.807500 0.000000
0.500000 0.807500 0.000000
0.587500 0.807500 0.000000
0.675000 0.807500 0.000000
0.762500 0.807500 0.000000
0.850000 0.807500 0.000000
0.937500 0.807500 0.000000
1.000000 0.807500 0.000000
1.000000 0.807500 0.000000
1.000000 0.807500 0.000000
1.000000 0.807500 0.000000
1.000000 0.807500 0.000000
1.000000 0.807500 0.000000
1.000000 0.807500 0.000000
0.150000 0.873125 0.000000
0.237500 0.873125 0.000000
0.325000 0.873125 0.000000
0.412500 0.873125 0.000000
0.500000 0.873125 0.000000
0.587500 0.873125 0.000000
0.675000 0.873125 0.000000
0.762500 0.873125 0.000000
0.850000 0.873125 0.000000
0.937500 0.873125 0.000000
1.000000 0.873125 0.000000
1.000000 0.873125 0.000000
1.000000 0.873125 0.000000
1.000000 0.873125 0.000000
1.000000 0.873125 0.000000
1.000000 0.873125 0.000000
1.000000 0.873125 0.000000
0.150000 0.938750 0.000000
0.237500 0.938750 0.000000
0.325000 0.938750 0.000000
0.412500 0.938750 0.000000
0.500000 0.938750 0.000000
0.587500 0.938750 0.000000
0.675000 0.938750 0.000000
0.762500 0.938750 0.000000
0.850000 0.938750 0.000000
0.937500 0.938750 0.000000
1.000000 0.938750 0.000000
1.000000 0.938750 0.000000
1.000000 0.938750 0.000000
1.000000 0.938750 0.000000
1.000000 0.938750 0.000000
1.000000 0.938750 0.000000
1.000000 0.938750 0.000000
0.150000 1.000000 0.000000
0.237500 1.000000 0.000000
0.325000 1.000000 0.000000
0.412500 1.000000 0.000000
0.500000 1.000000 0.000000
0.587500 1.000000 0.000000
0.675000 1.000000 0.000000
0.762500 1.000000 0.000000
0.850000 1.000000 0.000000
0.937500 1.000000 0.000000
1.000000 1.000000 0.000000
1.000000 1.000000 0.000000
1.000000 1.000000 0.000000
1.000000 1.000000 0.000000
1.000000 1.000000 0.000000
1.000000 1.000000 0.000000
1.000000 1.000000 0.000000
0.150000 1.000000 0.000000
0.237500 1.000000 0.000000
0.325000 1.000000 0.000000
0.412500 1.000000 0.000000
0.500000 1.000000 0.000000
0.587500 1.000000 0.000000
0.675000 1.000000 0.000000
0.762500 1.000000 0.000000
0.850000 1.000000 0.000000
0.937500 1.000000 0.000000
1.000000 1.000000 0.000000
1.000000 1.000000 0.000000
1.000000 1.000000 0.000000
1.000000 1.000000 0.000000
1.000000 1.000000 0.000000
1.000000 1.000000 0.000000
1.000000 1.000000 0.000000
0.150000 0.020000 0.000000
0.237500 0.020000 0.000000
0.325000 0.020000 0.000000
0.412500 0.020000 0.000000
0.500000 0.020000 0.000000
0.587500 0.020000 0.000000
0.675000 0.020000 0.000000
0.762500 0.020000 0.000000
0.850000 0.020000 0.000000
0.937500 0.020000 0.000000
1.000000 0.020000 0.000000
1.000000 0.020000 0.000000
1.000000 0.020000 0.000000
1.000000 0.020000 0.000000
1.000000 0.020000 0.000000
1.000000 0.020000 0.000000
1.000000 0.020000 0.000000
0.150000 0.085625 0.000000
0.237500 0.085625 0.000000
0.325000 0.085625 0.000000
0.412500 0.085625 0.000000
0.500000 0.085625 0.000000
0.587500 0.085625 0.000000
0.675000 0.085625 0.000000
0.762500 0.085625 0.000000
0.850000 0.085625 0.000000
0.937500 0.085625 0.000000
1.000000 0.085625 0.000000
1.000000 0.085625 0.000000
1.000000 0.085625 0.000000
1.000000 0.085625 0.000000
1.000000 0.085625 0.000000
1.000000 0.085625 0.000000
1.000000 0.085625 0.000000
0.150000 0.151250 0.000000
0.237500 0.151250 0.000000
0.325000 0.151250 0.000000
0.412500 0.151250 0.000000
0.500000 0.151250 0.000000
0.587500 0.151250 0.000000
0.675000 0.151250 0.000000
0.762500 0.151250 0.000000
0.850000 0.151250 0.000000
0.937500 0.151250 0.000000
1.000000 0.151250 0.000000
1.000000 0.151250 0.000000
1.000000 0.151250 0.000000
1.000000 0.151250 0.000000
1.000000 0.151250 0.000000
1.000000 0.151250 0.000000
1.000000 0.151250 0.000000
0.150000 0.216875 0.000000
0.237500 0.216875 0.000000
0.325000 0.216875 0.000000
0.412500 0.216875 0.000000
0.500000 0.216875 0.000000
0.587500 0.216875 0.000000
0.675000 0.216875 0.000000
0.762500 0.216875 0.000000
0.850000 0.216875 0.000000
0.937500 0.216875 0.000000
1.000000 0.216875 0.000000
1.000000 0.216875 0.000000
1.000000 0.216875 0.000000
1.000000 0.216875 0.000000
1.000000 0.216875 0.000000
1.000000 0.216875 0.000000
1.000000 0.216875 0.000000
0.150000 0.282500 0.000000
0.237500 0.282500 0.000000
0.325000 0.282500 0.000000
0.412500 0.282500 0.000000
0.500000 0.282500 0.000000
0.587500 0.282500 0.000000
0.675000 0.282500 0.000000
0.762500 0.282500 0.000000
0.850000 0.282500 0.000000
0.937500 0.282500 0.000000
1.000000 0.282500 0.000000
1.000000 0.282500 0.000000
1.000000 0.282500 0.000000
1.000000 0.282500 0.000000
1.000000 0.282500 0.000000
1.000000 0.282500 0.000000
1.000000 0.282500 0.000000
0.150000 0.348125 0.000000
0.237500 0.348125 0.000000
0.325000 0.348125 0.000000
0.412500 0.348125 0.000000
0.500000 0.348125 0.000000
0.587500 0.348125 0.000000
0.675000 0.348125 0.000000
0.762500 0.348125 0.000000
0.850000 0.348125 0.000000
0.937500 0.348125 0.000000
1.000000 0.348125 0.000000
1.000000 0.348125 0.000000
1.000000 0.348125 0.000000
1.000000 0.348125 0.000000
1.000000 0.348125 0.000000
1.000000 0.348125 0.000000
1.000000 0.348125 0.000000
0.150000 0.413750 0.000000
0.237500 0.413750 0.000000
0.325000 0.413750 0.000000
0.412500 0.413750 0.000000
0.500000 0.413750 0.000000
0.587500 0.413750 0.000000
0.675000 0.413750 0.000000
0.762500 0.413750 0.000000
0.850000 0.413750 0.000000
0.937500 0.413750 0.000000
1.000000 0.413750 0.000000
1.000000 0.413750 0.000000
1.000000 0.413750 0.000000
1.000000 0.413750 0.000000
1.000000 0.413750 0.000000
1.000000 0.413750 0.000000
1.000000 0.413750 0.000000
0.150000 0.479375 0.000000
0.237500 0.479375 0.000000
0.325000 0.479375 0.000000
0.412500 0.479375 0.000000
0.500000 0.479375 0.000000
0.587500 0.479375 0.000000
0.675000 0.479375 0.000000
0.762500 0.479375 0.000000
0.850000 0.479375 0.000000
0.937500 0.479375 0.000000
1.000000 0.479375 0.000000
1.000000 0.479375 0.000000
1.000000 0.479375 0.000000
1.000000 0.479375 0.000000
1.000000 0.479375 0.000000
1.000000 0.479375 0.000000
1.000000 0.479375 0.000000
0.150000 0.545000 0.000000
0.237500 0.545000 0.000000
0.325000 0.545000 0.000000
0.412500 0.545000 0.000000
0.500000 0.545000 0.000000
0.587500 0.545000 0.000000
0.675000 0.545000 0.000000
0.762500 0.545000 0.000000
0.850000 0.545000 0.000000
0.937500 0.545000 0.000000
1.000000 0.545000 0.000000
1.000000 0.545000 0.000000
1.000000 0.545000 0.000000
1.000000 0.545000 0.000000
1.000000 0.545000 0.000000
1.000000 0.545000 0.000000
1.000000 0.545000 0.000000
0.150000 0.610625 0.000000
0.237500 0.610625 0.000000
0.325000 0.610625 0.000000
0.412500 0.610625 0.000000
0.500000 0.610625 0.000000
0.587500 0.610625 0.000000
0.675000 0.610625 0.000000
0.762500 0.610625 0.000000
0.850000 0.610625 0.000000
0.937500 0.610625 0.000000
1.000000 0.610625 0.000000
1.000000 0.610625 0.000000
1.000000 0.610625 0.000000
1.000000 0.610625 0.000000
1.000000 0.610625 0.000000
1.000000 0.610625 0.000000
1.000000 0.610625 0.000000
0.150000 0.676250 0.000000
0.237500 0.676250 0.000000
0.325000 0.676250 0.000000
0.412500 0.676250 0.000000
0.500000 0.676250 0.000000
0.587500 0.676250 0.000000
0.675000 0.676250 0.000000
0.762500 0.676250 0.000000
0.850000 0.676250 0.000000
0.937500 0.676250 0.000000
1.000000 0.676250 0.000000
1.000000 0.676250 0.000000
1.000000 0.676250 0.000000
1.000000 0.676250 0.000000
1.000000 0.676250 0.000000
1.000000 0.676250 0.000000
1.000000 0.676250 0.000000
0.150000 0.741875 0.000000
0.237500 0.741875 0.000000
0.325000 0.741875 0.000000
0.412500 0.741875 0.000000
0.500000 0.741875 0.000000
0.587500 0.741875 0.000000
0.675000 0.741875 0.000000
0.762500 0.741875 0.000000
0.850000 0.741875 0.000000
0.937500 0.741875 0.000000
1.000000 0.741875 0.000000
1.000000 0.741875 0.000000
1.000000 0.741875 0.000000
1.000000 0.741875 0.000000
1.000000 0.741875 0.000000
1.000000 0.741875 0.000000
1.000000 0.741875 0.000000
0.150000 0.807500 0.000000
0.237500 0.807500 0.000000
0.325000 0.807500 0.000000
0.412500 0.807500 0.000000
0.500000 0.807500 0.000000
0.587500 0.807500 0.000000
0.675000 0.807500 0.000000
0.762500 0.807500 0.000000
0.850000 0.807500 0.000000
0.937500 0.807500 0.000000
1.000000 0.807500 0.000000
1.000000 0.807500 0.000000
1.000000 0.807500 0.000000
1.000000 0.807500 0.000000
1.000000 0.807500 0.000000
1.000000 0.807500 0.000000
1.000000 0.807500 0.000000
0.150000 0.873125 0.000000
0.237500 0.873125 0.000000
0.325000 0.873125 0.000000
0.412500 0.873125 0.000000
0.500000 0.873125 0.000000
0.587500 0.873125 0.000000
0.675000 0.873125 0.000000
0.762500 0.873125 0.000000
0.850000 0.873125 0.000000
0.937500 0.873125 0.000000
1.000000 0.873125 0.000000
1.000000 0.873125 0.000000
1.000000 0.873125 0.000000
1.000000 0.873125 0.000000
1.000000 0.873125 0.000000
1.000000 0.873125 0.000000
1.000000 0.873125 0.000000
0.150000 0.938750 0.000000
0.237500 0.938750 0.000000
0.325000 0.938750 0.000000
0.412500 0.938750 0.000000
0.500000 0.938750 0.000000
0.587500 0.938750 0.000000
0.675000 0.938750 0.000000
0.762500 0.938750 0.000000
0.850000 0.938750 0.000000
0.937500 0.938750 0.000000
1.000000 0.938750 0.000000
1.000000 0.938750 0.000000
1.000000 0.938750 0.000000
1.000000 0.938750 0.000000
1.000000 0.938750 0.000000
1.000000 0.938750 0.000000
1.000000 0.938750 0.000000
0.150000 1.000000 0.000000
0.237500 1.000000 0.000000
0.325000 1.000000 0.000000
0.412500 1.000000 0.000000
0.500000 1.000000 0.000000
0.587500 1.000000 0.000000
0.675000 1.000000 0.000000
0.762500 1.000000 0.000000
0.850000 1.000000 0.000000
0.937500 1.000000 0.000000
1.000000 1.000000 0.000000
1.000000 1.000000 0.000000
1.000000 1.000000 0.000000
1.000000 1.000000 0.000000
1.000000 1.000000 0.000000
1.000000 1.000000 0.000000
1.000000 1.000000 0.000000
0.150000 1.000000 0.000000
0.237500 1.000000 0.000000
0.325000 1.000000 0.000000
0.412500 1.000000 0.000000
0.500000 1.000000 0.000000
0.587500 1.000000 0.000000
0.675000 1.000000 0.000000
0.762500 1.000000 0.000000
0.850000 1.000000 0.000000
0.937500 1.000000 0.000000
1.000000 1.000000 0.000000
1.000000 1.000000 0.000000
1.000000 1.000000 0.000000
1.000000 1.000000 0.000000
1.000000 1.000000 0.000000
1.000000 1.000000 0.000000
1.000000 1.000000 0.000000
0.150000 0.020000 0.040625
0.237500 0.020000 0.040625
0.325000 0.020000 0.040625
0.412500 0.020000 0.040625
0.500000 0.020000 0.040625
0.587500 0.020000 0.040625
0.675000 0.020000 0.040625
0.762500 0.020000 0.040625
0.850000 0.020000 0.040625
0.937500 0.020000 0.040625
1.000000 0.020000 0.040625
1.000000 0.020000 0.040625
1.000000 0.020000 0.040625
1.000000 0.020000 0.040625
1.000000 0.020000 0.040625
1.000000 0.020000 0.040625
1.000000 0.020000 0.040625
0.150000 0.085625 0.040625
