app/src/main/assets/luts/warm_honey.cube
# ApexStudio filter: warm_honey
LUT_3D_SIZE 5
DOMAIN_MIN 0.0 0.0 0.0
DOMAIN_MAX 1.0 1.0 1.0
0.052500 0.000000 0.000000
0.302500 0.000000 0.000000
0.552500 0.000000 0.000000
0.802500 0.000000 0.000000
1.000000 0.000000 0.000000
0.052500 0.232500 0.000000
0.302500 0.232500 0.000000
0.552500 0.232500 0.000000
0.802500 0.232500 0.000000
1.000000 0.232500 0.000000
0.052500 0.482500 0.000000
0.302500 0.482500 0.000000
0.552500 0.482500 0.000000
0.802500 0.482500 0.000000
1.000000 0.482500 0.000000
0.052500 0.732500 0.000000
0.302500 0.732500 0.000000
0.552500 0.732500 0.000000
0.802500 0.732500 0.000000
1.000000 0.732500 0.000000
0.052500 0.982500 0.000000
0.302500 0.982500 0.000000
0.552500 0.982500 0.000000
0.802500 0.982500 0.000000
1.000000 0.982500 0.000000
0.052500 0.000000 0.197500
0.302500 0.000000 0.197500
0.552500 0.000000 0.197500
0.802500 0.000000 0.197500
1.000000 0.000000 0.197500
0.052500 0.232500 0.197500
0.302500 0.232500 0.197500
0.552500 0.232500 0.197500
0.802500 0.232500 0.197500
1.000000 0.232500 0.197500
0.052500 0.482500 0.197500
0.302500 0.482500 0.197500
0.552500 0.482500 0.197500
0.802500 0.482500 0.197500
1.000000 0.482500 0.197500
0.052500 0.732500 0.197500
0.302500 0.732500 0.197500
0.552500 0.732500 0.197500
0.802500 0.732500 0.197500
1.000000 0.732500 0.197500
0.052500 0.982500 0.197500
0.302500 0.982500 0.197500
0.552500 0.982500 0.197500
0.802500 0.982500 0.197500
1.000000 0.982500 0.197500
0.052500 0.000000 0.447500
0.302500 0.000000 0.447500
0.552500 0.000000 0.447500
0.802500 0.000000 0.447500
1.000000 0.000000 0.447500
0.052500 0.232500 0.447500
0.302500 0.232500 0.447500
0.552500 0.232500 0.447500
0.802500 0.232500 0.447500
1.000000 0.232500 0.447500
0.052500 0.482500 0.447500
0.302500 0.482500 0.447500
0.552500 0.482500 0.447500
0.802500 0.482500 0.447500
1.000000 0.482500 0.447500
0.052500 0.732500 0.447500
0.302500 0.732500 0.447500
0.552500 0.732500 0.447500
0.802500 0.732500 0.447500
1.000000 0.732500 0.447500
0.052500 0.982500 0.447500
0.302500 0.982500 0.447500
0.552500 0.982500 0.447500
0.802500 0.982500 0.447500
1.000000 0.982500 0.447500
0.052500 0.000000 0.697500
0.302500 0.000000 0.697500
0.552500 0.000000 0.697500
0.802500 0.000000 0.697500
1.000000 0.000000 0.697500
0.052500 0.232500 0.697500
0.302500 0.232500 0.697500
0.552500 0.232500 0.697500
0.802500 0.232500 0.697500
1.000000 0.232500 0.697500
0.052500 0.482500 0.697500
0.302500 0.482500 0.697500
0.552500 0.482500 0.697500
0.802500 0.482500 0.697500
1.000000 0.482500 0.697500
0.052500 0.732500 0.697500
0.302500 0.732500 0.697500
0.552500 0.732500 0.697500
0.802500 0.732500 0.697500
1.000000 0.732500 0.697500
0.052500 0.982500 0.697500
0.302500 0.982500 0.697500
0.552500 0.982500 0.697500
0.802500 0.982500 0.697500
1.000000 0.982500 0.697500
0.052500 0.000000 0.947500
0.302500 0.000000 0.947500
0.552500 0.000000 0.947500
0.802500 0.000000 0.947500
1.000000 0.000000 0.947500
0.052500 0.232500 0.947500
0.302500 0.232500 0.947500
0.552500 0.232500 0.947500
0.802500 0.232500 0.947500
1.000000 0.232500 0.947500
0.052500 0.482500 0.947500
0.302500 0.482500 0.947500
0.552500 0.482500 0.947500
0.802500 0.482500 0.947500
1.000000 0.482500 0.947500
0.052500 0.732500 0.947500
0.302500 0.732500 0.947500
0.552500 0.732500 0.947500
0.802500 0.732500 0.947500
1.000000 0.732500 0.947500
0.052500 0.982500 0.947500
0.302500 0.982500 0.947500
0.552500 0.982500 0.947500
0.802500 0.982500 0.947500
1.000000 0.982500 0.947500
