app/src/main/assets/luts/warm_honey.cube
# ApexStudio filter: warm_honey
LUT_3D_SIZE 17
DOMAIN_MIN 0.0 0.0 0.0
DOMAIN_MAX 1.0 1.0 1.0
0.052500 0.000000 0.000000
0.115000 0.000000 0.000000
0.177500 0.000000 0.000000
0.240000 0.000000 0.000000
0.302500 0.000000 0.000000
0.365000 0.000000 0.000000
0.427500 0.000000 0.000000
0.490000 0.000000 0.000000
0.552500 0.000000 0.000000
0.615000 0.000000 0.000000
0.677500 0.000000 0.000000
0.740000 0.000000 0.000000
0.802500 0.000000 0.000000
0.865000 0.000000 0.000000
0.927500 0.000000 0.000000
0.990000 0.000000 0.000000
1.000000 0.000000 0.000000
0.052500 0.045000 0.000000
0.115000 0.045000 0.000000
0.177500 0.045000 0.000000
0.240000 0.045000 0.000000
0.302500 0.045000 0.000000
0.365000 0.045000 0.000000
0.427500 0.045000 0.000000
0.490000 0.045000 0.000000
0.552500 0.045000 0.000000
0.615000 0.045000 0.000000
0.677500 0.045000 0.000000
0.740000 0.045000 0.000000
0.802500 0.045000 0.000000
0.865000 0.045000 0.000000
0.927500 0.045000 0.000000
0.990000 0.045000 0.000000
1.000000 0.045000 0.000000
0.052500 0.107500 0.000000
0.115000 0.107500 0.000000
0.177500 0.107500 0.000000
0.240000 0.107500 0.000000
0.302500 0.107500 0.000000
0.365000 0.107500 0.000000
0.427500 0.107500 0.000000
0.490000 0.107500 0.000000
0.552500 0.107500 0.000000
0.615000 0.107500 0.000000
0.677500 0.107500 0.000000
0.740000 0.107500 0.000000
0.802500 0.107500 0.000000
0.865000 0.107500 0.000000
0.927500 0.107500 0.000000
0.990000 0.107500 0.000000
1.000000 0.107500 0.000000
0.052500 0.170000 0.000000
0.115000 0.170000 0.000000
0.177500 0.170000 0.000000
0.240000 0.170000 0.000000
0.302500 0.170000 0.000000
0.365000 0.170000 0.000000
0.427500 0.170000 0.000000
0.490000 0.170000 0.000000
0.552500 0.170000 0.000000
0.615000 0.170000 0.000000
0.677500 0.170000 0.000000
0.740000 0.170000 0.000000
0.802500 0.170000 0.000000
0.865000 0.170000 0.000000
0.927500 0.170000 0.000000
0.990000 0.170000 0.000000
1.000000 0.170000 0.000000
0.052500 0.232500 0.000000
0.115000 0.232500 0.000000
0.177500 0.232500 0.000000
0.240000 0.232500 0.000000
0.302500 0.232500 0.000000
0.365000 0.232500 0.000000
0.427500 0.232500 0.000000
0.490000 0.232500 0.000000
0.552500 0.232500 0.000000
0.615000 0.232500 0.000000
0.677500 0.232500 0.000000
0.740000 0.232500 0.000000
0.802500 0.232500 0.000000
0.865000 0.232500 0.000000
0.927500 0.232500 0.000000
0.990000 0.232500 0.000000
1.000000 0.232500 0.000000
0.052500 0.295000 0.000000
0.115000 0.295000 0.000000
0.177500 0.295000 0.000000
0.240000 0.295000 0.000000
0.302500 0.295000 0.000000
0.365000 0.295000 0.000000
0.427500 0.295000 0.000000
0.490000 0.295000 0.000000
0.552500 0.295000 0.000000
0.615000 0.295000 0.000000
0.677500 0.295000 0.000000
0.740000 0.295000 0.000000
0.802500 0.295000 0.000000
0.865000 0.295000 0.000000
0.927500 0.295000 0.000000
0.990000 0.295000 0.000000
1.000000 0.295000 0.000000
0.052500 0.357500 0.000000
0.115000 0.357500 0.000000
0.177500 0.357500 0.000000
0.240000 0.357500 0.000000
0.302500 0.357500 0.000000
0.365000 0.357500 0.000000
0.427500 0.357500 0.000000
0.490000 0.357500 0.000000
0.552500 0.357500 0.000000
0.615000 0.357500 0.000000
0.677500 0.357500 0.000000
0.740000 0.357500 0.000000
0.802500 0.357500 0.000000
0.865000 0.357500 0.000000
0.927500 0.357500 0.000000
0.990000 0.357500 0.000000
1.000000 0.357500 0.000000
0.052500 0.420000 0.000000
0.115000 0.420000 0.000000
0.177500 0.420000 0.000000
0.240000 0.420000 0.000000
0.302500 0.420000 0.000000
0.365000 0.420000 0.000000
0.427500 0.420000 0.000000
0.490000 0.420000 0.000000
0.552500 0.420000 0.000000
0.615000 0.420000 0.000000
0.677500 0.420000 0.000000
0.740000 0.420000 0.000000
0.802500 0.420000 0.000000
0.865000 0.420000 0.000000
0.927500 0.420000 0.000000
0.990000 0.420000 0.000000
1.000000 0.420000 0.000000
0.052500 0.482500 0.000000
0.115000 0.482500 0.000000
0.177500 0.482500 0.000000
0.240000 0.482500 0.000000
0.302500 0.482500 0.000000
0.365000 0.482500 0.000000
0.427500 0.482500 0.000000
0.490000 0.482500 0.000000
0.552500 0.482500 0.000000
0.615000 0.482500 0.000000
0.677500 0.482500 0.000000
0.740000 0.482500 0.000000
0.802500 0.482500 0.000000
0.865000 0.482500 0.000000
0.927500 0.482500 0.000000
0.990000 0.482500 0.000000
1.000000 0.482500 0.000000
0.052500 0.545000 0.000000
0.115000 0.545000 0.000000
0.177500 0.545000 0.000000
0.240000 0.545000 0.000000
0.302500 0.545000 0.000000
0.365000 0.545000 0.000000
0.427500 0.545000 0.000000
0.490000 0.545000 0.000000
0.552500 0.545000 0.000000
0.615000 0.545000 0.000000
0.677500 0.545000 0.000000
0.740000 0.545000 0.000000
0.802500 0.545000 0.000000
0.865000 0.545000 0.000000
0.927500 0.545000 0.000000
0.990000 0.545000 0.000000
1.000000 0.545000 0.000000
0.052500 0.607500 0.000000
0.115000 0.607500 0.000000
0.177500 0.607500 0.000000
0.240000 0.607500 0.000000
0.302500 0.607500 0.000000
0.365000 0.607500 0.000000
0.427500 0.607500 0.000000
0.490000 0.607500 0.000000
0.552500 0.607500 0.000000
0.615000 0.607500 0.000000
0.677500 0.607500 0.000000
0.740000 0.607500 0.000000
0.802500 0.607500 0.000000
0.865000 0.607500 0.000000
0.927500 0.607500 0.000000
0.990000 0.607500 0.000000
1.000000 0.607500 0.000000
0.052500 0.670000 0.000000
0.115000 0.670000 0.000000
0.177500 0.670000 0.000000
0.240000 0.670000 0.000000
0.302500 0.670000 0.000000
0.365000 0.670000 0.000000
0.427500 0.670000 0.000000
0.490000 0.670000 0.000000
0.552500 0.670000 0.000000
0.615000 0.670000 0.000000
0.677500 0.670000 0.000000
0.740000 0.670000 0.000000
0.802500 0.670000 0.000000
0.865000 0.670000 0.000000
0.927500 0.670000 0.000000
0.990000 0.670000 0.000000
1.000000 0.670000 0.000000
0.052500 0.732500 0.000000
0.115000 0.732500 0.000000
0.177500 0.732500 0.000000
0.240000 0.732500 0.000000
0.302500 0.732500 0.000000
0.365000 0.732500 0.000000
0.427500 0.732500 0.000000
0.490000 0.732500 0.000000
0.552500 0.732500 0.000000
0.615000 0.732500 0.000000
0.677500 0.732500 0.000000
0.740000 0.732500 0.000000
0.802500 0.732500 0.000000
0.865000 0.732500 0.000000
0.927500 0.732500 0.000000
0.990000 0.732500 0.000000
1.000000 0.732500 0.000000
0.052500 0.795000 0.000000
0.115000 0.795000 0.000000
0.177500 0.795000 0.000000
0.240000 0.795000 0.000000
0.302500 0.795000 0.000000
0.365000 0.795000 0.000000
0.427500 0.795000 0.000000
0.490000 0.795000 0.000000
0.552500 0.795000 0.000000
0.615000 0.795000 0.000000
0.677500 0.795000 0.000000
0.740000 0.795000 0.000000
0.802500 0.795000 0.000000
0.865000 0.795000 0.000000
0.927500 0.795000 0.000000
0.990000 0.795000 0.000000
1.000000 0.795000 0.000000
0.052500 0.857500 0.000000
0.115000 0.857500 0.000000
0.177500 0.857500 0.000000
0.240000 0.857500 0.000000
0.302500 0.857500 0.000000
0.365000 0.857500 0.000000
0.427500 0.857500 0.000000
0.490000 0.857500 0.000000
0.552500 0.857500 0.000000
0.615000 0.857500 0.000000
0.677500 0.857500 0.000000
0.740000 0.857500 0.000000
0.802500 0.857500 0.000000
0.865000 0.857500 0.000000
0.927500 0.857500 0.000000
0.990000 0.857500 0.000000
1.000000 0.857500 0.000000
0.052500 0.920000 0.000000
0.115000 0.920000 0.000000
0.177500 0.920000 0.000000
0.240000 0.920000 0.000000
0.302500 0.920000 0.000000
0.365000 0.920000 0.000000
0.427500 0.920000 0.000000
0.490000 0.920000 0.000000
0.552500 0.920000 0.000000
0.615000 0.920000 0.000000
0.677500 0.920000 0.000000
0.740000 0.920000 0.000000
0.802500 0.920000 0.000000
0.865000 0.920000 0.000000
0.927500 0.920000 0.000000
0.990000 0.920000 0.000000
1.000000 0.920000 0.000000
0.052500 0.982500 0.000000
0.115000 0.982500 0.000000
0.177500 0.982500 0.000000
0.240000 0.982500 0.000000
0.302500 0.982500 0.000000
0.365000 0.982500 0.000000
0.427500 0.982500 0.000000
0.490000 0.982500 0.000000
0.552500 0.982500 0.000000
0.615000 0.982500 0.000000
0.677500 0.982500 0.000000
0.740000 0.982500 0.000000
0.802500 0.982500 0.000000
0.865000 0.982500 0.000000
0.927500 0.982500 0.000000
0.990000 0.982500 0.000000
1.000000 0.982500 0.000000
0.052500 0.000000 0.010000
0.115000 0.000000 0.010000
0.177500 0.000000 0.010000
0.240000 0.000000 0.010000
0.302500 0.000000 0.010000
0.365000 0.000000 0.010000
0.427500 0.000000 0.010000
0.490000 0.000000 0.010000
0.552500 0.000000 0.010000
0.615000 0.000000 0.010000
0.677500 0.000000 0.010000
0.740000 0.000000 0.010000
0.802500 0.000000 0.010000
0.865000 0.000000 0.010000
0.927500 0.000000 0.010000
0.990000 0.000000 0.010000
1.000000 0.000000 0.010000
0.052500 0.045000 0.010000
0.115000 0.045000 0.010000
0.177500 0.045000 0.010000
0.240000 0.045000 0.010000
0.302500 0.045000 0.010000
0.365000 0.045000 0.010000
0.427500 0.045000 0.010000
0.490000 0.045000 0.010000
0.552500 0.045000 0.010000
0.615000 0.045000 0.010000
0.677500 0.045000 0.010000
0.740000 0.045000 0.010000
0.802500 0.045000 0.010000
0.865000 0.045000 0.010000
0.927500 0.045000 0.010000
0.990000 0.045000 0.010000
1.000000 0.045000 0.010000
0.052500 0.107500 0.010000
0.115000 0.107500 0.010000
0.177500 0.107500 0.010000
0.240000 0.107500 0.010000
0.302500 0.107500 0.010000
0.365000 0.107500 0.010000
0.427500 0.107500 0.010000
0.490000 0.107500 0.010000
0.552500 0.107500 0.010000
0.615000 0.107500 0.010000
0.677500 0.107500 0.010000
0.740000 0.107500 0.010000
0.802500 0.107500 0.010000
0.865000 0.107500 0.010000
0.927500 0.107500 0.010000
0.990000 0.107500 0.010000
1.000000 0.107500 0.010000
0.052500 0.170000 0.010000
0.115000 0.170000 0.010000
0.177500 0.170000 0.010000
0.240000 0.170000 0.010000
0.302500 0.170000 0.010000
0.365000 0.170000 0.010000
0.427500 0.170000 0.010000
0.490000 0.170000 0.010000
0.552500 0.170000 0.010000
0.615000 0.170000 0.010000
0.677500 0.170000 0.010000
0.740000 0.170000 0.010000
0.802500 0.170000 0.010000
0.865000 0.170000 0.010000
0.927500 0.170000 0.010000
0.990000 0.170000 0.010000
1.000000 0.170000 0.010000
0.052500 0.232500 0.010000
0.115000 0.232500 0.010000
0.177500 0.232500 0.010000
0.240000 0.232500 0.010000
0.302500 0.232500 0.010000
0.365000 0.232500 0.010000
0.427500 0.232500 0.010000
0.490000 0.232500 0.010000
0.552500 0.232500 0.010000
0.615000 0.232500 0.010000
0.677500 0.232500 0.010000
0.740000 0.232500 0.010000
0.802500 0.232500 0.010000
0.865000 0.232500 0.010000
0.927500 0.232500 0.010000
0.990000 0.232500 0.010000
1.000000 0.232500 0.010000
0.052500 0.295000 0.010000
0.115000 0.295000 0.010000
0.177500 0.295000 0.010000
0.240000 0.295000 0.010000
0.302500 0.295000 0.010000
0.365000 0.295000 0.010000
0.427500 0.295000 0.010000
0.490000 0.295000 0.010000
0.552500 0.295000 0.010000
0.615000 0.295000 0.010000
0.677500 0.295000 0.010000
0.740000 0.295000 0.010000
0.802500 0.295000 0.010000
0.865000 0.295000 0.010000
0.927500 0.295000 0.010000
0.990000 0.295000 0.010000
1.000000 0.295000 0.010000
0.052500 0.357500 0.010000
0.115000 0.357500 0.010000
0.177500 0.357500 0.010000
0.240000 0.357500 0.010000
0.302500 0.357500 0.010000
0.365000 0.357500 0.010000
0.427500 0.357500 0.010000
0.490000 0.357500 0.010000
0.552500 0.357500 0.010000
0.615000 0.357500 0.010000
0.677500 0.357500 0.010000
0.740000 0.357500 0.010000
0.802500 0.357500 0.010000
0.865000 0.357500 0.010000
0.927500 0.357500 0.010000
0.990000 0.357500 0.010000
1.000000 0.357500 0.010000
0.052500 0.420000 0.010000
0.115000 0.420000 0.010000
0.177500 0.420000 0.010000
0.240000 0.420000 0.010000
0.302500 0.420000 0.010000
0.365000 0.420000 0.010000
0.427500 0.420000 0.010000
0.490000 0.420000 0.010000
0.552500 0.420000 0.010000
0.615000 0.420000 0.010000
0.677500 0.420000 0.010000
0.740000 0.420000 0.010000
0.802500 0.420000 0.010000
0.865000 0.420000 0.010000
0.927500 0.420000 0.010000
0.990000 0.420000 0.010000
1.000000 0.420000 0.010000
0.052500 0.482500 0.010000
0.115000 0.482500 0.010000
0.177500 0.482500 0.010000
0.240000 0.482500 0.010000
0.302500 0.482500 0.010000
0.365000 0.482500 0.010000
0.427500 0.482500 0.010000
0.490000 0.482500 0.010000
0.552500 0.482500 0.010000
0.615000 0.482500 0.010000
0.677500 0.482500 0.010000
0.740000 0.482500 0.010000
0.802500 0.482500 0.010000
0.865000 0.482500 0.010000
0.927500 0.482500 0.010000
0.990000 0.482500 0.010000
1.000000 0.482500 0.010000
0.052500 0.545000 0.010000
0.115000 0.545000 0.010000
0.177500 0.545000 0.010000
0.240000 0.545000 0.010000
0.302500 0.545000 0.010000
0.365000 0.545000 0.010000
0.427500 0.545000 0.010000
0.490000 0.545000 0.010000
0.552500 0.545000 0.010000
0.615000 0.545000 0.010000
0.677500 0.545000 0.010000
0.740000 0.545000 0.010000
0.802500 0.545000 0.010000
0.865000 0.545000 0.010000
0.927500 0.545000 0.010000
0.990000 0.545000 0.010000
1.000000 0.545000 0.010000
0.052500 0.607500 0.010000
0.115000 0.607500 0.010000
0.177500 0.607500 0.010000
0.240000 0.607500 0.010000
0.302500 0.607500 0.010000
0.365000 0.607500 0.010000
0.427500 0.607500 0.010000
0.490000 0.607500 0.010000
0.552500 0.607500 0.010000
0.615000 0.607500 0.010000
0.677500 0.607500 0.010000
0.740000 0.607500 0.010000
0.802500 0.607500 0.010000
0.865000 0.607500 0.010000
0.927500 0.607500 0.010000
0.990000 0.607500 0.010000
1.000000 0.607500 0.010000
0.052500 0.670000 0.010000
0.115000 0.670000 0.010000
0.177500 0.670000 0.010000
0.240000 0.670000 0.010000
0.302500 0.670000 0.010000
0.365000 0.670000 0.010000
0.427500 0.670000 0.010000
0.490000 0.670000 0.010000
0.552500 0.670000 0.010000
0.615000 0.670000 0.010000
0.677500 0.670000 0.010000
0.740000 0.670000 0.010000
0.802500 0.670000 0.010000
0.865000 0.670000 0.010000
0.927500 0.670000 0.010000
0.990000 0.670000 0.010000
1.000000 0.670000 0.010000
0.052500 0.732500 0.010000
0.115000 0.732500 0.010000
0.177500 0.732500 0.010000
0.240000 0.732500 0.010000
0.302500 0.732500 0.010000
0.365000 0.732500 0.010000
0.427500 0.732500 0.010000
0.490000 0.732500 0.010000
0.552500 0.732500 0.010000
0.615000 0.732500 0.010000
0.677500 0.732500 0.010000
0.740000 0.732500 0.010000
0.802500 0.732500 0.010000
0.865000 0.732500 0.010000
0.927500 0.732500 0.010000
0.990000 0.732500 0.010000
1.000000 0.732500 0.010000
0.052500 0.795000 0.010000
0.115000 0.795000 0.010000
0.177500 0.795000 0.010000
0.240000 0.795000 0.010000
0.302500 0.795000 0.010000
0.365000 0.795000 0.010000
0.427500 0.795000 0.010000
0.490000 0.795000 0.010000
0.552500 0.795000 0.010000
0.615000 0.795000 0.010000
0.677500 0.795000 0.010000
0.740000 0.795000 0.010000
0.802500 0.795000 0.010000
0.865000 0.795000 0.010000
0.927500 0.795000 0.010000
0.990000 0.795000 0.010000
1.000000 0.795000 0.010000
0.052500 0.857500 0.010000
0.115000 0.857500 0.010000
0.177500 0.857500 0.010000
0.240000 0.857500 0.010000
0.302500 0.857500 0.010000
0.365000 0.857500 0.010000
0.427500 0.857500 0.010000
0.490000 0.857500 0.010000
0.552500 0.857500 0.010000
0.615000 0.857500 0.010000
0.677500 0.857500 0.010000
0.740000 0.857500 0.010000
0.802500 0.857500 0.010000
0.865000 0.857500 0.010000
0.927500 0.857500 0.010000
0.990000 0.857500 0.010000
1.000000 0.857500 0.010000
0.052500 0.920000 0.010000
0.115000 0.920000 0.010000
0.177500 0.920000 0.010000
0.240000 0.920000 0.010000
0.302500 0.920000 0.010000
0.365000 0.920000 0.010000
0.427500 0.920000 0.010000
0.490000 0.920000 0.010000
0.552500 0.920000 0.010000
0.615000 0.920000 0.010000
0.677500 0.920000 0.010000
0.740000 0.920000 0.010000
0.802500 0.920000 0.010000
0.865000 0.920000 0.010000
0.927500 0.920000 0.010000
0.990000 0.920000 0.010000
1.000000 0.920000 0.010000
0.052500 0.982500 0.010000
0.115000 0.982500 0.010000
0.177500 0.982500 0.010000
0.240000 0.982500 0.010000
0.302500 0.982500 0.010000
0.365000 0.982500 0.010000
0.427500 0.982500 0.010000
0.490000 0.982500 0.010000
0.552500 0.982500 0.010000
0.615000 0.982500 0.010000
0.677500 0.982500 0.010000
0.740000 0.982500 0.010000
0.802500 0.982500 0.010000
0.865000 0.982500 0.010000
0.927500 0.982500 0.010000
0.990000 0.982500 0.010000
1.000000 0.982500 0.010000
0.052500 0.000000 0.072500
0.115000 0.000000 0.072500
0.177500 0.000000 0.072500
0.240000 0.000000 0.072500
0.302500 0.000000 0.072500
0.365000 0.000000 0.072500
0.427500 0.000000 0.072500
0.490000 0.000000 0.072500
0.552500 0.000000 0.072500
0.615000 0.000000 0.072500
0.677500 0.000000 0.072500
0.740000 0.000000 0.072500
0.802500 0.000000 0.072500
0.865000 0.000000 0.072500
0.927500 0.000000 0.072500
0.990000 0.000000 0.072500
1.000000 0.000000 0.072500
0.052500 0.045000 0.072500
0.115000 0.045000 0.072500
0.177500 0.045000 0.072500
0.240000 0.045000 0.072500
0.302500 0.045000 0.072500
0.365000 0.045000 0.072500
0.427500 0.045000 0.072500
0.490000 0.045000 0.072500
0.552500 0.045000 0.072500
0.615000 0.045000 0.072500
0.677500 0.045000 0.072500
0.740000 0.045000 0.072500
0.802500 0.045000 0.072500
0.865000 0.045000 0.072500
0.927500 0.045000 0.072500
0.990000 0.045000 0.072500
1.000000 0.045000 0.072500
0.052500 0.107500 0.072500
0.115000 0.107500 0.072500
0.177500 0.107500 0.072500
0.240000 0.107500 0.072500
0.302500 0.107500 0.072500
0.365000 0.107500 0.072500
0.427500 0.107500 0.072500
0.490000 0.107500 0.072500
0.552500 0.107500 0.072500
0.615000 0.107500 0.072500
0.677500 0.107500 0.072500
0.740000 0.107500 0.072500
0.802500 0.107500 0.072500
0.865000 0.107500 0.072500
0.927500 0.107500 0.072500
0.990000 0.107500 0.072500
1.000000 0.107500 0.072500
0.052500 0.170000 0.072500
0.115000 0.170000 0.072500
0.177500 0.170000 0.072500
0.240000 0.170000 0.072500
0.302500 0.170000 0.072500
0.365000 0.170000 0.072500
0.427500 0.170000 0.072500
0.490000 0.170000 0.072500
0.552500 0.170000 0.072500
0.615000 0.170000 0.072500
0.677500 0.170000 0.072500
0.740000 0.170000 0.072500
0.802500 0.170000 0.072500
0.865000 0.170000 0.072500
0.927500 0.170000 0.072500
0.990000 0.170000 0.072500
1.000000 0.170000 0.072500
0.052500 0.232500 0.072500
0.115000 0.232500 0.072500
0.177500 0.232500 0.072500
0.240000 0.232500 0.072500
0.302500 0.232500 0.072500
0.365000 0.232500 0.072500
0.427500 0.232500 0.072500
0.490000 0.232500 0.072500
0.552500 0.232500 0.072500
0.615000 0.232500 0.072500
0.677500 0.232500 0.072500
0.740000 0.232500 0.072500
0.802500 0.232500 0.072500
0.865000 0.232500 0.072500
0.927500 0.232500 0.072500
0.990000 0.232500 0.072500
1.000000 0.232500 0.072500
0.052500 0.295000 0.072500
0.115000 0.295000 0.072500
0.177500 0.295000 0.072500
0.240000 0.295000 0.072500
0.302500 0.295000 0.072500
0.365000 0.295000 0.072500
0.427500 0.295000 0.072500
0.490000 0.295000 0.072500
0.552500 0.295000 0.072500
0.615000 0.295000 0.072500
0.677500 0.295000 0.072500
0.740000 0.295000 0.072500
0.802500 0.295000 0.072500
0.865000 0.295000 0.072500
0.927500 0.295000 0.072500
0.990000 0.295000 0.072500
1.000000 0.295000 0.072500
0.052500 0.357500 0.072500
0.115000 0.357500 0.072500
0.177500 0.357500 0.072500
0.240000 0.357500 0.072500
0.302500 0.357500 0.072500
0.365000 0.357500 0.072500
0.427500 0.357500 0.072500
0.490000 0.357500 0.072500
0.552500 0.357500 0.072500
0.615000 0.357500 0.072500
0.677500 0.357500 0.072500
0.740000 0.357500 0.072500
0.802500 0.357500 0.072500
0.865000 0.357500 0.072500
0.927500 0.357500 0.072500
0.990000 0.357500 0.072500
1.000000 0.357500 0.072500
0.052500 0.420000 0.072500
0.115000 0.420000 0.072500
0.177500 0.420000 0.072500
0.240000 0.420000 0.072500
0.302500 0.420000 0.072500
0.365000 0.420000 0.072500
0.427500 0.420000 0.072500
0.490000 0.420000 0.072500
0.552500 0.420000 0.072500
0.615000 0.420000 0.072500
0.677500 0.420000 0.072500
0.740000 0.420000 0.072500
0.802500 0.420000 0.072500
0.865000 0.420000 0.072500
0.927500 0.420000 0.072500
0.990000 0.420000 0.072500
1.000000 0.420000 0.072500
0.052500 0.482500 0.072500
0.115000 0.482500 0.072500
0.177500 0.482500 0.072500
0.240000 0.482500 0.072500
0.302500 0.482500 0.072500
0.365000 0.482500 0.072500
0.427500 0.482500 0.072500
0.490000 0.482500 0.072500
0.552500 0.482500 0.072500
0.615000 0.482500 0.072500
0.677500 0.482500 0.072500
0.740000 0.482500 0.072500
0.802500 0.482500 0.072500
0.865000 0.482500 0.072500
0.927500 0.482500 0.072500
0.990000 0.482500 0.072500
1.000000 0.482500 0.072500
0.052500 0.545000 0.072500
0.115000 0.545000 0.072500
0.177500 0.545000 0.072500
0.240000 0.545000 0.072500
0.302500 0.545000 0.072500
0.365000 0.545000 0.072500
0.427500 0.545000 0.072500
0.490000 0.545000 0.072500
0.552500 0.545000 0.072500
0.615000 0.545000 0.072500
0.677500 0.545000 0.072500
0.740000 0.545000 0.072500
0.802500 0.545000 0.072500
0.865000 0.545000 0.072500
0.927500 0.545000 0.072500
0.990000 0.545000 0.072500
1.000000 0.545000 0.072500
0.052500 0.607500 0.072500
0.115000 0.607500 0.072500
0.177500 0.607500 0.072500
0.240000 0.607500 0.072500
0.302500 0.607500 0.072500
0.365000 0.607500 0.072500
0.427500 0.607500 0.072500
0.490000 0.607500 0.072500
0.552500 0.607500 0.072500
0.615000 0.607500 0.072500
0.677500 0.607500 0.072500
0.740000 0.607500 0.072500
0.802500 0.607500 0.072500
0.865000 0.607500 0.072500
0.927500 0.607500 0.072500
0.990000 0.607500 0.072500
1.000000 0.607500 0.072500
0.052500 0.670000 0.072500
0.115000 0.670000 0.072500
0.177500 0.670000 0.072500
0.240000 0.670000 0.072500
0.302500 0.670000 0.072500
0.365000 0.670000 0.072500
0.427500 0.670000 0.072500
0.490000 0.670000 0.072500
0.552500 0.670000 0.072500
0.615000 0.670000 0.072500
0.677500 0.670000 0.072500
0.740000 0.670000 0.072500
0.802500 0.670000 0.072500
0.865000 0.670000 0.072500
0.927500 0.670000 0.072500
0.990000 0.670000 0.072500
1.000000 0.670000 0.072500
0.052500 0.732500 0.072500
0.115000 0.732500 0.072500
0.177500 0.732500 0.072500
0.240000 0.732500 0.072500
0.302500 0.732500 0.072500
0.365000 0.732500 0.072500
0.427500 0.732500 0.072500
0.490000 0.732500 0.072500
0.552500 0.732500 0.072500
0.615000 0.732500 0.072500
0.677500 0.732500 0.072500
0.740000 0.732500 0.072500
0.802500 0.732500 0.072500
0.865000 0.732500 0.072500
0.927500 0.732500 0.072500
0.990000 0.732500 0.072500
1.000000 0.732500 0.072500
0.052500 0.795000 0.072500
0.115000 0.795000 0.072500
0.177500 0.795000 0.072500
0.240000 0.795000 0.072500
0.302500 0.795000 0.072500
0.365000 0.795000 0.072500
0.427500 0.795000 0.072500
0.490000 0.795000 0.072500
0.552500 0.795000 0.072500
0.615000 0.795000 0.072500
0.677500 0.795000 0.072500
0.740000 0.795000 0.072500
0.802500 0.795000 0.072500
0.865000 0.795000 0.072500
0.927500 0.795000 0.072500
0.990000 0.795000 0.072500
1.000000 0.795000 0.072500
0.052500 0.857500 0.072500
0.115000 0.857500 0.072500
0.177500 0.857500 0.072500
0.240000 0.857500 0.072500
0.302500 0.857500 0.072500
0.365000 0.857500 0.072500
0.427500 0.857500 0.072500
0.490000 0.857500 0.072500
0.552500 0.857500 0.072500
0.615000 0.857500 0.072500
0.677500 0.857500 0.072500
0.740000 0.857500 0.072500
0.802500 0.857500 0.072500
0.865000 0.857500 0.072500
0.927500 0.857500 0.072500
0.990000 0.857500 0.072500
1.000000 0.857500 0.072500
0.052500 0.920000 0.072500
0.115000 0.920000 0.072500
0.177500 0.920000 0.072500
0.240000 0.920000 0.072500
0.302500 0.920000 0.072500
0.365000 0.920000 0.072500
0.427500 0.920000 0.072500
0.490000 0.920000 0.072500
0.552500 0.920000 0.072500
0.615000 0.920000 0.072500
0.677500 0.920000 0.072500
0.740000 0.920000 0.072500
0.802500 0.920000 0.072500
0.865000 0.920000 0.072500
0.927500 0.920000 0.072500
0.990000 0.920000 0.072500
1.000000 0.920000 0.072500
0.052500 0.982500 0.072500
0.115000 0.982500 0.072500
0.177500 0.982500 0.072500
0.240000 0.982500 0.072500
0.302500 0.982500 0.072500
0.365000 0.982500 0.072500
0.427500 0.982500 0.072500
0.490000 0.982500 0.072500
0.552500 0.982500 0.072500
0.615000 0.982500 0.072500
0.677500 0.982500 0.072500
0.740000 0.982500 0.072500
0.802500 0.982500 0.072500
0.865000 0.982500 0.072500
0.927500 0.982500 0.072500
0.990000 0.982500 0.072500
1.000000 0.982500 0.072500
0.052500 0.000000 0.135000
0.115000 0.000000 0.135000
0.177500 0.000000 0.135000
0.240000 0.000000 0.135000
0.302500 0.000000 0.135000
0.365000 0.000000 0.135000
0.427500 0.000000 0.135000
0.490000 0.000000 0.135000
0.552500 0.000000 0.135000
0.615000 0.000000 0.135000
0.677500 0.000000 0.135000
0.740000 0.000000 0.135000
0.802500 0.000000 0.135000
0.865000 0.000000 0.135000
0.927500 0.000000 0.135000
0.990000 0.000000 0.135000
1.000000 0.000000 0.135000
0.052500 0.045000 0.135000
